/* XPM */
static char *b107089454314e70cf4108ef8433c343G9jXWxqe1v5Q7IYB[] = {
/* columns rows colors chars-per-pixel */
"275 183 256 2 ",
"   c #160B03",
".  c #1C130A",
"X  c #120C09",
"o  c #26180B",
"O  c #271C14",
"+  c #2F1B0C",
"@  c #2C241C",
"#  c #2A2217",
"$  c #35271A",
"%  c #362712",
"&  c #2C2723",
"*  c #342B23",
"=  c #3A2D23",
"-  c #352C28",
";  c #3C332C",
":  c #3B3227",
">  c #3C3834",
",  c #342F2F",
"<  c gray13",
"1  c #44301C",
"2  c #42352B",
"3  c #4B3B2C",
"4  c #453728",
"5  c #443B34",
"6  c #4B3D33",
"7  c #443C39",
"8  c #503A29",
"9  c #56432C",
"0  c #4C4235",
"q  c #4C433C",
"w  c #46433B",
"e  c #534334",
"r  c #52453B",
"t  c #5B4B3C",
"y  c #574939",
"u  c #574B37",
"i  c #634D39",
"p  c #67533C",
"a  c #654C2E",
"s  c #4C4542",
"d  c #4A4946",
"f  c #544B44",
"g  c #5B4D43",
"h  c #534D4A",
"j  c #554A46",
"k  c #55524C",
"l  c #5C534C",
"z  c #5B5246",
"x  c #555453",
"c  c #5B5552",
"v  c #5D5A54",
"b  c #5C5C5B",
"n  c #56575A",
"m  c #4E5053",
"M  c #635344",
"N  c #63554B",
"B  c #645A4D",
"V  c #6B5B4C",
"C  c #6A5845",
"Z  c #725C48",
"A  c #645B53",
"S  c #6B5D53",
"D  c #635D5A",
"F  c #655A56",
"G  c #69564A",
"H  c #76634B",
"J  c #6C6155",
"K  c #65625D",
"L  c #6C635B",
"P  c #69655A",
"I  c #736354",
"U  c #73655B",
"Y  c #74695C",
"T  c #7B6B5C",
"R  c #7A6855",
"E  c #756955",
"W  c #5B5D62",
"Q  c #625E62",
"!  c #5D6366",
"~  c #646363",
"^  c #6B6562",
"/  c #6C6965",
"(  c #6C6C6B",
")  c #66676A",
"_  c #746B63",
"`  c #7B6D63",
"'  c #736D6B",
"]  c #756A65",
"[  c #7C7264",
"{  c #74726D",
"}  c #7C736B",
"|  c #79766A",
" . c #6B6D72",
".. c #6D7276",
"X. c #747473",
"o. c #7B7573",
"O. c #7C7A75",
"+. c #7C7B7B",
"@. c #75777A",
"#. c #716F6F",
"$. c #5D615C",
"%. c #404041",
"&. c #836D59",
"*. c #86735C",
"=. c #8B7155",
"-. c #837464",
";. c #83756B",
":. c #847A6D",
">. c #8B7B6C",
",. c #8A7866",
"<. c #937C68",
"1. c #847B73",
"2. c #8B7D73",
"3. c #837D7B",
"4. c #867A77",
"5. c #89766B",
"6. c #7E817C",
"7. c #96836C",
"8. c #8C8275",
"9. c #84827C",
"0. c #8C837C",
"q. c #8A8679",
"w. c #938374",
"e. c #93857B",
"r. c #948A7D",
"t. c #9B8B7C",
"y. c #9A8875",
"u. c #958976",
"i. c #A38C78",
"p. c #A6937C",
"a. c #AA9175",
"s. c #96805F",
"d. c #7A7D82",
"f. c #6E7782",
"g. c #827E83",
"h. c #7D8387",
"j. c #7E8992",
"k. c #848483",
"l. c #8A8583",
"z. c #8C8A85",
"x. c #84858A",
"c. c #8C8B8B",
"v. c #86888B",
"b. c #948B83",
"n. c #9B8D83",
"m. c #938D8B",
"M. c #968A86",
"N. c #9C9285",
"B. c #94928D",
"V. c #9C938B",
"C. c #9A968A",
"Z. c #8C8D92",
"A. c #858C94",
"S. c #8D9297",
"D. c #949493",
"F. c #9B9593",
"G. c #9C9A94",
"H. c #93959A",
"J. c #9C9B9C",
"K. c #96989B",
"L. c #918F90",
"P. c #A39384",
"I. c #A3958B",
"U. c #A49A8C",
"Y. c #AB9B8C",
"T. c #A99886",
"R. c #B29C89",
"E. c #A49B93",
"W. c #AA9D93",
"Q. c #A39D9A",
"!. c #A59996",
"~. c #AB988D",
"^. c #9EA09D",
"/. c #B6A38C",
"(. c #ACA295",
"). c #A4A29C",
"_. c #ACA39C",
"`. c #AAA599",
"'. c #B3A394",
"]. c #B3A59B",
"[. c #B4AA9D",
"{. c #BBAB9C",
"}. c #BAA896",
"|. c #B3A996",
" X c #9B9DA2",
".X c #959BA3",
"XX c #8D98A2",
"oX c #A39EA3",
"OX c #9CA2A7",
"+X c #9DA8B2",
"@X c #A4A3A3",
"#X c #ABA5A2",
"$X c #ACAAA4",
"%X c #ACABAB",
"&X c #A5A7AA",
"*X c #B4ABA3",
"=X c #BAADA3",
"-X c #B3ADAA",
";X c #B6A9A6",
":X c #BCB2A4",
">X c #B4B2AC",
",X c #BCB3AB",
"<X c #B9B4A9",
"1X c #A9ACB3",
"2X c #ADB2B7",
"3X c #B4B3B3",
"4X c #BBB5B2",
"5X c #BCB9B4",
"6X c #BCBBBB",
"7X c #B5B6BA",
"8X c #B2AEB2",
"9X c #C2AD98",
"0X c #C6B29A",
"qX c #C3B3A4",
"wX c #C2B5AB",
"eX c #C4BAAC",
"rX c #CABAAA",
"tX c #C4BBB3",
"yX c #CABDB3",
"uX c #C3BDBA",
"iX c #C5B9B6",
"pX c #CDB9AA",
"aX c #BDC1BD",
"sX c #CCC1B5",
"dX c #C4C2BC",
"fX c #CCC3BB",
"gX c #C7C3B8",
"hX c #D2C5BB",
"jX c #D6C7B9",
"kX c #D3C4AF",
"lX c #E3CFBB",
"zX c #B9BCC3",
"xX c #AEB9C8",
"cX c #C3BEC2",
"vX c #BDC2C7",
"bX c #BBC4D2",
"nX c #C4C3C3",
"mX c #CBC5C2",
"MX c #CAC9C9",
"NX c #D4CBC3",
"BX c #D4CDCB",
"VX c #D8CBC4",
"CX c #DCD3CB",
"ZX c #D8D2C9",
"AX c #CACBD3",
"SX c #D8D6D6",
"DX c #CFD0D5",
"FX c #E4D6CA",
"GX c #E5DBD6",
"HX c #E9D6C7",
"JX c #EAE2DB",
"KX c #F3E6D9",
"LX c #D9DBE3",
"PX c #E9E6E6",
"IX c #F6F0EC",
"UX c #DFE0E5",
/* pixels */
"Q Q 3.G.o.' z.-XV.uXuX3.o.1.Q.4.Q.0.l.,X_.#X4XZXdX@XD.^.$.$.nXaXE.).r.L J B J P.-.R H &.*.=.=.=.,.-.V 0 g A L 0.q s V.l 5 _.;.q { O.>X9.h | f z B -.>.V R t.7.T.*.&.T E 7.*.T T *.e t I 7.p.y.P.}.t.Y./.P.V [ r N z B Y _ _ K C.h 0.C._ } 1.8.[ J | O.^ v 9.nXMXJ.3X%X3X&XzX2X2XzXzXxXAXzXxXvX1X+XxXbXAXLXAXLX6X3XCXBX;XW.e.` -.P.wX8.`.:.B r P ' Q.%XdX@XX.D.nX7XDXAXzX&XAXUXPXUXLXUXUXUXbXDX.Xv.-XG.4X).0.o.l.^ D D ^ v 9.O.D.8X3X@XJ.J.@X@Xc.z.+.F.).5XC.z.| N.N.I.C.b.r w w b k d n m d m > , k { B.`.(.I.(.t.:XN.t.sXVXtX,XCX1.(.hX!.1.6 6 & & @ O O @ - > & - > ",
"+.O.L.5X#XQ.Q.#Xl.F.mXuXQ._.!.5 ; ^ *X4XfX,X$XB.D b b ^ ( c.6X>X5XZXC.P q.I.-.V i I R Z p C p a }.w.g 2 l U l D { k s q 0 8.z A { K | G.A q q.N.q.t.E C H ,.p.&.7.{.8.y.,.7.7.p.*.u $ e T y.p.i.T.,./.Y.-.:XJ : r l B J U U 1.B.h 2.1._ r.).C.E.P (.G.l.&XMXSXSX7X6XnXnX6X XLXvXAXzXzXvX2XvXvXAXbXxXbXAXzXAXzXSXPXCXwXI.n.'.pXsXsXN.I (.I.(.`.C.*Xz.).B.+.J.&XJ.2X6XnX2XDXLXDX&XZ.vXAX2XUXLXDXPX{ K Q.4X5X5X9.>XO.h o.^ D 4X).5X3X3X6X@X@X>XD.k.^ B.>Xm.z._ | r.I.:.E.8.b.: s @ w > , m ! n @.W k.$.P uX,XZXsX:XjXCXyXVXJXyXW.W.0.N A L ,XE.1.f ; * & - - & & > > 7 s ",
"l.D.z.o.o.4XmX*X_.#XV.m.V.b.l q 5 o.fXuX*X_.E./ E.>X5X>XBXBX).G.ZXgXgX<X1.I.rXI $ 1 4 8 8 9 C R I y 2 = l | ' O.K k > 0 A 5 B `.uXz.>XG.0._ _ [ = [ C t R H V C &.C Z w.}.T.0XH 7.,.E t./.P.}.}.,.y.w.p.M 0 $ : 2 g l l P K q./ f L L | 1.1.q.gX[.dXZXMX6XnXAXzX-X@XDXnXAXIXzXDXMXxXzXzXvXMXA.j.LXbXzXvX7XvX7XPXSX!.;.} I T t.P.,.8.8.,.r.ZXIXgXz.G.#XG.6XAX4XSXDXnXDXSXPXzX1X.X@.v.LXSXvXDXPXLXSX-X4XnXGXCXdX-Xz.K D D ' O.{ GXnX%Xc.#X4XQ.-X@Xm.o.9.O.1.z.G.1.:.[ l q P ; ; w x , ( ! ....) ( ~ h v f A y V y y M t g t 4 = O O @ O o U A b._ h w h D l , O @ d x b ",
"D.l.z.z.Q.).-X$X-X1._ L q 1.b.E.b._.b.b.E._.V.$X,XtX,X>XuX*Xm._.`.N.:.r.J : M M M 3 1 4 4 1 1 4 o o $ ; l / ( O./ 9.> b.C.8._ 0.{ -X#X_ | > f y [ t t 4 3 C u 3 9 C Z T.|.p.*.H u u u T 7.T y.0XT.T.}.C T y o = 2 0 z l v K _ > = * 0 1.C.)._.tX5XB.@XnXDXLXSXzXPX3XSX7XzXvXPX.X&XzXLXDXLXvX2XvXAXLXAXAXUXMXSXSX3.l f N N V I I t.u.T.}.HXeXC.C.2._.fXPXPXGXIXSXSX6X@XMXDXAX3X6X3XMXPXDXnXAXDXPXSXBXMXSXBXF.5XF.D c.x D / 7 h D +.c o.m.F.c.{ F.B.9.P v 1.| L | 1.:.q.r.f - w 7 , > n x ! n +.~ #.X.v P f Y M M S V y 4 $ 2 g 4 t g r L h f 1.L b.F & @ - > , - c b ~ ",
"9./ o._ G.m._.Q.V.8.0.;.q U N r Y b.P 1.fX,X1.tXJXJXZXfX,XE.E.].[.T @ M :.t 3 $ r g t 3 4 2 O   : @ - w K X.) b ( +.x / O.l E.G.9.F._ K | _ l J N.[ e % u t $ V T Y Y.p.3 0 0 4 C M C V ,.t.u.[.P.P.qXt.w.y 2 r q 5 l D f K l s | z K P P r.hXZX5XnXSXMXnX2X XDXnXPX%XDXzXAXAXSXPXLXzX&XDX7XzX%XxXUXDXvXSXnX>XO.k L J V -.w.w.w.7.7.t.7.qX:X:XsXhXJXSXZXfXdX4X~ +.%X6X>Xv.J.3XAXD.$X3XDXSXSXSXBXPXAXPXPXSX$X6XnXv.c.d ~ x > +.O O x c ^ D c b.B._.8.O.| h w f 0 0 = .   l w v v w & ! > %.X.#.@.#.c c q.r J I V I V Z T I S I 6 J g 6 _ N _ L F . 7 D D x c ) X.n Q ) ",
"O.9.9.D z.B.V.[ b.} f 2 = @ o 6 1.C.*X*X,Xr.8.V.b.I.V.b.2.;.2.T S I Y -.B e V g 2 q z N B F S F A s k b ( 9.@.) ) +.n >XD.V.*XE.G.B.C.b.r | ; J r r 3 B M 3 V C u I t.4 u M z N ,.t.P.-.w.Y.t.Y.{.>.S qXE 4 z 5 f q A L k L c { h w 9.C.9.| 5XCXSXSXSX3X%XzXzXLXMXQ.dXSXLXDXSXPXSXLXSXAXSX&X8XK.&XAXDX7X3X5X^ h l L T -.y.,.R 7.i.7.}.pXpXY.{.}.n.(.E.0._.>X{ L { B.%XG.J.J.$X).B.$X3.c.-XuXmXNXGXPXSXBXBXBXPXnXMXJ.~ k d b D.' k j c ; - c L 0.z A > @ # #     . . * 5 ; , k w x $.n ~ W ) X.d k k K f z 0 e 4 T I V I V I ` g : g z z N l @ 7 w x D c b ( ) m ~  .X.",
"{ L L z.b.k @ ; J ; A C.n.0.=X_.,X(.E.| z r Y J J S B 3 2 e e g M ,.V e V z : 6 = $ * ; > ; 7 c ^ v { X.) X.@.X...+.k.3X@X3._.$X*X5XO.b._ J _ 6 B [ M J t.8.>.,.[ N.Y.,.0 T B V -.Y.I.,.y.t.t.{.w.I N.w.@ g 0 B z l D / { / K / $XC.$XmXgX>XaXNXGXnXUX7Xv.&X2X7X5XCXG.mXSX7X3XMXDXDXDXSX6X^.+.b 8XnXnX6X5X*X/ 1.B B T y.t.,.-.y./.pXpX/.Y.eXjX>.8.} _.Q.{ { _ L 9.b.#X).$XE._._.,X$X_.`.} _.:XO.+.DXSXPXSXSXPXAX%XnX@X> d X.+.) c q & = = O O . O @ @ @   O O o ; f & q w x d x d d n X.x ~ d s k | s 0 8.P.I p i Z R ,.-.I N 3 U t.r.Y B 5 . ; D ' #.#.o.x.L.x.d.d.x.",
"z.{ 5 l > > 0 E.A 1.C.C.[.W.wXE.eX<Xl r r.(.J B r 3 g 2 4 6 $ V e % $ $ + # @ $ # @ & & , %.%.> d d ( @.( @.@. .h.@.! @XdXmX$XG.uX*Xz.K r.l 8.r.: 0 B 6 0 V t M [ >.,.J -.T [ y.[ N.w.(.rXN.,.8.N 3 N y Y t q l z K v / D.{ b > { ).).C.G.>XE.B.dX%X3X&X6X2X .! c O.,XQ.MXMX3XDXnXAXDXDXv.&X$XBXBXSX5X>X*Xl f _ r.I.'.P.p.rXjX{.7.}.y.y.w.I -.>.` wXeXE.o.D 0.V.gX,Xm.b.G.tX).1.1.[.N.B l I.0.0.O.+.3XAXMXSXD.SXDX3XD.> > d d , O # @ O . O O O $ * O : @ = * w > 5 q k ^ K / h v ~ d +.s %.x ( v h / f :XN.'.t.>.Z M -.-.V 2.qXU.J o . o f _ l.3.3.l.c.L.L.x.d.A.S..X",
"@ & & * @ w 1.1.z } N.N.2.2.n.U.E.J f | | B 2 # 2 t g g 3 $ 6 t 4 + o + $ @ O O O . - > h ~ b ~ b c.m ( .. .A.@.+.x.m %XB.Q.tXtX*X_.gXV.b.N A _ L B } :.$ r t N ` `.8.8.U.U.U.I V M :.I.;.P.U.N.I.I.U.eX].2 w 6 f D { 9.k.c.v.O.X.z.D.$XB.G.).C.dXdX3X3XnXDX7Xc./ 0.tX*XF.-X#XmX8XcXD.X.B.>X#Xo.C.[.(.r.b.[ N.:Xt.:.t.rX{.T.|.Y.7.7.&.,.u M ,.-.t.Y _ F { Q.Q.uXSX5Xb.O.z.[.[.E.b.r.*XW.g : 8.:.l.@Xb d +.%XGXBX6X7XJ.X.> w > & * * @ O @ = * O ; : 5 q 7 ; ; 7 h h v ' / c D X.c v ~ ) o.b ) ~ d k w 5 $ N -.;.P.2.Y.'.Y.n.;.1.6 * o o O F ' ' ] 3.L.+.X.c.Z.Z.A.A.A.",
"X . O ; * . .   5 0 B [ :.Y L [ L r r z ; # @ ; $ $ O # $ # $ O % o o # * $ $ = 7 d x s s n m d n n 6.x.h...h.! @.#.~ AXdX).V.b.b.1.E.} A Y L 1.J B J F f g 5 t r.Y J t.W.[ J ,.N.[ 8.;.S ` 8.>.:.n.].wXC.; f A D c c X.m.+.~ ( b B.3X$X5X9.B.`.C.).5X5XQ.J.4XuXV.C.).b.' o.^ o.' z.+.#X).J.O.O.A e $ Y 8.-.V J z :.w.w.-.C M C E 7.7.&.7.,.>.I S L g 0.#Xb._.4XuX).$X,X).b.O.A N A L B f Y {.tXJX6X-XO.s @XIX-XMXdXdX).> d ~ s ; ; = # # = > > 5 q f l h k c c D v D { +.o.X.3.~ ( b 3.( X.~ K / k l w 5 r P.sXY.Y.~.wX].U   O = 5 O : L V.3.F.#Xm.G.m.g.L.D.Z.S.S.S.",
"> 7 - 7 w & @ @ . O @ # O @ : 5 5 $ * $ .   O $ @ $ O @ @ O $ O O # $ : 2 ; 7 s 7 c h %.%.n X.X.#.(  .) h...@.h.! X.K.MX-X0.1.} } 1._.8.= l 6 L r f f f _ F 6 B (.S } N.C.1.F r.1.S 1.[ } ;.r.;.W.0._ l r = w c / _ O.( b +.c.X.m F.#XdXF.z.B.ZXZX).m.V.G.*XuXdXQ.} } J _ l { B.-XnXG.#XJ.5X>XgXr.t.>.8.t 0 M Y [ 8.8.Y B [ N.,.H u ,.p.p.T ,.t.8.1.V.ZXQ.o.mXMXdX$XdXBX@Xl.o.k k z 2 5 8.hXhXfXtX3.).).z.Q.l.c $XCXCX>X7 d h h * 5 q 6 5 7 w s 7 j c k x D ^ D K ' k.c.v.+.X.o.3.#.D ( +.( ( b ~ d v h *   : l N W.(.r.g 6 O B j q l l.#XmXuX5X4XQ.G.F.m.g.' g.Z.Z.Z.",
"k ' K v K l j w O = ; $ O # # o O . O # O # @ . O * @ * @ O * * = : ; ; ; = - - x ( #.c.Z.d.v.d.c.OX) v.S.@.d.h.S.c.F.$X).*X(.C.V.} 1._ * z 2 2 5 q ; 2 h l A V.e.B } [ Y } J _ F q B l f q 2 O o   .   . = 6 l / ' ~ O.@XJ.6.k.& Q %XuXG.O.G.E.gXgX*Xb.1.0.E.:XJ [ A 0.A } o.G.*XBX5X$XdXZXmX(.Y.'.'.w.I V ,.V V -.u 0 8.8.z 4 u T R V R 8.[ ,X_.b.,XG.K Q.CXMX7X3X6X7X%X5X6X).Q.V.1.8.yXIXyXwXfXB.*XuX4Xz.' tXF.SXGXdXl h > 7 > w h h h x v x c ^ ' ' #.+.3.3.F.c.+.) ) X.k.l.v.k.c.+.g.b X.X.X.@.X.{ q 5 & o 2 o X o . r F l.Q.V._.NXuXtXuX*X-XuX%Xm.Q.k.^ Q.L.L.L.",
"h { / K D h h j l 5 ; 7 q 2 & @ . O - ; @ * - @ ; ; & - > ; > - * ; 6 j F / ' ( g.k.#.O.+.@.x.d.v.6.~ x.) ) H.S.) n { $X].,XI.N.r._ N r     ; 7 l L A _ q = . O O     .         O . . # O 5 ; : 2 : 5 = ; A c / ' c ( c.c.Z.Z.@.n c.-XQ.V.r.`.U.eXjXI.Y w.U.,.V y.Y.[.N.eXyXNXG.-XtX*X>XdX,X*X_.P.,.T M C I P.w.J t 4 e z Y q.8.C T P.'.P.].1.Y ` V.>XO.J.SX3.b ~ v. X8XMXAX7X-XBXtX*XV.E.,X,XVXyXyXSXZXmXJXGX_.*XtXCXZXF A D q D v h s k ^ o.o.#.X.3.k.g.+.g.x.X.k.c.x.d.k.L.J.%X#Xk.@Xm.l.( b ( ) x d , h q * q q j A D 4.;XBXBXGXuXuXMX#XF.Q.m.;X>XQ.Q.F.O.m.3.g.g.",
"~ ^ k d 7 - 7 A j q 5 5 5 ; ; : & & > 5 - ; w 7 5 w 7 w w w d s h c D D ^ ' ^ b X.k.3.+.k.L.Z.X.m $.@XOXH.+.( ..( { m.>X[.hXwX=XU 2 . o o . ; O q f : q O - ; - * = @ * $ @ ; @ : = * ; : h q l 6 q A A D 3.K K / D.D.X. .X.@.c.%.8XH.m.V.b.z J N.:Xu.t S ,.*.R 8.:XKXIXJXFXNXCXGXSXE.E.8.r.m.eX}.p.C p Z t.P.T e t 4 E <XsX{.[.t.P.t.[ 8.Y L r.*X*X$XG.).c.(  X7XAXzX7XAXnXvXIXSXZXJXyXQ.] N f _ A 4.*X0._ V.V.E.r.n.n.l l L l ^ ~ D v ^ +.3.o.+.O.g.v.g.@.@.g.+.+.k.k.v.J.6XSXSXcX@X6XmX-Xk.x ! m W x n x D s D #X_.F.uXmXuX-XoXoXg.l.!.3.l.o.-X-XfX4X#XtX4XG.m.m.m.",
"( ~ c c %., 7 7 7 A _ D l j 7 ; s 7 7 s w d l h 7 d s d d s k k v / o.X.o.+.+.o.#.X.#.b b @.+.@.Z.-XSX3X3XS.~ X.k.{ k ; 2 Y >.S o o O O $ O 5 ; * 5 @ ; & w j - @ w 2 ; 2 6 q ; 2 6 h l l J A L N _ _ L s P ' m.Q.9.v.@XK.d. .Q Q cX%X( Q.L z [ |.Y.y.,.*.p.{.pX{.Y t z Y e.e._.NXSX#X,X_.*Xr.2.4 ,.y.T.>.-.V e 4 t T :.Y [ 8.L Y.(.[.8.T 8.yX,XB.O.9.k.) x @.nXDXUXUXPXPXAX6XMXPXSXBXE.*X3.b.} r r.n.1.e.n.e.J ;.F g r g 6 f A v / X.+.3.k.+.( k.x.Z.Z.v.x.x.v.J.d.X.Z.8XcXnXMX@X#X8XQ.Q.#.l.k. .W  ...+.( o.^ ^ Q.M.-XmX4XF.F.7X%XoX%X#XF.4X3.#X-X#X3.3.).).Q.V.B.V.",
"~ / ' X.( ' +.D ' ^ ^ ' ^ h q q l s l D k h b b / K d b #.X.X.$.d ~ O.X.( X.X.O.b b @.X.X.@./ O.K.8X7XMX%X&XD.( k.o.{ h > o = o $ = : O * 2 2 2 @ q > ; 5 s l ; - 6 5 7 h w 7 h h l / F ^ L _ O.{ 3.O.m.l.Q.G.J.D.J.D.L.D.c.( m b 6X%XF.B._ z 8.8.t H 7.,.7././.U.N.B ;.0 ,Xb.yXC.1.B ;.:X=X:.e 9 9 9 Z w.H V V 2.:.B r J C.I.l [ Y B 0.8.V.gXSX4X3XJ.b x.AX2XzXAXAXAXDXLXPXSXMX4XmXuX9.,X9._.l.I.eX,X_.E.;.F ;.e.5 f l g 5 L h b X.k.k.+.d.d.@.@.k.v.g.d.x.x.d.8X@XJ.J.c.l.-XPX6X4XF.Q.F.Q.4XMXK.@.x m > b ' X.^ Q.F.4X;XBXuXz.!.cX4X8XMX;XuX#XQ -X#XO._.V.A 1.#X#X#X",
"+.X.( / ( ( ~ n ~ ) #.( b ) ~ d K / { D h ~ O.) X.) ) X.#.~ W ~ X.{ c.v.k.( +.h.v.S.( d.h.+.@XJ.nX7X8XvXMX6X8X@XD.+.~ d > > > & = $ 4 $ 0 : 5 5 q w w s s s d s D x n m m b c ~ / o.+.X.' g.D.J.L.v.X.v.H.Z.K.Z.J.L.K.X.c.h.+.~ > 3.F.0.;.} B N.M e t 9 &./.y.'.].*X` 1.l _ S Y.T V ,.R p.7.9 9 9 1 1 *.-.C Y r.r.| | 2.] S r ` (.z A r V.dXdXMXnXLXMXAXLXAXDXAXOX6XMXMX4X$X0.L V.:X,XfXCX>XB.z.uXZXJXgXN.E.r.B N B 6 N ;.= l s m W  .x.H.d.Z.v.v.Z.v.L.oX X@XnX6X4XMXBX4X-X-XQ.-X-X-XiXV.iXNXmXcXQ.J.4XF.X.O.D -XMX5XQ.uXuX#X-X,XjX;XZXb.l.#X#XJ.4XF.1.o.M.4.M.cXuX4X",
"J.x.+.k.v.d.X. .X.( h.X.@...h.#.+.o.9.B.c.+.+.+.+.X.@.k.v.c.A.c.L.^.D.L.@X%XK.H.x.Z.A. X2X7X7X&X^.7XSXnX6XAX7X&X&Xh.x.d d , %.k 3 $ 0 3 0 : r 0 f l l l ^ ^ D ( X.X.d.@. .X.X.d.@. .v. X%X@Xx.x.@.A.H.OXH.A.H.H.x.Z.&Xc.K.@.v.+.O.0 | b.n.z N B U y 4 >.qX}.{.qXn.F.9.A h 2 4 t e 8 R p 9 8 8 p a 8 H *.C J [.=X_.G.3.L M.` _ ,X1.O.,XO.$X3XSXSXUX6X1XzXDXLXDXDX@X6XG.V.8.8.:.B 4 r L I.mXJXPXMX5XdXb.NXGX{.U.t J V 2 = L w h , d ....S.Z.H.H.x.K.H.L.K.oXoXoX8XL.@X-X6XBXQ.z.Q.W.#XW.wXNXJXFXNXuXtXmXQ.F.).l.$X%XmX>X).!.B.4XNXW.y.yX,X8.G.^ z.-XuX#XmXmXI.4.V.-X#XoX",
"n x W X.@.( @.Z.K.c.+.Z.( h.+.k./ 3.O.D ~ z.@X&XD.D.D.c.x.v.v.x.k.6.6.k.! @.d. .x.zX%X7X%XK.MX7XSXMX@X$X%X$XnXdX3XX.D.X.X.~ m > f N z t J y r P A h K ' ^ o.l.+.v. .) ) @.Z.x.k.Z.k.L.H.K.K.v.K.x.h.H.J.H.A.h.Z.J.@X+.J.x.k.O.{ > 5 | NXe.} :.2.r . y y e ,.-.T W.V.n.B :.N z $ V H H p &.H p p 1 9 H &.T N.U._.} h ' o.] D [ 2.*XG.B.dXdXBX5XMX8X&XSXvX XAXDX2X%XNX`.z [ 8.rX[ T M J N.r.q.*XuX,X1.1.z B :XU.I '.;.N.:.F ; c v W @...d.X.Z.H.H.L.v.Z.D.L.H.-XcX%X@X-X6XQ.l.Q.mXGXuXVXyX=XwXNX_.iX#X#Xm.9.).$XG.z.{ { m.o.-XF.*XW.I.r.I.0.0.F.F.#Xz.!.MX4XyX,XV.M.g.3.",
"X.~ ) @.x.d.d.c.@.! +.@.x.) +.X.z.).G.c.@X@Xv.X.( k.Z.c.Z. X8X3X@XJ.@.v.1X7X X1X1X2X7XOXOXaX7X3Xc.9.5XBXBXmX3XPX-X).F.9.' { x P A 0 z L B l U P { l.o.' k.O.( +.g.Z.&X@XK.Z.+.d.X.x.D.K.K.K.J.Z.L.h.c.h.v.J.D.^.z.D.G.J.J.b { K D l w l r.b.r.U o 4 2 y V t t M F U _ t r 4 3 $ I C ,.y.*.&.p.H p C u -.-.*X8.*X0.B.F.4XiX,XW.fX*XmXmXCXBXdX&Xv.k.nXSXvX7XS.h.DXSX,X_ T N B I T I U.:X`.r.C.,X`.(.`.:X3 T -.{.sXsXe.r.J _ q 7 ^ ! ) d.x.S.@.d.d.H.Z.J.J.x.L.8X6XcX4X-X6Xz.Q.;XtXB.;XwXI.wX;XyXFXiXl.uXQ.{ G.F.$XB.D 7 w b.} _.} S M S 2.Q.Q.#XG.m.> o.mX;X,XU.Q.-X#XoX",
") )  . .) ) ( ..v.+.#.D.+.D.K.&XmX4X$X5X5Xc.k.3XK.@X&X@X1X7X6X3XAX3XvX7XJ.Z.1X1XH.7X X%X6XaXDX&X>XGXCXZX5X).5X-Xo.$X3.3.9.' s k 8.0._ _ 1.| v _ { K O.c.k.D.%X@Xv.x.c.+. .X.@.v.@X%Xx.c.Z.c. Xk.D.J.&Xk.k.&X#X#Xc.@Xz.4XV.o.' U h l $ o 6 $ : 5 2 6 y T >.w.P.-.n.e.[ V e 3 3 4 p I H T p.7.T.y.7.V B (.C.ZX_.).5X5X).-X_._._.fXF.nXmXSX6X>X5X%X6X3X%XnXvX8XvXnXZX:.T I &.e 9 I y.t.-.[ >.[ :.r.M M 9 M 1 {.{.pXY.g [ l f h D d @.) ..) ..~ @.x. .+.@XcXcXMXSXMX4XMXQ.k.Q.5X*X!._.F.;X].].].iXU.b.0.h A 3.O.0./ _ D ' 9.b.E.L :.yXW.n.*XGXBX_.' g.#XQ.F.Q.iX].;XtX4X-X",
") ..@.d.x.Z.K. Xc.X.k.+.c.k.%X@XB.#X4X5X3X@XJ.@X+.+.d.c.&X6X7X&XaXaX&Xv.1X&X XH.OXOX7XOX^.6X%X3XuXNXKXNXyXZX*XE.GXwXV.E.b.b.wXb._ P _ 9._ 9.z.9.z.F.v.k.D.v.+.c.Z.+.d.k.J.%XJ.K.@.x.+.J.J.k.K.D.m.+.z.).$X#XG.).).E._._.tX1._ 5 Y L 2 h 6 f : * = f g 4 Y y.Y t.U 3 $ % e V I e % 4 I >.S 3 R V M w.:XtX,XgX4XdXdX).,X5XF.1.Q.3.3.F.k.MX#X%X).5XG.MXAXMXnXnXUXSX8.Y I 8.&.'.<.}.P.kX{.p.'.:XP.T T R.7.7.qX/.,.e i R I.e.l.s s x ) d.v.Z.d.Z.d.d.K.1XDXPXPXSX8Xl.).4X6Xl.#X-XfXQ.;XuX;XV.iXiX=XiX2.;.;.L L r.b.r.z.[.)._.*Xb.=XyXyXsX].Q.l._ / o.#X-X_ F._.n.W.$X#XQ.F.",
") m d ! d.Z.x.d.d.c.J.7X@X3X&XG.>X%X).Q.3XMXJ.d +.h.Z.&X6XvXvX6XMXaX6X&XH.K. XA.6X7X XOX%X-X3X).*XfXgXfX=XE.=XwXCXC.*XGXn.r.hXE.b.-X).B.9.z.+.z.D.v.c.L.h.k.x.+.D.D.J.D.c.J.J.%XJ.J.@XD.X.b b +.{ x ~ *XfXE.V._.5X[._ F 5 J Y 1.1.A L 6 q 6 r * 5 q = J A : J z V t y 3 e V R t 3 y V -.N.V t M 8.,X_.B.BXSXdX5X).5XdXdXBXE.B.z.v l.&XF.J.k.B.X.MX).$XnXmXBXdXq.[ e M V ,.,.7.0XpX9XP.P.y.I V I }.7.{.p.,.Z 8 T I T N.*XJ.> s > n !  . .~ x.@.x.K.3X6XzXMXuX#XF.F.Q.ZXBXuX,XfXQ.*X;X!.V.n.;XiXjX;Xe.0.C.b.`.5Xr.q.b.V.E._ b.2.n.*X8.e.0.F.mX3.).^ ^ A B.b.e.2.S 4X;X#X",
"n ! d.v.@.! +.&XvX7X6X$XJ.^.#XB.Q.' O.>X4XD.X.~ ( +.K.3X7X2X7XMXMX3XH.%X7XzX&X&XOX%XMXAXMXdX5XfXtX].W.I.I.I.W.wX=Xr.;.wXU.N.2.I.O._.-X).o.B.G.).J.J.K.D.D.c.x.x.) ( v.D.D.D.k.k.+.v.nX%XD.c.b v { z.G.5X*Xq.q.1.} A $ $ * ` U Y [ Y _ _ A F 5 f F A f ; 2 A Y 6 t M y M y w.;.t 3 3 V -.r.V Y n.1.fXCXCX>X>XmXdXmX5X#X5X9.{ O.K k.+.( o.X.k.D.>X3XBX5XO.C.>XO.l V p e $ 4 e R *.,.I R >.&.V R Z 7./.Z p &.C R i T P.;.' 9.> b x ) W v.v.J.H.L.@Xx. XZ.X.o.c.#XMX5X6X#XBXmXmX!.4Xb.Q.2.;.;.b.;.n.=Xn.].[.*X_.8.E.C.1.b.[ A ` *XI.n.=X;._.F.m.l.z.o.D m.4X*Xe.g E.;X#X#X",
" .W d.h.n A.2XAXMXDX7X>X3X).).$X#XuXF.> > > b &X3X%X3X%XOX2XvX2X3X@XD.&X7X3X7X%XzX3X3X5X5X>X>XtX:.T G I M M g V N y g U W.t.W.=XV.l.K O.>XG./ X.^.c.k.6.X.k.D.h.+.l.K.k.+.+.+.J.k.m b 3X@X@X@XJ._.b.*X<X8._ _ r q B : 6 :.Y r J 0 A l A L | 1.A L D P s # - f f 4 3 I ` S J S B S }.n.[ :.Y :.E.uXSXF.-X-X-XMX#X>XB.{ O.9.6.9.F.J.D.+.c.X.c.$X-X>X,X5X4XG.| L Y R M t M V V -.w.V M I R V ,.p.>.&.&.R t R ,.T.i e B A O.l.> x ~ ! ..X. .@.H.J.Z.D.@Xk.~ k.#X$X%X-X$XCXG.l.dX,X*XwX$XW.].S N S 2.I.e.*XtX:XC.0.*XC.C.(.0.8.I.n.E.;.j S !.*XtXF.F.z.Q.-XF.iX,XU.e.Q.Q.Q.",
"W f.A...h.OX X&XAX6X@X-X>XG.).5X4X).$XQ.B.3XvX7XSX7X7XzX6XvXAXnXMX>X3X6X^.3XMXJ.BXnXdXmXfX*XC.r.V g M t V V ` ;.Y.[.W.e.qX'.>.I.uXuX#XG.Q.k.+.J.J.F.$X3X@XJ.J.D.k.+.+.+.X.+.k.( c.@.~ ( 3XAX@XJ.z._.(.| _.N.;.z 2 6 t 2 = 2 6 S 8.L / P | _ 0.C.9.{ / o.O.v w h f f [ 1._ _ F l :XeX} B } [ r.<X%XSXSXSXCX$X5Xm.| 9.O.K P z.).^.J.k.+.s K x B.9.q.E.[.).m.q.1.[ ,.I G I I e 3 V 2 : U P.>.M M I 7.C p H *.kX9 -.e N l A v 7 s x ! h.H.Z.x.c.c.d.J.v.D.J.G.-XmXuX-XK K ' B.4X*XfXQ.e.I.S ~.I.=X;.` ` ;.n.*X,XV._ P C.1.1.I.;.S F 2.;.4.E.-X4X#X3.m.B.4X,XFXW.=XV.E.E.Q.",
"f.j.A.f.+XOX.X2XvXnX3X>X#X#X4X#X-X-XF.D.G.6X3XnXMX7X7X6X7X7XnXAXaXnX7X3X3XdXSXmXuXBXCXtXb.:.U.jXjXjXjXrXsXyXjXsXyXyXrXI.}.jXY.=X*X*X#X#X#X).#X>Xz.).dXnX>X#X@XJ.D.J.+.k.B.X.+.k.k.K ( X.> B.B.).m.E.0.l V.| q * f ; 6 $ 0 U 0 6 | L | V.9.b./ z.{ v ^ +./ k b ' l.0.m.o.h q q l h 1._ l A 1.[.fX#XD.k.D.mXmXyX0.P P v K { X.^ k ) ( ) K > +.& > - > ; # . # : 2 2 : = o   @ 2 o 5 $ = g B t 3 $ 4 t t C 8.C w.e M ;.  O X , ~ v.d.v.Z.x.c.J.J.c.k.+.k.D.%XSXMXc.l.G.5X5XdX5Xb.1.V.V.U.b.].I.r.;.W.E.2.I.$X*X,XQ.GX<Xb._.W.` ;.e.2.W.#X_.uX#X4XF.-XG.fX*XNX` t 2.1.1.3.",
"f.f.S.XXOXH.&X7X+.D.@X$X$XdXZX*X>X#X#X@X).5X3X6X7X6X6X8X1X7X6X3XMXMX>X5XBXdXmXSXJXtXe.` ;.N.[.rXqXjXhXjXyXFXjXsXqX{.jXyXe.qXqX=XiX;X#XQ.E.#X#Xz.G.aXNX4X#X5XgX>X3XJ.@X@X+.+.J.c.z.+.J.k.{ b O.6XE.)._.C.L q 0 0 : r z t ;.;.4 0 L l | A 1.o.O.{ v l.X.k x d x L.k.{ o.k.F.#Xz.o.k L L P 0.[.)._ / h , q l | A r r f P 9.{ x h K d x d & k - ; X * @ @ @ o   . @ . @ # @ 7 5 - s , w w ; : 0 r 0 $ @ = o % N U = S J 1.j ' b b n  .@.h.v.OX3X%XD.@X7XMXBX6X3.{ Q.mXCXdX>X-X).E._.b.N.;.=X].wXn.=X=XiXeXhXuXtXFXKX,XV.Q.b.1.W.W.I.W.].U.#XmX#X#X@X).4X,X,XI.` Y : } } { ",
" .A..X1XOX1X&XK.@X@X-XnXuX5XfX-X).B.( v #X6X3XSX7X6X6X7XnXDXAX6XZX,X$XgXfXfXCXiXW.I.e.>.,.y./.qXwXhXeXwX].wX=X].FXwX=XwX8.].eX].,X#X_.b.1.V.*X).).5X<XV.C.<X5X$X).3X>Xm.c.G.z.6.9.k.( J.X.9.v ^ G.0.C.B._ | 1.J J _ A ` U.e.N g l L w l k 1.3.{ b / #.b m ~ +.#.S.Z.S.x.k.L.D.@X9.B.).V.| _ _ { { v 7 ; # : $ 2 l f f k K / ~ v ^ $.s w w K > f f q 5 5 : @ @ = 6 $ w D k x ~ b b Q ~ ^ P L 0.*X<XfXw 5 $ : r 5 A 1.A o.3.( k.k.) @.x.L.J.@X&X@X7X3XX.> d X.B.$X).MXdX5X5X>X*X_.fXfXI.n.n.].W.wXI.n.!.;XuXZX*Xb.!.=X4Xb.V.;X!.;X;X=XiXtX#Xm.3.6XuXF.9.V.,XN.S [.V.C.V.",
"f.XXh.S.XXS.d.A.&X%X%X5XtXuXZXmXB.x l.$X7XBXSX&XnXnXnXnXnX7X2XnX>X,X[.*XgXfXtXE.e.P.Y.R./.9X0X9X'.W.(.n.W.'.eXeXVXyXW.[.:XwX:X=X=X$X$Xn.| 1.V.r.dXgX>X*XgXgX5X5X>Xm.dXnXB.B.c.+.9.%Xz.K z.k.#.c , X X X - O O   2 ; 2 0 #   $ = l A D P 3./ 9.^ k #.~ b 6.v.h.Z.S.XX1X1XvXvX1X%X&XG.G.B.b.V.r.q.9.x w * q 0 0 6 J :.q.| K ~ ( ( w P > v K q v 0 r r 2 @ # $ : = 5 c h w b ( ( @.@.m m X.m.G.).$X>XB.O.w z h L [ 1.U 9.D { b x X.x.h.h.v.D. XJ.J.J.+.+.3.K K m.#XuXJXSX5X>X5X,XE.F 2.n.W.W.~.2.U n.I.iX;X!.F.M.!.uX4X!.;XW.V.iXVXCX;X!.;XuXCXJ.J.m.#XE.1.` J U.y.=X*X:X",
"xX2XXX1X1XA.H.7X&X5X$X).).)._.E.-Xm.#X5X5XnXnX6XAXMX3X@XOXv.h.D.G.gX[._.fX=X0.:.~.[.qX0X9X9X9X/.t.8.e.2.n.e.I.I.V.].sXyXhX*XW.=Xn.V.W.E.n.C.Q.E.tXtX:X,XNXgX*X-X5X$XaXMX%Xz.z.J.B.).J.k.d c.c.{ / l l s K ; w P L 6 0 0 2 q g q A L P | K ^ ^ O.9.X.x.c.x.H.1XK.S.1XbX2X1XOXH.7X7X-X%XE.*X5XC.b.O.P F l L z M g 4 2 q z k d %.> P P | P / _ Y P A L A l l F F l L c ) k.k.h.A.A.h.f.K.6X6X6X,XB.^.+.^.O.K G.9.{ A O.' F.3.' b X.@.@.h.OX6X7XJ.+.( v.$XG.9.Q.4X).>Xl.{ 9.r.0.r.b.VXfXyXVXVXVXyXwXyX;X;XiXNXBXuXuXB.B._.uX,XVXIXFXiX,XiXuX4X-XD.3.^ m.-Xe.1.z 4 V 8.8.8.",
"A.A.+X1Xj...1XK.%X-X).5XmX$X_.5XNX5X4XmX6XmX4XnX5X).{ ~ L.@XD.+.q.N.I.wXeXU.e.,.>.P./.R.T.R./.R.V J [ W.].:X=XyXwX:.N.e.(.yXyX=XeXfXfX=XV.b.Q.,XtXNXyXtXNXfX<X*XMX6X>X>XB.).6X9.c.B.l.{ m.^.~ 9.O.{ K k d k k d w l | l A { A | F D 1.L l k x { K ~ X.k.D.&X&XZ.OX2XvXvXvX2XS.K.6X>X5X*XC.| A b.| A * ; : 0 f B [ 1.0.z.9.k.c.K.6.9.C.z.| z.9./ | K f h h h A _ / k.+.! ) h.x.@.&XH.1XvX&X).).z.k.aX6XG.X./ 9.V.P ' m.l.9.K d ~ $.( x.&X6X7X&XJ.@X3XJ.c.@X%XD.k.K o.).F.9.Q.tXyX].].VX].r.U W.=X` #XiXuXmXyX$X] _.V.;XtXuXcX;X;X!.4XCXBXB.s l s o.3._ b.8.:.S L 8.0.0.",
"xX2X2XS..X7X XZ.nX%X3XnXdX5X5X4X4XuXF.*XuX$XuXfXtXm.c 3.;.0.0.].I.Y.{.-.M 0 V 8.P.Y.qXqXT.}.pXP.U.rX}.t.:X}.rX|.t.8.P.'.P.t.Y.Y./.P.t.U.b.[.>X-XJ.CX5X).tX*XQ.fXdXmXB.Q.uX*X,X_.G.B.| z.( ~ X.K.B.z.D.l.~ b ( ( 9./ ( +.$.9.v.^ ' c x v c K ^ k X.O.3.D.3XD.).7X&X@.)  XJ.%X&Xm.l.,X5X_.Q.n.} F K K s - ^ 0.0.{ 9.{ ( O.9.6.k.v.z.c.m.O.O.K k.k.( X.#.K v / O.+.( v.L.h.h.OX2X7X&X@XOX&X3X6X5X4XO.#.{ ^.#X#Xm.m.9.m.o.x +.v.k.~ X.k.D.MXK.D.8X%XJ.7Xc. X7X@.@.H.@XaX3X@XB.B.m.*Xm.*X(.b.r.n.I 2.fXuXGXGXNXyX2.W.eXn.e.#X#X3.o.v.7XnXMXB.' E.W.U 2.6 S _ 0._ 1.} | } :.",
"d.Z.2X1X1X2XD.k.&XK.).5X>X).*XfXmX>XF.$XNXgX*XE.l w l b.[.` e.[ B T -.0 C N.qXqX}.{.t.y.{.qXY.P.{.P.t.P.'.P.t.,.R t.P.t.P.P.t./.pX0XrXqX:XtXdX#XnX&X#XuX*XE.iXBX).dX4XmXNX*XyXfXNXtXm.X.z.D.k.~ s / ( / +.X.X.L.B.D.6.@.v.X.( L.k.+.3.3.o.O.9.3.O.k.G.4XB.J.J.( #.J.G.K z.Q.>XB.3.b.*XtXfX*X:.1.D l.z.3.+.k.k.B.B.G.J.D.k.x.L.K.J.k.k.k.J.k.k.) X.( #.+.c.D.L.v.x.S.J.H.S.H.S.c.&XOX%X-X@XG.c.X.~ ( D.D.>XF.G.c.m./ X.m.+.L.g.g.k.X.@X7XzX3X7X1X&X XzX7X2XvX1X X8X@X7XnXSXBX5Xm.l w 2 N ].(.=XfX,X>XfXhXhXe.2.R.w.yX].*XF.%X&X@.x.OXX.D.*X0.I.e.-.U n.].' 9.B.E.1.2.2.",
"&X X&X@X%X3X&X@X&XnXMX4X$X*X5XgX*XQ.*X5XtX5X_.Q.A J 0.I.;.e.5 I.{.N.P.y.:XrX{.P.Y.t.|.eX}.{.{.'.rX{.qX:XP.'.(.t.,.,.C t ,.Y.'.qX'.Y.R.e.I.*XmX>XnXMXmXBX,X!._.Q.$X5X$XdXZXtXhXfX,X,XE.9.B.D.L.D.B.c.c.k.@.O.k.c.).+.D.K.D.v.c.x / ( ( ( O.3.k.c.m.D.v.F.k.F.J.+.@X+.k.D.O.Q.MXuX4XNX=XwX:X8.` A 1.F.B.B.O.o.( 6.z.B.L.v.c.J.OXK.c.L.%X3XJ.+.D.D.D.L.K.&X@XK.D.K.&X XH. XOX^.H.D.D.D.&X3X%X%X%X^.%X$X$X5X%X).B.B.l.+.~ z.) b / n ~ +.4X3X3X3XMXDXDX1Xv.zXSXMXSXMXMX3X6X5XMXdXMXuXl l !._.fXhX*XwX1.*X_.V.n.` W.].(.;.yX,XBXnXc.@X&X@X).$X*XW.I.n.~.~.2.I.V.>Xz.Q.n.n.b.",
"nX7X7X7X6X6X-X$X4XQ.B._.,X*X_.*XfXF.b._.tXgXQ._ 0.8.b.E.Y 2.].sX,.P.sX:XrXkXqXU.y.U.Y.U.qX{.t.'.P.P.Y.P.8.qXeXkX|.t.U.'.P.Y.:XqX}.'.'.U.].*X5X$X4XSXmX-X#X_.=X,XQ.4X,XuXsXtXNXfX,X,X).m.m.c.+.D.( / z.).F.J.$XG.k.D.@Xc.k.+.k.9.c.B.+.+.D.D.k.v.c.k.c.c.v.{ J.$XJ.z.~ O.c.uXF.1.1.9.V.L q q g C.b.m.z.G.G.D.z.B.k.k.k.k.c.K.H.A.@X+.X.L.K.D. Xh.D.K.J.@XK.c.L.J. XH.H.H.S.Z.H.OX3X3X%X&X&X&X&X%X>X$XF.>X$X5X).J.G.z.l.b X.) d X.b z.B.@X3XAXnXJ.D.n  XzX7XLXAX&X4XMX4X>X$X4X#X>XA 9.m.*XQ.,XfX*XuX,X;.W.W.e.W.hXU 2.yXyX5XX.c.@XJ.3XB.h L 2.;.n.-.N 2.=X,X).l.' E.V.n.",
"&X3X6XcX4X-X>X5X>X*XC.[ q ; l 1.P 0.Q.,Xb.} V.0.} _.U.W.fX:X:XW.[.P.Y.P.[.[.t.T Y.qX{.'.qX'.w.y.:XU.w.y.w.P.,.Y.}.,.-.t.'.sXjXrXjXpX=XtXwXtX,XtX*XV.m.*X*X_.fXNXfXZXNXNXNXhX=X1.1.1.O.d ~ +.v.K.J.#XB.z.G.G.m.).c.O.( 9.z.c.k.z.D.D.k.6.K.K.c.L.K.c.6X3X( m d.~ %X#X>XO.9.l.9.' 3.A . = f 2 F 1.0.l.).>X3XD.B.B.+.6.v.D.L.L.K.&X&X@XOX8XJ.D.&X%X XJ.D.c.c.c.d.( ) h. X&X1X2XzXAXMXSXnX3XMX7X@X-Xk.z.G.l.Q.G.$X@XG.J.~ D k.m b ) ) b d s ( Q.#X@Xc.@XSXDXzXJ. .J.E.*XwXyXE.Q.V.b._ L E.V.' E.V.-XB.Q.2.n.=XjX;Xn.I.VXQ.!.' F.#XZ.J.J.J.uX#XW.VXn.].I.n.;.].b.l.*XV.b.4.",
"$X>X#X#X#X,XZXGX,XtX,XN.8.Y.N.N l l.E.tX*XE.,X_.NX*X,Xb.r.=XjXqXY.t.'.Y.t.I ,.'.rX{.'.'.t.t.}.t.|.{.U.P.N.w.Y w.N.{.{.}.sXjXsXkXjXiXU.]._._.E.4Xb.{ L b.tXtXsXNXPXZXtX,XfXNX(.A : $ / c z.z.L.9.k.z.c.F.).J.k.O.( G.B.G.Q.G.9.-X@.d.+.d.c.Z.D.J.&X8XK.+.x +.c.b @ X 5 h & # = - l 5 w q F _ _ _.B.9.G.G.G.O.+.{ X.X.+.D.J.K.OX2X1XzX7XvX2X&XOX X1X7X7X%X XK.h.( x d m  .&XDXSXnXDXPXSX6X7Xc.b D d s k k w , ~ &X&XD.c.+.( k.b ~ ( d J.{ X.x d ) %X8X%XnX X .&XGX*Xg L n.0._ 0.| E.E.B.L w w 9.l.o.^ 1.0.].I.V.wXCXQ.#XJX4Xo.Q 3X%X&Xm.!.Q.U.W.r.=X2.n.n.e.V.3.s M.4.] ",
",XuX*X*X,XyXCXhXFXU.P.'.n.t.W.N.1.V.b.V.!.E.E.b.W.eXeXt.yX2.jXwXw.t.Y.,.&.>.t.P.jXrXI R t.y.'.[.I 8.N.t.t.y.Y.'.Y.}.U.Y.kXHXFXFXyXyX;X;X=XW.b.E.m.C._ Y I.fXGXFXgX-X<X,X*X,X=X(.eX| | P { D.D.k.^.k.c.J.F.@X%XB.9.+.l.k.{ c.G.+.@X X X XJ.J.@X@XZ.J.~ ~ k.3X7X6X$Xz.k ; 5 _ 6 h l _ A L ;.| 1.1.E.9.9.l.k.k.m.9.k.9.h.v.H.K.L.v.@XLXSXLXDXDX7X7X2XnXAXAXnX6X7X7X1X@.m ..7XLXDXzXzXMXSXnX@Xc.v.c.).z.^ / & # > v.c.&Xk.X.~ #.( n O.m c.k.@X9.B.k.c.@X@X#.+.oXK.5Xn.-.n.P.2.F b.wX$XV.>XB.F.@XB.3.;XtXtX3.3.V.,XFXyXmXQ.4.F.L.cXv.3X@XuX;XV.U.e.;.e.t.P.n.2.n.;.] V.4.^ ",
",XFXNXtX[.].yX=X8.g -.wX{.}.qXW.,XyX*Xb.V._.].tXhXwXyX=X2.r.U e.[.P.P.&.,.>.P.[.rXqX'.HXqXt.qXP.:XP.P.Y.U.[ P.y.8.>.}.CXjXrX}.n.eXwX;XI.wX*X;XwXfX,X:XE.:.{.JX(.ZX-XtXZXhXwX].W.(.(.Q.0., B.k.k.G.J.L.B.#XJ.9.X.z.%X>X#XdXF.9.Q.^.v.x.c.v.D.D.k.k.X.K.nXMXK.3XMX>XQ.NX_.V._._.V.1.1.0.0.0.} ;._.m.l.l.F.O.k.9.X.+.v.D.L.c.D.H.S.x.LXLXLXSXSXnXAXSXAXnXAXSXAXAXDXDX&XH.2XDXDXDXSXSXMXSX6X@.@.&X4XG.).).+.z.D.%X XnXDX&X#.k.n d O.{ ~ d { c.+.&Xd +.J.c.D.B.F.uX#XU.qXM o T sXE.2.E.V.Q.mX3X).D.4XuXmXuXBXBXNX;X-X;XF.5X6XuXMX%XcX3.>X#X4X=X0.U.wXyXr.e.` r U I.*X_.m.' ",
"*XVX:XyXyXjX8.:.U I.'.~.P.qXY.=X].*X*X=X,XwXwX=X].].e.{.2.I.n.2.t.Y.{.Y.P.T t y.t.w.t.sXqX9X-.-.-.;.w.w.t.w.w.8.I.U.jXrXhXn.e.Y ` I.b.I.'.;XI.I.*XyXsX(.(.r.C.*XyXNX,XyXVXFXwX:XVX].tX,Xz.B.>XB.J.D.c.v.^.6.9.).B.#X>X[.$X,X>XG.D.J.K.c. X@Xd. .c.&XAXnX6X%XJ.dXCXb.2.tX=XCXNXn.,X(.Q.b.b.n.0.Q.3.B.B.o.' 9.m.z.c.J.c.c.L.c.S.h. .AXLXPXPXDXPXUXAXDXDXnXzXMXAXAXAX2XDXzXPXAXSXnX8XzX@X6X( %XF.6XMX5XG.z.c.@Xc.8XAXSX2XcXk.Q x b ) b d ( B.~ X.k.l.m.4Xm.m.-X*X| >.i R t I e 2.:._.>X>X5X$X7X%XJ.#XmXmXGXuXF.Q.;X6XSXBXSX#XBXSXSXQ.> k { b.;.n.S ` qX{.;.5.n.I.*X;X!.' ",
"].(.[.2.N.2.U ;.{.R.FXqX5.>.Y.2.E._.[.*XsXVXwXr.P.U.e.>.-.yXrXY.qXT.,.T }.pXY.'.qXrXlX}.{.{.qX[.}.wX=X{.I.{.:XsX[.Y.CXrX'.P.sX[.,XV.eX].N.2.~.=Xr.-.8.:.:.N.eX_.[.*XZXFXFX:X:X:X:X:XhXtXl.v @XG.k.k.B.J.D.#X5XdX5X>X,XfXtX).C.E.5XK. X3X XJ.) 3XK.7XJ.k.&X3Xc.6XNX].VX_.;.*Xb.hX,XfX,XE.0.0.E._.B.B.B.z.k.9.9.k.D.c.D.J.D.D.L.) ~ 6XzXnXLXSXLXnXDXLXPXLXLXSXAXnX7XUXnXMX1XDXMX3X8XcX8X@X6XSXnXnXPXdX%XB.D. X@XAXAXMX7XzXK.d m x +.b / k.x v F.D.Q.MXO.V.BXtX' b.}.9XqXjXy.t.n.].=XyXuX4XnXnX6XnXBX4X4X4XcXuXBX3XnXBX8XoXuXnXG.m.o.z.F.#XwXW.n.W.sX(.W.(.U.U.V.;.m.l.^ ",
"[.T Y V S t.t ;.I.rX'.R P.t.5.Y.=X*XE.2.8.W.wXwXe.e.'.I.t.'.R.'.y.{.qXR.{.qXR.{.Y.w.P.T P.P.'.R.P.n.(.Y.rX{.rXwXsXjXU.S {.yXqXW.tXeXn.P.~.R.hXyX{.'.(.U.:X_._.E.tXN.V.N.I.I.:X'.sXW.,XC.9.z.3.9.K.k.B.>XB.$X$Xl.,X<XtXtX,X(.W.[.J.D.m.G.g.D.+.nXMXD.k.D.7X@XL.5XjXwX=X:XW.=XI.Y W.0.} [.*X0.b.E.B.9.3.z.z.O.{ O.G.X.c.J.D.^.x.d c.PXIXSXAXnXSXUXAXDXDXAXDXSXSXMX6X2X&X7X7XX.@X6X7X%XnXF.uXdXuXCXX.6.@XD.D.J.zXSXDXcXAXzX7Xs x k K x d / k ( O.^ z.{ E.gX$X,XGXE.'.T.Y.Y.P.I.{.wX_.V.,X5X>XJ.@Xc.#XiX;XmXBXSX8XAXMX7XDX7XMXcX6X%XCXBX4XW.W.=X=XqXP.I.'.(.n.` U U M.o.x ",
"rX=Xr.y.Y.J U.2.Y.I.rXwX2.}.hXhXe.I.*X,X].V.I.'.sXn.I.W.qXR.~.'.,.R.'.y.y.i.t.T.{.rXpX'.P.9XqXrXqX}.P.wX}.qX}.rXyXjXjXY.W.W.wXwXFXI.VX2.n.P.jXqXyXhXjXsXCX[.E.*X=X*XW.E.t.:XqX'.e.y.I.C._ F.k $.c.) #.L.9.J.5X>X>XtXeX[.E.U.(._.).Q.l.>XuXB.#XdX5XF.J.B.-X#X4X-X2.FXY.'.n.e 2.fXVXhXeX,XV.1.b.m.E.l.9.B.G.c.z.B.k.X.D.L.@.x.X.n ( k.n n OXMXAX7XzXnXDXDXSXDX3XL.D.nX8XAX8X@X@X%X).k.' Q.-X' D , 7 w X.k.v.L.zXAXAXzXcX1X1X, d w v X.{ O.9.c.O.L b.} =X0.E.[.b.=X-.I -.M T N n.I.I._._.*XMX>X#XuXuX4.Q.#XcXcXMX7XzXH.AX7XMXMXBXcX,X!.Q.V.;X:X{.` t.2.;.>.5.` U 5.M.l.o.",
":XN.I.[ e.` 2.;.;.U.=XwX=X=Xe.n._.E.W.:XwX].W.Y.I.}.qX}.rX~.{.}.}.Y.-.-.t.Y.T.t.Y.P.T.9Xi.t.5.W.;.e.=X].yX=XVXGXVX=XW.Y.[.U.}.yXU.sX'.}.rXw.y.R.hXqXjXjXtX,XNXuX*XfXeX:XqXjX=X'.2.(.` W.0.o.3.6.D.c.D.c.B.m.#X5X#X_.*X:X*X].[.,X).#X3.m.E.z.).$XdX4Xm.l.$XF.m.=Xw.y M e.[.'.U.:XfXwXfX=XV.Q.#X_.Q.B.l.l.c.B.B.B.c.+.x.X.@.A.@...d.v.d.D.@Xk.v.7XUX7Xx.+.J.6X7XOX3X6X3XnX6X%XQ.dX).9.4XmXtXb.; w ; & s c.oX7XAXLXAXAXAX1X&Xd b d b v #.+.).5X$X1.,X_.h I.I.U } ;.r.Y.'.qX'.P.` B I.n.*XCX-XG.9.^ I.uXBXGXBXSX1XSXH.7XPXAXMX8XoXCX-X4X#Xb.I.e.2.-.t.e M t.5.J -.;.l.!.uX",
"{.(.` 8.r.U.I.N.n.Y V g n.=XwXyXW.W.E.W.[.*XW.n.t.Y.P.P.pX}.R.T -.-.T 2.i.y.y.w.&.I <.}.9Xi.I S ` W.=XyX=XVXyXqXP.hXjXeXsXW.2.I.}.8.'.&.Y.p.9XpXqXpXjXwXfXBXSX5XyXsX*XI.rX=X'.'.(.8.F b.$X9.B.B.( x.c.6.7XaX4X$XV.(.=X,XyXkXyXwXI.*X_.0.o.tX$XfXCX).L G.4.l - f $ e >.I >.>.2 2 l = F 0.V.,XuXmX4X>X#XG.G.).@X^.K.c.+.#.h.S.h.d.b 3X3X) ) ^.nXSXnXPXIXPXnX7XnXMX%XBX>X$XG.nXJ.%XCX).tXB.>XV.- * { F.J.-X&XMXAXzXzXzXzXoXD.s x s m h b #.dXnXB.9._ 1.I.I._.*Xb.I.=XqXi.'.}.yXe.;.].*Xe.0.0.b.0.#XuX;XiXm.J.7XAX X&X2XAXAXDXDXoXF.l.W.;XhXW.(.N.U.;.I -.w.-.G U 2.^ ^ 4.",
"<XE.`.r.].U.I.fXVX=XyXwXwXwXyX=X(.].].W.N.N.W.}.'.}.P.2.~.P.t.<.5.5.-.P.}.}.qX9XqXpXpX-.&.Y.qX}.qX=X=X[.VXFXGXyX=X:XeXN.N ;.U.>.I (.Y.[.9X}.R.T.T.9X=XW.ZXNXuX>XyXhXZX:X=X(.[.[.Y e 2.0.V.| K O.6.c.X./ @XdX>X#X*X,X,X*X:XsXwXY.I.0.V._.b.V.` fX_.V.} 1.l A r X + % $ + $ V N.: . 6 E.yX*X$XG._ Q.).).B.c.B.B.B.9.c.D.c.X.X.x.+.@.@XaX3XD.n %.#.D.%XnXSXUXPXSXMX7X).>X>XPXm.F.4X).uX).fX_.L NXb.| 5X%Xk.g.8XDXxXzXxXzX2X@Xd v h > x K ~ k.K > / l b.tXb.,XeX=X}.}.W.` g V 2.Y.eX=X_.W.I.b.E.*X_.;XFXuX4X&X7X1X1XzXAXIXIXBXSXBX8XBXFXZXGX*XeX=X=XU.'.>.S 2.n.P.=XE.m.F.",
"b.W.l Q.,X_.].yXtXyXhXFXVXCX=XwX*X*XwXfXwXE.W.wXeXwX(.t.=XjXR.P.}.'.T.9XpXpXjX9X}.t.T.}.qX9X~.R.rX(.P.[.=XY.e.w.[.}.(.P.2.8.n.Y.qXw.i.{.qXpXR.*.jXY.}.wXiX;XuXtXCXCXsXqX(.jXrXn.Y Y } [ L L 9.z.k.D.k.c.D.#X).<XNX*XI.(.=X}.}.=X:XN.| F h 5 h b._.tX_.1.].[.wX2.t 3 e ` 2.2.FX=XeXI.I.eXI.;.b.1.0.m.V.B.z.z.z.B.B.+.#.v.h.v.x.%.) OXvX7X7X&XL.%X@X%X).9.~ X.G.3X@X3X9.l.).l._.mXZX9.`.tX; f GXdX`.mX6X%XDXAXSXxX2X&X7X3X8Xs k d $.w b X.k c K V.uX_.h | ,X_.1.].qXyX(.W.'.wXI.n.e.W.wX,XZXZXCXNXGXGXBXGXDX7XAXzXAXIXPXDXcXuX4X;X,XCXU._ 2.2.[ Y.w.;.-.e.W.;X]._.] l.mX",
"M.S ;.2.;X;X_.wX].VXiXiX=XqXVXI.,X_.E.gXgX*X,XV.*XW.yX2.U e.2.wXY.}.hXpXR.jXyXqX}.P.w.t.R.}.qXjXY.'.=XrX[.8.N.FXgXN.T t.rX'.t.'.T.,.R.<.7.pXqXpXsXn.W.hXNXNXBXtX:XwXI.r.[ [ ].I.,XV.C.C.B.1.s ' +.#.{ ).F.E.>X,XQ.=Xr.].I.{.I.;.r.e._.6 5 Q.-XG.Q.5X3.uXgXI.N =X].;.S j 6 F } e.(.hX].sXU.].8.[.,X,XE.b.V.G.c.v.x b v.d.d.@.d ! ..2XAX2X7X1X X3X%Xm.s k w L C._ / _ | G.`.z.D Q.tXuXQ.b.q 3.-XmXdX@X6XDXnXnX3XoXnXUXnXMXD.& ~ x d c s K ( ~ +.{ B.#Xk s K { $XE.*XyXyXsX=Xr.b.0._ _ L ,XeXhXtXNXNXZXGXBXcXSXIXSXLXDXAXMX4XmXNXE.W.W.n.:.2 2.[.W.W._.,X,XV.^ ^ 1.o.1.9.",
";.] !.iXV.;X;XI.!.W.;XwX!.n.;X;XdXE.G.).#X>X,X,XE.*X;XQ.;.F !.CXhXqX'.~.pXjXqX'.~.P.{.yX}.R.qXjX{.yXjX}.t.sXjXN.[ [ r.=XsX:XY.w.9X9X7.R.T.p.Y.qX{.t.V.*X,XtXdX,XU.I.I.:X(.b.`.(.[.,Xm.O.{ z.{ 3.+.{ ~ #X>X_.Q.b.8.W.U.N.].n.t.T ].b.0.f > B.#X5X#Xk D *XiX*XI.6 e.wXn.2.].2.6 ].;.} =X'.=XwXyXS r 6 ` 0.3.Q.K ~ +.k.#.n ) j.A.S.H.+XzXzXLX1X%X) k.).#X_.b.b.(.P } 0.8.1.I.n.} 0._.#XmXB.' fX4.B.4X6X%X@XAX6XX.X.>XdXnXdXK 7 L s v k w k o.F.@XG.l.l.X.k.x G.SXMX,XNXFXVXjXfXV._ q _ E._.`.(.tXeXb.NXmX6X6XSXMX&XD.H.K.#XQ.3.;.S N g ` 2.yX{.:X=X].wX!.F.;Xl.D ' uXyXtX",
";X;XV.I.2.I.#X;XiXI.;XyXyXwX;XeX,X_.fXdX*X*XQ.$XZXyXtX=XwXhXhXNXR.pXrXqXHXqX}.rX'.yX}.>.P.{.Y.t.sX}.w.>.P.|.[.[.[ 8.:XsXN.w.|.kXHX9X}.*.R.p.w.jX:XjXyXI.C.gXgXC.I.{.eX=X(.<XtXQ.NX(.U 9._ 3.O.o.z.z.{ 5XNX*XV.0.:.V._ Y.(.qXP.'.].0.n.o O @ V.uXtXB.9.` W.V.fXeXU.n.VXwXeX].;X2.S ;.r t ` =X'.=X` ,Xr.,X*X5X9.B.+.K. ...A.A.H.@.d.OXH.OX6X8X+.+.G.uX5XC.,X_.b.:.1.tXgX0._ f _ b.` A 3.uXQ.-X*X*XuXBX-XB.-X).k.uX5X-XdX4X& w l 7 d s d s ^ B.G.F.$X>X3X%Xk.>X@X>XfXyXfX]._.,XI.b.e.V.q ; _ | w _ ,XfXmXBXDXzXMXnX6XSXJ.F.SX;X:.U.n.l ;.*XwX[.yX=Xn.*XNXSXuXoX#XBX^ v h ",
"iXiX;X$XiX!.,XiXmX,XyXyX=XwXhXFX>X`.5XgXtXgXyXiX,X=XyX=XeXNX;XW.P.yXyXyXVXY.i.~.{.P.Y.'.t.y.t.,.>.t.w.U.eX[.N.Y.sX[.[.:X|.(.'.'.}.kXy./.0XqX'.yXwXqX].I.b.0.0.0.sX[.<X:XI.N.(.=XV.fXE.o.{ ^ h 3.D o.v G.*XV.V.(.*X2.=XsXn.P.qX>.'.;.U J g * L _.F.o.} n.,X=XyX].E.[ [ VXiXhXwXV.;.S g 2 $ : B >.N wX=X*XZXE.).3.+.k.! @.H.x.S.d...&X&X2X7XMX#.5XBX#XdXdXgXgX*X8.V.N.L f A f L _ _.yX_ E.tX#XQ.1.l.G.5X).3./ x l s h 9._.- k s > > k D h h { B.J.6X>Xz.v X.m.3.G.V.=XVXyX=XwXtXhXyXq 5 1.l } b.0.9.x l.Q.Z.k.1X3X&X8X7X%XB.#XVXyXyXyX].W.n.r.8.(.VXn.1._.iX$X1.c l L O.",
",X#XiX-X4.A b.} ;.n.=XfXwX*X=XI.eXyXgXfX:X_.,X_.E.*XE.fXyXW.;XU.P.rXrXjXqX{.qX{.qX{.P.~.hXkX{.qXqXP.8.Y M :.:XsX[.sX:XY.[.qX[.Y.}.T.p.R.lXqXFXrXeX:X=X:X*XV.C._.E.t.:XsX[.r.0.F.,XV.).z.m.l.( ' _ 3.F O.1.} b.=Xb.n.Y.y.[.pXpXY.w.2.R ` N 6 h _ V.4.;.I.e.` w.I.wX;XF ;.I._ ` B S } T ;.0 3 4 U :.:.,X,Xb.E.>XQ.k.k. .#.h.h.h.h.@.h.^.&X>X%X).$XE.G.,XtX,XtXI.E.8.8.B Y [ :._.hX*X` } V.` l 7 h } ^ 3.L j 0.B.L L { ;.} * 5 w > s { / ^ K o.-X>Xl.F.G.#X5X3X).b.1.2.n.yXfX(.(.*XQ.l l ' -XB.z.).3.3.Q.-XX.7XZ.X.g.Z.%X-Xl.#XCX;X;XmXNX;XeX=XwXeX].jXsXsXVX!._ o.b.l.9.",
"F l.Q.wXV.!.!.4.V.0.1.b.n.E.=X_.E._._.,X*X*XyX_.*XQ.I.].yXfXeX].{.qXqXjX'.9XqXY.y.{.sXR.5.R.lXjXjXqXqXsX:XU.U.|.[.[.N.w.'.:X}.qXlXy.T.qX/.jXqXCXrXjXNXwX*XtXtX_.*X_.`.I.r.I.uXNXb.h m.m.l.D ^ l.4.1.h q 5 r l U S P.,.w.qXP.3 &.R 5.>.M B r ` 0.2 : I.jX,.M w.I W.yX6 S 2 2.;X=XtXn.t.N.S 6 M Y r.:.W.eXb.4.B.l.O.c.D.@.h.A.....6.6X>XBX>X{ ^ 7 h ; _ 0.N I.,XW.[.N.B B t g q q 2 0.wX` l N : F L 5 * # @ 2 : = ; J F l 7 f l > - k s D ^ K { d o.).O.B.z.B.Q.tXI.NXyXU.L g L A _ _ $Xm.{ F D ^ b ( oXQ 6XnX8XL.) g.@.F.SXJXGXGXIXmXtXmX].tXyXI.'.hXrXn.e.r.V._.B.9._ ",
"' b.3.;.0.*X_.*XI.V.*X_.b.C.(.:XNX_.b.b.(.eX,X0.b.2.*Xe.n.yXU.[.P.I T t.Y.qXqXY.{.qXrXhXjXrX{.hXsXFXrX(.qX<X(.(.[.:XrXrXY.w.P.sXrX/.qXjXsX'.yXW.:Xn.N.E.b.0.V.C.[.(._.NXhX,XyX,Xo._.F.( 4XJ.~ g.' _ F f ; F N N n.N P.>.&.9 ,.T.V 3 $ V U g g n._ N.].wXrXR.-.1 2 j r U.].2.` 2.e.E.z ` z U g {.}.P.I.L _.F V.3.' 9.k.( +.S.x.x.( ).O./ f f K | U U Y A l S g q 2 : y Y w.W.W.].tXhX=X*Xn._ 1.1.2.g 2 2 2 = = z F U N 6 6 B U l s v K o.+.^ k - O.G.L | _ O.b.,XsX1.U _.eXV.n.,Xb.o.-X4Xz.Q.l.^ Q.cXk.@X7XSX8XSXDX6XcXUXGXMXGXGXmX!.D M.Q.yX].yXe.w.U.=XsXFXhXI.| B.>X",
"l.] E.b.0.V.,X,X[.I.sX[.I.*Xb.0.N.I.yX:XW.*X_.U.W.W.,XwXwX:X[.eXVX~.Y.w.5.-.P.qXqXY.Y.qXsXyXrXqX{.'.qXkXsXsXeX(.sX[.=XqX:XsXFXjXqX[.HXjX'.sXU.U.(.2.e.N.0.E.wX*X(.tX:XtXyXgXfX;.4.l.@X#Xc.~ Q x F A _ l 5 _ N r = # t C &.w.&.C >.-.5.4 t = g ;.b.yX}.:.t t.9XP.` @ j eXW.W.n.2.2.e.P.N 6 S }.{.{.W.{.U.e.eX} l ' o.X.X.k.k.@.+.O.v `.P f P | _ B r l g N 6 r g 0 0 e.W.{.U.I.[.=X(.g l 1.} ].yXT t g 6 4 N J B ` N l N r g 6 ; x b { { / K v L G.O.B.,XV.m.E.A U _ 1.L ` (.*XtX-X_._.' *Xg.' nXMXMX@X8XnXK.nXSXUXDXcXSXPXcX4XiXoXc 3.Q.fXwXFXqXqXyXqXrXjXY.-.r.8.{ L ",
"F E.1.1.I.` b.e.} W.hXeX:X=XN.(.Y.=XsXW.n.:.z [ e.rX:XY.<Xr.=XrXY.>.&.>.y.w.w.t.y.>.>.~.qXrX{.'.t.{.:X{.sXsX:X:XY.r.I.r.sX[.HXFXjXyX}.{.sXjXVX:X=X0.8.E.C.:X_.(.eXCXtXtXyX-XCX1.m.$XF.F.%X( #.o.^ 9.' / f ; L 0 2 M 1 4 -.-.P.R.>.i.2.V 6 @ o S :XyXU.:X~.w.t.2.6 6 j e.2.g S b.S ;.U.U.].[.wX=XyX[.9Xn.=XI.*X_.3./ { k.k.k.c.k.| | | z P | | B 0 ;.;.Y N S ;.S I [ y.Y.N.P.'.y.z g t l U L ;.` V t I V M N M [ S g t $ 5 6 l f d x / x K z.1.{ 0.l 1.[._.8.E.E.1.8.:.L W._.b.V.D z.O.D ( l.Q.oXDX3X@XcXJ.%XSXPXPXBXGXGXg.oX-XBXoX%XuX*XQ.0.V.(.sXkX{.,.3 3 3 B 1.b.Q.",
"U : 2 5 ` L } U.(.[.}.`.=XU.-.>.I.}.'.N.t.e.e.t.FXsX>.2.>.T [ Y M ~.yX'.P.Y.P.,.Y.'.'.Y.Y.'.t.T {.qX:XY.u.N.|.:XN.|.wX(.sXeXlX{.jXGXFXhX:XW.U.e.b.;.;.2.Q._.b.8.(.NXE.hXgX*XE.m.3.#XuX4XcXc.~ ~ O.{ ' O._ 6 0.V.2.U.w.3 1 R R y.y.{.Y.3 N L U l e.].[ w.t.~.P.t V l l b.;.=XwXV.*XNXyX=XW.sXyX[.T.Y.'.'.'.W.].,XE._ ^ 9.9.X.k.c.q.| _ r L J L 3 T 8.z I V T N y I (.N.qXP.N.M g J V g 0 t = 5 6 $ y y 3 e R >.T 2.e.2.6 2 6 l f v d v +.^ > F _.l P b.I._.C.V.:.l 2 0 J 2 Y 1.z.z.$X-X%X@Xn %.oXk.s / ( %XmXMXGXGXCXg.s ' 4XL.l.-XF.z.D 7 O = : M 0 t u -.y.>.V 8.1.| ",
"yXW.I.2 r ` N.w.e.n.}.(.E J U.'.sXY.'.R e I >.qX(.rXjX|.r.I.jXt.{.rXpX}.Y.R.qXyXqX'.R.{.9X'.{.hXjX>.[ [.sX:X(.N.N.N.Y.sXjX|.[.{.n.[.*XI.:._ 2.0.W.yXNXI.[.:X,XtXhXrXU.,XJXfX_.V.E.#XuX$X-Xk.c o.' K ' ' { l _.,Xn._.` P.>.I n.Y.}.I 3 % = F o z q f U Y N G $ $ 6 j M.W.I.~.=XU.].yXyXyX=XwX'.Y.Y.{.{.'.R.[.W.b.tX| k ^ X.k.D.G./ O.G.q.E.0.0.L 8.8.B w.I.'.y.w.I 8.-.C J e 0 3 3 z + e 6 B z ,.t.I 1 e G M I S _ _ F = ; w l w w b v / { 3.$X-X0.N.N.} _ g 0 2 # 8.(.(.C.r._.G.5XQ.4Xc.s n d.Z.%X@X@XnXo.D V.o.A c ' h s o.8XcXnXSXMX^ ; 2 z = 3 0 V t V H T -.J ;.n.",
"e.;.n.M ` -.P.W.t S 6 e -.'.jXrX}.w.R w.>.>.{.Y.y.rXI >.t.Y.z J >.t.'.rXjXjXyX{.{.pXjXhXpXyXyXpXY.Y.(.Y.P.[.sX:XN.(.Y.Y.}.'.[.N.=XsXeX].N.r.E.E.E.].=XN._.:XtXCXsX{.sX:X,X:XfX*X,X#X>X>X-X' 7 ' ( ( +.O.+.3.>XtXNX,XyX[.W.r.I.P.n.2.e #   X & _ ^ f $ N N 3 2 3 ` :.n.e.eXe.I.b.yXyXjXwXeX[.rXjXpXR.}.9XyXY.I.I.r f L ' ^ ( k.k.| | v m.0.=X} S B J w.Y.'.,.R M C S t I 4 t C y T ,.I z 8.U V M -.t.,.t 1 4 g q : $ O O - > s s s ) { { { 9.F.b.0.} L f 6 : 3 0 r $ _ r.0.l v k k #XSXK.n  .H.oXX.~ D.>X' l.3.A c B.#Xz.F.#X-X8X4XF.#XuX_.5 o 4 $ 3 p p 1 4 $ 6 V B M ",
"U M P.2.{.2.e -.hX'.[.jX'.P.qXT.~.R w.w.,.w.-.V t T 8.t.I.8.t.(.t.P.}.kXjXpXpXyXhXFXFX{.y.w.Y.qX'.qX}.U.=XsX|.q.sXsX:XU.[.P.Y.>.W.,X,XtXtXwXyX,X(.0.I.=XN.r.r.[.eXsXgX<X;.C.C.I.sXyX,XmX5X{ 7 D b b ' +.~ 3.G.tX-X*XNXyX=X].yXwXwXY.;.: @ * h 3.L - 7 6 g ;.6 g @ 2.b.V.].=XyXyX=X=X].N.[.=XW.,.qXpXpX9X}.Y.(.W.1.L v D ^ O.3.^ K > w ; | l J 0 I T '.Y.T t C 9 u p e C 1 u M u >.Y.I M I T M M e Z I $ + e $ X O @ - > > 7 d x b b #.{ 9.F.V.G.A 2 = $ O 4 3 o 0 o B 0 0 b.7 / #XJ.3.@X@X~ n m X ~ G.~ z._.V.1.[.tX,X*XQ.z.' ( l.$X*XV.,XU.[ g 0 e t V t V y G I V g ",
"% 2.G -.y.3 G 3 8 >.>.I &.,.i   % 3 4 3 % 3 t.R 8.}.Y.'.N.=Xt.I.qXY.P.R.Y.w.t.9XpXP.w.R.rX{.P.t.lXjXrXrXjX:X|.jX|.N.I.[.sX(.{.{.tXfXgXyXyXtXgX,XsX,XtX:X[ } ;.r.8.r.r.q.r.r.8._.sXZXfXNXfXF.k h n X.x.+.x J.3XZXQ.,XE.fX_.I.yX].U.:X` 2.h q O.E.m.9.s #   : _ I._ W.eX=X;XeXyXn.[.wXW.n.` 8.I.qXqXlXqX{.t.{.Y.P.` A _ 1.' K v h l.' 5 5 O 5 l e.N.P.qXP.V Z H i C R p 4 t t R ,.M T ,.y >.I t.w.Z t G e = @ O 6 * q d x x ( / ~ +.O.6./ O.$XQ.C.E.l 2 t 4 e 3 o : $ @ 5 } _ 7 b.F.@X) g.d.& m J.&X@X#.X.{ ; l r.1.r.| z.b.D ^ 5X5XmX,XC.,XeXsXFX,.E >.R -.-.>.y.i C I ",
"+ + 8 % + 1 o V &.8 M <.-.t 8 i t e i C Z t.:X'.T = 0 u [ 8.(.Y.'.'.P.2.w.R.qXqXP.qXqXR.P.}.rXpXt.'.qXqXwXeX:X|.eXZXjXqX'.Y.Y.e.*X<X_.*XtXNXFXNXtX:XE.1.;.U.N.q.:X:X:XY.:Xr.U.eX*XtX5XuXuX#Xw 7 m ) x.W d %X3X3X#X).Q.1.^ Q._.*XU.2.V.A { b.m.z.-X3.v - O 6 6 U b.].GX;XI.V.].=XwXU.2.(.=XeX'.'.pXR.<.9XY.~.w.W.:.N l _ 3.z.z.o.X.D 7 x ; &   o o $ M C T 7.R C Z y.C *.Z 7.&.u.M ,.>.P.,.V y y 6 $ o   + 2 6 q q k h K / k.X.) $.b ( O.3.1.V.tXb.g = t 4 3 3 y * L 0.} r @ B.9.l.oX6X7Xn %.A. .d ( ^.{ . 2 $ 3 t : f J L z.MXF.F.B.`.`._.r.N.I.t.T >.>.P.N.T.R.Y.7.R ",
"r N 3 N g 5.P.T.~.w.-.i 8 1 $ R T I I p.t.>.Y.Y.t.P.[ t (.sX(.N.S ` U.sXyXW.P.Y.rXqXrXyXrX=X:XrXyX'.(.=X}.wXjXhX<XjXsXFX:X{.rXFXyXtX*X,XhXZXhX_.fXeXeX].sXwX:XhX:Xu.Y t.N.[.rX:XgXE.b.1.0.B.; v ~ x X.~ ( 3XJ.F.4X$XE.).0.6 ` E.2.` 0.] c 3.' F.-X#X3.3.o.9._ f l [ 4._ ] _.f 2.W.].wX=XeX:XqX}./.0X}.P.>.w.>.` N F | 1.o.3.3.~ B.O.~ ^ s - @ 5 = = 2 o I V e 0 4 3 e u = = 0 % 4 : $ e $     o   O o # = 5 N l A K D o.~ / Q X.v.k.X.z.B.1.0.8.N S r 3 + $ $ t y 0 0 z Y E.} l o.c.v.g.d.K.&X .7Xk.s # - * z z 5 [ _.W.,Xm.dXuX8.Y U.eXeX=XU.t C y e 6 1 M ` }.e e e ",
"' > D _ D } 1.V.n.2.I.w.+ e w.Y.Y.W.U.W.:XY z r.(.E.C.Q._.).b.1.0.yXGXJXVXyXwXW.'.Y.>.rXsX=X].].VXeXfXyXwXNXFXCXCXfXwXjXwX=XeXFXFXwXP.yXW.}.w.[ =X{.qXqXsX'.:X[.I.[ I.eXgXV.,XCX5X5X,X5XZX8.f P P l P v z.b.E.yX[ | h ` ;.e.L | 2.[ _ L } 9.3.mXuXQ.F.m.3.l.m.l.m.V.#X9.c !.wX=X_.=XqX}.yXrX}.T i.7.&.<.M I 0 2 6 _ D v x b c.v.X.x > > j ^ L w l > 6 & O O - O # r $ $ $ ; : @ o o o O @ o o = . O $ 6 l A L _ _ { 3.3.' ~ X.m.7 x o.b.C.b.;.Y N I Y : + e 3 3 % : t q : | l ' 3.( #.&X) oXW &X8XB.x * > D = w A l b.} } yX$X1.3 1 1 p y.7.C I % = y e S 2 2 6 = 2 5 ",
"s ( ~ X.' 3.*XmXL E.b.r.P.w.'.Y.[.(.N.:.I.I.2.l _ 1.Q.1.- w z.$X#Xz._ b.hXCX=X-.>.I '.'.wX=XfXwXyX=XyXhXhXNXhXNX].=XeXyXhXyXyXVXHXkX}.}.[.P.R t.qXP.'.=XrX[.[.q.r.t.:XgX[.B.b.l.#X>XuXfXNX1.0 ; r f A J (._.0._ N.C.e.E.I.n.e.,XW.A 5 [ b.` F 4X4X-X%XK.+.3.L.c.Q.B.l.| _ l A E.n.yX[.'.=XI.wX5.C e &.G ~.S 2.: h v v ^ o.k.D.c.+.m ( $X).3.{ } 1.| / k.+.x & d L P w > U U q f h f ; = 6 : = r A A A L _ { { ' O.K d h ^ o.^ h h ' ' l L r.[ 2 0 r o o 2 M S = M 4 I 6 f : L Q.m.G.m.h m O.A.@.^ c / F.o.K ^ L l | L l 0.N.A $ e p 9 1 i 3 $ &.M z t e 6 + o o - > 7 ",
"D.b k.z.' B.l.5 [ e.t t }.Y.[.[.].W.1.F b.I.C.n.V._.V.9.G.*X).B.).B._ _ n.:XVXjXqXt.I.rXI.;.1.E.U.:XyX].*XyX=XU.n.U.=X].yXyXVXVXrXY.{.t.i.qXqXjXY.2.{.wXN.[ :.[ :X(.:X:X[.E.,X4X,XyXSXyXb.0 q P 0 q l l 0.E.I.C.b.e.].N.wX8.I.W.` e.n.;.S ` e.tXCX4X4XnX-Xz.+.4.m.m.b.} 0.;.0.;.N U.jXjX}.-.2.>.R T R.Y.y e.2 U L P { { o.k.D.%X@XMXdX>XfXgX].[._.(.| K D { X.G.`.C.[.C.`.m.| _ f 5 A ^ q 6 A l D D D D v v D K v ^ ^ D D ( ( D d x D D A l 0 = 2 4 # 2 e 2 6 $ 6 4 2 * = 5 ] E.-Xm.Q.c.F.%X&XnXMXG.V.9.F.7 V.1.-X0.} tXfXQ.E.` 7.y.C $ e 4 + T t.V $ O o O @ @ c D ^ ",
").b O.v { l.1.Y 0.} y.P.Y.>.>.'.(.[ b.E.b.r.=X_.Q.NXuX_.dX5X).*X#XuXgX,Xn.8.{.jXVXHXW.>.` N *XwXFXFXNX[.2.N S W.wXeXfXeXyXeXyXwXY.7.T.>.>.'.'.P.n.>.'.{.:.g Y (.N.t.Y.eX:XsXhXNX*X_.NXtX2.3 r f c F _ L A g w f t r B t -.-.P.R.sXU ` n.2.:._._.BX_.B._.Q.l.3.V.1.!.,X,XW.2.V.e.N.n.S -.I o M M 4 % y y M g S F | L D ~ +.c.v.+.k.0.E.*X:X,XeXwXU.Y 0.*XtX$XMXSX<XO.:.8.`.ZXtX| V.9.] ^ o.o.^ D ' { | { ^ ^ { +.O.3.k.k.3.+.( n ' X.' D v J L P 2 3 S l f g f _ r U 6 e O f q 7 l - > l.MX+.cXSXF.l.3.V.5 f #X0._ b.L :._.n.V.n.4 9 1 1 Z V 3 S T 3 # o o @ ; @ k b Q ",
"l.o.K / | q.*X_.[ 4 4 V V V M I 8.b.(.].sX*X_.I.[.$X*X$XE.E.).).-X).E.tXyX].U.n.>.{.y.Y.g } _._.hX_.W.yXGXhXe.e.e.I.].fXhXhX:X=XR -.T y.Y.w.I [ P.e.;.[ [ J F r.[ |.|.jXN.CXwX[.].I.,XV.l 3 V f s h ^ o.` L 5 @ 2 y 3 G $ y e R t I.;.= n.W.].NX=XeX,X].E.b.b.V.1.].;.;.U.I.;.T I M '.rX9X&.4 t 5.R V G 4 O t F ; _ o.9.X.) @.~ z.V.1.0.U.Y y >.rXP.}.:XI.L 1.b.N.t.Y J J r.*XI.0.F ^ 4.' c.J.' 3.O.o.{ ( ( { X.9.~ m x Q ~ n x ~ / / o.9.1.L f f f B > : f q f 5 2 $ * : = F L   ; ; 5 7 m.9.' j 9.^ | f A l N 5 = o : r O + V ,.I y $ 2 6 e U 0 * 5 @ * & s 7 7 d x ",
">XG.E.tXm.eXE.J r.r.M -.8.t.eXjXhX_.=XI.8.N.fX,X_.*X5XtX>X_.#X>XfXmX,X,XtX=Xn.V t.4 -.V F ;.sX:X].].].W.yXGXNXtXVXCXVXGXjXyXW.U.Y.'.P.'.Y.w.-.T I y.U [ I.(.2._ [ w.P.:.V [ N.n.0.E.fXr.r z ,.f v ( 3.3.' 9.A = = 2 3 Z 8 8 4 y 4 e 3 3 P.yXGXjXY.[.eXhXjX=XI.I.I.[.[ t 4 g r 3 y 4 4 M P.R.{.R.'.>.i.>.N t q L l O.' 3.c.k.c.b b.L r 3 e V I e H C 3 S U.:X2.Y 4 B : J N.N.| | F 3.m.l.l.+.X.+.c.9.O.+.z.B.c.k.' ( +.D.J.c.d.+.X.~ b K K v l l P P f L L h l 7 2 ; 2 6 F = ; O : $ O * f X ; # > O * . * ; r $ r 6 g 6 $ 0 r = 3 1 4 $ # $ = 2 e 2 f > A F 1.' x n ~ ",
"r.E.`.r.b.(.z 8.'.:Xt.wXFXsXrXP.g } ].,XfXtXNXGXNXNX>X).5XuX>X>XF.dXBXfX=XW.P.>.>.y -.I } jXhXyX[.:.2.W.eXsXsXFXFXFXjXyXqX=XU.e.~.t.Y.t.t.:XhXW.t N.q.=XfXNXfX*Xt.-.t.S T M U.Y.}.U.U.N 2 B t.F 7 b +.3.L l.] g ` U I y 1 8 C p Z 8 + I {.yXwXW.jX}.I.{.=X-.t S ;.4 4 e 3 e G M I M I 3 3 t i V 6 >.P.].U r L L { l.3.3.+.O.k.o.N.U e y T &.Z C C C e I I t 2 J M t : : 0 q q h h x ^ { +.c.D.k.D.m.c.D.J.@XJ.J.6X&XD.c.L.K.J.J.( c.D.+.{ O.{ c r h h { { h b D ^ F 7 7 7 j 7 * O ; q = = w 2 @ = 5 @ # O $ O 2 @ $ @ # 2 $   $ o o o   . O @ 2 6 h D D 4.4.3.o.X.@.d.",
"<X`.[.U.[.1.U.<X:XN.:X:XY.8.w.u.(.,XfX(.C.I.*X_.CXfXNX4XF.*XdX).NX$XV.$XI.U ` t.'.R.w.>.e.} l (.FX}.(.Y.e.e.U.qXeXsXjX{.=X(.n.I ,.I 2.V (.[.P.e.8.{.r.eX(.V.sXsX[.Y.8.E M w.'.W.2.;.r.J 2 2 J l c n ( +.Q z.3.1.g P.>.&.  ,.i.T.,.e o w.qXqX2.-.>.>.2.P.P.R M T $ 3 R e 3 3 8 6 $ e M M M 4 t e y 2 S = = J A L 0.{ ' ' O.X.b d 1.I ` &.M u C p Z i H H Z M M = o $ Y.r.; $ 6 O s o.z.c.@X@XD.K.@X>X5X>X).D.D.J.J.%X%XJ.Z.Z.Z.x.&Xc.k.B.F.l.3.l.b.C.B.k , s > > - 7 j c k 7 - O @ 5 q 2 ; 6 f 0 6 = * @ * : r O = @ 2 2 o # 1 o . * = o $ = * l q ' 1.D s s x X.c.S.H.",
"gXb.r.(.C.r.I.(.rXrXqX(.N.t.N.P.b.W._.E.sXyXN._.Q.V.E.>XuX5X>X,XE.o.3.1._.(.qXI.V -.2.W.W.W.b.0.n.}.{.wX8.;.W.=X{.CX-.[.e.P.Y.;.R I Y t.qX}.8.[ =XyXwX,XwXNXtXFX:XN.-.J ,.B ,.R J B S N 2 2 o - h ~ X.o.o.4.4.:.U -.>.R R ,.Z 8 Z 3 + '.t.G V M >.-.R.Y.P.-.i.e -.Z % e M 1 e 1 e e M I M 3 4 e t 0 : ; f l L l.o.9.^ ( k.~ 3.9.r 4 e 3 t H p H u Z Z e y e $ = 2 [ 8.B 0 w A 1.9.9.J.$XJ.J.@XJ.D.J.G.>XZX3XD.@X7XJ.&XoXJ.8X Xk.c.K.G.3.l.B.x 0.x 1.o.x ~ ( ) Q ~ F x F ^ ^ h 5 > = * 6 l l 0 $ 5 ; & * ; : = @ : 2 = $ 2 2 $ 2 # = 2 : l s l ^ s c s o.+.x.L.Z.x.h.h.",
"[.`.b.r.(.{.U.r.].rXeXU.(.:XU.J 0.C.E._.eX*XE.:XV._.uX4X_.G.z.z.).G.G.,XW.=XW.n.Y.Y.qX=X=Xn.b.0.>.-.jXN.Y.wX=X[.qX{.t.y.` ,.:.r.P.>.n.I.>.P.W.r.C._.*X[.*XCXfX:X2.P.w.-.V ,.w.w.{.P.` 0 q 5 B ' X.+.+.X.X.{ ^ F B I.~.2.T.,.8 M M + I qXw.T -.M 3 C ,.R y.I R w.>.P.&.M 4 1 M t i 3 3 V T N e 3 : o = f r A 9.9.{ { k ' X.~ x s 2 3 $ y V C R i *.Z I M I R : 2 L @ o : w _ m.z.z.k.9.k.D.OX&X%X5X).).-XuXBXMX@XuXD.@X@X%Xl.&X-X8Xc -X-X#X,Xz.9.b.0.o.k.#.#.) X.@.+.+.+.+.o.' ^ ' D f q f h r 6 & - > 5 > ; 5 5 = 5 5 2 6 2 = 2 : z L L ` b.9.L ' M.{ m.g.Q.K.v. X.XH.",
"1.C.I.I.:X[.W.=X:X[.[.:X].N.N.U.=XeX:X*X[._.,XtX*X_.#Xl.9.Q.).>XfXmXtXNXV.W.n.t.{.'.'.N.].E.0.A N e.U ].w.-.t.I 2 3 ` ;.;.U V [ 8.}.U.2.e.[.e.W.E.8.*X0.8._ 0._ 2.N.[.w.,.T r.W.sXkX2.2 6 r _ F c.v.k.+.3.k.3._ q B 2.2.I % o G 3 % P.'.,.-.P.V T >.C R /.&.p.qX~.>.R -.-.I G G t 0 e t g 6 2 2 @ 7 7 h | _ A O.l.3.' { x v D ( h r $ 4 M V T Z C u -.T [ ` : f Y z q P 8.O.{ 3.9.l.X.+.%X6X3XdXZXmX>X>X5XG.o.{ F.MXuXGXF.#X#X@X#XtX4X!.!.#XNXE.Q.Q.O.s / n Q O.@.X. .#.@.+.X.^ ( ^ K K L F h q w > , 7 h l q ; ; h l f f q f L [ :.L 6 . s s . 1.3.3.oXK.x.D.&XJ.H.H.",
"z } I.,XeX(.E.eX[.E.C.V.N.V.E.*X(.=X]._.I._.fX:XfX,X,X).#XdX>X5X#X4XSXGXfX:X{.P.[.{.Y.U.r.U.E.(.2.6 U J I V 2 3 N B I J U M T [ >.T r.rXeXjXI.C.1.L 1.` L l A L z _ ].(.yX(.VXCXHXE.= 5 S } ] { @XJ.D.k.3.3.O.' _ f g 6 $ 3 e 3 : t 8.U M e ,.e P.M C C *.,.y./.w.w.>.i 6 M M N e r z l 6 # O $ 6 5 j D ^ 3.B.B.3.K o.' { ~ D s s ; 5 ; 6 z 3 3 3 3 B r 5 q q } 9.9.{ { G.).m.z.+.z.c.).dXmX3X$X>XmXuXtXfXQ.0._.*X#XF.).*X-XuXuXM.o.s { yXfX_ L L w , o.~ ( ( D.g.X.)  .d.k.+. .~ ~ ~ D v x h h D b D D b v v x K D s 6 f q ; = r @ ; _ L l ^ m.m.#X4XF.oXoX3XJ. X X X",
"l r g J ` b.].*XQ.*X,X,X*X*X*X*XI.I.I.=X[.[.tXE.} 1.E.>XuXdX,XdXQ.).mXtXyX=XrXY.'.w.,.'.:X=XV.n.n.I y t M M w.y.y.P.Y.{.:XqXY.w.,.;.W.sX:X[.[ F L | f A q | > 6 D l.1.N.(.sXGXgXI.L : 5 F 3.' 3.3.k.k.O.O.9.z.m.0.D F F N g 2 $ o 2 B T Y I w.-.y 9 3 C 9 1 <.&.T R ,.I T 2.N 6 T g = O O $ 6 l v v _ O.O.9.z.3.F.{ X.D ^ ' 9.{ ' K { A l N 6 r 6 0 2 : - w K ^ O.z.@XJ.{ X.+.~ l.O.3.0.l.Q.,X,XNXgXtX,X,XfXgX_.$XE._.l.*XtXNXBXuXmX;X4.f A ` b.A 3._ > +.+.c.J.H..X X.XH.H. XOXZ.Z.c.k.@.( / ^ D b n x x x c c h F D L } { / _ | r.b.| b.).>X4X4XD.F.@X3XQ.D.J.3X3X1X",
"0.5 o o . @ q f _._.*XiXyX,X_.V.:Xn.b.[._.E.*X[.,X*X>XdXdX,X,X5XmXuX4XQ.N.(.qXW.t.T.}.Y.W.V.V.r.I.V : ,.t.:X:X:X}.U.'.U.t.qX-.[ rXqX:XVXhX` B W.V.b._ A _ 1.| E.F.l._ | N.b.b.L z 6 A j D ' #.3.F.).J.z.3.3.9.9.0.c L D # X . X 2 . r :.B e = 4 4 3 Z p 8 4 1 e e $ 3 8 e r 6 F = * = 5 f l k h 7 ^ ' o.Q.#XG.$XBXdXG.k.^ 9.Q.-X-X5X@X).m.} 0.;.[ 1._ | o.+.D.X.@XK.D.v.k.z.D.D.B.9.z.9.v k A z [ L l _ ].fX*Xe.` V.*XE.!.fXV.4.j r j 2.V.;.0.= ; 6 h 3.' 3.+.v.OXOX+X+XOXOXOXOX X X XH.Z.Z.v.v.d.#.~ ( +.k.+.X.' 9.9.1.9.9.z.).C.C.C.U.uXE.B.).$X5X5X3X&XDX7X3X2X1X&X",
"q O o = : $ = w ; 0.,XE.^ P 4.V.0._ ;.0.b.C.E.*X$X,XE.#XQ.b.).V.#X$X_.V.:.n.n.;.V >.Y.P.].U.} 5 : $ w.(.{.y.Y.qXY.U.(.}.U.sXY.:XN.[.wXe._ ;.fXE.CX*X*X1.1.l z.dXF.D z.V.ZXE.[ l | # > ' m.+.F.8XD.G.G.B.B.G.).G.9.0._.m.{ 0.K X z ; 6 Y l 2 % $ 4 C 3 e e % % + 3 = $ # 3 M 5 O = 6 h D L / ' ' m.3.m.B.l.#XmX>XMXCX#X%X#XQ.z./ @X6X3XnX4XV.m.} b.9.1.9.X.+.K.c.@.K.J.L.x.~ m ( O.{ L z 5 0 l Y A :.:.0.:XW.;.b.;.l B A V.L l f U 2.U.6 2 B :   w } 9.^ l.l.m.K.1X+XOX&X1X1XOXH.OXH.x.d.d.x.Z.H.@.h.Z.D.c.c.x.v.c.B.k.z.Q.#X@X$X,XeX*XG.`.uXfX5X5X$X6XnXMXMX6XDX6X7X3X",
"F ^ l w c D v D l > w 3.E.1._ ` N | E.C.C._.n.0.b.,XF.9.x > / _ / _ / q $ = = o $ o   .     . : 2 2 : z L I.:X].rXjXwXFXqX}.qXkX(.8.V J y.r N.,XyX,XyXtXb.).>XNXGX#XfXdXZXFX0.q.: s ^ m.^ +.oXc.F.F.D.B.G.).).B.%XJ.9.9.$XG.( 9.D b.; ; f $ 2 3 0 4 $ 4 1 $ 1 4 2 @ @ = $ O ; A _ { 3.9.l.z.l.k.9.).>X4XmXMX5X>X-XdXF.3.G.B.uX5X%X@X5X>X>X-Xb.b.E.1.z.V.D.^.^.J.L.@.X.+.d.k.k.( k { o.o.| l ; ; g N.yXN.g 2 z _ ;.n.S S 2 O $ N S g $ * @ = $ ; @ j _ 9.l.c.D.8XvXAXDXDXAXzXzXzX7X2X1X&X@X.XZ.x.c.Z.H. X&X Xv.X.b B.>X#Xk.v h K [ q.b.r.P } _ h j @ d > m.B.F.o.o.o.X.",
") X.@.~ x x x h s s - = l L r ; > w _ L l > h j 9./ w - & & # O # O O O O O O o # @ = 2 ; @ $ ; > , - & # - h A 0.e.n.U.}.qXqXqXt.p e I H 3 y >.<X:X[.=XgXtX*X,XhXfXsXCXeXV.b.U X 7 B.l.G.$XF.J.k.B.%XJ.D.J.c.).9.X.F.D.J.c./ / O.0 | 1.l * A g 0 g e 4 3 3 $ = $ 5 - 7 7 L ^ ' 9.l.m.4.mX5XMX4X$X#X#XB.).>XMXNXdXE.B.Q.).$X).3.gXtXtXW.b.wXyX1.E._.b.q.1.C.z.+.J.c.k.k.k.9.6.k.~ { ( / / K k 7 $ $ 2 = 3 = = # + # = e e 3 4 6 _ N = * @ > ; 7 v ^ 3.l.) v.7XJ.&XnXAXcX3X8X7XAXnX2X&X2X2X.XZ. XZ.v.H.x.K.x.D.c.J.c.O.m.k D _ V.e.` Y Y F l L ` U A _ 0.r.b.} 1.5 l ] ",
"h.h.S.h... .~ ) x c f 5 5 ; = * 5 x j - q ; * 5 - @ O O - 5 7 7 0 5 ; ; > > ; = ; 0 h l l l l c ( ( b d k s , ; ; 6 g J ` T S M % o + = 3 3 u B 0 B z y :.[.).0.n.y.N.=X].0.L 6 7 | 0.{ ).J.BX6X).k.z.7XmX%XF.O.F.D.( ~ b ~ ( O.O._ | l A A q l } B 6 4 3 4 = 6 q 7 x ^ D K l.F.l.F.o.BXCX>X#X>X5X#XG.#X>XdXMXSXdXuX$XB.l.z.G.,X0.w.` P.n.:.I._ 1.[ } r.G.C.b.z.{ +.9.+.9.c.9.) +.X.+./ b K w > : = 3 2 r 6 g g 6 %     % e y e   O 5 ; 5 - 7 s ( o.v.D.k.D.7X@X#X-X4X8X8XBXSX7X7X8XcXnX&X.X1X2XH.S.Z.H. XJ.K.J.o.F.G.3.v b.*X_.1.N q F J q N I.W.I.V.n.` U N _ b.b.9.",
"@...h.d.@.@.@.c.z.9.3.{ l q d l / h x / c { l.O.' ^ ^ ' O.9.4.{ D l k k k k h r w v ^ L / | O.{ k. .@.+.~ K x > > : @ # # O o o o % % + % : : $ 2 @ # ; 5 @ 5 | S B S U Y z @ O l z.k { ZXSX$XmXZXdXGXPXmXGXIX-XG.$X4XnXmXdX3.9.1.f J   Y l B J A q = @ * 6 f r l 3.L K O.1.3.MXmX-XCX$XCXuX#XQ.B.B.B.uXMXZXuX6X>X5X).z.z.9.3.E.n.>.N >.2.U n.E.0.C.E.| O.z.`.B.F.c.+.X.) ) +.v.D.J.+.X.~ m d & q 2 2 @ = * 3 6 6 e 6 : = : %   . . @ @ 7 > d h +.k.k.J.8X7XnX3X3X6XcXMX7XK.oXMXDXSXcX2XMXMXzXzX2XcXK.2Xx.7XZ.v.l.3.o.' z.*X_.{ l f 6 q l f N 2.*Xr.r.f [ :.].,XNXyX,X",
"A.A.x.v.d...x.K.X.~ o.z.+.o.k.z.$X#Xm.).J.G.k.J.9.+.+.9.l.k.+.X.o.{ ' ' { { ( / / O.l.z.B.G.J.F.c.OXc.6.v.X.K { v z w 2 2 2 : = 2 4 2 : ; 5 q w f 5 ; ; > - ; w A r : o @ 2 0 } _ L / uXGXG.IXZXZX_._.V.V.4XmXZXJXIXCX-XNXO.mXZXgX} 8.0.r.} J f 6 2 6 6 0 A _ A D w 3.B.9.$XIXNXmX#XMXdXMXSXG.$XB.$X6XSXPXIXCXuX$X$XE.G.$X#XV.V.=Xn.-.N U e.V.tXeX,XyXtXfXgXfXdX6XJ.v.c.D.k.X.( X.~ +.~ ~ ( d d ; & O . O o * * $ 5 r 6 $ O o . & > ; ; O > k o.^ ' ~ v.7X6X3X&X6XoXg.c.8X6XoXK.6X7XMXAXzXMXSXMXMX2XzX X7XJ.@Xc.@Xz.l.B.).B.| l l q L _ l 1.N.l f F A B F E.V.0.1.0.z.",
"x.H.h.H.x.) x.v.1Xv.h.x.@.+.S.K.v.D.3.D.@X3X@X3XJ.G.D.D.J.J.J.G.D.c.z.c.B.D.B.c.z.k.c.G.@X@X@X&XMX2X%X@Xh.+.+.~ ^ D h q w q w 0 6 0 q r l A L L w v L x k ~ D > @ $ : = 5 q 6 _ 0.} 5XIXE.5XdX>X*XZXC.:.*X*X:XKXIXZXN.*Xb.).[ (.T : 3 q.Y B L r 6 ; r A l l ^ _ { V.5Xz.SX*X5X5XuXgX,XNXCXgXSXNXMXSXPXGXPXPXPXSXmX4X,X,X#X*XwX,XrX=XP.N S :.S U U 1.m.*X<XuX<X>Xk.D.J.D.c.v.O.~ ) k.X.k.k.X.+.b F j 7 & O . .   O o . o O O @ * O - > c D { ^ D o.c.l.@XMXnX7X6XF.l.%XuXoX#X4XJ.%X@Xd.k.7XnXnXSXLXcX2XnXzX@XK.@X3.O.^ K D ^ D l A 1.A A b.;.w q l _ Q.b.V.0.} L q A } ",
" .v.h.H.Z...h.+.n W d.S.H.S.S.Z.@XD.D.J.J.DXSX@X@XJ.J.D.D.D.D.J.J.K.D.K.J.J.J.D.c.6.+.L.J.J.@X%Xv.Z.h.v.%X-XJ.J.z.9.{ ^ K P K D l L _ / ' 3.O./ / ~ { X.~ D ) ' ] J F J _ [ | 0.l ,XZXuXNXNXSX*X0.CX{.[.{.`.sXU.T r.(.rX{.B ;.;.8.-.I [ [ z 1.A l A { 3.O.9.G.$XtXgX,X*X).r.9.C.,XgX*XNX[.ZXSXPXIXPXIXPXPXBXBXBXCXfXBXCXuXNXGXFXW.=XP.2.w.;.` Y Y | L | m.<X9.w X.+.k.+.+.k.c.K.X.#.k.X.( X.m d c h h > 7 ; 7 7 - @ O * = & * ; 5 s D j h h O.G.k.-X3X4X7X&X%X7XF.#Xc.3.F.' D &X%X X@XJ.@.k.7XAXDXAXSX7XcX%X3X@XD.m.K > & > s v L 6 5 h h f 5 O O O . 5 . &   @ @ = ; ",
"x.S. XH.j.h.d.d.h.S.S.A.XXOX2XvX%XzX3X%XPXPXDXnX8X8X8X8X8X8X3X3X@X^.J.H.K.D.Z.v.Z.x.h.v.J.&X3X6X2XK.K.OXOX&XJ.+.6.9.k.z.m.l.O.{ X.c.m.k.l.J.J.z.D.+.( ( X.D.J.k.1.1.1.b.e.1.0.1.Q.gXGXZXV.ZXmXtXCXeX<XjXrX{.}.T 3 0 Y.rX<X(.8.E T P.-.y.U [ U l A O.3.O.l.).4X5X,XC.1.[.P C.E.).b.q ).*XNXgX*XNXPXUXJXPXPXZXmXfXtXuXBXGXGXGXGXFXjXjXyXwXY.` I } | r._.*Xz.P k v ( x m ( c.c.+. .@.k.X.X.+.X.+.~ ' ~ D s s > 7 7 s s w > , > d D v x ^ K o.' O.o.Q.MXSXMX4X#X-X4X4XQ.!.o.s 4.uX-X#XcX6X%X@XD.x.Z.J.zX7X6X XMXnXcX#X%XD.x > . & s O X X . O & - O 5 O O # ; & @ * O # @ ",
"d.@.S. .! h.@.A.f..X+X+XxXvX2X1X7X XvXSXPXnX6X%X8X8X3X8X%X&X&X&X3X1X@XOXJ.D.c.x.+.+.X...v.&X7X7X7X7X1X2X7X6X3X8X7X%XJ.D.D.F.D.D.J.@XJ.c.L.J.@X@X@Xc.D.@XJ.J. XD.).E.C.I.| l | _ } } / _.gXyX>X:XsXkXjX[ ,.N.e V T I t.qX:XjX}.Y S S ,.J J S } B z.m.z.B.@X).Q.4X*X*Xm.| C.C.q.1.q.| q.<X*XIX<XE.dXdX%X-X-XmXtX=X_.yXyX=X].e.;.w.W.Y.FXjX}.t.U I.Q.I.V.O.B.G.).l.X.D.&X%X&X@XD.k.c.x.k.@.+.Z.Z.c.X./ ~ d h s h h d x m w > d c b o.' v ^ ^ l.m.G.F.uXuX>XQ.Q.#XG.o.F.Q.*XuX5X#X%X#X6XuXJ.g.c.J.K.H.D.@X3X3X X3XDXQ.#X-X3.#Xl.4.D ^ ^ F c c h s c ; > s - - , - - # @ - ",
"x.H.OXj..Xh.+XA.OX1X+XXX+XbXAXPXIXDXnXMX6X7XnXnX&X3X%X%XJ. X@XOX&X8XD.h.v.v.+.v.x.( ) ~ A.7XAXOX+.@XvXMX8XaX7XvX7X$XBX3X-XD.%Xk.%X%X@XJ.6X3XvXK.J.@X@X X&X3X&XF.,X_.1._ _.b.b.1.:.q (.} | *X].,X'.kXu.:X'.t T T E V S t e w.'.T t C M Y 8.0.r.1.1.O.3.F.).7XSX4XE.[.gX).gX[.| q.Y `.,XZXZXGXtXuXBXdXnXBX$X#XCXtXNXwX=XP.n.t.P.-.,.R qX}.jX=X].1._ 1.[.G.$XuXm.k.L.K. XK.H.H.x.X.k.L.Z.d.d.W ) d ^ b ^ ~ +.> ~ D b ~ / ~ x m x b h ^ 3.F.#XF.l.m.#XZXQ.m.m.z.l.Q.3.F.,X5X4X5X,X$X5XnXdX4X4X-X@XD.+.c.J.%X6XMXcX-XMX6X4X#Xc.F.#XF.z.3.{ / / ^ K D x D d d - > - 7 w w w ",
"A.A.S.@.h.S.1X1XOX+XxXbXDXDXbXDXDXvX7X3X@XOX3XnX3XMX7XJ.d.nX3X7X%X&XD.v.h.OXJ.v.v.h.@.x.d d %.x $.7Xc.@.D.K.3X>X%X@X9.{ D.@XD.B.D.K.K.@X&Xc.&X%X6X%X&X3X7X3X%X-XB.z.z.1.b.C.L 0.| q E._.NXGX_.r.P.P.M 0 e % %   .   O +   o 4 : E Y B N A L } _ o.z.$X).#X@X~ 7 O.m.*XG.0.r.*Xm.O.C.gXgXC.tXNXCXSXuX-X>XmXBX,XE.hXhXFXR.pX}.P.pX'.t.t qXrXyX[.U.E.1.o.l.#XF.o.@XoX@X%X2X@XL.Z.K.L.L.J.L.+.%Xk.D.L.v./ k.+.( ~ Q Q x d d Q O.O.( c.F.m.l.J.@Xm.+.MXG.G.z.F.X.D.uXNXfXiX,X$X#X,XfX>X).Q.6XBXnX@Xv.@X&XJ.Z.D.&X6XnXSXBXnXuXuX4X-X5X-Xc.{ X.3.o./ K K D D ~ h v ^ ^ d d d ",
"h.f.A.j.S.7X1XxXzXxXDXDXvX2X2XvXAXnX6X3X&XJ.J.%XPXnX7XAXSX3X^.D.Z.c.J.@Xc.OX%XOXOX+.+.~ #.m d < b ) x b $.BXJ.).c.G.G.G.F.^.J.D.L.%XJ.c.+.D.3X-X@XJ.@X3X4X$XQ.Q.G.L s 9._ ^ E.V.8.q 5 @ 5 r 5 q o o O . o + # 4 % o % 4 $ + $ 4 0 B A L Y _ 1.O.F.1.).).6X4X( D.G.fX$X<XZX*XfXtXJXNXNXfXtXSXgXG.uXmXMXuXZXZX_.eXY.w.Y.{.9X<.9X<.,.P.P.Y.Y.kXwXyXE.r._.).{ ' F.@X@Xc.d.Z. XK.Z.x.v.v.Z.D.D.x.H. X@XJ.J.D.G.+.c.k.+.@.( W n W X.g.v.D.c.l.c.l.m.#XmXK ^ Q.tXBX4X*X-XW.!.$X*X$X#X*X5X5XdXfX4X@X#X4XJ.J.D.+.X.k.D.oX4XF.@XBXBX4XoXD.m.D.z.{ +.D.v.~ X.k.k.O.z.{ ~ ( X.{ o.",
"j.h.A..X1XbXvXvXLX1XOX&X2XvX2X Xx.D.D.@X6X5X&X%X%XSX3XnXv.D.k.c.L.^.nX7X@Xc.c.+.S.+.! ( ( ..m , - & > s ( O.3X6X$X6X$Xk.%XJ.B.^.@XD.k.%X7XnX@XJ.D.Q.).Q.).$X$XQ.-X-Xl.& z.).G.b.f h f r g 2 $ = # o # % $ $ # 4 : 2 $ $ 4 2 4 0 B l f P | O.1.| 9.B.MX-XmXPXD.l.uX).9.`.$X*XIXZX$XuX$X_.>X,XMXIX5XZXNXgXZXfX[.hXyXrXp.7.9X<.0X9X0XrXHXw.w.w.I.sXCXV.F.4XB.l.%X@XK.K.H.c.Z.J.J.L. .oX%XL.K.v.7XD.J.%X#X&XD.D.c.c.L.O.) ( ) ) @.Z.x.c.c.D.J.F.@XMX5XB.m.#Xm.,X#XF.V.0.4.V.*X,X*X_.-XuXuX>X#X-X6XdX@X3X3X%X#X&X%X@X@XDX4XD.cXSX4X8X%X%X4X5X).3.+.m.+./ k.9.+.X.c.X.9.k.k.",
".XXXA.XX2X7XAXAX2X2XnX2XJ.&X Xk.+.B.G.$XMXMXdXnX>XG.-X{ m.nX>X%X&X6XDX-XnXJ.x.~ L.( m ( X.~ m x w d k w { w d 1.mX).$XG.3.9.F.( v -XMX$X{ D.B.l.$X*X`.V.N.(.*X*X>X>XF.& 9.o._ h A L = o @ @ $ = 5 6 5 : = 5 e 6 # 5 2 @ 2 5 2 0 ; c | 9.P w { $XuX>XmX$X-XSXMX4X#X_._.$Xm.$XJXCXNXNX_.mXIXSXJXJXz.$XgXCXFXjXsXeXqXqXKX9X0Xp.=.7.0XHXjXjXjXrXsX:XFXNXE.B.%X-X8X7X3X2X%XK.H. XK.L.v.d.v.H.H.zXH.@XD.l.#Xm.4XG.Q.k.#./ Q Q Q ( @.g.x.c.+.+.J.%XF.9.x o._.#X#Xb.=X=X,X_.b.1.2.V._._.V.Q.$X>X5X5X#Xc.G.J.J.J.Q.&X&XJ.cXcXMXnX6XmXSXSXBX%XJ.&X&XD.+.+.+.v.v.X.Z.( b b ~ ~ ~ ",
"S.XXS.+X7X1XvX7XMXMXnX@XJ.-XD.X.#X4X-X).Q.G.G.G.l.F.x 4X#XB.4XuX6X7XnX6XSXK.k.D.k.~ x d k.@.X.~ h > w 7 q 0.j z._ l.z.@XB._.z.9.F.m.z.9.+.z.3.9.> ; ; 5 ; $ $ ; O X s B.m.h } l 5 A 0 f B N r : 6 q 7 f 5 ; q 5 q l f f L J l l v x d k v _ ,XIXCX$X,XmXtX>X$X_.*XZXCXCXBXmX5XJXIXSX5XBXBXuXIXIXCXZXgXgX[.Y.eX|.<.H p.=.&.i.9X9XT.jXjX{.t.w.I.[.C.fXCX#Xm.#X6XnXDX7X&X@XoXH.v.x.d.d.v.v.X. .d.@XuXdX$XdXc.Q.K ( +.m.c.X. .g.x.+.c. X@XoX&X@XD.F.$X).3.m.!.3.Q.yX*X,X=XV.0.0.b.b.V.b.B.*XdX>XB.O.J.J.J.J.$X3X8X@X-X%XoX6XSX3XQ.MXBXDX7XJ.@X7X3Xc.+.~ X.+.X.+.v.X.+.d.d.",
"j.XXOXbXxX2X+X1X2XnXnXJ.B.#X-XuXMXMXmX>XQ._.-X#XmXl.Q.G.4XZX_.5XmX3X5XZXdXm.O.F.~ 6.b b x +.~ ~ | L Y 5 2 5 1.1.V.1.L 3.L z.{ k d w k > k / v q * : 5 y 0 2 : 0 c ~ 3./ / { k 0.} 1.l l t t r r f ; 5 l A D L f A F l l L L c h s ~ O.z.c.D.5XmX*X>XgXyXNXIXJXNXBX-X-XSX4XuXBXJXIXSXPXSXMX4XdX>X$X(.`.<XeXeX{.i.p.0X&.&.<.s.a.0X0XI ,.P.jXkXY.E.Q.} 5XZXQ.Q.4XzXMXAXDXMX1XH. X7XH.@Xd.n x.Z.&Xx F.B.G.).z.z.o.F.o.' Q b ' l.g.#.Z.@X8X3X@Xv.m.4X,X-Xl.E.m.E.b._.V.].tXtX=XE.n.r.b.| L 9.$X4X*XQ.k.c.c.v.c.D.L.v.%X%X%XJ.D.3XcXJ.7XnXDXnXJ.h.Z.8XJ.D.( W ~ X.X.k.@.@.@.",
".XOX+XbX1XvX XzX7X7X%XB._.5XtXBXfX5XuX5X,XmXBXtX*X4XE.tX-X,X,X-X$X>X#XdXQ.5XD.( X.O.#.$.+.X.{ { { | G.x L h . & # ; # O ; A 1.).{ d k > w & @ > q z z q r A } 8.1.J.z.B.G.l.o.O.| U f _ _ [ J S } 3.l.D w L { D L o.} A h A ^ ^ ( z.9.X.X.m.3X4XdXfXNX5XZXJXgXNXZXPXuXmXZXCXMXPXNXNXJX,XNXNX(.*XN.N.|.u.[ *.,.Y.i.T.}.kXi.7.=.<.p.}./.rXP.[.CXVX].[ Q.>XQ.,X5XmX6XMXDXnXzXcXnXnXZ.+.d.v.k.D.O.l.0.L L | ' o.L 9.o.( #.3.3.O.m.8XMXnX&XJ.8X4X#XQ.G.m.m.F ;._._.e.I.b.r.V.V.b.b.b.D } 9.} _ 3._.5X>X3X%XF.c.F.@X%XJ.@X7X4XF.c.oX4X4X3X3X6XnXaX&XD.k.k.+.Z.+.k.) n @.@.@.",
"h.OXxXxXOXxXzXOXnX@XQ.5X>X_.,X=XF.tXBXBXmXBXmX5XuXF.dX,X$XnXQ.Q.*X5X5XG.b.-Xz.' l.X.x ~ X.v.@.) @.) ( k.c.k.d K - D s } 1.Q._.b.z.D.9.( ~ X.n ~ n +.k.+.l.z.0.b.O./ v ^ D h ^ 1./ ' m.0.0.1.0._ N l L 1.1.A l D 3.o.3.' _ l c F O.z.z.B.^ #XSXIXPXGXF.V.KXJXgXgXCXMX4X5XgXCXIXZXe.J w.lXHXlX7.p H Z Z H R y.p.9 7.}././.9X7.&.7./.*.0XT.y.p./.,.w.;.n.n.W.fX#X4.M.m.-Xk.GXCX4XJ.@Xk o.x m.{ > o.I._ Y ` L 1._ ^ c o.' l.~ ( 8XMXBXMXF.{ uX>XQ.-X_.E.o.L s P 3.Q.*Xb.V.m.L _ E._._.V.Q.].] 1.Q.-X%X@Xl.Q.Q.uXc.#.l.#.@XMX@Xm.D.7XSXMXSX>X3X6XSXnXJ.D.h.X. .x d ~  .@.d.",
"+XxXDX2X1X2XMX7X@X%Xm.uXtXE.tXb.;X4XcXBXSXBXuX-XuX4XuX,X>XmXdXdX5X[._.3.V.#XF.3.Q ) ) +.X.h.x.OX .) m n x.( >X4Xl.5XyXCXNXfXVXwXmXMX%XD.k.D.x. X1XnXSXSXSXdXdXSXCXSXdX>X).G.#X).Q.9.3.b.b.0.1.1.q.b.9._ | z.m.9.D c D 3.3.4.l.G.O.| q.O.9.MXSXSXMXPXBX5XGXfXjXJXZX5XZXgXfXPX[.} >.t.t.7.Z 9 a a.0Xa.i./.7.7.,.7.T Y.T.7.i.a.a.p.7.p H R.7.{.{.sX[.W.2.S ` U.;.V.] 3.9.>X$X).G.D d w x / O.> o.{ *Xn.1.e.;.1.A _ F ' ^ D ^ m.MX4XQ.*XuX4XuX_.$X,X,X#XQ.0.V.G._.E._.V.G.0.L 1.Q.V.E.E.n.b.W.E.b.4.oXc.D ( 8XD.F.%X4XD ' Q.J.SX6X-XB.J.4X5X5X3XdX6XMX3Xk.( x.v.! %.~ ) ..",
"2X2XOXvXzXvX2XMX6X@XQ.).)._._.E.M.oXuXmXtX;X-X4XQ.uX-X-X>X#X-X).$Xm.B.0.*X4XQ.o.F.D.g.k.@.h. .) ....#.Z.+.@X).4XB.5XmXCXNXwXVXfX#X>X>X>X&X%XD.8XnX7XnXSXCXCXGXPXJXPXdXQ.l.9.m.l.9.F.V._.E._.V.E.r.V.V.V.0.} | { ^ b.l.3.D 3.3.o.C.| 9.{ 9.nXSXPXPXGX5X*XZXZXfX[.gXmXgXJXCXJX,X8.:.yXVX/.<.H <.9XR.&.7.&.y.y.i.P.T.T.p.R.9X0Xa.7.p.p./.7.y.kXHXkXKX}.jXhXyX5.S ;.BX5XCXfX5X#X' ' K O > k D ; l._ b.B ; ;.0.1.q 1.3.' o./ k.D.@X3.4.F.tXyXfX4XuXgXtX#X#XQ.,X_.Q.b.B.b.E.b.} b.*X_.b.4.b.2.e.b.!.4.3.' 5X#X#Xm.Q.5X4XQ.h z.uX-X3.Q.F.G.).mXBXnX>X6XMX6X%X@Xc.~ n  . .@.d.",
"A.+X.XW x.1XnX8X3XD.5X4X4X5XV.*XQ.iXuX5X4XuX-XQ.F.dX4X,X5X-X-X_.4X$X).uXmXBXQ.3.X.c.x.k.@.A.x.h.v.( D.c.J.5X5X4XMXBXyXNXyX,XyXyX=X,X,X5X>X%XJ.6XSXnX3X>X,XBXJXCXNXSXBXmX5X_.#XG.,XZXgX,X*XtX,XfXZX_.0.z.V.b.9.3.3.o.o.l.3.4.3.B.| / 9.B.z.G.>XPXBXuX_.tXyXgX`.| 9.E.F.SXMXtXgXhX].=X}.,.&.,.0Xp.i.=.H ,.,.kXqX/.}.T./.0X/.a.0XkXT.}.{.jXqXjXjXKXKXVXqXW.` e.].;X*X4Xm.uX$XQ.z.m.#Xc D o.D . O.{ l I.(._.L _ l 1.^ h ^ ' o.+.O.^ 3._.F.9.*X,X#X,X4X-X_.tX$XQ.V._.V.1.0.E.E.Q._._._.V.*XQ.e.b.*X#X3.m.Q.uXF.!.BX-X#X;XuXQ.z.4Xm.l.3.3.{ F.#X-X).nX4XnX3XD.Z.D.X.d n W ) ",
"xXbX1X2XK.H.@.D.%XuX*X*X#XF.*X$XuXZXBXtX-X,X*XF.Q.,X,X_.-X4X4XfX-X$XQ.tXiXuXQ.m.o.k.k.k...h.h.A.v.v.x.J.%X3XJXMXMXgXE.].W.yXNXGXNXVXNXCXBXZXnXPXBXnXSXGXZXZXFXhXgXZXNXNXuX*X*X_.NXtX*X_.yX=X*XuX*XsXyXE.b.V.E.V.o.9.o.h D o.{ s { l.9.>XF.B.-XGXPXMX-XJXhXFXCXNXJXSXIXIXJXNXE.tX=X2.-.w.}./.pXi.p.H y.p.p.,.:XP.kXY.p.a.7.7.a.<.,.y.Y.lXlX:X{.jX>.W.I.:.yXU.wX0.4XG.5XF.l.w #XB.l.& ^ / o.9.B.*XI.(.I.eX_.,X0.A 3.{ O.3.o.m.F.F.-XmX-XQ.$X_.E.4XuXfXtX5XF.b.9.b.0.L L b.*X,XQ.1.1.n.e.n.V.} N ;.!.!.*XuX4XBXB.!.5X-XtXGXuX3.#XF.3.V.V.,XtXdX-XdX>X%X3X>Xv.~ X.K.n ~  .",
"DXbXzX XvXnXAX3X' Q.$X$X*XW.V.1._.*X,X*X!.E.#XtXuX5XNXuXuXmX>XmX$X[.*X,XuXQ.Q.l.l.o.( k.+.+.d.K.v.J.@XMX%X6XuXmX4XZXNXJXfXNX].W.yXfXyXhXBXJXBXPXGX5X>XfXfXtXfXFXCXJXZXtX,XyXCXNX=X*X,X*XfX,XtXtXgXNX,Xb.1.V.V.0.Q.0.l.4.l.^ { 3.1.).o.@X).%X5XuXSX*XV.CXNXJXKXJXJXSXGXGXIXJXuX,XyXFXjX=X'.<.7.T.p.P.(.HX|.'.sXsXqX'.0X9X7.=.<.7.7.t.P.V 8.I >.z U S = J W.*XNX=XQ.3.l./ 3.9.b.O.@ x K L 7 k -X4X_.N 6 b.b._ _ _ 9.3.3.$XF.Q.#X-X#Xm.E.5X).F.V.Q.m._.,XQ.*X*X,XE.E.E.(._.,X,X_.0.| ;.} I.n.;.S 2.o.l.' 4.3.4.1.s c o.*X!.uX#X!.!.=X*XV.V.#XuXuX5XB.#XMXnX%XJ.k.~ n ! ) ",
"SX1XOXDXDXnXD.9.' ' { | b.I.2.n.b.2.;.1.b.Q.=XtX=XF.,XuXuX5X).*XfXNXhXgXNX*X*Xm.m.m.l.v.) ) ..H.OXc.nX$XdX4X>XCXgXZXNXgX*XfXsXjXsXyX*X].,XBXyXNXBXtX4XCXGXwXU.W.W.=X*X=X=X,XfXyXtXfXfX*XQ.*XyX4X,XsXZXZXtXE.b.V.*X*X$Xb.} ] ' ' v 3.{ Q.>X4XQ.b.,X*XNXIXKXjXFXNXZXSX4X-XGXuXGXtXuXFXVXpXhXjX/.T.P.wXFXjXlXeXhXsXY.>.*.7.i.a.a./.rXwXu.N.[ 8.>.` n.e.*XE.VXfXVXF s #XB.{ m.k m.o.& q h 7 O l.-X).,X(.n.n.0.F ` ] o.3.F.CXBX4XnXMX_.b.b.wX_.,X=X_.wXiXfX*X,X*X_.b.Q.,XeX_.b.0.8.1.S g N U N g U 2.b.^ F 7 h b.Q.3.M.4.4.n.l.A l.] 3.1.V._.tXuX,XF.ZX).@XuX$Xk.+.k.W )  .",
"2X2XMXAXnXvX3Xk.Q.b.q } b.g J U F U L g f _ r.V._.3.V.,XtXfXMXCX#X<XV._.].yXCXNXV.F.O.( ) Z.A.h.J.-XQ.nXMX,X>XfXNXSXGXyXwXNXNXhX=XyXyXhXGXIXNXfXSXCXyX:X,X].{.jXCXhXwXyXqXI.W.=XZXyXyXGXNXCXBXhXgX_._.sXZXfXtXgXNX_.9.n.l.0.] _ _ 3.l.#XmX5X#X*XJXCXIXJXJX[.jXeXmX5XBX%XGXuXmXGX,XyXGXFXn.P.y.Y.{.KXIXhXeX(.[ I.sXjXkX/./.pX0Xi.t.N.N.<X[.C.E.r._ n.NXyXIXGX_.} o.V.D 7 , { B.l.v v D K , $X*X3.} (.,X=X,X[ | ] ' F.-XuX4XF.nX#X*XgX_.E.E.tX*X,X*XQ.V.=X_.E.b.W._.(.W.[.*X*X,XfX;X].e.] n.:.:.~.r 2.n.!.$Xb.e.*X*XNX;.= S b.W.=X1.1._.b.0.3.*X,XuX#X4XZX>X9./ b ( ..@.",
"1X3XvX6XnX3XnX).4X_.Q.W.b.W.wXe.6 2.N.n.e.F ;.h g E.NX,XQ.*XmXmXE.fXtXZXCXVX,XI.C.h { { k.+.OXK.c.Q.MXZX4XtXgX-XmX,XwXyXFXGXwXhXjXrXFXVXNXgXwXZXNXGXGXJXhXJXFXrXpXFX}.yXjXP.rXU.yXfXVXgXgXZXNXgXCXCXCXZXNXfXhXVXNX4.].V.!.;.} 1.3.o.o.l.5X$XdXGXsXNXjXIXGXVXeXgXQ.mXfXMXPXPX!.uXNXGXIXIXGXjXjXjXyXn.} 2.N.b.E.,X2.T Y.}.T.}.0XlXFXZXfXFXVXhX,XeX=XgXgXQ._.L _ ] V.9.m.Q.o.' { & w K l X O.5X>X-X:Xr.*X*XyXl L ] D *X#XG.#XQ.&X-Xb.I.wXI.8._.W.r.I.]._.E.Q.C.V.*Xb.0.I._.[.sXhXW._.V.e.].S ;.N.W.].V.b.W.g f N 1.2.I.;.U n.n.` ;.W.:XI.N.V._.V._.fX,XmX#X5X3.b.( ) ) ) ",
"..7XK.k.D.J.-X5X,XhXyXI.` >.w.y 4 t.n.U.Y.8.:.fXyX_.m.e.9.0.V.$X,XE.NXeX*X_.I.:Xn.A { K X.k.h.K.m.5XBX-X_._.E._.Q.,XyXNXZXtX=XyXsXjXjXfXhX_.NXgXtXgX*XyXGXGXrXjXpXHXqXhXkXjX{.jX:XwXhXfXgXNXgXgX,XwX:X*XtXFXJXJXE.0.n.0.V.;.4.M.oXo.D ' -XJXJXNXCXZXeX[.jXeXjXhXGXGXGXCXBXPXuX!.l.mXVXCXW.VXFXKXkXqX(.[ N.(.,XE.:XVXVXt.t.jXHXHXIXgXhXgXsXE.tXfXCXQ.s 8.| P _ >X*X,XF.F.#Xz.K k ; F K v l.uX4Xb.b.U.C.n.E.; l A o.tX3.h m.#Xl.l._.b.n.n.0.b.I.W.*XW.b.e.0.;.2.E.:.r.e.n.[.[.].tXyX].n.n.I.I.].I.~.U.W.2.tXe.2.2._ U N.U.2.2.2.` e.U.=XwX[.1.0.tXQ.,XtXCXmXl._ b (  . .",
"+.nX@XJ.J.-XuXCXgX,X2.J >.Y.w.4 e -.t u.P.w.[.tXKXyX0.L 4.,XNXfXuXuXtXV.:.U N.].f 0 L D #.S.) Z.{ CX=XQ.*XV.*X,X*XNXyXgXtX_.gXGXjXFXhXyXtX,XCXBX>XdXFXCXFXVXFXsXjX9XkX9XpXY.'.jXGXVXjX,X_.].*XgXZX:XwXFXKXCXCXIXe.W.n.0.V.2.0.!.F.( o.4.' V.].eXN.r.:XwXkX'.eXr.tXfXBXmXPXIXmX*XiX;XI.].yXGXVXyXHX}.w.1.b.r.E.*X<X*XfXKXKX'.t.CXfX4X*Xm.| <XIXPXSXV.b.E.ZXl z.`.O.^ z.Q.b.9.3.o.K _ K ^ o.3.l.3.b._.I.8._ w A q c m.z.^ g.J.k.4.b.N.n.V.E.=XW.U ;._ } n.W.W.b.[ n.1.Y 8.W.n.e.=X{.wX].2.N.2.r.-.g ` ;.,.~.>.V R J 3 y e.T M I.W.2.w.n.e.*X_._.(._.!.*XE.yXL ' o.n n n ",
"X.h.v.J.F.E.).Q.tX].2.e.P.>.M 3 V u T ,.,.U.eXhXe.;.0.*XNXNXNXBX4XtXQ.,XE.}.}.J 0 h | O.v.1XZ.&Xo.gXVXyXCXNXwXZX-XfX,X,X,X_.,XhXyXhXsXhX*XGX5XfXGXmXBX,XwXyXFX[.pXkXkXKXjXqXqXhX}.W.:XwX,X,X,XNXGXFXjXqX[.:XfXVXV.I.e.1.} ] U 1.3.~ o.o.s l q Y I.Y.8.8.8.,.N.jXeXNXIXGXCX*X*XuXCXNXCXjXsXqXjXGXqX{.N.{.b.I.1.b.,XfXsX*XeXsXyXsX_.E.G.>XG.tXNXJXmXZXdX,X<X| E.V.{ l.Q.z.O.{ o.*X{ ' O.' z.7 j Q.1.;.1.F 5 F _ ; . O > 7 x ( ' B._ ;.} e.b.2.e.` : g ` ` L ;.e.[ r z B 0 2 J 2.U P.sXyXY.r.5.>.T Y.2.U t.V ;.U V e 2.n.>.;.w.~.Y.~.;.:.P.W.;.;.V.;.N.0.l _ 1.D ^ b n n ",
"k.+.@Xc.o./ ^ } :.[ S ` I % % i t.w.V ,.>.,.P.,.;.2.E.wXiX,XtXNX;XGXCXhXJXyXz >.A J [ o.+.v.1X1X_.CXW.,XtXI.fXyXfXNXNXgXNXNXyXNXjXyX].].V.NX#X-XuXtXfXfXKXyX_.'.i.lXpXpXlXkXY.yXIXFXCXhXtXtXfXJXFXqXwXFXhXU.I.eXeXn.n.e.` :._ 1.c #.g.o._ b.L :.u.8.8.rXY.:XCXHXVX*XVXZX,X*XKXGXyXNXW.=XW.jXrXyXqXpXqXjX(._.0.C.>XgXNXfX_.E.,XtXfXdXmXuXSX4X>X,X5XJXG.B.l b._._.uX-X>X9.D o.B.-X#Xk D { fX9.- j _ 0.Y F l } 4.l s , O & X.o.c m.L ` S ` 1.U l $ U S F S ` W.=Xn.(.Y J :.Y B J Y -.n.(.U.n.e.n.T U M 5.>.I ,.~.T M I -.3 V t.G ,.>.e.w.2.2.I.2.N ` e.8.$ r V.F h ~ ~ ~ ",
"&XD.X.k Q.>Xn.b.2.;.N G Z t Z y.y.7./.0XM [ -.'.r.].eX,X*X*X$X_.BX#XGXIX=XV I [ z A _ 9.g.h.2X7XGXhXeX=X].=XyXGXtXfXCXuXfXNX,XfXCXhX_.E._.Q.-XF.5X>X>X*X,X:XhXGXlX*.9XR.i.7.R.rXrXqXjXVXCXFXNXCXGXFXhXwXwXyXsXrX:X} 0.` L [ _ o.h X.l.o.1.r.| N.Y.(.w.t.:XeXqX:XFXtX,X,X,XwXCXiXyXVXNXGXjXjXrXpXqX/.{.qX:X_.tXSXdXSXJXMXB.B.4X$XMXPXCXdXPXPXZXZXdXNXuX).O.z.-X5XZXB.Q.F.' G.uXl.F.> x K / ' & - } wX_ L :.J _ l ^ F d s D b h ' E.(.2.Y 0.].=X(.1.:.r.E.W.].=XwX=XjX:X8.2.2.S r r y U ` e.5.P.5.4 I P.-.T -.t.-.I y 6 -.>.M G R R T -.t.U I [ N.U.` b.l b.n.A F n n W ",
"@X6Xm.( O./ _ :.[ N.t.5.T I *.*.C C V T.C w.'.{.yXn.1.V.V.` } E.M.;.4.].W.[ P.Y $ t l 3.k.x.H.6X*XsXtXNXhX=XyXtX,XZXGXGXGXCXyXtXwXtXtXiXNXQ.$Xc.#XB.F.*X_.fXjX[.R.7.i p =.*.M HXjXsXjXhXZXGXZXNXyX:XqXjXVXyXwXeXeXI.I._ ` U ` ' o.( ( ^ } U B t V T T.jXKXlXkXt.(.sX=XtXyXwXwXyXVXhXGXKXGX'.N.P.,.y.R.t.qXNXKXGXIXPXSXPXPXSXMX%XMXSXMXIXIXIXCXIXJXCXMX5Xl.$X<XmXuXtXE.E.>X>X#XG.o.& 5 > w / x D E.].r.0.C.} L L F D D h , , b / b.b.W.=XU.U U :XyX=X(.=XtX=X].=X` '.rX}.P.-.T e.I S N ` t.>.t.R.R.}.-.V Z R y e I w.I -.t 4 y.>.>.I M y 6 V -.` 2.S U [.*XE.q A W W W ",
"7X>XX.#XQ.0.b.L z ,.>.-.5.i.R.w.t.}.t.T [ t.R 8.}.2.;.n.V.` N F r 2.:.g I {.(.{.z :._ m.m.J.Z.SXwXNXFXtXwXwX*XfXfXGXfXtXfXfXNXgX5X_.4X$X#X@XQ.6XQ.-X*XCXCXsXY.{.*.&.H ,.p.T.lXFXKXHXGXFXFXCX*Xb.y.Y.{.qXrXjXFXFXyXyX].F _ f F c X.#.k.3.V.G._.T -.:.[ :.[ J 8.}.jX_.0.fXNXFXFXfXGXFXeXyXU.I.-.-./.<.>.P.eXyXSXIXGXIXSXPXIXUXSXSXPXIXIXBXMXBXSXnXSX4X).3.O.uX5X_.dX4XQ.#XG.B.>X4Xv h o.L l.' _ m.V.: 1.:.1.B.U _ l / d d c , < O f f ;.U._.2.F n.e.W.W.I.V.e.r.'.Y S 2.=X=X(.U.8.'.P.y 5.N.P.-.'.'.i.,.y.P.5.V I I i T M R i.R T V 6 t y 3 $ N -.t e g Y 2.;.U s b W W ",
"c.Q.m.O.P b.r.r.r e I >.y.P.T.w.,.y.T N e.2.I.>.w.t.[.P.~.T R M V H 9 $ t 8.Y.}.b.b.^ c.H.x.MXPXiXhX,X,X=XGX,XNXtXfX,XtXfXfXNX*X@X X8XJ.nXG.6XF.b.hXKX{.rXFXR.Z &.&.<.pX/.y.<.qXpXyX>.P.Y.:X'.}.rXsXHXP.T.y.7.}.,.7.qX2._ L ^ 7 b X.( K ).>X$X`.`.jX0.q.8.Y.I.eXJXb.0.-XBX4XNXFXfXIXFXrX/./.p.y.>.wXwXFXfXBXmXSXBXSXSXSXB.5XgXPXIXIXSX).%X8X6XDXcXZ.H.g.4X4X#X-XQ.F.-X5XD.4XmX#Xh h A ^ *X_.b.} A z | _.0._ l.{ v ) O.b n > > & q 1.=Xb.n.C._.r.b.I.W.Y.W.[.[.W.W.*X].n.W.qX].2.g ;.5.` 5.2.5.5.w.T M H i e &.>.M p e 3 e C 7.M S y $ 4 i 9 1 9 1 % e I 2.U N k b ) ..",
"( l.9.F.B.C.E.C.b.8.I t u t C R U.U.0.I.;.e.Y t.>.t.V T -.I % 3 u u Z C e M U q b.3.o.K.H.oXLXSX5XwXVXmXGXNXNXNXVXyX[.yXNXsXZXBXDXvX6XSXSXSXSXV.r jXY.2.9Xp.R H Y.y.'.jX'.w.Y.FXeX'.y.p.}.T.qXkX|.t.kX9X/.R.i.<.&.R.lXn.l h ~ b b { ~ #.).BXBXNXCX<XE.[.(.eXwXrX*XuXG./ b.-XQ.iXW.I.qXHXKXpXa.0XrXNXtXfXNXBX6X%X5XB.' B.).ZX5X*XJXJXCXJXSXPXSXoX&XH.3XMXm.J.F.F.+.%X@X#XmXBX#XD - s ] F F k A f / D ; f m.V.' x d ~ ) ~ W %.n > q l | 1.b.0.I._.*XW.I.Y.Y.I.Y.}.].W.W.].].U.I.n.;.r N 2.;.S U S -.P.,.I >.7.R M -.R V -.,.Y.R I ;.J M M C p 8 + 1 u e 8 -.S l ^ n x m ",
"> d D.).F._ q l q B z t V V I 2.S 5 1.b._.W.:.e.` S g ,.e.w.R &.M T T t 4 : : = ' O.o.g.oXMXLXSXmX,XNXiXNX#XhXhX_.*X*XsXCXGXJXZXnXSXDXSX5XmXBXZXn.hXGXKXHXpX,.w.>.[.HXHXjXy.t.kXjXY.M 7.&.i.y./.P.t.jXjXkX0Xa.=.<.<.y.T l / ( ~ ~ ~ x X.J.nXdX5X,X[.*XU.sXCX|.U.`.gX#X3.l.mX_.0.eXwX'.p.jXKXKXkX:XgXfXNXBXBXSXuX4X#XV.`.<X<X,XsXeXeX).ZXmXCXPXcXBXSXBXBX3.F.4XtX_.F.l.3.-XF.3.3.c h ^ F j s x w - L _ P O.^ h { b s @.x W X.s m F N Y } b.r.I.I.W.W.W.Y.P.e.n.W.wXyX=Xn.2.e.U.W.=XW.P.P.n.;.S J V C R Z C H C p 4 9 T w./.7.u M V T t.y.C a p i 8 *.>.V U l c ( ( ! x ",
"h.b , %.b > P v h l l z S U ` e.8.j Q.L E.1.8.L ;.J ` ;.;.V N t $ e 4 o # = w ^ ' ~ J.&X XLXPX2XBXBXBXPXNXwXyX*XtXsXeX:XeXfXhXtXZXMXnXnXBXMXJXJXyXFXKXFXKX{.I }.e.}.KXjX'.Y.FXFX/.y.<.T p p &.&.C C 7.9XpX7.Z a.a.,.<.-.S A ^ l.( v v k.6XSXmX$X$X*X_.C.sXsX(.(.tXgXdXmXfXIXIX_.U.n.jX/.}.kXa.|.sXfXfXSXSXPXJX>X_ 3.1.n.`.:.r.Y.N.r.8._ Q.D *XGXJXCXtXCXfX3.b.=XwX#XfX_.*XtXF.b.x h _ 9.' k v ^ 3.L O.| L P v ( ~ ~ ) ~ ~ n n m 7 6 f F e.U.W.N.2.e.2.I M I 2.~.'.r.P.wX~.N r U 5.=XwXW.'.'.e.-.H 9 R ,.Z u 8 9 + 8 V -.t.M R -.M e C R p 8 8 9 u C T t = 7 ' ( X. .~ ",
"Z.~ #.d > & # 7 K w ; = $ 2 g h F l 3.k l c _ F L 1.F l h 2 . $ o o * 2 : l 3.O.z.D.x.x ) 1X2XzXmXCXfXJXyXNXyXQ.,X].[.eXfXfXhXCXgXF.ZXGXuX*XGXNXtXFXGX=XsXS 2.>.:XGXKXyXjX'.p.w.T 7./.<.H H =.p C /.9X<.=.a.<.=.=.p R G ` l F / { K { X.nXJXSXC.`.8.0.,X(.r.W.W.,XCXmX4X,X,XJXNXW.(.Y.Y.<.7.p.qX*XdX4XMX>XNXfXQ.V.C.8.J I 0 7.kX:.N.:.=X8.r.0.GXb.NXCXyXZX,XhXI.].I.V.[.tXCXtX`.A P / l.m.3.+.).l.L V.*XG.G.9.K ~ +.( X.Q d W b L g r L 2.r.e.e.r.n.e.-.T 2.P.Y.qX=X].W.U.W.}.=XwXqXyX}.8.>.:.M V R T H *.T 4 8 4 p p 7.E &.7.7.y.&.C Z R p 8 u u $ 4 = 7 c +.) n W Q ",
"@...n W ) m b s > & & ; - s A h w s d w , & - & 7 w ; O - @ @ * O # : q h v ^ ~ c.x.OXZ.Z.vXAXzXuXyX4XwX4XfXNX=XfXyXNXhXhXfX,XwXgXNXtXgXGXNX_.NX_.FXFXKX1.tXwX].JXwXyXVXCXrX[.8.,.p.T.<.p =.H a i.<.=.&.1 1 8 a 8 &.R.T ` l L { ( { 6.$.5XZXZXb.fX:XC.*XU.N.kXCXsXtXdXgX_.0.VXFXn.>.w.I V qX}.qX$XSXSXPXuXGXGXCXGXeXU.8.i.R T E y.w.sXjXkXrXkX,X].].yXKX[.[ W.I.t.P.N '.jX*X(.[.O j c { c.D.O.6.9.C.*XE.z.B.z.9.+.( ) ( ) ..n ~ l N r g S n.W.(.t.w.w.Y.}.R.i.w.Y.e.n.wXsXqX:XjXyXqX{.W.U.U.P.e.,.7.7.R Z C 4 % 1 4 E R e C i i C &.Z 9 8 1 1 i e 4 2 6 ' ( ) ~ n ! ( ",
"A.h.S.S.d.@.! X.X.( / ) / X.3.+.) n n d b m x b +.x c 7 h 7 x s w v c v O.+.X.c.d.H.Z.A.zXDXxXDX4X4XmXyXCXNXfXgXNXNXVX,X=XhXyXyX=XE.jXGXe.*XwX].I.wXZXe.sXGXGXIXJXFXNXKXIXyX8.,.<.7.9XH =.a p H <.&.H H 8 a Z p H i.T.C V F l q / ( 6.X.dXdXgX*XN.*XeX:XCXjXeXE._.b._.,XI.b.].tXE.2.Y w.y.T.kXFX,XJXSXGXCXJXfXE.b.8.t.-.V t i C ,.u.|.|.'.|.{.,.2.I.pXKX'.N.qX{.Y.Y.V t M z [ | 7 ^ { X.( D.-XBXmXCXuX<XmXdXB.K k.3.d X.@. .X.b A Y g 2 $ S T U P.w.>.P.}.[.R.Y.y.Y.'.Y.(.:X'.y.t.'.Y.Y.:X(.8.8.V C ,.y.&.I *.I <.*.p.H H C H I 1 8 8 8 8 8 8 9 y e f j ^ W ) .. .X.@.",
".Xh.! h.h.h.@.h.@.c.c.x.L.k.+.v.h.K.OXK.Z.k.) d.@.+.m ^ / / d { X.#.9.z.6.k.c.v.H. XA.XXbXvX+X1X4X,XtX,XtXtX*XZXGXNXFXhXwX*Xn.W.I.=XsXhXyXGX].V.NXZX:XfXJXKXKXJXJXZXtXtXr.[ Y 8.&.H <.7.a.s.p =.9 Z 9 i a a a =.,././.Z e g l _ ^ $.( B.dX9.| C.sXN.eX(.yXjXFXW._.ZXNXb.b.Q.L I.U.B J t.qXY.Y.t.z.AXSXSXBX,X0.B Y E t.y.,.7.7.y.i y.,.y.y.w.i.y.w.'.{.qX'.>.>.w./.u ,.[ J B l P 5 k 9.6X5XSXMX6X$X>X).$X_.B.F.9.l.' O.@.W X.x O._ U g f = 6 e N N I T -.w.P.~.P.U.'.Y.t.P.{.rX:X:XP.t.P.,.Y ;.w.y.i.I Z R C I R 7.y.p Z E H u 8 8 % 9 H C i p t e = A 3.k.Z.@Xd.@. .) ",
"+X.XOX2X2X.XZ.S.S.S.K.Z.S.@X XOXx...h.Z...! @.S.H.D.L.D.D.c.k.+.$.c.L.v.x.D.v.S.H.H..X2XzX2XxXzXMXmXmXZXBXE.*X*XCXFXhXtXyXyXU.U.jX'.P.e.w.Y.yXsXW.E.fXGXIXJXKXGXNXgXCXJX` B ,.'.T.T.p.7.<.7.i.7.H H =.9 8 a Z <.&.7.7.-.V N L _ +.+.O.3.GX1.q.`.sXKXhXsXFXwX=XVXNXiXyX].E.fXyXW.2.T I >.>.t.T 8.#XuXdXSX>X,X:.(.8.t.7.7.9X*.*.H 9 9 p y.*.p.jXY.{.-.7.>.>.H w.V 4 I V t.P.B N 5 f w O.$XMX-XD.^.)._.$X).z.B.F.{ 3.X.k.@.d.@.m s L A l r 6 2 * @ @ $ $ $ 2 r I ;.I M B -.2.,.8.Y.W.N.w.>.[ Y V t 3 e i Z C 3 e >.H M Z M C I H R <.*.Z u 9 e t i r U 3.+.~ x n n ) X.k.",
"OXOX.X.X X XOXOXS.A. X1X2X2X&X2XxXOXOX1XOX X&XOXZ.K. XJ.c.k.k.v.K.@XOX&XZ.x.d.Z.A.H.1X&X2XvXzXzX%XtX5XG.G.E.iX,X].ZXVX*XeXwXyXN.2.>.Y.qXY.>.[ Y I.;.[ 0.` V.NXIXZXZXIXGX_.I.jX}.lXjX7.p =.7.7.9X0X7.=.p 8 Z &.<.7.t.p.I U F J D x X.#.d -XgXfXU.B I.:XkXFXFXGXGXGX,XtXCX].0.CXrX(.0 8.eXw.N.y.rX5XIXCXPX,Xr.1.8.[.rX<.p &.<.*.% + 9 p *.7.T.p.y.<.-.P.H ,.&.{.>.I V M S g [ B 0 5 D ^ k F.$Xk.X.).B._.E.z.z.X.~ ~ O.@.( ~ x.@.~ ^ L A h ; @ O # o @ = : = $ $ = 3 $ $ 2 t z Y w.=X].8.I J g 2 2 : 1 u C C T S + % e &.,.E C u p p Z C u e p t 6 g F L ~ d. XOXA.H.x.@.",
"2XOXOX2X2X XH.&XzXzXzX X.X1X&XOXOXS.H.OX+X1X%XOXH.K. XOX&X%X&X&XL. XH.S.@.x.x.h.A.1X1X7X7X1XMX7X%X>XmX5XmXBXZXNXhX,XeXsX;XVXqXjX}.}.qX}.w.-.2.e.;.;.l U e.V.0.*XGXGXhX].FXyXjXrXkXkX0X9X0XkX0X9X0X9X7.=.Z R H /.T.Y.'.U ` _ N x O.m x x E.JXKX(.jXr.-.r.e.].KXKXCXFXNX;.*Xr.J Y.:XY.sX(.>.:X].eX*XuXmXNXCXFXrXrX{.T <.i.T.p.H *.Z p E 7.&.T C C R w.y.,.T R ;.U t.P.P.r.(.n.q @ = > k 9.K 5XdX5Xv q.9.r.z.G.#X/ ~ K ) W g.@.x.( ' K x k l h w ; O @ @ O O O $ = = = * = : 2 6 q f B 5 * r 0 : t [ -.,.8.-.M t I w.T T V C M 3 4 0 3 4 4 3 g S U U ^ 4.D.x.) ! d.+.+.k.",
"..W  .K.&XS.H.2X X1X6X X X7X1X.XOX1X7XxX2X2X2X2X&XOXJ.OX&X&XOXH.H.OX XS...H.OXH.1XOXnXzX2X2XJ.7X5X_.uX4XmXdX*X*X_.tXNXwX'.e.yX{.e.>.I M I w.w.I ` Y e.N.W.n.n.1.V.[.` e >.qXyXKXpXqX9X/.p./.9X/.9XR.9X9X7.t.{.yXsXkXwX` _ 0._ 3.b +.g.b | ,X,X:XN.8.J 8.:X;X;XGXNX$XyXhX(.T {.sX|.kXsXjXjXsX=X[.yXiXGX=XwXrX{.:X}.,.7.kXHX9X7.C I T >.u.,.T.T.7.T./.,.-.T ,.2.n.wXFX*XE.F @ O ; h & > w ' +.F.#X3.v 8.G.#X).3.B.k ( ~ D.x.Z.k.d.O.+.+.^ s - & & q w 6 ; = * @ @ O @ $ O O @ # o . $ O o 2 : $ 2 2 B B r 2 $ 0 q.;.J B g t f 3 2 u $ O % $ $ 6 S E.B.o.c x ) d.x.D.+.b ",
"zX2X1X&X XK.H..XH.Z.OX+X1X2X1XxX2XAXDXAXvX2X2X2X1X7X7X3X&X@X@X&X2XOXS.H.@.h.Z.S.1XzX3XMXzXK.3X3XdX5XBX5XuX>XI.b.fXC.r.n.;.W.-.` >.N.W.'.yXCXyXW.{.rXI.U P.n.n.}.:X-.-.P.P.sX'.qX}.jXpX}.kXkX}.pX0X0Xp.,./.{.rXjX].=XyX1._ _ A ' ( g.) ' m.A : jX[.t.t.:XFXFX].;.4.].].U.W.=XjXkXsXrXsXHXGXhXCXVXhXFXhXI.>.t ,.E *.C qXy.y.'.P.[.I.e.B P.Y.E E |.{.eX{.J ;.l 2.4.1.3.' E.O & w w j h l h - k { #Xz.G.O.1._ w > X , ^ Z.+.k.) k.) k.+.' { O.o.^ x 7 7 w q s f j f ; 5 = O . # @ O . . . . .       #   # 0 2 0 z t # o @ $ ; 5 = $ # o @ q N N S 4.D 7 > K X.~ n ) b X.D.",
"zXzXzX6X3X&X.XH.2X@X&XOXOX1X1XxXxXMXAXAXAXvX7XvXvXvXnXnXzX7X3X7X2X1XH.H.d.H.K. XOX&XMX7X3XnX3X6X%X$XmXdXmX>X,XtXfXyXVXFXjX2.~.W.wXjXFXGXGXjXeXsXqXqX[.'.w.'.yXjXqXR T t.'.rX{.jXpXkX'.p././.p.y./.T.9XpXjXkXeX[ *X,XGXE.9.L ' 4.g.g./ ^ 3._ l r.'.Y.rXqXe.2.I.=Xn.F ;.e.[.jXrXFXjXlXFXN.e.I._.yXGXW.` V 7.y.7.u 7.7.pXqXFXpXsX=XW.wX8.:.[ I.kXeX{.P.-.[ eX=X;XV.-X3.F.c @ - ; - s O l 5 7 , c 5 O X   @ - O X > b k.v.@XZ.@XJ.K.c.D.K.c.@.~ b K ( K c h d s w 7 s j q > ; > ; * & @ & * @ ; q f 5 : 5 l B w ; * w ; > ; 0 f 6 w ; 0 q q q 7 5 ; s c c s > d n x m d d ",
"K. X1X6X7X@XZ.v.S.H.1X1X2XzX2X7XAXAXAXSXUXDXMXSXAXzX3X3X3X%XJ.L.h.H.h...X..X XK.J.3X8X6X6X6XMX6X).m.z.B.#XQ.fXGXGXKXhXn.2.yXhXFXVXfX=X,XtXE.;.;.w.S 6 ,.qXjXY.>.-.{.{.t.}./.'.9X}.'.{.rXkXlXlXqXpXjXqXrXCXkXsX:XfXuXdX#Xv h ' m.Z.) X.m.3.l :.`.t.Y.P.8.n.` 6 2.;XGXfXI.w.t.kXY.wXjXKXrX(.2.b.yXwX~.pXT.*.,.7./.0X}.pXR H T I -.[.V.8.r.N w.eXI.t.t.E :.] 4.M.-XF.c.-X, h O & s 7 D c h s & X .   * @ * 7 w K ' X.( c.Z.%X&X2X6X1XOX X X XD.k.X.) ~ ^ ( ( / D x ; 7 s s s s 7 7 ; 7 5 > 7 s l L f O.| c P P v K q z L v s w w v v P A f q l c s A x h d w > s n , > d ",
"v.@X%XJ.J.@XJ.d.H.@.v.&X7X2X7XLXvXzX2X2X7XD.x.OX%X3X7X3X&X@X).@XL.H.h.h.Z. XK.2X8X&X3XaXnXdX5XaXdXdX#XE.uXNXJXyXhXVX[.n.wXVXFXVXhXGXGXhX,XI.b.W.eXN.].qX'.w.R.qXw.T M '.pXi.Y.}.qXFXjXeXjXrX'.[.eX:XP.qX:XwXfXgX*XtX*XGXx D x ( X.c.( ^ b.U 1.:XjX,.N.Y.e.=XW.g F ].*X6 V >.U.qXV J [.jXt.[ FXyXyXqX}.qXR.p.0X{.0X/.y.7.T.Y.I.=X1.;.e.I.:.8.[ J 8.8.B r F b.!.3.-Xl.h , h q q h F c j 7 7 h , - & > 7 - > d x +.k.@XnX@X+.x.k.K.k.c.J.@X@X@X@X@XJ.v.X.( ( o.+.3.^ L D c l h h h h ' D k ^ x s K l.k d ^ { { O.9.B.9.9.| { X./ { { ( ^ K ^ / ' { c #.g.o.' { ' ~ +.( Q ",
"c.L.J.z.3X).' ~ ~ @.H.&X@XnXUXaX%XBXnXD.L.%.b 9.6XJ.{ ~ ^ %X3XD.D.S.H.Z.h.H.H.Z. X X%XnXMXdXdXnXmXfXtXNXmXBX4X*XE.*X,X,XwXwX[.I.n.*XyX*X_.wXgXfXyXVXCXyX*X_.W.U.>.>.t.P.Y.{.{.rXqXrXqX:XqX'.U.[.eX,XNXfXGXCXFXNXfXV.E.wXc F ^ 3.^ ~ o.{ o./ l | E.N.:X:XP.P.jX2.} J _ g 4 :Xt.w.t.w.w.P.}.pXT.&.T.pXpX}.pXjXpX0XjXlX0XpXjXqXR.P.r.: ;.r.N.z z 0.[ $ F : A !.!.!.$X} 7 ; s 7 - h s h D h j , 7 7 & s b x ) c.%X>X5X#X~ %X3XnXMXuXCX5X$X-Xz.m.#XF.z.-XuXD.F.+.D.c.G.4.4.^ D v ~ d w ^ m ~ n ) ~ > d $.X.&X@X..k.b @.X.o.{ o.c.z.z.+.d.g.@.#. .O.g.c.g.H.g.H.x.L.@. .X.d.",
"..( ) v B.`.B.{ o.L.zX&X3X6X).>X3XnXB.B.G.J.F.G.9.l.k.~ ( O.#XaX@XvXZ.x.K.@.@.@X8X3X6XnXMXnXdXdXSXuX-XSXGXZX#XE.[ V.,XeX*X:XeXsXyX*XF.=XyX*X=X_.yXyX*X!.,XCXCX,XW.:XCXVXhXkXrXrXeX=XU.(.eXrX:XhX*X4X,X,XyXfXwXGXyXn.2._.F P / K ' o.O.X.O.{ A _ 1.0.FXKXjX'.t.t.} L t (.].P.t.8.'.T R R /.}.y.7.Z R.pX9XR.R.0XHXjXpX/.9Xi.>.T '.=X} F A ;.n.b.b._ _.` ] } !.V.wX].B 2 6 7 7 f s h h 5 D c ^ 7 > b ~ ( ) J.MXPXBX%X@XJ.m.h h 9.D # f 1.E.wXE.,XBXmX-XO.G.9.O.F.9.D.z.3.{ / +.( > x X.s x m m @.) +.h.v.v.! v.@.+.J.H.).&X).c.O.+.H.x.g.Z..XH.S.H.Z.L.oX Xx.oX..&XJ.D.c.",
" X XD.9.V.G.0.; o.@.&X7X@X( #.$.G.D.>X>XmXz.>XdXSX>Xl.k.>X).@XnX&XK.h...OXOXx.MXPXSX3Xk.O.G.3X>X#XuXBXCXtXwX=XwX*XE.r.N.:XsX{.b.tXVXiXNXiXE.tXeXV.Q._.[.wXhXfX=XsXwX:X(.}.hXhXjXFXVXjXFXJXeXI.C.#X#X#XQ.CXE.GX=XU.E.(.yX| L ^ v ( { ~ ( o.P l B [.b.2.r.qXrX-.T q } I.f O 3 0 -.w.w.I t R qX*.H R *.<.p.}.R.,.I I &.y.-.T >.,.Y.I.} 8.U ` e.f B F _.4.` V.] b.iX0.q * 5 ; 5 j h ] F c l h 7 d v x X.X.3X3XSXG.) Q.F.m.^ 3.z.#Xb._.N.0.1.J D b.B.L ; B.F.).l.F.B.F.k.o.B.v.D.k.+.X.x d.~ ) @. .S...h. XS.J.v.7XOXK.^.J.B.K.&X%X@XoXK.H.K.K.K.@X7X3XZ.@XoXd.D.x.J. XD.c.",
"x.K.J.z.B.)._.j { Q AXK.x %.w v k X.z.B.z.%X3XF.d { { { { c.l.B.c.OXOXK.h. .zXAXzXnXnX3X>X5X5X>XBXBX4X,X*XtX*X*X,XsXgX,X_._.tXZX,XfX=XwXwX=XsX*X=X,XyXfX:XE._.tXFXyXW.2.n.tXjXjX=X].[.eXeX[.wXFXGXmX0.0.fX=X;.2.n.(.wX,XL c x v O.+.~ +.m./ ^ _ L [.2.[ -.N.U.P.8.C.e.e.W.:.N y $ V >.i ,.,.,.y.Z H &.&.Z C H >.R.Z R V -.6 M e.y _ :.} 1.l [ r.l h _ *X*XV.h l A f * * 7 5 5 F h 7 h h ^ k / X.k.~ c.4X%Xx b B.4X>XMX-XSXfX4XyX_.I.*XV.e.1.V.f } b.fX$X,X*X' B.G.3.' k.+.X.X.c.( X.k.h.Z. .@. . XOXd.A...! Z.K.AXDXaX8X6XSXSX%XMX3X@XoX8X6X4X#XoX6X#XJ.4XK.Q.oX@X%X3X",
"6X&XX.> 5 l 1.q F X.x < & , d @ > > > d v ).#X9.B.w & X.l.9.k.$XD.k.MX@XX.d.7XSXPXnXnXSXMX-X$XdXuXM._ E.4XNXyXNXCXNXsXeXwX,XwXeX*XwXfXsX,X*XeXjXNXsXtXwX_.N.C.[.(.:XVXCXFXJXCXjXJXFXFXFXyX=XsXJXfXmXl.yX1.6 ;.N.wXwXsX=X0.3.F x X.k.' +.m.9.1.| l b.:.e.r.:XyX:X2.E.n.b.(.;.g z V N.M M I y.I 9 &.i 4 $ + o % 3 M y y $ e 3 T S '.-.T t [ 2.t z 2.F U.wXI.;.g F J z ; ; g r 7 A 5 s k O./ / h k o.O.D D / $X5X5X$Xb.tX,XE.b.b._.tX].].U yX_.yXe.fX_._.tXQ.*XmXL z.k.3./ { ( +.k.+.v.v.c.@XZ.&XA.d...h.h.d.H.c.zX7XD. .J.SXIXPX6XPXGXGXBX4X4XBXIXoXnXMXGX5XmXJXcX3X6XMX",
"J.J.c.O.E.r.L @ x D +.Q d K L O.9.k { l.J.D.).#Xk d O.B.$X>X3Xl.K #.( ) k.( 8XcXJ.@X4XMXZXfX5X,X_.E.V.=X,XyXyXCXI.r.e.W.tXfXyX,XsXtXsXwXtXNXsXeX=X,X*XI.N.W._.(.[.W.].].wXCXGXIXIXCXyX=XU.(.yXVXNXuX*X[.yXyX].=XVXyXW.:.L L F K D k.+.' 3.m.l.{ _ f A } :.e.;.N.V.0.r 8.yXn.g @ 6 >.M   % $ M + .   + $ + o o o 4 3 3 U N 6 U e.Y.8.4 T ` S 0 2 F b.yXW._.N ] _ L ; * 5 q h l 7 s d d d h ^ O.z.+.v h X @ X v 3.5X,XyX,X*XwX_.wXW.[.yXjXjXwXFXFX2.1.8._ =XV.V.9.9.+.O.' v.+.k.k.+.X.c.+.L. Xv.x.d.@.A.! x.Z.@X3XD.@X@X6XnXdXSXGXIXGXuXuX4XQ.!.*XmXGXCX_.uXCXCXGXSXSXMX",
"k.v.O.{ _.1.; & s D #.MXJ.B.>XC.l.B.D.3Xc.>X+.O.).%XdX6XmX5X>XB.9.F.J.b k.+.D.MX3XMXSXmXfXNXgX[.2.E.U.W.W.hXtX_.=XI.b.I.W.E.n.e.N.{.{.W.N.U.[.W.{.<X[.r.N.:XhXsXU.e.n.W.*X:X*XeX:X[.,XeX,XyXyX].,X,Xb.wXb.jXyXw.t.wX(.(.b.l l h ( c.B.+.k.D.0.9._ ; 6 z _ N 2 r g N.VX0.U ].B ` [ U $ : # o # $ 1 + $ 3 4 4 $ o o : 2 5 O g U U J S U :.: @ $ ` l n.N U U _ L A r @ @ ; 2 q f > h k / K z.O./ > s k h j > 5 = * O A _ 1.W.=Xn.wX'.w.w.FXqXsX(.` >.} 8.L [ b.r b.O.X.^ ~ X./ ~ X.c.D.x. XS.@.@.) d.&XZ.1X1X6X&X X X1X@XMXPXSXSX%XF.*XmXBXBXmXmXfXBX-X-XM.$XtXBX#XmXuX4X",
"Z.D.k.' `.L   O X D Q oXm.$X$XG.C.).dXdXQ.B.9.).@X6X).G.#XdX).G.#X6XG.s ( ' m.c.SXBXMXMXmXgXfXZXNXGXVXjXyXFXtXE.=X*X].b.S 6 l ;.(.r.J n.{.I.U.q.N.I.I.U.{.rX<X(.N.b._.eX,X[.[.NXfXsXhXhXhXJXKXhXZXb.0.0.8.U.qXqXt.rX;.;.Y @ D L { X.z.9.9.+.^ 9._ _ h w _ g L S r 2.r.E.U l $ q = # O # $ # $ $ 1 % = 2 $ = 6 2 : O = * @ 5 $   o # # = # : r = = N l l g 6 = O $ > : ; q 7 7 x D o.{ K d ( X.{ ^ D l D h 5 ; w 5 2 = 2 r S U ` t G R V S 4 t r g 2 f 6 V._.0.0.D 3.^ x x X.+.v.k.~ x.v...v.n Z.7XH.OXh. X@Xd. X1X8X&XDXnXc.%X6XBXGXuXn.b.=X=Xb.L E.1.wXwXiX4XV.#X>X5X",
"v.v.z.| 5 @ 5 ; h s s 8XuX5X5X).>X>X).9.~ ~ +.F.%X>X5X5X>X@XG.B.z.5XB.v { +.#Xc.4XF.b.E.=X,X*X[.,X[.tXeXI.b.W.*XV.W.e.N 1.2.2.;.e.I.`.I.z : Y U.eXU.[.eXyX{.:.:.b._.E.V.I.V.*XNX*X,X:XGX,XE._.n.} 0.*XfXNXW.n.y.qX{.I.E.w @ _ 9.o.9./ O.6.c.{ | _ c c L _ l l A ` r 5 z l : O O @ @ $ * * = = = 2 2 2 2 4 2 2 2 6 f q f 6 l q 5 f ; = 2 5 : 5 l q 5 * @ # @ @ O - - 0 w k / ' k.x K { O.X.( b x K D F q j s l f z f 6 ; $ * 2 0 >.P.-.M 6 t I g # 2 q e.W.yX=XNX9.' K 3.b D.D.X.X.( d.X. .) 1XvXAX2XMX2X1XJ.2XzXcX3XnXSXPX6X%X4XKXfXwXyX,X_ l l b.CX=X_.tXyXCXV.CXMXuX",
"D.B.m._ q : $ O 7 - & %X8XQ.z.9.B.c.+.{ k.>XdX5X#X>X@Xz.9.c.).#XB.9.s w ' ' F.L.z.m.V.V.2.L z f n.I.eXhXW.r.n.I.].n.I.tX].=X=X:XN.(.8.8.:X<X[.sXN.N.:X:XU.N.I.hXtXtX[.eXNXtX_.0.tX,X:XhX*X*X_.ZXyXQ.:Xn.wXn.qX{.t.jX~.e.r h F L F.c.B.X.B.O.9.+./ o.D h 7 L F f L f 2 5 2 $ $ : * * * : ; ; 5 5 6 6 q q e r r f 6 h A h j j h h h z h f h A L L l f 7 7 7 5 5 5 > > l k 7 d b ( B.X.b $.@.v.k.+.l.l.{ D h k j q l r 2 : 2 6 q e e $ $ g I I 2.W.=XW.V.e.U V.,XQ.V.v D { k.X.+.~ X.X.h.#.@.! OXK..XS.7X1X6XDXPXPXDX%X%X3XMXSXPXCX=XE.V.,Xq = [ V.0.F _.fXwX=XE.0.-X*X#X",
"#XD.3.r = # . = - 7 7 -X#X-X`.`.B.9.9.F.3XdX6X>XG.).J.F.@X%XB./ k 7 @ w ' D 3.l.#X4X4XQ.0.} ;.:.2 0 B U J ;.:XGXqXVXVXjXwXyXW.2.r.E.:X:X{.sXtXI.e.L S U 1.I.[.jXZXfXgXZX,X} L A 0.C.b.1.tXQ._.e.b.,XwX1.W.FXFXw.n.t.>.I z f e.1.O.6.z.G.z.z.9.+.^ v x ; 7 ; 7 : q 6 5 2 = $ & = ; ; > 5 5 7 7 q 0 w q r f h l l L v D x ' / / x q z l h l L L D D l j s s h h d h k k k X.k.X.z.b @.D.H.k.) W b ~ / v v d D c v j l A A h f A U U J w.=XsXwXW.W.wXtX} ; L V.b.1.O.x ' O.J.X.k.D.v.k.v.( @.n 2X1X&X&X6X X X7X6XJ.oX3X6XQ.F.o.Q.PXtX*XV.1.(.0.b.1.yXwXN.V.,Xn.5 Q.0.b.V.",
"@XJ.Q.| J 2   5 > 7 , 3.F.*X`.).`.#X>X5X5X>X>X>X%X5XnXaX>XJ.9./ & # # x { c ^ o.4.4.` l r z S S I B t 3 % $ t ` =XI.yXwXe.` e.;.e._.N.U r.(.n.N.=X(.*XtXhXsX,X:X*X*X_.V.0.V.[.b._.Q.*X0.0.tXE.yX} F b.;.R.I w.w.V e 1 T r S ` 1.9.X.B.m.z.O.+.K k h j 3.D h O O = = = = = $ * : 5 5 7 q s j h h l l A A L ^ _ _ / o.l.3.O.{ 3.9./ _ { o.O.1.O.O.+.{ ~ c x d s > { K +.+.W ( @.X.x.v.Z.v.@.@.d.x.X.O.( ~ x K D v k w ; = > q f h * 2 N z S 1.U F 1.b.0.L l L h . s c v K / ( ( v.D.( d m @.) 3X&X8X%X7X@X@X6X4Xc.l.+.4XSXBX-X>X#X,X} l : 2.W.6 ,XhXwX} B V.2 *Xl A D _ ",
"Q.%X*X1._ r   = 7 - , ' z.O.q.G.>XdX>X9.{ c.).G.).@X>X5X>X).).*XP q 6 ] { c s f 5 5 2 = = 3 3 4 $ $ $ 4 3 3 r V r '.hX~.wXwX=X=XW.n.Q.eXfXC.;.eXE.[.tXhXtX(.V.b.,X*X*XyXuXgXNX*X*X| O.} >Xb.*Xb.*X,XW.eXsXHXP.i M V M 4 ` B Y _ ( $.s ~ %.~ k k ' D D 7 x q k q q = O $ = = 7 f s s j h c v D D v A D P L / ' ' ' ^ b ( X.+.( ~ ( { O.O.O.o.X.( Q b b ~ ( X.@.X.+.k.+.X.D.K.+.Z.c.v.h.h.x.x.d.@. .{ X.~ ( { o.' K x d h D D l 7 q ; 2 o . # O ; f j w h * q s d h { K o.9.G.+.v.X.( ~ k.@.) 1XAXnX3X3X$XJ.$XB.' B.$X).3.m.0.E.tX1.tX_.*X*XyXZXQ.Q.ZXyX= * h L V._ } 0.",
"3X4X0.; = 2 o = s 7 j ( G.b.C.(.>X).9.~ ( k.z.9.$XB.k.k.{ d , ; O 2 l _ _ b.0.L & = 2 2 4 3 3 4 8 4 $ $ 3 4 2 6 6 6 V ].yXVXwXeXfXI._.V.b.,X_.;.=X:X_.=X,X,XiX,XyX,X*X,XG.1.V.*XV.| V.).z.*XG.[.0.` 2.P.'.w.>.w.V R t e t Y L | { x $.d X.K O.K b / v K h ^ h q f 2 2 6 f r f F c c D K ^ ' ' { o.o.1.1.3.9.l.l.k.m.B.J.k.k.k.D.O.k.z.+.+.k.+. .+.@.X.X.@.@.X. .n ~ K. Xd.c.%XzXH. XOXH.x.d.j.S.k.k.v.X.+.{ O.( b K ^ / K c d q q q f 6 ; ; ; 7 & w - k x x , D d K ' 3.B.k.X.+.X.~ b @.!  .H.6X7X@X$X>X@X3XJ.B.>XG.*X,XuX5XtXV.3.; 0._._.b.b.1.1.E.2.5 1.1.L O f f g ",
"@XQ./ ; * = $ 5 l 7 , s 9.C.q.| l.v s K X.( / X.9.o./ c > O O - . 0 F D f o.D ; q 6 6 6 6 4 4 3 4 4 $ 4 e 4 $ 4 y g 2 r 2.iXiXyXwXE.,XtX,XV.4.iX_.,X=XwX,X$X4X=Xb.,XyXgXfXyX*XV._.Q._ l _ b.tXQ.yXW.b.eXW.-.e M 1 + e 4 g 6 B k ( ( ( X.6.O./ K l.X.X.^ o.^ ' ^ f N F U _ U _ ] ] ' ' o.3.k.l.z.l.l.l.l.z.z.c.m.#XJ.D.@X@XJ.Z.c.x.v.c.k.x.v.x.h.+.@.@.d.x.v.Z.x.OX%X2X&X1X&XH.&Xx.x.A.Z.XXXXS.A.x.c.Z.v.Z.D.J.B.c.+./ D K ^ ^ K L L l f w q h s h h ' z.k v o.l.~ ^ o.O.k.K b ( X.( k.X.m  .K.AX&XG.G.).B.#XB.z.F.V.E.).*X} f 5 h / l.4X_.>Xb.b./ l 6 } V.fX*X0.F N N ",
"' / f q 5 o # 0 h h s s w ; : / h & . O O X X # , & . . # & & @ f @ O q 5 f : @ : $ * 6 g t y t u t 3 4 3 $ % 3 t y I t r J W.W.jX*XCX_.;.wXVX,X,XyX=XtXfXyXZXuXFX=XN.sXCXE.E.NX*XCX,XgXiXmX>X*Xb.;.S 3 r e y 3 $ 3 6 $ t 0 0 _ P X.#.@.9.k.@.k.k.+.' ' ( ( ~ D F | 1.' ^ o.9.z.o.+.3.l.c.L.K.K.F.G.G.G.G.G.J.J.J.D.J.D.J.k.k.v.Z.+.d.S.S.h.h.H.x.x.v.S. X&X1X&X1XOX1X&XOX&XH.S.1XOXXXH. XOXOX XJ.oXD.m.+.k.X.' 3.B.#X#Xm.3.3.3.0.1.A L ^ D { { ' z.z.+.X.~ x b 3.' ^ ' +.k.k.k.) b d.~ ~ c.J.@X$X).).$XF.5X$X).b.b.0.l 0 5 A L L tXNXfXfX*X,X4.l w q } _.m.5XZXtX,X[.",
"= t 6 0 . O ; - ^ v , k d k w 5 O O & # # * & - - * @ @ & & @ O # # : ; : 2 * * : : O : 2 : g M 6 6 e e 4 $ 4 t Z p i C C M Z &.=XfXW.` b.yXwXI.,X].].,XeX*X].}.}.t.t.qX'.}.].=XV._.C.Y z z 6 o o o # % % % $ = = g 2 = B l q _ O.+.+.6.x.v.v.v.c.v.x.v.d.@.d.S.+.k.D.@X&X@XJ.J.@Xc.x.L.c.+.@.k.D.J.@X@X$X3X8X@X@X@XZ.J.k.v.k.Z.@.OXv.h.H.OXOXOXOXOX2X1X2XOXvXAXAXW h.xX2XzXMXAXzX2XAXzX6XnXSXMXGXIXmX4XFXyXNXmXNXwXwX*XuXFXwXE.1.L V.b.0.o.O.3.3.3.k.X.+.D.D.k.l.3./ +.x.@.@.) ) D.~ b +.&X%X4X*X0.r.Y (.tXNX:X_.8.U ; l l $X,XZXfX$XfX(.b.e.U 1.O 6 W.0.*X).3.b.1.| ",
",.% + . . q > c v v s k d d d h 6 - = # @ = * ; & - > , - , w h h q l f f l f h 5 5 * ; ; * 5 6 M y e e e e 9 u R t 9 u C Z &.*.t.g N ].].g e N.=XW.r.` z e g S 8 4 3 V t t M Y I t : # . . O = O O # # # @ $ $ 6 = q S D ] l.z.D.c.k.v.J.OXJ.Z.v.K.&X XH.K.K.S.&X XJ.J. X X&X8XH.&X1XOX&X7X6X%X7X&X@X&X%X%X%X%X8X@XJ.c.+.D.k.D.S.OXOXOX1X1XOX2X%XJ.vX7XOXSXnXvXAXS..X2XzXzX1X1XnXLXMXPXUXmXGXJXFXCXFXGXW.W.,Xb.W.W.I.V.e.2.V.].gX,X*X,XNX-X#XE.m.6Xc.l.c.v.g.J.x / o.+.X.~  ...! ! X.b @X3X#X).,XsXwX_.1.(.Y n.Q.L } 0.!.Q.V.b.mX4X*XE.]._ t ` z z :X_.].*X1./ l l A ",
"4   # = : - > h h x x d k s c k 7 - * & ; q 7 q s q 7 7 w d x v x h v l k l q s h j w f q ; 7 5 2 4 2 4 e M M t u t -.P.w.>.<.-.# o : g 6 o O 6 M g e 6 6 3 $ o + + o $ % + o : # # # $ $ @ @ @ = = = = 2 2 : : 5 D D D 4.m.m.L.D.G.J.J.J.D.J.^.OX&X&XJ.K.&X2X2X@X3X6X3X%X@XD.+.@X3X3X&X&X8X6XnXnX6X4X7XuXnX6X>XQ.k.x +.k.O.l.c.H.A.1X%X7XUXAX3X3XAX7XSXPXPXMXSXPXDXPXSX2XzXDXMXAXSXDXBXmXMX*XZX:.hXwXn.;.W.W.2.n.W.I.wXVXNXwX4.A b.V._.fX,XdXuX4X@X&Xl.6X@XX.+.o.3.B.D.c.h. .) @.Z.#.@XnX6X5Xl.V.I.[.NX*XQ.=X_.V.V.1.| m.D q 3.0.G._ h ;.Y >.t.U U.E.= F 1./ v E._.,X",
"$ O : 2 q ; x k n x x s x d b d k w d d x D d d v k d k b ~ ^ K ' ' 3.3.O.{ v x s s d x v k k c f l f q r l B z f : 0 z 6 3 2   O O = @ o @ 2 $ o @ $ O o O # o 3 3 % = 4 : o = # $ = $ * ; ; = 6 6 5 6 r f h h D ] o.+.9.Q.#Xz.@X>X7X3X@XJ.&X3X6X3X3X6X7X1X1X2XnXnXdX5X3X%X$X@X$X3XMXBXnX3X%X3XMX6X-X-X4X6XuXnXmXD.F.F.m.l.' @Xd.J.zX1X@X3X7XvXnXMXk.9.-XB.dXPXPXPXPXSXSXUXPXBXPXUXmXIXGXb._ ` b.V.V.b.F ] U.iXW.;X#X;XhXGXFX=XL l q l | D z.4XF.#Xm.7XZ.v.x.~ l.' 9.z.c.h.n n  .v.W J.D.D.).~ m.*XuXk V.,X0.7 E.tXl A Q.{ 1.m.0.| 1.r 5 [ 2 2 B yX].1.6   w G.} V.,X",
"e   3 O * > > x ~ b n d v s c d k s d k K ( n k k b ( X.O.+.k.c.D.D.@XJ.F.B.O.X.b c b K b k d d h h h 7 7 d d w P v L l o . 2 2 $ . @ : * $ = $ 2 2 : O o $ : 2 : 4 % : 3 0 $ 6 = * 2 q r 5 ; ; 6 7 7 q h A L ^ ' { +.D.@XD.D.3X5X4X4X4X4X4X3X3XnX3X3XvXnX6X6XnXB.{ D ^ ( / 3.).4XnXMXdX5X6XMXBXZXE.o.m.4XuX-XQ.m.m.' 4.m.l.Q.3.D.%XD.^.3Xz.k.3Xk.#.G.l._ | G.B.l.4X-X4XGXmX;XuXM.4.VX$XV.].t.=XW.n.2.S l 2 S ].=XeXFXFXVXVXVXJXNX0.L r P 1.m.z.dXm.-Xl.D.@XJ.X.( x { +.@.~ n @.d.( J.X.l.&X-XF.9.O./ F.V.z.O.@ _.tXo.l.' o.!.o.l.P ; q = @ : e U.U.N r.N.V.G./ b.#XuX",
"U 3 3 r f w h x ( ) $.! b d x v m d m x ) +.@.+.+.k.c.K.J.J.J.D.@XK.J.c.x.x.+.d.x.+.d.+.#.~ m n ( ) W n ~ ( ) b x d d s , 7 s : = 5 7 2 ; w q ; 7 5 5 5 q f q : 2 0 3 0 2 5 ; q z f 0 ; > r c K w s h k c K X.3.X.%XJ.c.-Xv.X.nXuXdXdXdXdXdXnXnX6X6X3X@X@X&X@XG.4X,X-X).Q.*X4X4X,XG.o.P F / F.uXNXmX*Xo.D o.M.M.!.] o.] 9.z.' ' SX%Xm.-X>X$X-X9.k / V.ZX(.1.[ l J f e.].[ ] U.W.U.2.5.g S P.qXy.N.W.] 6 V.2.U ].I.].VXhXwXwXW._.].1.r.A A 1.m.9.{ >XG.J.+.+.k.g.X.^ O.k.X.W ~ v.x.h.K.6.k.3X5XQ.G.@XB.z.9.z.' B.E.#Xl.Q.;.*X1.D c ; f 0 r o   t 4 y -.8.[ 0.1.h q l L ",
"e.Y o f l d { s +.( n X.( b b ( .. .@.d.v.H.H.J.1X@XOX@X%X1X XS.2X&X@XS.Z.S.v.S.S.h.S.L.L.S.h.S.Z.g.@.@...) ) ) @.@.@.~ m x c h w q 5 ; 5 5 5 s q q j s 7 ; 7 h l A l P s k h h w d k k c K K v ~ ' o.o.o.+.D.&XMXSXPXSX3X6XMXMXuXfXNXNXmXmXNXZX-X5X5X%XJ.+.m & D _ D 6 > f h 6 O @ q _ _ s = * j ^ o.3.B.*XE.] F k F o.1.h 3.*XCXuXZXmXb.$XgX} r.(.A W._.U [ ;.w.-.N t U S M '.U V -.R M e C w.W.V S n.=XI.e.wXW.wXwXn.;.n.].,XC.L L L l * q O.s h { ^ 3.+.Q h { o.X.X. .~  ...h. XX.@X&XdXuX9.k.k.D.MX4X/ c.m.#XmXuX4XM.' > D * ; : $ #   g U I 0 e 2 = O 5 _ Q.V.V.",
";.8.J U s v X.~ Z.#.m d.d.X.) X.n W f.h.S.OXK.OXOX&X&X&X@XOX&X%XvX7X6X1X&X&X XOX&XH.OXK.H.H.h.S.Z.Z.H.XXA.f.j..XA.x.@.( X.X.Q %.L L c c ^ D l F _ D c L _ / ' o.v k k K x / ( b o.b x ( X.K ( c.c.J.&X@XJ.Q.4XDX%X3X&X@X@X&X@X-X_.I.V.E.*X,X*X_.#X).#X%XG./ > O - O . # O . . @ # @ O   O q L L f f _ o.F 5 k 0._ 5 s l o._ 3.!.V.<XfX_._.*XC.(.:XI.8.y.[.N.e.R qXR &.H 8 y Z y.R 9X7.T./.9XpX~.~.W.wXVXeXn.;.CX].qX].;X].W.eXwXjXsXb.} b.| A ; k 5 x 9.O.c.D.^ x o.X.X.X.#.x.d.+...X.J.PXJXnX3.+.K.D.B.G.).#Xm.#X_ s 7 7   7 A = $ 2 0 X % I t V t.g $ r l } b._ A l ",
"8.L r l o.~ k.d. .W h.S.k.)  .b ) ) j.vX+XH.bXvX2X%X2XvXvX7X%X&X1XMX&XzXzXJ.H.D.%X&X XK.K.K.D.Z.Z.7XS.h.XXXXXXA.OXA.H.h.v.@.X.X./ v c k d ^ o.K ^ o.o.^ D K D c ) x. .n X.X.Q @.@.+.x.D.g.K.oXK.k.D.3X5XnXnXnXJ.{ b b ) k.J.#X-Xb.;.g z l L 0.NXQ._._.o.' v > s ; f . o 2 O O $ * * O # o   O $ @ @ O o & 2 5 * 5 j 7 l S L 7 6 1.b.Q._._.E.r.2.e.W.jXrX-.R V R.9X}.R.p.H Z Z C =.7.7.<.R.i.Z T.{.=Xn.e._.n.:X=XyXU.=XU.].eXyX].8.(.eX[ :.z l 0.h q d #X3.X.z.o.k ' 9.b m  .d.h.H.h.) vX&X6XCXdXk.k.c.%X@X%X#Xc 7 - s A j _ j l A = N =   4 I V i y e ;.n.} :.} 0.| A ",
"F ` g l x X.@.n x.@... .h.d.D.H. .j.j...j.OXOX7X2XvXMXMXMXMXaX%X&X XD.&X3X%X%X7XnX6X8XOXJ.@X%X7XS.2X2X.X.X.XXX.X1X1X X Xk.k.+.+.3.+.X.' 3.v.l.k.o.X.( K ^ O.m.K.v.g.Z..XH.S.oX1XoX1XH.oX&Xx. XSXnXMXPXmXMXG.{ > s ' 9.$X-Xz.9.9.;.8._ 6 f [ b.e.wXfXb.b.' c l s q o O r q 6 f : ; q q r 2 O o   O O O . O = : * q 6 5 g ;.2.2.n.[ _ :.E.:XW.-.B e.t.Y.P.>.P.'.FX0Xa.p.a.i.p.}.p.H R.}.i.i.*.R T.-.U F ` S r.[.yXW.=XyX].VXFXeX=Xn.8.2.[.sX_.L } *XE._.l.4.l.' l.3.^ ~ b ~ ( ) @.) x.#.7XnX3XG.nX%Xc.Z.SXc.l.l.5XF.9.;.1.U 2.n.W.0 ` q Y $ 3 3 C rXY.>.Y 0 B U f _ | 1.",
"b._ ; h ~ @.#.~ ) n d.x.h.h.Z.! S..Xj.j.S.OX2XOX..m m v.3X5XaXBXSXdXnXMXnXnX#XJ.z.D.&X7XdX7X4X%X3X%X2XOX2XzX.X.XXX2X1XzXJ.l.z.z.D.Z.' ~ +.O.) +.+.+.k.c.D.c.k.x.Z..X.X X1X X X7XzXzX7X8XBXSXPXcXl.O.> ' . P D B.0.V.$Xb.8.1.` I.n.r.I U N n.8.` = ; V.b.V.1.D A ]   * L q q A l h l q w 6 6 l l = = $ # $ ; 5 2 r f l g 1.0.C.Q.8.U.wX=X8.J ` t.w.>.w.>.y.P.T.Y.pXp.a.<.<.i.0X9X9X}.i.i.p.,.7.9XwXFX=X}.sXwXhX].W.U.=XeXFX=XI.=XW.(.=XN.tX_.*X0._ *X3.3.c { 3.3.' ' ( m x @...) d.h.@.MXPXSX4XMXnX6X6X%Xm.BX%Xo.O B 2.2.6 6 U ` ;.F e.N.r P.,.-.P.t.P.P.e.r.E.].| L l ",
"l L { ^ X.#.+.) n d.S.v.&XH.Z.v.+X..j.! ! S.h.1X1X^.x.) n b k.$XMXSXSXNX9.z.m.F.>X$X)._.%X4X5X5X@X^.-X1X1X1X1XxX7X2X@X7XMXQ.$XB.X.( ~ ( x.k.+.v.K.v.v.K.@X@X&X3X X X&X&XoX1X3XoX%X8XDXcX6XcX#Xc h w L l N.U 0.E.Y A B U.N.B -.y.U e I I P.2.e.N B l 6 1.1.E._.V.4.0.l.| L | | l f A l l h w s ; * * * * = : ; ; l N A A b.,XhXyX].(.W.I.N.W.I.-.w.T >.V >.i.i.t.8 Z a.R.R.<.H p R.pX/.y.y.'.pX~.U.:XjXKXhXhXI.FXI.I.=X{.W.wXjXwXjXCXjXJXhX:X*XN.b.1.-Xo.^ o.' c x w d ~ +.d.! b ) h.D.SXAX4X-X#Xv.X.D.^ +.O.3.h } l j l 6 2 g S 2.f Y P.e w.qX&.1 w.'.t.qXr.A = f k v ",
"c s j s ~  .+.X.d.d. XH.Z.H.1XS.f.+XA.h.A...! ..S.OX@Xm.( K +.G.).E._ _.0._._.E.n._.,X_.b.0.V.*XuXdX3X7X%XOX2X2XOX2X3X4Xb.q | C.).x.k.c.x.A.K. XK.L.D.OX@XH.D.K.&XnX7X@X4X4X8XuXuX#X-XuXtXV.f _ 1.b.L B U.[ 2 6 M M 5.M t Y.Y.-.+ 3 &.w.w.t.,.3 6 : = * 2 = U.].*X>XQ.dXuX{ F / D D h j q ; > & 5 0 q f f r q r z r w J 8.*XeX,Xb.e.e.:.[ e.e.S I z >.M R >.R T i <.=.H p 8 % 9 8 y.{.}.~.qXFXsXVX].hXjXVXeXIXW.yXn.e.I.` g J :.8.:X=X'.e.yXJXgXNXE.b.l.' E.o.o.h w m x b ! ) x.X.H.+.3XAX3Xm.h b 7 x ( ' ; A } * 6 2.T 3 $ + $ O q z y.I >.I R R.t.e N t.U Y 0.| o.1.",
"@ * k 3.' Q W Z.@.A.h....Xx...@.OXS.+Xh.....! K.Z.c.^.3X3XF.l.b.l S 6 n.} } e.W.I.I.E.[.:X_.e.Y b.C.9.D.>X7XnX7XMXMX4XdXV.B z A ~ W @.Z.x.S.1X&Xd.d.x.Z.H. X2XnXMXnX5X%XJ.m.G.4XtXE.b.2.Y ` g ;.` g z ` I 3 + + % % % 9 1 1 p 1 8 Z R.R T e G = # o # 6 = 6 2 N V.mX>X>X>X).Q.K F D D { { v h w 6 0 q g f q 0 r f l _ I.1.} :.N.E.b.I.U.r.N.I.:.r.>.Y.w.y.t.I I R <.i 8 9 p p a.y.y.w.P.U.W.yXFXGXhXKXVX}.CXrXW.(.hX(.r.>.;.` [ [ B -.y.r.-.E.*X] 0.m._.GXm.3.' v K b , , W +.Z.h.S.x.^.J.J.@X^ h 3.3.>Xl.] 5 o = = V 4 $ 8 % o # L y.t R w.4 e 7.>.V >.I 2.0.:.1.| A ",
": q A D ~ D.x.x.h...f...A.h.Z.A.A.h.A.1Xh.6.7XaX3XSXSX-XG.-X5X*XP.-.e U w.e.n.I.t.P.t.U 3 4 t T 8.[.*X).$X#X@X&X@X4X4X*X[ y 4 0 , n x.K.S.x.d...H.1XnXnX7X1X&XOX5Xv _ O.* q 0.l 2 f N 0 o 0 T S : # J >.4 + 8 1 8 8 9 1 9 Z i i C &.Z G 1 $ + 4 3 T V y.I.N I.V.V.#XQ.-X6X5XuX4X-XF.+.l.9.~ ^ _ l f z z f r f A r l 8.C.:._ :.r._ :.*XyX].[.:XN.qXY.-.>.y.P.Y.P./.Y.,.R R *.,.i.p.*.t e e.VXVXwXn.2.w.W.FX(.e.Y.U.qXI.{.}.P.w.P.CX{.-.8.J n._ Y b._.uX4XmX#X^ l.o.x d x ( +. .) J.) ) #.k.-X).K +.m.l.V.M.W.W.W.e.2 1 1 8 1 1 y U U.e.4 G M ,.e 4 o e >.B z 0 A J | B.",
", > ( ( k.v.h.A.f.h.h.f.H.d.d.H...j...n d ! H.@XJ.).G.z.b.).[.(.n.T M e I.=XY.>.-.I g 2 # % $ 3 4 B T J e.E.| 3.9.V._.L 0 4 u B d d.S.A.S.H..X2X2XMXAX2XH.A.H.K.z.9.w & K 8.1.0.b.I.[ ` ,.4 1 o o -.w.e + $ 1 1 9 p 1 1 p a 1 1 8 i 4 t e M 4 r U :.;.(.}.` 3 = F 1.b.E.gXtX*XGXmX-XE.>X).^ h j B f r q 0 5 f P C.1.8.} N.eXCX*X_.*XNXNXtXGXKXeXsX=XS N.{.wXjXwXY.P.9X0X{.p.p.*.H C V V r.W.] N t ,.t.,.V I $ 3 3 V U P.t.=XsX'.e.>.n.Y.(.[.n.I.I.=XyXNXGX$XQ.A D o.+.x d  .h.v.S.@.h.) $X4Xx k 3.D m.' iXV.b.S l G R G Z Z *.i 3 S n.n.P.P.>.'.Y.M ` 6 U >.[ _.V.Q._.",
"%.) ..@.S.h.f.S..XS.XX.XA.S...h.H. .A. .! #.%.~ ~ B.O.m.b.*XyX[.2.;.U B N g 2 O $ $ @ = 4 % 4 R C T P.t.t.t.R S 4 : O % % e M U x h.x.W Z.H.6XPX@XAXMXMXAX@XJ.J.6Xc.J.c.%X#XO.| [ :.r.r.T y e V -.Z 3 e 1 p u 9 4 9 % $ 1 4 $ 1 8 % 4 y O N g L E.b.n.=X` t V M t.y 1 t I w.qXFX*X_.E.NXuX{ / j L f f q 5 w A m.E.*XC.8.:XsXjX,X-XnXPXtX_.,XhX;Xe.2.n.].].GXE.W.'.I T.}.{.p.R s.C *.{.}.rX2.U I.'./.7.R C p H C M I y.w.T U ] W.I.z [ w.wXwXrX=XyX{.rXY.Y.GXe.M A L ^ s n ) @.! h.h.h.L.$Xz.@ L l.o.o.9.c D 7 2 U 2.E.wX'.2.T e.:.l W.yXI.E.n.n.U.hX_.*X[.I.,Xr.C.b.8.",
"h.A.f.d.OX.XA..XOX.X.X..f.h.j.f.) h.) ! n d d & & d z _ L z q $ . o * = 2 = O o O @ @ $ $ $ z w.>.T R &.t.T.-.V 3 : 4 4 M z N r O.x.X. X&XUXAXZ.7X3X7X7X6X6X&XS.A.J.K.&Xk.+./ ; A V.0.N.N.P.Y.e p t I 4 1 o 9 4 t e u 3 M 9 9 u 8 i 3 M n.E.V.*XQ.V.I.W.g 1 8 y 8 1 1 1 $ 4 t V ` I.,X-XfX( o.v f e l N l l | [.).<XGXCXrX{.sXP.>XuXBXBX*XwX].=XwXI.;X~.].VXM.n.2.'.yX{.7.R H &.y.*.Z C P.=X=XjXkXY.i.p 9 H Z *.&.,.y w.e.n.n.;.I.r.,.` [ g Y (.t.,.'.w.V 3 T P.L j D #. .m ! A. .S.7Xv.$X0.z z 1.z.V.l.D ^ 5 l 7 f L ` e.yXU e.} N l B q e.iX$XtXyX*XyX,XE.[.).C.1.P ",
"f..X.XH.OXH.A..Xj.h.j.f.h.!  .! ! ) n ! b s m w > @ O O #   O $ o o @ $ = = = = 2 $ $ $ % 3 Y 8.R I Z -.>.V 4 o 2 $ 2 4 M M S l k.n (  X3X%XnX3X@XX.c.J.J.J.+.) m m J.&Xz.%X/ > @ 0 I.wX}.}.Y.'.i.R Z &.H I I R T 3 E C 9 p &.H 9 R -.R l o } V.0.0.;.t o e i 4 C 8 $ 4 8 4 % $ t 0 } l.#XG.K O.A g N l h f h { V.`.C.:.N.Y.}.t.E._.$XwX{.qX/.pX{.R.rXqXwX=Xn.b.t.jXP.&.u t T ,.y.7.p.}.N.=XVXpXjXR.y./.R.R p Z H *.-.t.I.hX;X!.hXFX(.8.2.,.r.N.2.U.,.w.P.,.-.t.N 7 d b n m d ..f..X1X@XD.l.1.N.m.mXB.> - X O > D L b.!.V.1.b.W.n.S b.yXb.[ ;.b.} ;.0.V.E.I.`.,X*X_.E.",
"m j.H.j.h.d.d.A.h.h.! @.! n W ! h. .$.n d > > %.> # > > q # o # * O O $ : 2 2 2 $ # # $ : B :.[ I V 4 4 $ # 6 t = 2 : 0 5 z l L d +.@XMXnXSX3X8XnX^.D.k.k.D.^.@X@XB.G.G.F.F.-Xb.I.*X8.:.w.8.T $ p ,.P.V C ,.p.H -.R C e Z p.V C M 9 + 3 e._ E.8.:.Y e.t.M e 4 i 1 % % 4 e 4 $ e q g h A & D B.A N 6 6 w f f w h k r.V.:.n.,.,.Y >.,.>.I 7.*.*.7.&.7.y.Y.t.J ,.w.Y.qXY.{.p.T *.T i 7.R w.P.P.2.e.V ,.I ,.y.7.p.&.Z G -.S I.VXVXhXyXeX:X:XsXVXeXJ J {.8.,.2.w.;.N.f h k m d @.! f.XX1X2XSX#Xb.m.).BXo.#Xz.D X s c s 9.5 F 4.,XW.W.n.j b.e.n.=XV.E.N._ l 1.*X,X_.0.m.q.:.",
"OX+X.XXXOX+X+X1Xj.+X.X1X.XXXA.....h.! ! $.v X.v w : w ; q : ; ; ; * = 5 5 = @ # # # * : 4 z B 0 u 3 % $ @ . O O : 0 0 f w h h v #.x.MXMX%XJ.k.3XJ.5X@Xk.k.k.k.X.G.$X%X#X#Xb.*X$XL 1.J ;.N.:.w.P.t T Y.P.E C T -.7.H w.P.R V 9 T M 3 V w.[ Y n.L [ : $ 0 4 $ o % % e t r g r 2 2 5 f 6   ^ 0.L _ F e 6 5 f c k F 7 q | r.q.[ P.t.,.T T p &.p a p i.7.p H T *.w.>.yXY.qXqX7.C y.}.jXeX>.t.-.U g = N z J M T P.R e -.w.>.5.2.U $X,XZXE.[.C.(.(.:X(.C.A N 0 S Y ;.B 5 7 d x %.) f.1X1XzXDXnX%XV.gXC.3.^ 4XD ' / h ^ z.D F.#X_.9.0.*Xn.2 0.V.tX=X0.;.V.E.b.Q.).b.b.8._ } 1.",
"+XA.j.XXOXA.j.S.+XOXXXh.A.j..XH.H.S.K.Z.h.+.~ $.%.w d w q w q 5 ; - ; ; @ X   # * 5 r 0 ; : $ . . .   O $ = 5 0 2 ; > : d h L ^ X.k.nXx s ) J.+.$X6XJ.).$XB.F._.G.$XuX,XQ.Q.L L *X,X(.[ 2.e.V S w.Y.w.t.t 7.-.T &.t.-.% M I 3 1 % I I C M 0 $ B r z M t 1 3 $ $ $ 2 2 : 2 : = = h f f b.1.A 0.b.` S N q 5 q w k k ; z V.yXy.Y u ,.&.=.7.s.=.a H p H &.a u s.y./.Y.T '.Y.T R {.jXeXjXw.T e.` e U z F ;.-.V G w.yX{.y.>.qXjX=Xn.b.[.=XNXI._.e.n.eX(.b.,XfXCXeX_ q l x h x m ! A.2X1XvXnX$Xl.G.fXE.Q.Q.m.k.l.F.Q.F.h l.' m.M.V.L 3.` U ` _ b.n.$X} } Q.V.b.b.b.b.A _.9.A ",
"+X+X2XxX2XOX.X1X.Xj.H.S.OXA.A..Xv.) H.A.v.v.n #.#.O.b v d s k w d w w d 7 ; s K ; s k f r 0 > 5 5 0 f q 0 f h l k s s 7 k v O.k.X.( b g.+.).c.^ K / 0.>XtX).G.*X5X4X{ V.b.0.*XN.b.8.N 2.w.I n.t.>.M M y M 3 R ,.Y.Z V I R M I ,.7.p.y.7.-.w.,.[ T N = 3 $ + + 4 = $ : r r h _ 0._.V.9.0.F E.L L U S F q ; 5 5 d w k l } :XN.-.I p p H 7.=.H a p =.H p p p.0XkX|.[.-.>.>.>.'.jXjXqXW.n.>.n.W.W.U.E.uX*XyXjXyXFXqXFXqXVXFXFXyX` A 2.(.=X8.n.n._.tX_.:Xr.1.r.q.@ w j k 7 s m m x.Z.@X6X3X>X( 9.0.| ^ @X( ^ J.#X4Xm.>X$X' V.F.^ M.4.wXb.l 0.n.0.I.1.L V.*XV.3.1.{ F v 9.-X",
"j..XOXA.h.H.+XOXS.S..X.XS.1XH..Xj..XA.A.h.@.+.! @.c.) h.) ~ ~ n x s d b n s %.x c K x k b v k b v l A f h ^ F D o.k.9.k.( { { 9.X.v.x O.%Xm.m.F.z.C.fXtX[.tXeX*X:X:.0.I.0.A :.[ t V r.e.I -.R % e 4 4 3 M ,.w.T 9 t M I V >.>.R I ,.7.w.-.w.t.I 0 V t t 4 $ 9 z L l l ] b.,X,Xb.;.} b.0.V.*X_ L U S B q 7 q 7 q l K L r l -.P.H + % p p Z =.<.=.<.a.R 7./.Z lXjXkXt.V I ,.=XqX'.t.I.yX].yXjXyX*XmXuXNXtX].W.P.'.}.{.'.y.rX=X=XF N Y 2.W.U.(.NXsXsXsX,XV.E.A : h , w w c ) m @XzXK.@X>XO.x D 9./ @Xd J.J.MXuX4XuX#X>Xm.M.3.4.h q g 1.1.I.;.U.} q b.A _ b.V.} 5 f 3._ D ",
"vX7XAXvXvXvXOX X1XS.h.H.&XOXS.j..X+XXX1X.XXXS.H.&X&XA.v.d.X.d.@.) ) Q W Q ) )  .~ ) Q @.X.g.X.X.z./ D _ _ c c ( K K / ~ ( c.B.X.l.d x ( ' 9.G.dXNXNXZX*XI.[.q.r 0 ` = 5 B r 2 3 e 4 T V M e 4 N y.y.>.-.w.V 0 t -.4 o 3 4 -.I >.y.rXY.|./.,.y u V e 3 4 % t t ,.1.n.W.wXhX,XW.1.I.VX_.Q.*X0.2._ N l g 5 5 ; v > h { l f z 6 6 e e C &.H *.R.<.a.<.&.<.0XT.y.>.8.I T n.M N e.FXeXjXyXNX].wX].].NXSX4XmXtXtXhXjXP.M -.'.{.=X].U.hXt.-.y.].hXI.:.N.(.FXJXgXQ.l l c 7 h v h ~ > > SXD.D.z.%XQ.B.| 0.%X6X-XJ.Q.D.3.3.b.-XQ.!.l.E._ b.N : J n.].l f [ b.F s h 3.9.m.Q.,XQ.b.",
"H.Z.S.h.d.D.OXvXDXDXDXDXzX XL.S...S..X&XS.H.A.XXXXd.f.) ..x...d. . .)  .d.d.@...@.S.L.Z.+.K.K.J.B.F.G.B.l.{ K c X.b m k K 6.+.n ( 3.k.B.#X1.D E.E.8.q.r.t.T 4 % : B J N ` J 3 g z + o $ $ $ t P.N.S V }.t.[ y y M I w.P.qX}.(.sXjXrX>.C 4 $ 4 9 M M T 0 V -.Y.rXn.W.[.NX0.2 2 T ;.q L e.F ;.sXW.2.U q 7 s 7 K K D v l B J Y -.[ N V 8 V *.<.,.7.i.R./.R.w.P.>.t V B U T }.;.U.GXyX=XI.W.VXCXyXhXBXSX*XGXNXsX'.V Y.T.>.I I B 6 e R &.I 4 y y N [ N._.N.*X1.L h q s s > , x m d %XSXc.J.s > o.V._ -X@X^ F.3.3.F.M.o.7 9.D 4.L 1.A q = U.Y z = F [ | b.q F 7 B.L c q ^ l.",
"~ x m d x X.k.J.@Xc.v.J.3XnXnXnXAX2XXXH.H.OXx.@..X XOX2XxX2X1X X XS.g.g.x.Z.g.d.L.oXL.c.g.J.H.c.).9.O.b.9.K K 9./ ~ X.k.9.c.L.+.>XB.o.^ s s f O 0 J B # o % o $ % 0 U Y n.,.t 3 3 M t M 3 6 g I V B -.T >.J u.(.qXY.{.:XrX:XCX:XwXJ V ,.w.,.&.V p.R &.7.-.>.2.w.Y.qX'.e 4 e e.e.r J g g e.} r } ] U j h s 7 > w h h { 0.0.U.].n.S [ N S T <.5.&.Z 1 1 &.T V M R I >.N.U.=XhXGXJXKXKXIXhXNX=XKXNXJXJX-X*X*Xb.}.'.-.w.&.Z Z V M t + u p 8 >.t.P.N.eXwXsXfXN.A A q s d d - 7 d s O.4Xz.K & c / h { O.x m.B.M.m.Q.3.1.,X* F ] ;.E.F [ Y = 0 2 r b.h ^ h l 5 7 A B.9.l { m.",
"/ / o.9.B.D.l.3.l.m.G.F.c.9.l.m.3X7XAXAXzXzX7XDXzX2XvX7XzXAXzXMXAXMXMXAXDXDXAXcXMXcX%X-X@X%XQ.Q.z.3.| | O.O.o.X.D d k ) O.6.X.b o./ s s 7 * r B t $ O % u I *.T.qXjX{.Y.5.3 M t R M e I >.t.w.y.w.>.8.[ e >.:X`.}.Y.:XkX{.qXFX(.<XL ;.[ R Z -.w.p.I w.qXI S ` -.V t.-.-.-.qXt.e W.e.I.].*XW.F O 6 B 6 q > 7 > h 7 ' E._.C.W.=Xe.] o.0.] ;.pX{.pX7.i 1 C M e r T -.U.e.U.W.VXfXCXGXGXmXCXNXyXeXNXG.uXIXNXGXKXrX-.<.y.&.C e 4 e 9 u H H R T.-.I T t.P.jXZXwX_ A w - > d 7 s x x ^ 5X5X' O.' 9.| 3.k & F.m.0.{ ;.b.2 ` W.U ` Y ` e.:.B t $ Y z L L A V.tX_.] s 7 7 l D { ",
"F ^ _ _ D c c F h c D L ^ ' { o.b X.Q.&X^.k.O.O.k.c.#.c.J.K.7X@Xv.m.F.F.F.m.V.F.D O.m.-X-XuXtXfX,X>XE.| l v 3.).z.^ v b K ( ( b 9.G.9./ D / r.:.$ e u.Y.p.Y.p.y.w.&.3 p 8 $ e 8 e I t.V R P.P.t.P.rXY.P.'.'.n.:XwXjXeX<XsXqX{.n.= g 0.g e Z t.R.pXP.P.-.S g 1.2.,.*.=.p &.R y.-.>.e.I._.N.0.b.0.N U l l s h 7 b h ^ ^ V.,XyXsXC.9.^ 4.V.*XjX;.t I Z y y e Z R >.Y.y.I.wX=XGXIXGXcXuXCXyXIXn.1.NXGX-XuXFXW.I.R -.<.*.Z *.<.<.7.*.*.<.*.<.i.p Z w.,.,.I t.W.E.F f , & > s d v D x ' 9.9.0.).P P k & D L 4._ :.j o @ e.O S 2.3 o o y $ $ 6 W.wX1.U L ` ; _ z.Q.j D m.j X ",
"| 0.e.V.b.1.` L _ 1.1.L f q A _ s D P v / _ z.9.C.$X).F.O.v ^ K O.b.G.V.} l 0 > 0.b._ A z :.r.C.| l w l L D D / 3.' ( / K ( X./ ~ G.3.k / b.V.r.(.t.'.Y.I 9 9 u $ $ 3 C e i p -.w.t R Z T V e V z B r.(.jXrXhXsXN.'.eXrXFXqXI.L _ A 5 2 t.pXi.i I >.I T W.1.F U 7.<.p =.<./.7.C e e e B l f 1.=Xl.F j h s 7 & > k { m.wX:Xn.N.N.4X7X@XQ.l.V.2.M R *.H &.&.<.<.P.8.qX=X2.KXGXmXcXBX;X;XiXiXVXtXCXM.4XGXGX].~.~.H C a a &.,.=.=.Z <.i.<.a.a.&.7.T.w.V % $ T e.t = > , > 7 > w c c ^ F L m.P o.v D @ } U 2 * B l N 6 . g %   + o 3 0 [ z P.S wXb.;.L f h h h s c h & 7 l ",
"n.2.N l F L 2.1.q q r h U 1.} J ` r.:.Y z $ 8.`.C.| gX9.L m.v ).U A f 0 0 B :.I.r.N.8.;.[ u.[ V } n.b.l = ; h A / v v ^ O.B.l.v ' ~ #X5XO.P :.q.I '.jX7.9 8 1 % % + + $ u &.-.<.&.M y $ 4 V >.Y.:XrXU.<XrXjXU.N.<X<XsX(.8.[ -.:.| 0.;.n.~.t.&.Z -.'.T -.U r 7 e.i.=.=.=.<.Z y.R.t.I V [ V.b.;.n.!.g 5 ; 7 , , d k s z.,XtXhX'.0.J.^.k.z.Q.CXeXI i *.*.*.y.9X/./.:X:X:XW.KXwX!.l.uX-XBX!.3.b.NXiXCXmXBX;XI.5.i.&.a.<.<.=.&.=.7.y.&.=.&.=.7.,.}.T.&.u e $ ` >.S : - , 7 7 > 7 D L f _ 1.& l.3.{ 5 l O @ = 2.` g ;.V 2.-.t y 1 &.V t S y.>.B n.2.[.} ;.l.3.h F.uXF.V.#X4X",
"= 6 : 2 2 = q 6 t B S B S } e.b.|.[ 0 8.(.y z * 0 J 0 [ q._ r.J N.q.[ B g t t z [ -.Y Y B J E [ ` Y J A A D _ O.D D K b b O.O.v w 9.*Xr.:.[ r t t C C C &.&.9 8 % u 1 % e e R u M e $ C >.'.'.'.(.n.[.[.I.r.[.`.{.sXN.w.t.'.[ {.(.].8.P.y.P.T.i.p.}.'.>.I z n.~.a p a Z &.,.7.,.e 3 2.;.N f = f !.D _ k c h s 7 b ^ GXyX;.W.P.b.B.G.nXuX_.hX'.P.&.,.R 7.R.9XR.}.'.[.(.].CXVX#Xl.2.,XI.n.wXU.W.fXBXBXGX].;.i.,.0XpXR.R.<.H <.7.<.y.R.9X0XR.,./.7.R e 4 % + U S f s d s s h v F q _ l   ; ; 9.$XL F ` e N l @ 2 2 G M $ 3 M 5.N e T N.I r.;.= $ L b.{ k 9.B.' c ;XE.o.A ",
"} _ ] :.1.} _ Y B z U _ 0.` [ [ 0.r.N._ B 0 B T :.N.P r N z V :.2.w.I.>.R >.5.-.-.I I >.y.Y.I T -.T B b.V.D k ( g.Z.g.b ~ { > @ y J E J M u *.9 8 8 8 9 &.p p p i 9 + 8 1 $ + + + e &.P.w.>.w.'.qX:XU.Y.[.[.[.E.{.qXyXpXR.&.R.i.Z 7.i.T.pXR.<.a.,.<.R.p.Z i C 8 p <.H *.H 8 e % $ 6 N 6 = $ t F (.[ l 5 c s x h D D Q.VXP.w.>.;.U.[.wXsXeXN.e.}.P.U.U.N.sX(.{.:XeXn.=XjXwX=XU.e.w.,.w.}.n.w.~.-.-.I.=X'.}.kXpX}.p.,.7.y.'.t.r.r.U.=XU.t.=X=XhXw.-.I I 2.S J N A > s s 7 s k c l ' 7 & s c 3.j n.$XU N g _ b.r 2 : U U U 2.f 6 S 0.1.: : F 7 * O * & . 5 4.D h X F m.wX",
"` ;.0.b.1._ _ 1.A L [ J [ Y [ J L l Y 2.1.r N 1.[ :.Y r.<XU.8.w.U I I 2.w.y 3 T I I >.>.5.R M T -.J B m.$Xz.O.+.X.D.K.b D / ^ 1.t [ % $ 3 T I 9 9 9 9 /.&.=.R.H 1 1 % 8 1 1 $ 4 9 R '.'.[.t.{.Y.t.'.}.}.:XrXNXsXjXsXR Z 0X9Xi.&.a <.9X9Xa.,.&.=.a Z Z Z H p a Z Z 8 Z 1 9 &.1 % $ V V 3 = U e.e.].` L q s s , > s 4X#XW.n.qX~.>.,.{.CX:XW.{.}.[.U.*X,X*X:X(.*XW.=X].I.(.'.>.,.P.-.p.,.w.&.}.qXT.i.5.-.i.9XkXlXlXT.7.w.w.r.[ r.r.l.#X_.,XNXsXrX;.e R U N 2 F g ; , , , > s v L D M.* 7 l 5 A _ n.l q U L F 5 7 D 5 5 O q 6 g U 7 _ ] * O 5 ; 5 7 5 q s h h 5 _ l * q c ",
"n.0.0.e.0.:.` _ _ 1.r.;.:.;.q.8.J f r q B f z z z U.N.[ 8.Y.r.V I w.T R T V -.>.w.e -.w.,.>.'.Y.E B } C.#X$X4XcX3X@X+.d c.F./ q f -.0 B 4 t C i.i 1 =.Z 9 p &.i./.P.&.p % + 1 t V >.w.'.-.y.Y.P.t.(.{.rXeX=X:X(.>.y V y.&.i./.<.a.,.<.a.<.Z i i =.a p H 8 8 p 9 8 8 C H C i 8 p >.M = 3 [ W.W.r.8.J h r s c s h x tX;Xe.W.y.P.>.T P.jX:XN.W.(.=Xn.q.N.:X(.Q._.8.=Xn.tXI.I t.y.-.,.}.}.pXy.R R Y.'.T.T.T.<.&.7.0Xp.t.T.}._.C.:XC.V.-X_.tX,XW.>.e M I V V N B w 5 , > s s 7 7 x ] F.5 D l 7 5 f @ 2 2.W.*XN ; 5 D & = g q 1.b.e.1.k b.1.4.b.b.M.0.o.0.F q f & * & . & 5 ",
"} f o . $ r L } I.1.Y [ e.0.;.` n.1.e.1.U 5 B r.`.eX(.I.Y.t.[ V >.T 5.t.-.R y.w.y e y V R.y.5.P.[ J r.r.b.#XcXDX7X6XL., x > > = ; J T I e I t.,.I <.H =.i.i.&.i.0X/.,.e + 4 M 2.qXw.P.'.'.{.wXW.qX{.:XkX[.r.U._.` P.w.T.T.i.&.R.9X0X/.i.<.R.a.=.H &.Z a 8 1 8 Z 1 <.&.*.R I i.I >.y.Y.U e.n.wX].U.U.f l 7 ; s > 7 ^ [ eXN.y.P.'.-.,.{.}.r.t.N.].FXI.W.fX*XE.tX].;.n.n.:XqXw.&.E p.lX/.i p -.&.Z Z R ,.7.y.i.R.}.7.,.5.U.E.[.CX$XB.G.9.Q.N.n.2.` >.2.V 6 N ` N w x 7 , 7 h h x D h L 9.l F f q * l } I._ g O * $ ; N 7 b.!.=X_.1.iX$X1.$X$X^ 5 ; 5 5 5 ; . O l A h > O ",
"O * q F A l g l = 5 g A l B [ U._ [ b.e.} r z Y Y B y J [ z J 8.P.R -.&.t 4 4 e e V V -.Y.2.>.R.|.N.<X`.*XuXMXnXzXnXv.& c 7 > = L 8._.(.t.y.'.t./.<.p.<.0Xp./.T.7.,.T 4 + 4 e N R S wXqXP.P.=XjXqX(.P.P.Y N 8.W.W.Y.t.7.&.T.i.,.Z <.=.=.,.R.,.p Z <.=.i 8 8 p *.*.&.,.,.H C -.'.U r I >.{.r.E.(.` 2.6 l 5 7 c s > 5 V.U.e.R Y.P.R >.(.P.r.[.{.U.;.B I.yXE.J 1.A [ P.rXt.P.kXp.p.7.T 9 u &.H i ,.y.i.i.y.i.a.*.i Z T ;.(.(.*XfXl.k ' 0.=XE.2.y = t 4 4 T I.U 2 w d > , s x v D ^ } !.4.l ` _ N f f 5 O * . @ . & N F 1.F !.b.L b.^ V.A @ X   O   X 5 ; @ O   @ c V.1.D ",
"q N ` 2.} L F _ 1.1._ _ _ 0.:.[ r.b.C.r.E.n.} q r [ [ B z Y N.Y.T 2.&.e I >.V -.y.I >.2.M y ,.I T :.<X[.tX>XcX7X2XAXc.> ~ h w w l 6 = _ =X:Xy.P.sX{.rXpX<.T.Z ,.u e M + % 6 g N U S 5.e.;.qXW.].'.e.;.2.:.r.E.:.w.>.T Z 9 9 a a <.=.H a.a.7.p Z a.y.y.=.i Z ,.&.p R 7.i 4 C Z &.I t.w.2.` t.` r B B F f 7 7 - , > @ O 6 5.qXT.-.y I T -.w.}.=Xn.N.8._.(.Q.1.E.;.Y I T -.C C p.}.*.H 8 H y./.p 8 C &.<.<.<.7.,.&.C w.[.VXiX4XQ.D Q.Q.B.b.` S M M 3 e e 2 g N l 7 7 d x x s 7 h ^ Q.M.q h L F 6 o & . @ . : : ; & @ & l V.l D n.b.!.o.O * O O O O O . O 5 * 5 7 : 7 f D ",
";.] _ ` :.1.e.V.8.b.:.;.U ;.T L V.} 1.r.8.r 0 z :.r.r.r.8.[ E e V ,.V V t.T $ e 4 M I V w.R 2.-.4 Y :X<XBX-XMXMXMXAXn X > w > 7 ; l 5 5 g 2.M e y M   + 3 1 Z T P.e.n.e e ` e.I.U.e.2.N U U 2.;.` t e ` I.yX:XS 3 3 4 C *.9 a H &.7.7.7.8 8 8 9 9 Z 8 + 9 8 1 9 Z p 9 i V p t 4 I I t ;.S -.r r 0 6 L 7 5 7 & - , - : O S M -.T I -.I t.qXqXsXqXtX,X=X[.tX(.b.N $ E ,.t Z R p p./.T.y.&.9 ,.H p H =.=.H H R Z u &.~.{.wXQ.-XL.~ B.l.3.A l B -.w.>.G M t g = = * h h d d s d 7 , 7 5 . f l 7 5 @   * & ; = q ; . f : _ F l f : @ s l O 7 @ @ .   . O   . & f s D 5 O   "
};
