/* XPM */
static char *a3c2153b61fe4a0e8170a273c1930d73lRQWsJmtLi3sbJoM[] = {
/* columns rows colors chars-per-pixel */
"300 168 256 2 ",
"   c #050000",
".  c #0B0200",
"X  c #0C0905",
"o  c #130400",
"O  c #140B02",
"+  c #1B0C01",
"@  c #170A06",
"#  c #1C130B",
"$  c #1A1207",
"%  c #1B1714",
"&  c #0E0D10",
"*  c #230B01",
"=  c #261809",
"-  c #341B08",
";  c #241C13",
":  c #281C15",
">  c #331D13",
",  c #38240B",
"<  c #2C231C",
"1  c #2A2217",
"2  c #362819",
"3  c #352A16",
"4  c #2B2724",
"5  c #342B23",
"6  c #382D25",
"7  c #3C3224",
"8  c #3C332B",
"9  c #37342A",
"0  c #3C3734",
"q  c #352F33",
"w  c #201E23",
"e  c #452B18",
"r  c #48341B",
"t  c #57381A",
"y  c #4E2B0B",
"u  c #6B340E",
"i  c #433424",
"p  c #443A2C",
"a  c #4B3C2C",
"s  c #473727",
"d  c #543C27",
"f  c #443C33",
"g  c #483D35",
"h  c #4B342A",
"j  c #602F1A",
"k  c #6F461B",
"l  c #58442B",
"z  c #4C443B",
"x  c #4A4236",
"c  c #534434",
"v  c #554A3C",
"b  c #5B4C3C",
"n  c #574737",
"m  c #544A34",
"M  c #66492A",
"N  c #644C36",
"B  c #68543A",
"V  c #765939",
"C  c #755129",
"Z  c #735B34",
"A  c #4B4845",
"S  c #544B43",
"D  c #584C45",
"F  c #5C5244",
"G  c #5C534B",
"H  c #57534A",
"J  c #5A5855",
"K  c #4C4E53",
"L  c #635444",
"P  c #655A4C",
"I  c #6B5C4C",
"U  c #675747",
"Y  c #745C46",
"T  c #645C53",
"R  c #6A5D53",
"E  c #655B57",
"W  c #6B574B",
"Q  c #78644A",
"!  c #6C6254",
"~  c #6C645B",
"^  c #68645B",
"/  c #736454",
"(  c #72655B",
")  c #746A5C",
"_  c #7B6C5C",
"`  c #7A6855",
"'  c #736953",
"]  c #6A6865",
"[  c #746B63",
"{  c #7B6D63",
"}  c #756C68",
"|  c #7C7264",
" . c #7C736B",
".. c #77736A",
"X. c #7A7875",
"o. c #6D6F72",
"O. c #5C5E61",
"+. c #403D42",
"@. c #8B572F",
"#. c #8D6739",
"$. c #9F5A29",
"%. c #866949",
"&. c #97754B",
"*. c #846C56",
"=. c #88745A",
"-. c #967958",
";. c #916F4A",
":. c #A57A50",
">. c #837464",
",. c #83756B",
"<. c #847A6C",
"1. c #8B7C6C",
"2. c #8A7965",
"3. c #947C66",
"4. c #847B73",
"5. c #8A7D73",
"6. c #847C78",
"7. c #89766A",
"8. c #9B7559",
"9. c #A85E30",
"0. c #7E817D",
"q. c #9C825A",
"w. c #AE8858",
"e. c #98846A",
"r. c #8C8274",
"t. c #8C847B",
"y. c #87847A",
"u. c #938474",
"i. c #92857B",
"p. c #948A7C",
"a. c #9B8C7C",
"s. c #9A8974",
"d. c #948A75",
"f. c #A68969",
"g. c #B7966A",
"h. c #A48D77",
"j. c #A8947A",
"k. c #B69978",
"l. c #B08F69",
"z. c #BAA17B",
"x. c #C39B70",
"c. c #C7A579",
"v. c #D2AC76",
"b. c #C6955A",
"n. c #7A7D82",
"m. c #867F82",
"M. c #7E8286",
"N. c #898886",
"B. c #948C83",
"V. c #9A8D83",
"C. c #948C88",
"Z. c #9C9284",
"A. c #9C948B",
"S. c #97938A",
"D. c #898C92",
"F. c #9D9A94",
"G. c #9C9C9B",
"H. c #979594",
"J. c #8E9194",
"K. c #A39484",
"L. c #AB9B84",
"P. c #A2958B",
"I. c #A49A8C",
"U. c #AB9C8C",
"Y. c #A89784",
"T. c #B49C86",
"R. c #A49C93",
"E. c #AA9D93",
"W. c #A49C99",
"Q. c #AA968A",
"!. c #ABA18C",
"~. c #B8A48A",
"^. c #ACA294",
"/. c #A5A29C",
"(. c #ACA49B",
"). c #AAA698",
"_. c #B3A494",
"`. c #B2A59B",
"'. c #B4AA9C",
"]. c #BBAC9C",
"[. c #BAA995",
"{. c #BBB19D",
"}. c #BDB08E",
"|. c #999DA3",
" X c #9DA2A6",
".X c #A4A4A3",
"XX c #ABA5A2",
"oX c #ADAAA4",
"OX c #ACACAB",
"+X c #A5A7AA",
"@X c #B4ABA3",
"#X c #BAADA3",
"$X c #B3ADAA",
"%X c #B6AAA6",
"&X c #BCB2A4",
"*X c #B5B2AC",
"=X c #BCB4AB",
"-X c #B9B5A9",
";X c #A9ACB2",
":X c #B4B4B3",
">X c #BBB5B2",
",X c #BDBAB4",
"<X c #B9B9BA",
"1X c #AFB0B4",
"2X c #A09FA0",
"3X c #C6A888",
"4X c #C4AC96",
"5X c #C8B39A",
"6X c #D5B899",
"7X c #D4B28A",
"8X c #C3B4A4",
"9X c #C2B5AB",
"0X c #C4BAAC",
"qX c #CBBCAC",
"wX c #CAB8A5",
"eX c #D4BCA6",
"rX c #C4BBB3",
"tX c #CABDB3",
"yX c #C3BDBA",
"uX c #C5B9B5",
"iX c #CAB7AC",
"pX c #E0BB95",
"aX c #E7C595",
"sX c #D7C3AA",
"dX c #CCC2B4",
"fX c #C5C1BB",
"gX c #CCC3BB",
"hX c #C9C4B8",
"jX c #D3C3B4",
"kX c #D2C5BB",
"lX c #D3CABD",
"zX c #DACAB9",
"xX c #CFC5B1",
"cX c #E4C8A9",
"vX c #E9D1B7",
"bX c #E1C8A1",
"nX c #B8BBC2",
"mX c #C4BDC2",
"MX c #BDC2C7",
"NX c #CAC7C4",
"BX c #D3CBC3",
"VX c #D7CCC6",
"CX c #DBD3CC",
"ZX c #D8D2C8",
"AX c #DBD7D4",
"SX c #CECDD2",
"DX c #E5D7CA",
"FX c #E3DBD4",
"GX c #E6DCD7",
"HX c #ECD7C4",
"JX c #E9E3DB",
"KX c #F6E6D5",
"LX c #EBE6E4",
"PX c #F7EFEA",
"IX c #E2DEE2",
"UX c #BEC0B9",
/* pixels */
"x ! V.&XrXrX$XXXA q +.X.W.+X.X.XG.G.K X &   % ; < 7 2 = 1 2 i L a./ b L L n c F c c 7 7 2 3 = . R A.t.r.t.T g p c 7 2 s 2 * = 2 3 2 3 3 3 7 s c n c x c a a a a < # ; 5 z ..R.'.&X`._.].U.K.K._.P.z @ @ 4 N.] J ] n.X.D.<X+XM.0..X:XMXNXSXMX;X+XH.OX.XX.9 ; 5 - &.w.q.&.&.f.l.f.T.~.~._._._.8XqXT.4XI *     %XOX+X;X+X|.H.J.X.K 1 oXNXNXNXSXLXAXNX<XNX<XOXXXXXG.:XD.D.oX6.$ 2 _.1.].wXU.a.>._ >.~ ..N.B.N.S.A.A . T A.R.oXrXfXtXVXkXlXVXdX#X9XDXtX#XP.#XFXgXP._.~.4Xk.j.j.~.j.s + f ~ ^ x 4 w w 4 % X           X   5 [ R.AXgX-XJ S X.X.oXZX,X*X:XSX^ H N.K   & X &     & w w K w +.X.N.J..XH.2XC.H.2XH.N.6.m.C.} q X & ",
"r.>.( ! | t.X.E A X.oX$XG.N.H..XH.H.] X         . = p 6 + 2 s > + 1 7 i 2 1 = = : 3 = : = . o     8 ~ T z x g x 2 2 2 i i 2 2 7 i 7 2 3 2 2 7 i U b x 7 2 2 7 7 5   X 0 f 2 F P.#X&X_._.8X_.>.I F : O   % H.|.J.J.X.J.<X+XN.X.] o.N.:XnX+X<XSX:X+X+X.X..x 5 # - q.l.g.g.g.z.k.f.j.j.L.T._.`.#X8X4XQ.g * o O XX:X+X+X+X+X.XD.X.O.0 *XSXBXNX,X<X:X:X*X,XfXNXNXVXNXSXNXSX,X .  = _.5XwXwXqXqXU.1.i.B.R.(.t.t.R.(.0 @ A 4.R.@XA.[ T p.<. .4.i.p.V.P.E.E.V.P.@X`.`.qX4X4XT.e.s.~.u.n p O   ; J o.o.] ] ^ ..S.C.X.A     ..XXoXlXF.[ [ S.J X.o.y.F.G.F.OXOXy.4 0 D.g   4 K K K +.w   w & % q A ] X.X.m.N.o.J q % & % 4 4 .     ",
"'.I.,.G P } ] S o.W.>X$XXX$X2XN.X.] ] x X % 4 S t.t.i.r.1._ F a i .   o : 7 I K.U.`.K.K.I.a._ 7 O = ~ R 6 6 7 8 p x x p s i 2 = g f p p i 7 7 7 2 7 i p i 7 6 5 1     < f 6 z <.Z.E._.a./ b b L v i S 8 q G.nX:X;X;X<XNXNX<X+X2XX.] ] o.M.+XMX<X<X<X1XN.J H ; b ;.w.z.z.g.k.z.~.j.j.L._.].8X8X8X[.5.i + ; : W.oXOXOX1X:XOXJ.X.] A X.B.N.S.F./.$XXX$X*X:XyXyX,XyXNX<X*XA.~ . : s.L.L.j.~.sXzXwX].Z.R.@XA.B.(.oX8 $ G B.A.B.[ H G G 8 6 L <.4.( L T {  .{ ,.i.P._.T.e.e.j.[.~.Q n P r.=XCXJXJXAXAXGXCXNXAXAXLXNXA X ] X.S.F.y.V.! ^ < A A A ^ y.N.y.A X % q o.^ & A J O.X.] +.X     % X   . . w +.q q f A E ] o. .} ] } m.",
"r.p.Z.B.r.[ g ;  .H.oXW.G.XXS.] A 0 J ] % < A y.}  .) <._.`.U._.^.U.a.1.r.u.| U r.a.a.^.K._ / U 2   < S z x S T 7 8 8 6 8 f f 7 2 5 8 8 8 2 1 = # # $ O O @ $ $   . . # 0 f < 1 v i I a.P.].4Xa.(.P.`.A.H N.+XOX1X1X|.N.N.D.N.X.y.O.q A J.|.J.1X:XUX:X:X] ~ f 1.f.l.k.k.l.k.~.3X[.~.T._.].8X8X].E.1.7 + : 8 A..X.X:X<XoX/./.S...X.G E J  .A.XXXXA./.XX$XrX*XXXoX,XOXoXR.x . 3 a.2.*.Q Q e.!.!.j.R.y.S.E.(.(.B.@   S 4.4. .~ z 8 ; : : 5 f v D S D T ~ R L S g i c l b N n i 2 I '.=XrXrXBXCXBX,XCXZX,XfXfXSXNX] C.A %  ...! y.^ 8   X X % 1 #   9 N..XNX:XG..XG.X.K 4 +.J K %   . ] N.oXNXyXyXNXNXyXyX,X,X,X>X*XR.W.$XyX",
"L L ! <. .G 5 # J 6.H.H.C.6.^ A S J ] X.4 # z [ 5.t.Z.5.! ,.Z.1.>.a.u.I L ) _ L I K.a._ | K.K.P ) 5   # 1 $ $ # # O           O                           . X O   X           O   p i.^.K.Z.K.K.,.5.t. .; ] G.:X<XJ.G.H.o.] y.X.X.X.] X..XD.X.2X:X:X:X,Xy.S ~ <.~.k.j.k.k.k.j.j.5X[.~.T.[.].'._.`.,.2 o # 4 6.$XW.OX*X(.oX*X(.Z.B.0 G ~ } B.A. .@XrXrXrXNX=XW./.=X(.oX'.1 . r e.~.e.` =.*.Q Q 2.P.t.R.@X(.A.N.6   f G f : .     x 4.A.R : o o . + o .       . + . + . + c r.0XZXdXdXBXZXgX-X=XBXlXFXBXAXAXNXNXW.N./.[ S ^ [ ) H 0 ] F.y.X.] X.F.oXBXAXfXNXLXyXAXAXAX<XN.q     4 X.$XW.S.oX$XXXF.XXXXXXXXXX$XuXNXXXXX@X>X",
"P v x x <     # J E } 6.y.X.^ H E J ] N.S X 8 { <.t.r.| / ( ) I ! U b x n / <.r.! / I I a 2 >.dX .G     .             .       & 4 1 % % % 4 0 x A H J o.X.X.X...^ H 4 X   . X X < B.@XP.^.U.Z.'.V.#XR.~ . H X.X.J ] M.X.] ] y.C.F.F./.H.0.J.1X<XMX:X<X.X/.0 t.R 2.s.~.~.L.s.L.[._._._._.].].].'.9X) = . . o G $X/.R./.#XrXrX&X`.g . f G [ r.R.t.&X9X=X=X-X(.A.C.fX-X#X!.= O r I _ U I ` Q B ` r.&XF.B.t.t.4.X.0 5 D ^ H 8 1 z t.,.R.dXtX5.p + +   . o o o   . * b i._.jXZXjXdX`.tXdXgXlXlXdX9X=X#XJXJXAXAXVXVX$X../.S.0 <   X x t.@X,XR.,X*XXX*XNX>X$X,X$X<X*XNXAXLXAXNXH.J % x X..XF.N./.rXfXrXrXrXgXgXrX-X#X@X@X(.R.R.",
"$ = : = .   < G ^ } 6.6.6.X.y.N.E x H X.^   $ | ( { ! | P.V.| <._ >./ L / a.a.>.U I _ U._.a.I.'.p.[ 9 $ X         % +.J ] X.N.D.n.X.X.X.M.D.|.+X.XG.G.G.G.G.|..X:XOXF.X...[ x . v <.B.P.&X].I.E.V.`.P.f O 8 } J J H.S.X.C.F.A./.R.S.S.0.] J.NXNX:X:X:XH.oX8 y.P O 2 n b s 3 a / _ 1.a.U._._.[.[.@XL O . .   1 t.p.5.r.Z.^.I.r.) O   ; 5 [ 5.E.^.,.{ | | { | ,. . .A.).! $ $ m P 3 + . . . O = =   $ 6 < O   G S.fXgXrX=X#XF.A.-XuX(.@XgX&X[ p p 6 2 .   $ g ~ p.<.{ >.I.#X&X&X`.tX].5.D c ) Z.^.p.rXJXGXAXJXAXW.^ R.(.~   2 | S.).,X,X(.-X/.XX*XF.*XH.oXG.oXBX+X/.*XNXNXNXC.% A y.B.A.B.A.(.(.-XR.S.B.B.S.R.(.(.(.(.R.A.",
"<.I i + . : G 4.N.A.W.R.S.C.N.y.N.[ X. .[ $   T R ~ | ,.>.u.5.I >./ ) 1.1.) _ 1.r.>._ a._.I.a.<.A.! z 5 % X   X % J D.J.J.|.|.D.n.n.N.D.H.|. X X X+X;X:X:X:X;XOXOX.X:X,XOXoXW.6.z X 2 4.P.^.'.P.E.P.5.# @ ; } ] ] J J J ..y.6. .F.(./.C.X.o.o.X.N.1X/.B.N.9 ~ ~ O     O .     + 2 g ` 5.h.K.K.K.B.v + o @   . v P T U U / ! i . .   .   L L P R R v x p 2 i z x A  .t.S B.dXPXJXKXa.b a = o O + : .   ; 8 : ^ (.BXAXBX$X(.R.(.rXE.`.=XgXuXE.,.R T ~ 8 : T Z.P.P.C.V.0X0X#X0X9X&X&XI.r.<.>.>.<.r.P.t.-XJXGXFXAXyXX.>X*XrXO ! I.-XrX*X*X*X*XA././..X/.W.F.XXNX$X,XNXNXNX,XNXoX9 ] t.T T [ 5.p.4.B.R.p.,.<.Z.'.-X&X^.).(.R.",
"K.u.<.| i D [ 6.y.B.C.C.C.B.r.<.B.R.[  . .O   { ( P P ( ) ( _ <.b u.1./ b i b I / >.r.| 1.1.>.a.[ ) [ x x X X x o.n.D.D.|.|.|.D.J.J.|.;X1X+X+X1X;XMXnXnXnX<XMXnX1X:X:XOX:X<X,X*X*X4.. . 7 | A.`.V.V.<.O @   # x H H H J E E G S f 4 ~  .] J ] ] ] J X...X.0 1 S ~  .N.Z.i. .( R p + + > i n W W ) 8   O O .   . O : 2 2 > 1 c / i.V.r.,.! i * = 7 g g p p = . : # 4 4 /.PXLXPXJXLXCXuX%XP.p.p.Z.E.y.  ; ; 8 ~ E.=XVXgX(.-XgX*XF.rXgX@XW.#XgXA. .t.] [ < (.(.R.@XE.r.9XBX#X9X9X^.V.Z.P.U.U.K.a.u.Z.p.C.#XZXFXgX(. .rXVX[ S B.^.gXhX-X/.A.C.C.A.F.C.H.F.XX%X:X<X,XNX,X,XBXBX,XA z ( t.t.{  .<.<.p.V.Z.B.i.p.r.{ L 5.<.<.,.",
"c { ,.<.R  .T 4.6.N.t.6.5.B.S.S.t.r.S.<.G :   ~ P F P ) | ) ( ) >.p.! F | p.a._ u.>.1.1.>._ >.I.t.S.y...H < X..X|.G.|.|.D.n.n.D.;X;X;X X|.D.D.|.<XnX+X X|.|.1X<X<X1X1X<X<X,X:X*X,XfX .6   O z { K.u.P   . < g q 0 0 q 9 0 S [ t.! G   . . X X & % 0 % X ..(.AXAXBXgXgXBXgX-X#X=XuX_.,.L + o + o 2 < ; = 1 2 b L c s s b >._.jXDX#X0X9X'.&X8XV.( +   : F | 5.I.R.6.  6.LXLXPXAXGXIXLXLXLXFXVXZXGXGXBXA $ 8 G y.oXrXJXJXgXBXCXBXgXBXgX=XgXBXgXW.C.t.E.D S (.(.W.R.F.X.-XDX#X(.).p.i.Z.^.&XqXjXjXdX_.S.r.p.`.BXFXGX} B.E ; T A.S.=X#X/.S.y.X.X.6.N.N.y.6.6.N.C.H.W.,X,XyXfXfXfX^ 0 [ [ B.^.Z.B.^.).'.E.p.r.Z.E.Z.<.! ) | <.",
"L F P P < g D  .%XC.[ [ 4.Z.R.^.P.V.B.r.x $ x i.{ ( ! { <.5.5.5._ K.a.<.<.u.a.r.>.2._ / r._ L r.B.).t.F.J % S..XOX:X1X;X|.|.;XnX<X<X;X|.J.|.|. X|.+X X;X;X+X<XnXnX;X;XnXNX<X*X:XF.rXoX} #   $ ; n L R R ~ 4.@X>XBXNXVXFXJXDX=XP.E.^. ..         X     *XfXBX$X,XfXZXZXfXfXBXgX#XgXgXgXqX) . . O = 1 + 1 o s U L.3.1.1.i.U.8XjXzX#X`.9XlXtX'.`.#Xp.= V.9X`.lX8XE.6.m.LXPXAXPXIXAXLXLXLXLXJXAXZXDXPXFX~ @ G | y.rXE.CXPXFXVXVXgXgXBXgXfXCXgXrXR.N.C.NXz E *X@XoX/.#X4.5.uXBX9X9XtX=X&X'._._._.`.'.8X!.r.r.A.=XBXAXB.5 O ; [ S.'.&XE.A.t.X.} }  .X.6.6.X.}  .X.6.N.F.*X,XfXrXBXt.5 ^ 4.@X=X^.R.E.t.{ | ) ! | V.'.8XtX0X&X].",
"a./ ( ,.p : R B.B.5.t.B.4.) <.I.U.r.( { i   ! E.V.r.5.r.Z.I.I.P.| 1.1.1.<._ _ _ 2.! _ | 1.U.!.I.Z.R.C.@XX.0 N.F.+X:X:X;X;XnXnX;XJ.|. XJ.J.|.+X XD.|.|.<X<X+X;X+X;X+X;X:X<X<X:X1X*X/.S.[ 4 . .     + + | ^.#XrXyXJXJXGXFXVXtX8X`.U.dXFXt.@     X   X X.NXVXoXA.F./.*X>X$X-XgXrX(.=X@XBXgX^.  : 6 1 = a s B / s.5XT.~.]._.U.P._.#XtX0XtX0X&X0XdX#XtXp.{ dXkX`.#X5.W.GXVXPXPXIXLXLXPXAXNXVXGXLXPXPXLXJXt.; T 6.T A.B.BXLXJXCXgX=X-XyXNXVXAXgXVXrXW.(.gXS G rXrX=XrX@XB.S { tXlXkXVXVXVXVXlXdX9X#X'.!.!.Z.,.) 4.#XFX(.  < S  .t.).P.B.t.X.} [ [  .X.X.X.6.4.6.X.X.X.N./.*XyX,XgXF.< ( (.rX#X&X=X#X#X&X&X_.r.) _ 5.a.U.E.^.`.",
"a.a.7.5.,.: ,.%XR.t. .t.R.`.I.u.a.I R c 1 O x a.i.p.V.P.^.^.P.p.V.>._ | r.a.a.i.a.Z.| b _ <.>.`.(.E.@X@XC.E J H.D.N.N.J.J.D.D.J.D. X;X+X+X+X+XH.1X+XD.D.M.X.J.|.D.G.G.J.|.1X1XG.F.N.y.G %   . O o _ >.I.V.A.-XBX#XuXBXGXGXDXkXtX8XZXZXDX4.$   X X O.F.N.oXXXA.ZX,X/.W.*X,X*X$XrX'.(.=XP.S.  1 = a L U =.Q ~.j.~.4X[.~._.].0XtXdXkXlXDXZXtXkXZXgXkX#X  8 p.4.{ B.DXNXBXLXGXAXLXPXIXyX.XXXrXVXGXLXZXLXrX1 ^ B. .t./.ZXLXJXCXBX,X=X(.oX*XgX-XNXgX*X=XfX0 ^ >XyXyXBX#X=X5.[ V.9XBX9XVXVXBXBXlXkXkXdXlXjX8X!.p.5.t.C.A.  9 z ,.R.P.Z.| [ ] ^ E ] } } [ } }  . .X. .X.y.S.XXrXrX,XE.5 G p.(.(.(.C.4.p.^.'.^.I.I.`.'.`.I.E.^.`.",
"p.K.5.) D o ,.B.{ t.i.r.Z.{._.d.i.1.) x 2 = ! r.| 5.i.i.t.t.r.<.L n b c c ! / I n i n c 7 a / E.V.V.9X%XW. .< 6.N.N.N.M.o.o.n.D.0.J. X+X+X X|.J.J.J.H.;X XX.o.o.o.M.M.o.n.G.G.M.] X.C.S #       c U.r.p.P.E.E.E.=X=X&XtXVXCXtX8XqXjXzXdXZXS     +.NXH.0.o.,X(.S.-X(./.*X-X(./.oXA.C.P.).R.5 1 1 I I =.` =.=.-.3.-.3.s.U.8XtXdXuXE.(.gXDXgX@X=XVX=X@XG <   @ v FXVXtXCXNX%XBXLXAXPXJXAXBXfX=XdXZXBXZXCX8 T 5.A.A.@XgXBXrXrX-X#X=XXXR.R.>XoX/.A.R.rX=XO 5.XX*XgXuXkX9X9X(.{ i.BXVXBXBXBXBXBXgXtXrXdXdXlXZXDXZXgXrXrX  ; S 6.E.V.B.} [ ] ^ ~ [ }  .} } ] ] ] o.6.6.y.N.W.>XrX*XF.9 z [ R.A. .| ,.T 4.p.P.I.I.E.^.E.#X'.^.I.",
"K.V.P.i.7 o D G S P ) ,.i.r.L 3 _ 1./ L s + p.5.) <.5.{ ~ ) { ) n 2 i 2 2 c a 2 i c b x c s x p.,. .P.=X>XH.0 N.G.OXOXJ.N.N.D.N.] o.M.J.J.J.J.H.+X2XJ.2XH.0.N.J.X.M.n.o.o.N.N.X.N.N.y.4       O / 1._ a.'.(.E.R.#X9XtXtXtXtXzXVXzXFXlXlXCXfX< X *XG.N.X.y.../.F.@X,XrX*X$X*X$X).#XF.R.oX).z f ( U Y Y j.e.=.B Q d Y s.].8X9XrXuX@X=X=X`.rXBXrX(.#X#Xz S ;   >XDXlX9XP.#XgX,XfXfXAXAXJXJXCXhXdXVXDXVXFX} 6 ~ y.B.R.=XrX#X@X(.(.=XBXyX*XBXgX@XB.A.*XX.  t.R.XX>X=XtXU.#X'.5.5.@XVXkXBXCXFXCXBXrX=X'.{.&X^.P.P.@XtXBX8 4 T  .5.<. . .| } [ [ [ } }  .} } [ }  .6.6.y.N.W.XX>X#XS.9 5 G 6.~ S <.E.p.V.`.#X`.P.V.V.V.i.V.P.E.",
"p.V.i.,.< . # T  .[  .,.F 1 = 7 2 1 I U 2 o R ) P  .t.<.) ! ! P b 1 2 2 = 2 7 b U U U x g D L | Z.,.( A.(.N.g ] N.N.J..XOX X|.|.J.N.J.G.G.J.G.OXOX+X2X1X2XX.0.N.D.D.M.o.o.M.N.X.N...^ % X   < T I._.].zX0X).tXZXCXgX#X%XtXDXKXPXPXKXqXrXPXBXy.1 X.y.F.X.B.B.y.t.*X-X#XE.R.(.-XhX).).rXA.).G ~ d.r.=.B =.*.B t y -.j.5XjXjXtXtXgXFXBX#X'.9X-X@X9X#XBXG f g   $XNX`.R.`.#XrX-X/.,XfXfXBXAXFXVXlXlX9XZXCXR.  5.t.B.A.rXZXBXgXrX=XBX,XgXrXBXVXgXW.R.(.5   } R.@X@X=X#XtX9XE.tXdXP.E.ZX9XV.{ ! ) 4.a.2.U s 7 a b v g P ~ 5 5 { i.<.B. . .[ ~ E E E ^ ] [ [ } } } [ [ 6.N.XXF.$X$XC.5 9 4.E.R.).'.'.9X`.`.`.(.@X=X#X^.`.^.E.R.",
"r.^.5.< 6 #   D E E F G x c I U a i z D 6 O : G T ( 5.<.R F F a U b P ( L c v z p p g v G G D z T G  .5.N. .f A N.N.M.N.D.J.J.J. X<X<XOX.X.X:X.XH.UXUX XH.N.X.N.G..X.XJ.D.H.G.F.C.A.S   ; ~ t.p.0XlXZXlXlXlXdX=XlXgX=XZXJXLXPXPXPXlXlXJXJXJXgXS rX/.(.F.R.y.A.B.C.R.%XrX@XF.R.@X%X@X@XA.S.T p 5.j.j.f.*.B , , B f.z.j.L.8XqXqXzXwX].I.d.,.`.gXkXgXrX[ 0 G % /.yX>XNXgX@X).-X-X).S.@X#X).@X).E.@XBXgXgXgX  z R.B.[ =XBX=X=XrXgX-X*XCXfXrXBXfX$XS.X.. @ @ 6.R.%X*XBX=XW.E.#X9X#XE.p.2.L m b n r r N N l l n L R ( ( ( < p [ 5.t.R.4. .[ ~ ~ ~ T E [  .{ t.5.( 5.V.R.XX*X#XoX(. .5 O t.5. .#X#XE.@XE.E.(.@X@X(.@X9XR.P.R.P.",
"Z.P v 8 < ;   9 C.4.R G b b B m U v 8 5 < .   4 H ~  . .P F F c b I { ) L b F P x 8 8 z T ~ G f 1 x f z x $ X % X.G.G.OX;X+X|.|..XH.G.<X:XD.J.1X2X+XH.N.H.2XJ.N..XD.m.J.W.W.G.W.XXt.@ O P.).-X0X0X=X=XrX=X(.A.p.R.).=XZXJXPXLXJXPXPXLXPXLXPXJXr.y.B.(.A.F. .t.t.B.C.W.%X@XW.%XyXW.R.R.A.R. .S V.j.j.e.N t r N *.j.~.L.j._._.E.5X8X8XU.p.<.^.0XdX@XE.N.$ 9 . N.NXNX*X*XhXhX&X).).!.r.<.Z.(.-X>XrXFXBXgXgX  5 t.[ ! S.(.gXLXGXkX(.A.,XBXBXfX,X>XXX}     # 4 [ >XyXuXuXuXuXrX`.i._ L L l a r l l l t d l N B U I R  .( < 8 P { 5.P.5.} } 5.4.~ E  .T ~ ( { r.,.i.5.C.A.W.(.(.(.| : 8 S.y.[ (.rX(.S.A.S.R.`.@XR.A.A.W.P.B.4.",
"a.v x F < < # A N.t. .! F m r l x 7 5 1 $     O ; 5 8 8 f x 7 2 1.>.F a v R P v G T ~ ) ~ R T G v 7 $ $   % J x J F.H.;X+X+X|. XJ.H.H.M.N.+X+XH.J.] J X.G.N.X.D.<X.XJ.D.D.N.N.S.X.S   4.lXZXZXdXlXrX&XI. .~ r.'.Z.Z.9XlXJXPXZXlXCXZXlXZXlXCXFX=X. z X.).y.S.t.).R.A.A.C.B.t.A.(.@XC.`.W.%XE 8 p.L.e.Q r r V j.~.j.~.L.j.K.K.K.U.0XjX{.^.!.0X0XrXrX(.y.  E ] ] XXoXoX-X-X'.!.!.'.lX!.Z.I.Z.).&XoXgXR.A.(.# $ }  .t.t.[ 4.S.p.R.&XhXoXoX-XBXgXN.D f   O %   < g  .W.#XgXgX@Xr.P c n b a l r N l l d d l l b b F D L z = 6 g L R ) 4.y.N.B.y.| | 4.~ 4. .S.t.B.R.@XR.A.R.R.R.S.J .   [ C.4.C.@X=X$X(.A.C.R.W.R.A.A.R.R.A.V.",
"| ,.{ T : $   T 6.6.t. .| ! r s s : 1 ;     $   X < 5 1 < < : 1 + i p 7 i p g D ~ T D S D v f 5 O   . = G y.N.F.A H.H.+XG.|.|.+XH.X.X.X.D.OX2XG.N.D.D.J. X.XH.N.|..X|.J.D.H.H.N. .8 f #XA.'.9X'.9X#XR.B.r.4.t.S.BXlXCXlXlXDXFXJXCX'.a.p.B.P.dXJX6   6 G A.).@Xt.A.R.W.@X`.W.R.W.-X=XB.tXt.5.  F e.Q Q *.e.k.~.h.e.j.!.!.Y.K.K.^.8XlX0X9XdXCXrX#X(.,X4.@ } y.; y.t.F.'.'.).).'.'.).{.dXdX-XhX,X/.).F.#XR.5 X x 4. .y. .<.[ S ! r.4.A.*X(.A. .A G :   4 @     o } 5.Z.(.R.5.( I I s c c U l N l d B B B U U I ! ( T f : 5 < p g z S E  .X.4.y.S.R.6.5.^ [ E E E T T T ^ ~ T T f   : | R.t.[ [ [ T 4. . .6.B.B.V.A.4.4.5.t.",
"x ) _ ( p :   [ C.4.| | a.d.m 7 3 s c 2 .   . X   < 5 # .   . + . .     = : 2 v p 5 : = # # $ O $ . S B.r.y.A.C.0 ..X.M.X.X.X.N.N.] X.J..X.XD.G.+X+XOXOX.X.X2XH.|.|.|.|.+X+XN.] ] O { <.{ U I U F r.'.jXDXDX9Xa.<.-XDXKXFXZXJXFX&XI.I.&X9X'.).0XS.    5 H F.-X(.(.(.(.(.`.@X@X`.(.`.R.C.6.5.# c s.=.-.-.e.f.j.=.=.e.~._.Y.a.K.U.'.hX0X9X0XlX=X-X-XrXy.0 X.} : ^ r. .d._.dXxX-X'.!.).r.) r.).oX@X/./.).H .   $ y.y. .z 8 x 7 x F 0 S G D | [ G B.4.. @ G A.@XW.B.i.[ S z D L F x ! ! U I c c c I B B N n g a p 8 < $ # 5 ; 5 5 < f q 0 x 0 4 q S E ~  .G ~ f G f 5 6 8 8 < 6 1   O f 5.N...| t.B.C.V.P.R.A.t.5.t.A.A.A.A.",
"m 7 x P f <   6 C.4.) ) <.1.B l l I a = 1 1 6 [ *XgXgXrXiXiX9XiXV.u.,.{ F >   . . o O       . $ $ ~ ~ t.P.B.-XXX..] ..o.] X.N.J.o.N.G.J.N.J.J.J.<XJ.N.OX1X.X:XSX1X+X+X;X.XN.X.} G   t.`.<.| 1.1.K.lXKXKXKXPXFXqXZ.&X&X0XdXdXDX0XI.Z.^.^.&X0X=XdX^.  O . < 6 S.).W.R.C.t.i.V.B.5.t.P < f T B.; v r N =.*.*.Q Q N *.e.~.[.a.u.a.K.-XZXlX=X^.-X=XgX-X6.^ A X.E x . G ! ) | p.'.0X{.{.dX'.Z.)./.F.(.,XX.S 4 1 #   ! y.r.z 8 x p x 8 1 f 8 2 p 0 T BXyXX.X A H.$XNXrXP.I.S.,.F 7 2 2 = : = 2 g i = - * * - > = +           @   O . O .             @ .     f x 4 @ X 1 1 < : @ $ ; X . 4  .A.t.X. .t.t.t.t.5.[ P D P S S D G ",
"i   + 2 : : @ : ( ! P P L b b l B l = = P i.R.rX>X*X=X=XuXBXVXuXVX_.5.,.,.[ S < 5 : # $ # # o   z t.| t.t.t.(.T } 0 ^ ] X.0.C.S.F.G.H.J.y...y.N.X.] ] ^ ] S.OX2XD.G.;X;XJ.X...y.8   F 9X>.P.jXjXxXjXqX{.dXKXPXKXjXzXjXqXqXdX].u.r.d.'.'.].dX9XrXP.$   X   % 9 S ~ [ [ ~ [ { T f . 5 C.(.=Xt.# g , e d r l N ` e.2.s.[.[.d.1.K.U.kXCXlX0XR.#X*X$XN.] E H X.J J   # x P L P | A.).'.-X,X'.).).).(.N.g 9 X.y.E # % ^ ~ z x x 9 0 x v S z f < : } CXVXZXG g W.XXR.F.E.B.t.P.=X0XE.5.5.,.a   + o o o _ 7.a.E.`.`.(.R.R.4...] z G S E ~ [ ] T J E E J X.A # ..6.X.4             O # O     4 f f f ; o .             .       . ",
"_.| I 1 o o   . $ + O : = + = . . o / {.{.9XlX-X$XuXBXuXR.W.9X9XzXlXlX#Xi.5.,.~  .4. .~ S 8 < : 5.p.<.t.P.t.| ..z X [ N.*XoXG.N.oXoXS.C.N.X.X.^ o.] ] ^ H ] y.o.X.G.<X:X/.y.^ z # ; i U.qX8XDXjXa._.].U.u.1.r.r.d.U.8XL.K.`._.`.8X`.jXxX].].].dX<.; O X X % ; S [ G 6 $ + = O   4 E  . . .%X: 2 c e e a Q Q =.L.e.j.].[.u.u._.&XBXgX=X=X(.-XE.X.G E 4 % H H A     $ z |  .! [ p.).).-X@X@XfX@X[     : 6. ...H % z S S ^ y.[ ^ ( G v D R p 8 A.FXuXNXNXS N.W.W./.=X#X^.P.V.Z.I.^.,.#XP.= 6 : p D P.Q.E.`.`.(.W.R.XXXXyXNX#X@Xi.Z. .[ 4.A.(.W./.$X,X,X:XS.oXN.X.q O     .   O @   < 4 z 6 : f S E ~ T T E ~ T S z p 5 = . ",
"8X{.{.U.a.<.x   .   + o o o 3 I 2.[.K._ I.BXgX=XNXuX=XuXVXuX9XVXBXtXBXlXE.P.I.5.uX@XA.B.B. .z # A.P.V.t.R.'.A.t.~   [ ~ N.F.y.F.] X.^ z J [ ] ^ H J ] y./.(.B...S.N.N...J J S : : P L 8X8X8XqX]._ wXDXxXU.U._.=.B B 2.].xX{.U.L.].qXqXqXzXqX'.&Xr.5   X     X < o . @ f 6     ; . < D E E (.# $ , r l l N *.e.h.e.e.L.a.I b | I.5.(.uXrX(.E.4.O . %   $ H x ] ..5.z < < G  .} 4.( B.-XgX&Xy.8   X     8 } 6.] 0 : H [ ..6.X.} [ P I L x 7 g V.gXrXrXNXy.N.W.C.F.S.^.&X^.t.<.i.R.,.,.E.<.= : p <.p.].E.V.`.=X@X@X*X$XgXyXrX#Xi.4.5.t.C.(.(.F.A.W.S.XXoXoX$XH...] f @ ; g ~ C.R.R.P.R.R.R.A.A.A.R.C.C.C.B.i.t.t.t.6. .E S ",
"xXxXjXqX'.'._.a.F 1 o   + = U I U.e./ >._.#X@XrX%X>X%XXXuXVXtX%X9XkXDXtXE.#XkXiX=XrXuX=X*X=X6.p (.R.'.#X^.R.#XrX&X. T t. .| Z.| S v z D D z z G ~ t.C. . .S.A.y.y.[ ^ ~ T F f ; i x i.U.4X8XjXwX[.j.~.xXwX].~.*.I l l / s.j.~.5X5X5XzXzX8XqXqXa.| 2 # X     9 A 5.,.rXGXFXrXB.@XE.E. .S $ p ; o 2 i b B l r l I _ e.d.` s 3 2 2 5 5 p g : . .         4 y.6.S.@XR.C.6.T ;   ; S E T (  .R 7 + . @ # . .     ; ;   4 G [ 4.4. .| ) F b L L P V.&XgXBXyX%X} >XN.C.t.i.B.Z.A.B.4.{  .G (  .i 6 f ,.a.qX#XP.9XrX%XrXgX-X>X=XuXtXR.V.V.P.`.`.(.E.R.F./.oX>XyX<XXXH.N.0 5 g G R.P.C.`.R.R.E.R.R.A.R.R.`.`.(.W.E.R.R.R.W.R.C.B.",
"_.[.qXqX_._.]._.].>.s O   + I.Z.u._ 2.'.0XR.P.rX%Xt.5.R.B.( { P.kXBXVXtXtXVXVXiX%X=XBXCXBXVXW.D B.A.`.^.V.E.rX=X'.z = G v v P G i 5 x ( ) T ) r.p.4.{ ! S x T 5. .v F | ! 2 + * a I _ [.8Xh.8XqXj.~.sXvX5X=.l l U B Y _ =.=.h.].[.sXsXwXwXqX^.u.) ;   # N.*XUXFXZXPXDXFXGXGXPXgXPXGXGXPXW.8 < P.`.'.8XqXwX].].wX5XwX[.K.I.^.^.E.`.R.`.E.5.P 6 1   X  .-X-X@X0X#X$XuXNXVXA.P g @ . o + o o o + * i a i 2 = o + o o + : 2 5 p f 6 n c n i 1 b p.`.kXBXCXXXC.A.N.H.4.4.4...T v f f 6 6 f [ g g g ,.7.8X8X`.tX=XA.(.rX@X@X@X9XtX_.K.P.`.].E.V.V.t. .C.B./.>XoX$X:XW.S < i S %X%XZ.B.R.E.E.E.E.R.E.E.#X#X%X@X@X`.(.(.I.R.R.R.",
"qX[.].].!.!.].'.U.a._ x   : K.1._.5XjXzXtX9X=X=XR.%XR.R G ^.DXkXDXlXtXtXVXkXtXuX>XXXuXCXNXuXF.G [ p.V.p.B.R.^.r.t.P.g f v x 6 s c x F L c b P L a n n a x b F b U b B U s + . + c a.U 1.K._ K.4X5Xs.h.` s U 2.=.s.=.` e.j.~.5XwX[.wX5X5XsX].i.r.F O # =X/.CXJXgXJXuXuXBXZXZXZXPXDXBXFXPXPXrX< 9XlXzXqX`._.{.5X[.wXwX8XqXjX8X'.9X#X`.9X#X#X'.Z.Z.5.r.0X-X#XrX^.R.#X=XA.C.[ ( P . 2 c L B Y =.f.j.~.4XT.4X4XT.L.5.a._ L c i 7 2 + o . . . o P a.V.i.(. .  N.oXoXoXrX@XF.C.B.5.~ G G E f f @ 8 D 5.K.8XqX#X#X#X`.#X(.(.`.`.`.E.K.K.a.U._._._.`.(.E.`.(.$X*XXXXXXXF.z ; g D { A.@XB.E.(.`.`.E.E.`.%X#X#X#X#X%X@X(.(.W.(.`.@X",
"j.s.Y.].5XwXjXqX8XK._ n . R `.Q.8X8X_.P.`.tXtX=XrXR.B.i.K.9XzXqXE.`.iXVXVXtXrXyXyX%X>XuX%X%XF.^ T P.I.I.E.<.) _ <.V.>.7 > 1 c s c I 1.*.n n N d L n s 3 , 2 , - = y , o o , B =.zXHXqXn / >._.].[.e.Q l Q e.e.j.j.!.~.~.j.k.5XzX5X~.5XsX5X_.K._ 2   BXCXFXZX,XNXVX@X=XuX=XR.W.FXCXFXFXBXBXGXo i.9XtXtX8X].xXHXKXY.[.{.{.^.a.a.'.]._.9X#XE.I.P.0Xr.U #X9X,.'.dX-Xp.P.5.5.{ >.n o I Q =.f.q.&.q.g.k.3X3X6X6X3X3Xk.5X4X5XsXwX5X5XT.[.j.>.=.L L c i <   .   4 E 6.} ^ ] E S 5 $ O O O ;   o o g P ( u.a.`.#XP.R.`.E.9X`.K.K._._.U.a.T.U.[.8X]._._.].E.'.(.R./.F.C.A.f 5 g D S E.iX(.(.`.@X@X%X@X%X&XrXrXuXuXrX=X=X%X=X#X%X%X",
"l L r.Y.Y.!.].[.r._ b a . 5.V.P.8X].`.8XtX9X%X=X@XR.E.9XkXzXtX8XP.E.%X9X9XiXuX9X=X$X=XW.R.%XW.[ 8 '.&XI.i.F v P p.a.u.P   1 s n n 3.eX5X=.e * o + o o , r d Y s.j.3X3X5XsXsX6X5XHXvXY.n 2 b qXzXh.N Q j.j.!.5X5XsX5X~.~.~.~.}.[.4X5X5X[.~._.u.L   ^.#XlXBXoXF.oXW.=XS.W.%X=XGXZXW.i.t.tXgXLX; 4.`.Q.P.Q.K.j.K._.zXDXjX].'.'.'.'.K.E.9X#XE._.P.i.&X_ I p.I.'.d.r.1._ I _ >.>.2 s =.-.q.q.&.#.#.#.k C @.;.&.q.g.g.g.~.6XsX3Xk.k.~.T.5Xh.j./ L a 6 + f T C.H.] H H.>XoXXX$X$XC.D ; 8 #   . O g ~ i.K.p.U.`.K.E.9X@XV.].8X[.a.s.4XzXeX8X5XwX[.h.p.K.p.I.Z.C.E.F.B.F.6 f 6 g D #X%X@X`.@X=X=X#X#X=XrXuXrXtXtXtXuX=X=X=X=X%X`.",
"_ e.L.a.2.s.[.{.s.1.b 2 . >.P.BX].#X`.`.%XB.[  .rX%XP.B.p.a.U.iXkX`.E.P.B.E.uXuX%X>X=XW.W.%XW.} + t.p.) R v D c L / I U . * . * * l 3.h.*.r - - Y 3.j.Y.h.h.h.f.k.k.k.k.3Xk.f.j.eXvX2.Y.a + L j.j.e.e.~.}.s.=.=.e.s.f.e.=.=.s.k.~.5XT.e.j.u.L s . -X=X#X/./.NX*X*XC.#X9XtXgXR.%XW.%XuXBX(.=X$ i.#XE.E.#XdXqXwX8X!.L.Y.U.'.0X9XU.jXzXzXqX8XzXjXa.i.B L 8X].I.u.' 2.| >._ _ U o Y k.c.c.g.w.b.b.g.w.w.@.@.@.#.w.w.g.z.k.k.f.q.f.3X~.wXY U c i > o P S.(.W.>XyX<X$XVXNX:XXXW.F.R.R.p   . # 5 g R 5.Q.a.5.>.{ >.5.a.5.5.>.h.].8XeX5XwXeXeXeXwX5X4X8X9X9X9X#X%X(.R.R.6 7 p v S C.E.=X%X%X=X=X=X=XiXtXrXuXtXtXtXrX-X%XrXrX=X=X",
"{.xXvXwXY._.wX5Xa.u.b > o / i.iX`.`.>.D ,.V.i.5.,.[ F D ( 5.U.tX#XP.#XgXE.Z.%XuXuXuXuXuXuX=XA.X.# S f v P L ! c i = i + . * m l N V V V %.=.e.~.k.k.T.3Xk.3.-.l.-.7XaX3X7X7Xk.f.t -.e.j.e.+ . =.h.L.j.2.B B =.Y -.j.5XwX5X~.e.=.4Xj.s.e.*.P a = o A.rXS.gXAX,X$XP.tXZXZX9XE.#X@XBX=X9X=XgXrX  V.iXzXzXzXjXzXDXzXjX&X{.{.I.Z.^.'._.U._.qX].].jX_.a._ 2 _ u.d.I.!._.j.r.I ` =.o f.z.g.g.g.x.b.v.v.b.x.b.v.v.v.aXaXaX7Xg.l.g.l.g.7X~.6XB *.L 2 7 S R.R.C./.G.,XyX$XoX%XoX/.H.N.N.N.C.@ .   < g D L 7.h.a.a.K._ h h i L ` j.4X4XwX4X4X5XeX5X4XwXqX8XqX&XtXtX@X@X%XR.[ ; 4 S S B.=X(.@X=X=X9X9X9XuXtXuXtXgXNXgXrXrX=X%X%X%X#X",
"zX'.d.a.].qX&X_.!.>.a 1 o b a.8XU.a.a.U.K.>.{ p.p./ >.'.&X'.`.(.Z.P.P.(.&XE.E.gXuXkXBXtXgXuXR.}   % f z p S c + . o o , Q f.f.k.c.w.&.&.w.w.&.Z C &.c.c.-.%.&.k.7X7X3X7XpX6X3Xg.C #.c.f.%.r * . s.K.Y.j.j.s.h.s.Q *.e.3.Q %.*.B b ( 7.>.[ T 7     g C.uXrX=X=XrX9X8X`.P.P._.#X#X_.'.^.'.'.K.  | ]._.8X'.8XU.].&X]._._.'.].{.wXzXqXqX0X-X0XdX9X'.qX1.O a.0X&XxX^.{.!.Z.i.| r.+ ~.k.g.w.w.g.w.#.w.v.pXaXaXpXaXpXv.v.v.v.c.x.x.7XaX6X3X-.B n 7 :  .N.F.,X*XH.:XAXmXOX:XNX.XN.D.N.J.G.J     2 s I *.j.h.*.d , e N Q h.L.e.*.Q f.T.3Xe.3X~.~.~.j.2.K._.I.Z.Z.R.^.(.E.B.  8 f G N.-X(.@X@X@X&X0X0X9X&XtXgXtX#X9XgXuX@XrX=X*X$X",
"jXa.! _ Z.'.&X8XU.<.s = o L a.a.K.K._.8X].a.1.1./ 1.].qX`.(.=XuXgXZXBX9X`.A.^.BXtXuX9XrXuX@XV.6.# . 4 A 7 O . . * l %.&.-.;.;.w.;.w.l.:.@.@.#.g.7Xv.c.g.;.V ;.c.7X7X7X7X7X7Xc.x.c.v.7Xz.-.M * - + _ s.U.7.p.1.U.3.e.L.T.3.Q B d W D D D z : .   o   g A.I.W.`.i.V.9XjX]._.jXzX0X^.'.^.U.u./ . 1.dX].]._.qX8X8X].qXqX8X_.^.^.K.r.U.&X9X^.p.r.p.Z.,.p   F dXdX9X'.dXF.4.{ ~ b , k.q.c.v.v.v.g.g.x.w.x.c.v.v.v.x.g.v.v.v.x.g.l.x.v.g.w.-.Y d O : N./..X:X*XW.OXnX1X:X:X<XNX;XN.X.X.n.C.g : * / *.3.e.Y l N %.3.L.4XT.j.%.C M -.k.k.3XsX4X4Xj.j.T.wX]._.U.I.E.R.P.Z.B.. x A G y.*X$XF.E.@XrXlXzXtX8X^.9XuX#X@X#X`.A.S.C.N.y.",
"'.'.U.r./ ) U.VXZ.r.c = o U `.a.u.a.U.].8X].U.a.i._.8X^.^.VXFX0XtXtX9X9X9X(.E.9X#X@X@X#X#XE.t.{ f % . O O O 2 l *.3.f.k.3Xc.l.w.c.c.c.c.x.c.v.7Xc.7Xc.&.C C V %.&.-.w.f.l.g.x.v.v.aXc.c.k.=.e c + o g L 7.u.'.K.K.3.7.3.Y N N N g ; . o o     @ .   o 7 S T [ <.7.>.p.9XlX9X#X0X9X&X^.Z.| x O ! U.Z.a.r.K.U._.I.I.K.u.1.i.K.Z.r.<.| { | <. .S 1 1 .   1 ^.I.V.I.&X..f 1 ;   U 5X6X7Xc.c.v.c.v.aXpX7Xc.v.c.x.g.x.x.v.v.v.x.w.q.:.g.q.e.*.a   g oX,XoX/..XG.G.+XOXXX:XOXNXNX1X|.X.X.G.W.; 6 b 1.Y N Y 3.~.eX5X4X3X6X3X-.%.V l.c.3X6XcX6XcX4X4XeXwX].[._.^.E.P.B.t.R.  ; S T ^ N.#XC.i.5.4.,.) R L P T R ) ) ! T ! G S f 9 ",
"qXjXqX].&XjX8XP.1.5.v 1 o v @XP.P.I.P._.qXDXDXjXDX9X&XqX0XK._ L g ,.`.0X9X#X9XlXE.9X9XK.r.Z.#X9Xf ;     2 b / *.-.e.e.f.g.k.k.c.x.l.:.&.q.w.g.x.pXc.g.q.V t V l.-.f.k.3X3X3Xc.c.x.v.g.x.7X3XY l a : o 7 7.U.Q.8X[.a.>.W i - * * o       o : 7 p g D i $ o . $ 8 L L U ! 5.P.I.V.P.r.T x p 1 # 8 { <.p.r.,.|  .| i.| ) ) ~ F p 6 5 f x < X           O # ~ T F G 9 # @ o     1.4X7Xg.w.g.g.w.w.x.c.7XaXaX7Xg.x.v.:.w.c.7X7Xc.g.g.7Xl.f.*.p   [ >X:XOX.XG.G.2X1XmX2X:X:XnXNXMXnX|.D.G.@XT 2 c B l 2.T.5X~.k.T.4X6X4X3Xl.-.#.w.k.3XbXsXj.3X5X6XsX5X5X5X5X&X#X`.E.R.5.O : 8 z G D 9 8 8 8 p x v v v v v S D S f 5 ; . . . X ",
"I.8XqX8X9XzXdX'.t.,.z ;   ; ,. .`.^.p.) ! _ { ! b p.E.u.>.1._ c L ,.K.P.`.qX8Xp.a.5.{ >.E.tX'.1.f O   2 U / _ e.=.q.l.k.g.g.g.x.v.v.v.v.x.g.w.q.q.g.g.&.%.f.c.3X7X7X7X7X6XpXpXpX7Xv.v.c.7X7Xf., n + .   : | 5.L 7 2 = o . o o . : 8 g g P  .,.( 5. . .R 6 ; $     = 2 = = 7 p < 5 f z H ] H 0 O 1 p G ! F x p 8 O           . # 1 1 1 5 S ..y.t.X.] T G J x 1       O .   5 K.L.j.k.z.g.w.w.g.g.x.;.@.;.w.&.C k y u C @.#.;.:.q.g.l.f.Q 2   y.XX/.:XUX:XoX;XnXNX:X:XSXSX:X|.H.1X1XH.XXB.6 2 c B 3.T.5X4X3X5X5XT.3X3Xl.&.#.&.f.k.aX3Xy , t N =.f.e.s.K.K.U.I.I.I.f   ; 8 :     o   . + < i g g g 7 p 6 o         = $ .   ",
"8X^.U.].jXzXtX9XR.4.z ; O . p f P { | P x v R _ F n b / *.L b ` >./ ( / n s n L 5.>._ _ { _ _ _ g + O a I / s.5Xk.f.l.c.7XaX7Xg.:.:.w.g.c.c.g.w.#.#.-.c.7X3Xk.k.cXbX6X6XbXcXvXvXaXv.aXc.x.c.c.- > T  .. R p.{ 6 $ 2 < 2 L 1.V.P.`.%X`.%X#X9X9X&XZ.V.P.(.P.[ z z 1 $ : p 7 X   ; X.C.A.F.$X$X$Xy.1 $   O O O . X 1 ; O   @ f { t.B.A.F.A.F.oX$XoX*X,XoXfXoX/.F.X.T f 4     E #X4X4X~.7XpX7X6X7X7X6Xc.l.-.;.#.#.#.C Z #.;.;.&.&.-.-.f.k.Q > = A./.C.oXUXUX+X.XOX+X<XOXNX<X:X;XD.D.OXH.C.(.< 2 i =.h.T.~.[.3X4X6X7X3Xk.;.;.#.&.:.f.C ;.y t C V B %.=.3.s.a.K.U.E.`.D S }  .} | g . o . .   .             .     < S S z p 6 ",
"1._ >.K.U.p.| ) 5.[ S ; ;   # : 8 b ! P v S ! | I U b L / I B I s.a 2 c n a n L >._ / / / I b d 2 + > n I 2.~.5Xk.k.3X6X7X6XaX7Xg.w.;.C k C #.&.c.7X7Xc.3X6X3Xf.k.3X6X6X7Xc.k.g.aXv.pXv.w.g.c.t >.-X%X5   8 6 f V.E.(.#XBXVXgXkXVXtX=X=X=X=XrXuX=XBXrXrXkXA.[ p.,.P f 2 # O % 8 A./.W.*X:X:X+XH.B.z     X % # < 4 5 9 0 J y./.oXoX*X:X*X,XNXAXAX:XZXNXAXZXNXNXZXF.4.^ 4 4 6.=X8X4Xj.z.cXvXbX7Xk.3X7X6X7X7X7Xc.k.c.c.7X7X7X3Xk.g.l.k.f.I : f .X.XG.J.oX*XG.J..X.XOX+X+XOX<XNX+Xn..XH.XXB.5.1 g / 7.L.5X4XT.k.T.c.l.8.#.#.@.;.#.;.:.-.M t t t t d N B Y I / ( >.5.5 : 4 #     = p v c a g v G T R D a v ! L 1 + 1 6 f G ~ ",
"b b b b c c b L p v z # ;   o < 2 7 a x z v S G R <._ c 3 3 B j.L i 2 i e a c e h a 2 = > a b c a * = a B =.L.j.6X6XvXHXcXaXaXaX7Xv.g.l.w.g.x.v.7X7Xv.c.3X6XcXcXz.3X3X3Xk.k.3X6Xv.aXaXaXw.g.x.V 1.C.(.G A.B.S.CXFXZXrXrXBXuX-XgXuXuXgXZXFXFXZXBXBXkXgXtXgXrX(.Z.B.a.<.F < # 9 H >XoXH.<XNX<X:X:X/.D X < x ^ ~ y.t.X...N.).#X=XfX,XNXZXSXNX,X/.N./.OXG.H.OX/.y.F.F.S.C.A A  .&XqXsX5X6X6X3X6XsX5Xk.6XvXcXcXcXaX6X6X7X7X6X6XbXcXcXpX~.=.l $ A /. XNXJ.J.+XH.H.1XmX$X<XOXnXnX+X;X.XOX<XG.,XrXT 6 R U j.eX4XT.T.l.&.w.l.f.l.:.:.&.:.:.@.u t t V M M e r s h i a n F #     # g ,.1.,.7.7.1.i.K.P.P.P.V.u.,.,.i.u.( v < 1 < 1 ",
"a r h d 2 - 1 i > < : + . . o o * > 2 2 a v 7 8 G v p i i s s i d i i h e , > 2 > 2 2 2 2 i c L b = + b U 3.wX~.6XpXcXbX6XcXaXv.v.l.w.w.w.g.g.w.c.v.6XaXcXcXpX6Xk.3X6X3X6X6X6Xc.7XaXaXaXpX7Xc.%.= g E $X*X>XFXLXJXCXNXgXBXVXVXBXFXGXGXFXVXgXBXCXBXBXBXBXBXgX=X#X=X).r.G f 9 f A >XXXN.D.N.J o.H.N.J 9 J N.F.S.S.oX*XUX,XoXNX>XfXNX,XF.F.F.<X*XXXA.H.N.6.N.6.N./.B.rXF.A ] 6.@X_.].5XsX6X5X3X4X6X5X3X3X6XcXvXvX6XcXcX6X7X4X6XeXcX6X6X[.=.  } :X<X<XOX/.+XoXW.H.H.1X.X1X<XNX<XD.J..XG./.oXoX~ 8 P b 3.5X5XT.j.l.l.&.w.x.g.:.@.@.;.@.k C #.@.#.%.%.-.Y U / L v F L O < 9 G V.K.i.Q.U.a.K.'.&XE.Z.P.5._ / ,.p.Z.I.`.,. .,.,.",
". o * = * * * * = + o o . o o . + . + * : 2 ; = < 2 2 2 2 , - - h h i 2 i e = . + - i c n c a h i 1 o b Q e.[.~.3X~.l.&.-.c.pXpXl.&.#.#.#.#.#.#.g.c.7X6XpX6X7X7XvX7X7X6X6Xk.3XpX7X7X7XpXpXpX7X-.* ] rXAXGXBXrXCXfX(.W.fXJXJXAXAXrXBXZXCXGXPXLXFXFXZXBXBXVXZXZXZXVXdX'.A.5 x 9 0 S.:X+XG.G.H. XG.oX9 4 J ^ S.NX,X/.oXfXoXF.y.F.-XoX/.N.C.....X.C.>X>X*X>X*XoXoX,X@X-Xy.# ] H.rX9X_.].5X4XT.T.eXKXvXeX5X6XeXcXcX6X7X6X6X~.3XsXeX3X~.5Xj.2.  X.G.G.MXfXNXNXNX<X+XH.<XOXH.G.+X.XN.] o.X.X.G.>XN.# f b ` K.4X~.e.;.;.&.;.;.;.#.C u u k C @.%.;.-.-.%.f.3.1.>._ ,.,.R < p S ( V.a._ ` 3.e.s.a.i.u.<.>.I I ( 1.5.5.p.U.E.E.E.E.",
", , , * + + o o e h n e o o e h s = = +   = ; # # = $     + c >.K.8XVXDXzXjXqX8X8XqXzXDXGXGXDXZXDXtXI r I Q j.sXsXcX6Xz.c.7X7Xc.w.:.:.w.w.w.b.b.w.g.x.7XaXaX7Xc.c.c.f.-.-.l.c.3Xc.c.c.aXaXaX7X3.- A.JXZXBX#Xt.B.,X$X$X>X>XoX*XNXVXgXgXfXoXR.=XJXFXFXAXAXAXZXBXdXZX-X'.( 6 ..^   y..X.X1X:X+XOX*XoX  1 S G 6.fX-XrXA.X. .A.S.(.(.$XR.t.C.C./.-XZX,X-XrXgXgXfXBXZX'.)...  X.XX%X`.jXsX5X~.s.h.Y.~.eXeX3XT.3X4X6XcX6X3X6XvXvX5XeXvX6X5Xe.F . } D.D.M.H.OX:XNXAXSXmX>X<X|..X+X.X2Xo.] X.X.S..XA.. 8 i g I u.j.j.f.q.;.V C C C C u y k @.;.;.:.f.=.Y Y *.u.5.5.V. .8 < f S ! 1.r.*.Q *.=.2.=.Q U L L / I / >.p.a.V.Z.E.E.E.E.",
"j.L.L.j.e.B , * e.3.*.M e B *.V M l N 2 + O         X 5 ! K.qXzXqX].`._.E.V.p.p.P.V.p.p.P.E._._.9XqXK.+ _ / e.5XvXKXvXcXvXbXz.w.#.#.&.w.:.:.w.w.x.w.:.:.w.x.7XaXaXaXc.g.l.k.k.k.g.g.z.7XaXaX7X*.n @XrX(.S.@X=X*XF.W.XXXX$X,XyX,XgXFXAX>XoX-X=X@XgXgXBXZXCXCXBXgXlXrXrXD < [ [ O N.,X<XoX:X<XfXOXF.    4  .X...~ R.*X/.rX,X*XN.G ) P.dXlX=X&X=X0X&XR.).^.B.B.R.^.hXhX}   [ A.E.#X_.5X4XT.~.eXzXjXeXzXeX6XeX3Xj.h.6X6XeX6X4X[.4XeX3X~.a.v z N.|.D.G..XOXoXOX$XoXG.+X$X<XNX<X:X:XJ.o.X.X.X.D.G.4 : p z F I =.e.-.%.Z C C C C k M C C ;.&.&.:.-.Y N Y / _ R P ~ z . 1 8 x b U *.3.3.-.%.%.*.Q c a b I L L / 1.p.i.5.V.V.V.V.",
"[.[.[.5X~.Y e r 3.-.%.V V -.f.-.;.-.=.B a $   x ..S.,XBXrX'.^.^.#XI.5.! F P p.0XkXtX9X0XtXkXgXtX9XzX8X. n =.s.eX5XvXvXHXKXvX~.f.w.:.w.b.w.:.:.9.w.w.:.#.@.#.w.v.x.c.g.k.3XT.f.e.k.c.g.l.z.cXbX3.d { BX9X@XgXgX-X@XrXrX$XXX,XVXAXrX-XgXJXJXZXZXJXGXFXAXFXGXFXCXZXrXR.G f 8 y.G ; ^ y.y.y.B.N.y.X.T   ; 5 G 8 8 ~ #XgX-XrX@X@X(.B.^.].dXlXlXqXZ.' L m v v p a n v d.A.8   E S.).=X_.}.5X}.~.[.jXDXzXeXT.L.6XsXsXsXeX[.j.Y.[.5X8X5XsX}.Y.F G N.H.M.G.G.+X:X,X1X$X1X1X.XyXNX1X.XH.H.] ] J K N.+XJ   : 5 p x N Y B l M k C C C M C #.&.:.:.:.l.-.Y Y W L L D v S 8 . 1 8 m n l N %.3.f.-.%.=.=.U b L / / L n b I ,.p.P.P.A.P.",
"eX5X~.~.j.B t %.%.M t #.l.g.w.:.k.k.f.=.Q 1 2 oXF.G././.E.P.P.P.,.|  .B.9XDXBX#XtX9X&X#X#X@X`.(.5.].9X> i K.a.5XsXsXzXvXKXHXpX3Xb.w.b.b.b.:.:.$.#.#.#.#.@.C u y k C #.&.bXcX6X3Xf.l.g.7XbXeX4X2.e + #XB.i.A.R.(.R.XX$X/.S.N.W.>X(.rXrX(.R.#XgXgXrXgXCXJXGXBX(.S.S.5.8 5 D 5.G < [ ....F.(.X.} 6.[ . . $ 8 f z G t.4.B.).BXhXdX&XjX'.K._ L i s c i i m L L L I ( F H   O [ (.#X-Xu.2.d.~.L.u.i.U.8XeXzXzXvXsXeXsXeXT.j.[.4X_.4XsXvXsXY.~ A H.G.G.D.J..XfXNX:X1X>XSXOX>X1X.XH.M.D.N.X.] K X.J.] & X     = 3 r l Z M M C C C C C #.&.;.;.-.8.%.V Y L c c v f 9 ;   $ 2 x B N l V -.l.f.e.e.e.2._ I >.7.>._ >.7.1.,./ ( ( ( ",
"5XsX5X5Xk.B y V t %.:.w.l.:.:.c.w.l.l.e.Q 1 1 C.*X:XOXA.6.| r.Z.i.A.P.R.(.=X9X-X#X`.E.S.i.t.t.i.P.8X9Xb = e.K.~.vX5Xk.k.~.6XsXbXv.b.b.b.b.b.b.w.b.w.:.&.&.#.k u u - y V vXcXeXcXcX7Xk.3X3X3X4XT.2 . V.ZXVXZXVXFXJXCXBXBXVXyXA.X.t.} [ N.(.(.(.(.R.B.4. .t.F.#XrXtXC.5 @ E  .G   S { ( [  ...~ G f O O O O 1 z G ~ ( B.Z.R.t.t.p.! c r 3 c c L U n b U / ` ! I _ d.x X %  .@XdXlXxXwXsXHXHXjX]._.u.K._.~.h.h.~.5X[.zXvX5Xj.Y.U.Y.e.e._ P 0 N.D.H.X.N.G.oXoXXXXXOXmX<X>X1X+X XH.G.OX.X|.M.X.N.J A A 4 O   O $ , r t t t M C M C V :.&.:.f.8.-.Q B W a 2 ;         . ; s I *.V V q.f.f.f.h.h.e.r.>.7.5.a.K.U.K.>.n L L U U ",
"}.sX5XT.e.l y C %.3Xc.:.w.l.w.x.x.c.3Xf.B 2 2 ~ R.B.X...X.y.4.<.{ ,.B.R.R.A.E.=XtXtXrX#XE.S.V.A.9X8X#XF . U [.~.}.s.-.e.j.}.6X7XaXv.b.x.b.b.b.w.:.w.w.&.@.k u u y y t y bXvXKXcXcXvXcX5X3X4X3X*.i = p PXFXGXFXGXJXFXfX$XfXJXJXgXgXgXtX-X(.B.} G [ 5.R.rXVXBXrX#XS.6.$ $ O : 1   1 < $ ; 1 O O #   @ .     $ < f } y.p. .S G f z s c B c B b I N m b b L I I ! 1.P     % X.XXgXZX&XDXKXHXvXHXDXjXzX8X[._.U.~.[.L.[.sXHXHXjXwXiXqXwX[.Z.T 0 X.G. XG.+XoXH.N.N.N.m.N.<X<X<X<XOX<X<X+X2X+XOX X.X+.] m.] 0 $ O $ $ o * - e t t r l V C V Y V M l h * o . .     O % X # 1 7 I 3.Q C q.-.-.f.T.k.e.2.a.h.p._ b c L / ( n n n v ",
"5X5X~.wXY.e M M k.c.c.g.w.l.x.v.3X7Xk.f.*.l o 2 a.p.p.C.A.A.Z.p.'.#X).).=X'.p.r.4.P.9XkXgXdXkXVX9X'.).(   l j.j.e.f.-.=.q.g.3XcXaX7Xg.aXc.7Xv.w.g.:.#.@.C k u y y t y y k.vXcXcXeXsXcXvXeX~.h.h.>.5   E.gXgXlXZXBXrXgX=X=XBXlXBXGXBX=X^.R.^.#XrXuXrX9X&XuXBXBXrXR.~ O f S p 7 ; : < 6 8 5 ; O   .       . . @ ; < G z ^ ~ G S T P v ' L s n L I I a i c g g g p 6   . 0 6.>XrXtXCXqXwXxXzXsXwXeXzXqX&X].8X{.!.a.d.u.K.0XzXqX8XdX&X#X-X6 A N.D..XNX<XOX+X*X<X:X$XH.N.2XG..X.XN.:X<X.X:X1XoXOXq A X.X.X.H ; . . O . + = : 7 D F n 7 * . + i L R R o   o O   @   .     2 n *.=.B N %.%.%.e.j.~._._.1.Z.p.{ U c v ~ g g n R ",
"}.5XeX[.Q.* d Y k.k.x.x.x.c.v.v.7X3Xk.f.%.N + + 1.Z.V.,.P F | i.a.I.^.^.^.I.a.V.I.'.9XdXlXlXlXlXrXrXgXI.. * I ~.s.e.-.q.q.;.q.7X6XvXcXvXKXvXcXpXg.w.:.#.@.@.C k t V t t cXcX6XeX6XcXvXsXsXsXeX5XU.:   C.ZXrXBXlX=X=XBXBX-X@X@X-X).).0XZXgX`.'.gX&X9X=X^.A.i.| T P 8 $ P.-X=X=XdXrXtXgXgXgXrX=X&X(.(.E.S.B.B.t.4.T : . < 8 z A 5 8 1 L >./ - c 2 i e i a i 2 > ;   ; g A R.>X%XF.&X0XjXzXeX5XsXvXjXqX].'.&XwX8X&X'.I.].xX8XzXFXzX=XuX#X% ; ..N.J..X.XOX<XNXNX,XOX*XF.H.N./.NX*X*XG.N.F.2X.X:XA A K o.X.o.J 1     . x t.rXAXLXGXCXNX%XR.R.%XrX=X%XgX%XA.D 6 E N.6.,. .2 b >.*.3.M V M M V 3.j.K.a.I.U.p.<.,.~ F F L D z g ",
"sXsX4X5X_., e 3.k.k.g.g.x.v.v.x.7Xc.c.k.=.Q , . x / | Z.'.'.^.<. .4.i.r.) ~ | ,.A.A.P.E.'.#X#X#X(.).).Z.o $ i s.e.k.k.e.;.V ;.l.6XHXvXcXvXcXcXvXpX7Xg.w.&.#.@.k %.-.M l cXk.j.k.4X5XeXvXvXsX5X_.| p $ 8 rXtX=X-XrX#X-XhX'.).hXhX=X^.B.i.p.r. .) T ~ [ ) ( ~ G x z 7 $ [ ~ C.^.@X(.(.(.(.@X#X#X&X(.(.oX@X(.R.A.A.R.( 8 .     . @ 2 <.a.a.8Xb = * o + * + o o o + : T T S B.%X>XrXBXlXdXqXxXxX5X!.xXqX&X].'.].&X8XzXqX0X^.r.r.a.V.P.@XC.    o.H.G.H..X:X<X<X<X,X,X$XG.G..XOX:XNXSXNX:X+XG.H.2XA 0 K 0 J } A 1 5 f [ A.gXCXZXCXFXGXLXGXFXFXLXPXLXGXZXGXFXFX6.t.4.~ E ~ 7 i / B e y y r r r r a b L r.p.r.,.,.( R ( P P D z ",
"sXsXL.L.h.e e h.3Xc.g.w.:.w.g.l.k.c.3Xk.f.=.d o . 2 i D ! ) | P D v P P F R 4.r.v v S F ! {  .<...( ~ z   2 i Q e.e.e.=.%.Q Q %.f.5XsX6X%.V -.z.6Xc.l.w.l.w.:.-.-.=.M d T.j.L.T.~.L.~.wXsXqX8XwX`.G @ O C.V.4.R.=X).t.B.r.....v P ! T F D G F z G S g p f 8 < $ ;   1 A.B.} | C.#X#X#X&X-X=XrXrX#X/.(.@XS.[ ~ 5.} N. .6 $   f 4.^.'.'.^.].5XY e *.3.3.3.h.3.Y d 2 L i G L [ T [ G ! ) ! ' _ ` L I ) >.1.r.u.a.K.U.&X^.Z.I.1.| U.A.R.[     o.J.J. X.XOX1XOXOXXX.XH.H.1XNX.XD..X<X:XOX.XF.N.N.0 q 0 f ; ; [ @XrXlXJXJXDXgX=XuXZXJXFXFXGXGXJXJXLXLXLXBXLXGX@XG S [  .S   . 3 r l l e e e r d c c c 3 m U ! ~ D z S E D g ; ",
"}.5XwX2.1.- L 3X3X3Xc.w.:.:.l.l.w.c.c.h.h.=.l + o 2 7 7 < ; 7 5 8 < < 5 < 6 p 5 f f f f f g v S x f f O   + 2 c Q l l =.j.f.-.=.B l r N M N t t y y y k C V %.-.3.Q l r U L._.]._.].].'.{.8X'.Z.^.8 $ 1 P t.4.~ ~ T x z D J ^ 8 D 2 O O = # O   .     . O .     X X G  .t.t.$X#X(.oX#X-X=X=X-X-X-X@X@XoXS.| 6.E.B.C.A.y.A ; ..Z.R.^.qXqXu.s.3.3Xk.6X6Xf.;.;.3.3X3.L o = * 2 2 2 5 x v m x b n a n F P P L F L R ( <._ >.K.<.L ! | ~ 8   # ] J.D.J.D.D.G.oXOXW.C..XOX<XNXOX+X.XH.G././.+XG.H.4 X # . G hXZXdXlXFXKXDXjXtXBXZXDXDXGXGXGXGXFXGXLXPXPXFXCXJXrXB.@ D S D `._.u.h.Y e , , - - , e i s a a 2 1 7 8 8 f 5 < 8 4 ",
"4Xk.e._ I * W T.k.3X3Xx.w.l.g.x.g.7X3Xl.k.=.n *     O $ = $           . . O O .   . @ # ; : < 5 8 : ; . O . 1 : n a N *.=.Q N r r , , e ~.5X[.5X6X5X4Xk.V y y t 3 = * + = 1.Y._.].'.I.Z.i.r.| ) 7 O       f z g 1 1 O       . . O 2 z v p 7 8 p $ # 1 2 < = = ; O   ~ 5.A.~ t.R.(.#X=XrXyXrX=X*X-X,X$XC.4.5.B.S.R.S.N.E.S.z D 4.t.p._ _ 2.=.k.6X%.#.k j k @.;.;.k.3X4Xe.d + + .   O = 1 8 c v n i p g a a v L / { ! ( >.u.Z.) 2 8 : .   4 J J.D.o.n.N.N.N.C.G.oX/.H./.OX:X:X*XOXNX<XoXOXOXD.    : V.CXgX^.a.^.ZXDXjX8XkXFXGXDXVXJXJXJXGXAXFXJXPXPXFXGXR.tXR.o $ . =XZXDXzX].HX5Xe.*.N , + o = 2 i a 7 7 8 1     $ O P 5.",
"~.=.l L 2 o n 3.h.k.c.g.g.x.c.c.7X3Xk.k.T.3./ = +   O O O # # f S D z < .   o : g f 8 6 4 #     : . . 8 G z L i + * , , - , e , * + . . s.sXwX5XHXvXvX6X=.y + * o         = 2 5 2 $         O < g D ( i.,.v O 1 8 z G G z ; X 8 S T T G ) B.C. .z 8 5 8 f 8 5 <   % C.6.F.R.oX@X/.oX*XrXyXrX>X*X(.@XR.y.A.rXBX=X#X$XS.S.(.T   0 ! F s 3 , =.vX3X%.k u y y u k @.@.8.6X3XeXj.` c 2 1 1 < ; + O $ 2 2 : = $ $ = : < : 7 z F | | p ; O . O 4 0 N.X.X.N.D.N.o...N..XX.] X.N.D.D.N.oXoXG.J.S.J.X.  1 A.&XlX8XZ.U.qXqX].U.E.9XVXDXDXGXPXPXPXLXFXCXDXFXZXGXZXiX=XW.    P DXCX8XDXzXwX5XeXwXwXqX8Xs.n *       o i G T ~ ~ f 5.@X",
"~.h.2.c - o 7.*.k.k.l.w.l.x.3X3X7Xf.f.h.j.3.2.= O . S  .t.p.) B.t.A.4.p .   < [ [ E G G D g ;     . $ 4.P.R.'.5._ 2 + * + + * o 3 b / n _ ].5X[.~.Y.L.T.3.d + . 7 F !  .B. .S.A.P.#XgXgXgXgXfX=XgX9X9X9X).p.T 6 0 f G ! ! 5 # [ B.t.B.(.gXVXrXE.t.D 1 < p 8 ; . X 5 A.N.A.R.A.@X/.XX$X,XrXyXrXrXrX@XB.t./.gXrX/.,XR.F.t.B.y.      : o o d cX3Xl.u y u u u u u y y ;.7X7XcXeX~.qX!.) x x F x $   O O O o .           .       O =     O @ 5 0 D.N.G.H.D.N.N.X.} ] D.N.N.o.y.N.] X.N.C.G.G.F.X.  J kX0XK.,.a.{.].K.r.j.8XDXGXDXGXPXFXFXGXFXFXFXGXJXFXZXZXkX=X .O < uX9XtX9X`.jXDXxXjXeX8X5XwX8X'.U.u.L = = R V.V.B.R.T E.BX",
"4X~.2.d = o / =.h.~.c.l.g.3Xl.V %.V f.j.e.*./ i   p D S.&XG r.E.A.(.R.] ; o z E ~ ~ ~ ~ D T ;     6 5.t.P.&XkX].5./ n a b i b c P _ r._ n ].8X8XT.Q I a U j.wXDXCXJXPXJXFXJXJXFXLXJXJXAXFXJXLXPXFXDXZX9X`.'.i.z ; @ < 8 T < ~ (.rX(.oXrXgXgXgX-X(.[ T X 5 5 # X   A A.oXR.F.S.A.F./.oX$X,XBXBXfX-X#Xt.F.gXrX-X@X#X#XF.5.B.G   .   . - N 4X7Xl.;.u u u k @.$.u u u u @.x.7X7XvXvXKX8X! ! t.) v < . 1 S { 4.<.{ { T { [ ! G z 5 .       . 4 x ] :X.X X.XD.N.X.y.N.X.X.N.H.N...o.X.X.H.1X:X.XN.  } #X`.Y.j.[.xXL.` Q [.qX8XzXDXVXVXBXdX9X9XdXVXFXJXGXkXZXrX( D   5.=X9X&X%XtXVXZXjXzXsXxXsXqX].[.4X8XsX[.b h v ) R T 4.6.gX",
"}.!.*.e + + I *.Q %.;.-.f.f.%.t M V f.f.3.=.I = O $ z ~ V.<.~ ( B.P. .,. .< 5 C.4.t.~ i.5.8   # S t.t.P.r.'.9X'.9XtXP.p./ / >.5.K.r.a._ x _.U.U._ _ i 8XKXDXKXFXJXJXAXCXFXLXLXJXJXJXJXFXFXFXFXFXFXVXzXkX9X'.P. .R   @     : (.$X,X=X-X,XZXLXAX@XB.S.t.z   O   X   ] W.F.y.6.S.N.N.S.A.R.oX,XrX-X-X@Xt.R.rXrX=X#X@XS.A.A.t.8     O i I e.3Xk.x.:.@.u u @.$.$.$.u u y y u x.6X6XHXKXDX9XP | R.r.t.7 5 T R.R.P.A.t.R.E.S.5.<.5.B.B.Z.A.N.H 0 0 J N.n.H.G.nX:XNX*X>X*XN.] ] X.N.N.N..XOX.XH.*XJ   X.dX5X[.wXwXL.e.>.j.wX8XU.#XlXCXFXkXtX9X=X-X#X`.(.JXLXBXE.{ : < #XtX9X&X9X9X`.`.8X{.zXvXzXwX8XwX5X~.~.wXwX4Xp.R L : E %X&X",
"}.h.Q - o > I / *.B M V %.V t y y t -.j.j.=.L + O # T G T ~ H z x ( [ t.P.~ 8 < 5.E.[ 4.T O : T | <.~ B.).r.P.p.E.&X].jX8X8X#X#XE.>.p.,.c U.'.].p.b <.DXKXZXDXkXZXgXfXBXZXCXAXGXZXCXCXDXDXCXZXZXGXDXzX].I.`.#XP.t.< .     T yXgXrX,XNXJXPXZXrXfXF./.F.y.X       . C.oXF.y...S.y.S.F.F.G.XX$XoX/.#X(.C.E.=X@X/.R.5.[ y.S.6.$   # s ' 2.h.k.g.pXv.k u u u k @.@.@.k u u u x.aX3X6XzXKXCX-Xv <.K.V.G : D R.A.S.W.t.(.R.B. .| 5.t.B.t.t.y. .A 0 ] N.|.N.N.M.<X<XNX$XNX<XOXG.G..X1X:X+XC./.oX:XA 4 6.&X[.5XsX5Xj.Y.5X8XxXqX&X0XkXBXVXgX0X#X(.^.E.R.P.VXJX&XB.T    .kX#XtXkXkX9X].`._.'.wXxXjXzXvXsX4X6XT.[.wXwX8XV.Q.>.D `.5.",
"~.e.U + o a / Y B l l N V M r y y y N =.e.` b :   x ^ ^ S z } } } ! G  .V.5.S   O ~ t.{ $   E t.<.V.^.9XdX<.Z.#X0XE.^.#XtXQ.Q.E.V.| p.5.6 v ! ! 2 1 dXlXdXZX0XdX=X=XlXAXFXZXZXJXBXlXBXBXzXlXzXjXzXjX8XK.r.P.^.p.p.S     # R.>XBX$XBXZXgXfX>XoX$XfXF.(./.H       5 F.*X$XXXC.C.N.y.N.S.F.oX,X,X*XXXE.S.R.E.C.5.X.} y.t.y.X.    7 c >.2.h.3X3Xx.:.u @.$.@.u u @.$.9.$.$.$.:.x.3X4XsXvXKXZXp.7 { 5.5.6 z B.C.C.W.F.A.S.B. .t.E.C. .t. .] ..f q O.o..X.XH.D.X.N.S.oXH.OXfXNXNXNX<XOXOXJ.G.G.N.4 4 y.0XjXsX5XL.L.}.sXxXzXZXDXDXDXVXgXkXuX'.R.A.B.p.t.'.#XA.B.7 # =X=X#X#XE.p.5.a.!.'.{.!.L.{.sXsXeX6X3X3X4XT.h.wX_.[.8X: i.].",
"z._ l O o F / W ` -.e.f.-.%.N d t y t r N U F ;   S f G ^ H B.E.).^.4. .A.E.<.7   . ; = < ! t.! u.U.p.a.<.r.| <.( ! p.`.kX'.`.`.].E.E.^.c + = $ $ p.rXtX9XgXP.#XR.R.#XgXgX=X0XlXDXZXzXzXjXdXxXxX].L.U._.U.K.a.<.B.~ . . S yXBXrXJXLXZXyXBXVXBXBXBX/.fX*X..  . . ^ G.oX/.,X,XG.C.N.C.H.F..X:X:XoX/.S.B.N.5. . .4./.rX$XN.T     7 b e.s.3.k.g.k u k $.9.9.$.$.9.b.:.9.u u y @.c.cX4XsXjXj.{.L - ,.| 0 8 ~ 6.X.4.N.F.F.A.] ../.S. .4.4.^ G % 0 X.X.N.|.+X.XX.o.} X.] 0.H.N.X.X.X...N.:X*X,X*XX.  4.^.qXjX5X~.5XzXvXjXzXZXDXFXFXCXBXrX9X9X9X=X#XE.A.P.P.r.5.# ~ gX#X0X^.I.'.`.a.d.Z.!.Y.Y.~.~.~.5XsX7X6X6Xk.*.h.h._.1.o b 8X",
"s.Y 3 O + L W L =.h.j.-.Q N d e M t t d Y I n ; ; F x S G G ( R.p.I.^.^.Z.^.P.z 2     . F i.Z.'.{.d.P P u.U.| v | { ( | t.9X#X#X`.E.p.K.U     . p.lX'.E.&X'.R.P.#X).).&X0X0X0XqXdXxXqXxXjXzXzXvX]._.[.8X8X8X#XE.B.i.: . R.CXCXrXBXyXyXZXCXgXfXCXBX,XyX$X .4     N./.2XN.OXNX:XG.$X*X*XoXOX*XoXF.W.N.C.t. .5.C.(.rX#X*XC.<   : < n e.~.f.f.&.y C u @.$.9.9.:.b.b.:.b.k u k @.g.cX~.vXa.a.U.K.- 2 S g f J 4. .^ }  .y.A.E G 6. .} 5.t.X.E X 4 J o. XH.|.N.H.X.6...N.H.F.N.X.X.N.N.X.J.N.N.N.S.  G ^.5XsXxX5X[.!.L.8XlXCXZXDXFXVXNX@X#X&XuXgXgXtX0X`.=Xr.R $ B.=XdX8XU.K.^.'.!.!._.j._.5XwXsXsX5X~.k.c.3X6XT.3.3.h.d * + W ",
"=.m = + + v L b I =.=.V N B Y B N t t N =.` m 1 7 G H S x A S | i.! 5.&Xa.,.i.( x . ; x Z.'.I.{.I._ ) | I.1.1.P ! ) ) | B.BX#XP.9X].Z.p._ = O F '.p.P.R.dX9X0X).R.I.I.I.^.'._.U._.[.4X5XwXqXqXqXwXwXqX8X].qXBXtXE.i.@ < >XyXNXBXXXfXAXCXBXAXAXgXZXyXoXF.N.J   O F.oXF.H.oX<XfX$X*X,X,X:X,XfX<X*XR.C.#X#XF.E.oXrX#XB.S.5.    : < 2 Q k.T.-.%.u @.u u @.$.9.9.9.9.$.9.@.u @.;.;.q.}.5X~.[.wXL.=.. O : 4 8 S G S S H E y.[ E X.[ 6. . .4...% 4 A o.N.G.D.H.o.N.S.*XN.X.o.N.G..X2XH.S.X.D.J.N.X.    n I u._.[.!.Y.L.U.zXFXCXGXFXNXrX-X#X@X@X#X&X@X`.dXBXV.v O G R.&XK.U.].xXdXxX{.'._.{.5XwXsXsX5Xk.c.c.f.l.k.-.f.2.* * o i ",
"` a O + + g n c N B V N N V Y V t t y e Y ` U 2 5 z f H f H ^ G | t.<.i.R.Z.r.) = . P r.i.a._.I.a.a.| Z.r.1.r.! R ) Z.r.E.9X9X&X^.K.a._ / 2 : '.0X&XV.&XtX'.P.^.p.^.&X'.^._.U.j.[.[.4X4X[.T.j.s.5X_.].8XE.P.@X9X9X~ # %XFXVXVXyXVX-X-XgXNXBXZXNXVX-X/.A.XX] X 9 /.oXF.:X,X.XfX<X:X,X<X*X:X,X*X(.P.R.ZXJXgXrX-XrX#XS.t.|   .   1 c N %.-.M u u u @.@.$.$.9.9.9.9.9.$.$.@.@.w.g.g.e.=.~.}.~.~.*.2   ; 4 < 9 S G D g 9 D z f g 4 A  .4.} A   4 q A 0 A o.X.S.D.G.W.W.S.S.G.G.S.C.H.S.X.N.] N.J   .   1 L 1.a.a.K.I.!.JXJXZXFXFXNXfX-X=XtXBXZXVXgX=XVXtXA.z     B.p.U.a.Z.`.!.r.d.^.wX[.!.j.e.e.T.eXf.7Xk.f.T.f.=.* o o * h ",
"' = + o o e n m d d l M C C M M t , - - d Q Q 2 7 8 5 4 0 x x H G ! | r.t.<.( P s i { P.r.u.^._.{._.a.'.'.a.Z.Z.i.F n { p.K.U.U.I.I.I.r.) > 2 &X].8X#X].].].U.a.U.].`.^._.U.L._.a._.L.j.[.].L.L.U._.K.K.U.V.Z.=XXX; } GXNX:XNXAXNXgXfXyXyXfXfXNXJXCX,X/.XXX.X H W.:X:X+X1X<X<XNX:X1X$X:X,X-X(.A.a.-XrXdXCXlX(.(.).E. .F < ;   1 = B r V j y u u @.@.9.9.$.$.9.9.9.$.$.@.:.:.x.x.w.-.3.N h.h.Y - . $ = 7 8 < 8 8 G g 4 4 4 4 % .       . .       X % & % 0 H } C...S.S.6.X...^ ] 6.N.4.X.F.y.  8 F o p ( ! Z.8X9X^.).BXJXVXgXBXgX>XoX-XfXrXgXBXrX,XA.y.; . X % T G <.) F R ! / r.K.u._ Q =.e.s.j.j.h.=.Y.h.7.e o o . o = ",
"( 1 = + * h n l l N V V M M M C k y t t M N L a 5 8 9 9 0 q : : D ~ { T T ~ T z 6 L | 5.1.r.K.K.{.{.'._.Z.r.p.Z.| { ) ) _ 2.2.) >.i.i.>.! 7 2 ]._._.4X8X4X_.K.j.Y.K.a.K._._.!.U.`._.[.[.L.a.L.[.wX[.p.5.Q.%X#X=X} o >XVXVXVXNXyXBXBXNXgXfXNXBXBXZXZXZX>XF.y.X ] C.oX*X.X:XSXSX1XOXOX$XuXyX-XA.4.I.qXdX&X9X#X).(.-XI.R.2 b <.+ . i , N t y j j y u k @.$.$.:.9.$.@.$.$.$.$.b.x.c.&.8.-.=.T.2.n . * O o 1 7 6 8 8 < #         X % 4 J N.S.N.X.J 0 . X .   .       0 x H G S z z z G y.XXA.@Xt.E  .E.,.= g T ( ~ 4.A.R.4.} B.S.4.4.>XS.X.X.X.N.A.N.X.S 5           o : +   + = $ > 2 2 c n B L b N L Y ` 7.b > . o . . o . ",
"S = $ = = i c a N V %.%.V M M M t y t y t l B i $ : : < 0 0 4 < 8 D ) { ~ G z p O ) 5.p.K.i.1.| K.j.I.p.r.r.| / P <.5.) _ 2./ n b ( ( P n 2 + a.U.U.].qX8XK.h.L.s.s.j.K.j.Y.T.U.u.1.Y.[.h.s.L.U.~.wXDXHXDXDXBXW.E 4 CXGXZXfXyXZXBXBXBXgXNXBXBXBXBXfXVXfXG.C.. ] y.y.F.yXVXfX:XoX.XW.R.R.R.S.4.) K.'.&X&X9XdXrXhXR.(.Z.. <.!.! o = l e e e M j j u u u @.$.$.$.@.u u @.#.:.x.f.k.k.-.N l / L 1   _ >./ 2 o $ O     . # 4 9 g ^ N.W.>XfX*XXXoX$XXX] A 4 #         X   . % < f J S N.A.W.A.N. ./.@X`.&Xz + = @   .     @ X             & 4 0 A H x ] J E ] X.^ J q g f 6 : : : : = : . . . . . o 2 * > - - = d _ a._.i._ >.",
"8 # = : : 2 d c r d l N V Y Y V %.C d y N Y B 2 : : $ $ 1 < : 4 # 5 v G z < + O o ) ,.5.u.>.p.p.K.r.r.| >.r.) ) { V.V.r.p.r.U x i v x v x i o a.U.U._.]._.Y.K.L.h.a.L.U.s.a.L.L.r.2.1.2.2.r.1.Q e.~.DXHXtXtX%X,.: N.BXGX>XBXAXZXgXgXgXgXgXgXgXgXBX>XyXfX$XN.  H ..S.).F.A.(.oXS.XXXX).A.i.r.r.r.^.^.).'.rXlXrX(.t.#X .  >.a.U.I o i - > , j j j k C k @.@.u y u u u g.:.&.V t M Q B _ P c v $ v >.>.i.<.F 2 o $ O 1 S } 6.N.R.>XyX,XyXNXNX<XXXG.,XF.6.] H g 9 %     X     @ A ] y.@XE 6.4 C.6.} 5.5.5..   o $ . ; z  . .E ^ [ J 6.H.:XNXNXSXCXAX<X:X<XNXNXnXNX:XoXXX%X%X/.@X=X`.`.( ! I n 2 O + o o o = c p.8XqXwXY.s.T.",
"5 1 < < = = i d d a s d d M N N V t y l ` U a 2 $ = O o $ = ; 5 ; 8 p ; O O O     x P >.) P a.U.Y.>.' F c v P p.r.i.5.5.| a = : = = $ 7 p 7 + p.U.^.U.K.K.U.U.j.L.s.s.h.h.Y.Y.s.Y.j.2.=.Y.5X5X].5X].wX8X].jX#XT O rX=XAXrXZXBXBXgXgXgXgXgXgXgXgXBXgXBX<X<XX.% 4 x r.!.t. .t.t. .A./.@XI.r.| r.p.^.^.R.^.#XrX*XF.).).^   L a.U.U.L . i - - e j y j C k k @.@.k j k @.f.t r M e - - 2 / | D S # ~ a.2.i.K.K.>.2   : z  .P.XXXXXXXXAXBX,X*X>X*X$XoX>XXXXXoXF.N...H J f @       . ; : 6 S z [ }  .} S S C.~ ( D 8   # } 6.E } X.} 6.1X<X<X;X.XG.|.+X+XH..XOXOXNXSXSXAXSXGXGXgXyXNXfXgXE.).&X@XB.p   o . = L 5.s.h.L.=.h.~.4X",
": < : : O   + = 2 a N N d r r r y e r d U i = +   . O o o     O   O O     . $ #   + i ! L c ,.a.a./ n s 2 2 g ( { {  .| v $ O 2 v S f P ! F i 1._._.K.i.a.U.U.a.s.e.e.s.s.h.h.s.Y.j.3.3.j.h.s.T.4XK.K.K.K.#XV.6 ( gXrXgXlXrX(.ZXlXBXBXVXVXBXBXBXfXAXLXfXfXX.4 X   5 H ~  .X. .S.B.R.).A.r.| p._.'.-X#X^.).oX$X*X(.S.1 . n K.4X_.8Xa 2 > e > j j - j j C @.@.@.@.C M e * * B a 2 > 2 5 G z 5 # 8 | 1.u.>.a._.( + F ,.P.(.#XuX=XW.rXVXCXfXrXgXyX$X/.F.W.(.XX$X@XR.y.N.6.] x     5 g D G 8 8 4 O S E.tX%X#X%XXXA.E 6 g g S E H J N.|.G.D.N.G.G.D.J.H.G.+X;X+X<XnXSX.X2X<XNX:X$XyXfXyX*X(.E.).=Xr.O + = v { _.].[.Y.j.j.k.T.",
"@ % $ ; $         * e d d r r r e l n 2 r + .     5 v L ! / _ i. .( T S 7 $     + . + 2 i s / 1.r./ c x x p g z P ~ { ~ g 7 S ) | 4.[ { ) v 6 7 _.E.K.a.a.a.a.a.e.h.j.s.e.e.e.j.=.2.e.j.j.e.e.h.s.2.2.>.>.1.( < A.uX9XP.=XlXdXdXkXlXBXVXVXVXBXBXBXZXJXNXNXN.1     % $ # G X...y.y.t.B.t.<.r.I.'.#XgX0X^./.F.A.(.F.~   O 2 _ U.U.9X].i > e - e e y y j M y - - y e - - e = - + = > i 6 z 6 X X 5 U >.a.U.U.1.L 1 >.E.#XP.P.%X#XZ.(.,XuX-X=XgXgX=X(.@X@X@X$X@X/.(.oXoX@X#XE...z 5 5 [ [   g B.9XVX=XGXgXCXBXFXBX>X6.:   5 J +.+.] J.D.X.X.J.|.H.|.1X1XD.N.n.D. X:XnX:XNXSXmX:X:X<XfXNX*XW.S./.S.1 @ S p.Z.jXHXsX3.~.3.%.-.",
"@ % $ 5 7 # $ o . . . o + + * * = * + o +     2 ,.R.#X`.K.,.>.V. .t.t.| ( ~ S 6 $ o o 1 a n b U B L l i 2 2 g g 7 z S 6 = p ~ ~ { B.4.{ ( z 6   E.I.I.I.a.1.u.j.L.T.j.s.j.h.3.e.e.e.j.h.=.2.e.*.Q Q _ >._ _ v O  .( ) R.dXdXlXlXdXjXlXlXlXlXgXgXFX*X<XZXZXJ.X   # X   4 6.J ; 8 f A P ~ ) ) { { 4.R.A.B././.C.F.(.8 $ o . c N Y.a.U.>.o + * > * * * * * * * * o * + + o + o + * = o .   . O O p b r.K.L.i._ U i R P.#XK.P.tXkX#XP.S.A.@XrXgXuX=XrXBXgXuXgXgXrXVX#X).(.(.rXgX4.  P R S o ~ E.tXBXPXBXFXGXDXGXVXCXmX6.: % H +.0 X.M.D.N.D. X|.J.|.+X XK X.|.nXSXMX;X|.+X<X<XOX.X.X<XNX:XfXOXoX,X] @ ^ '.^.qXsXwX3.=.;.&.8.",
"t.t. .4.t.{ P T D F L b 2 i 1 3 - = . +     x ~ B.R.'.'.U.p.u.P.P.} 4.t.t.B.| ! ! a + + 2 i i n l B a s s 7 f 8 ; < < ; O O 6 ~ { ~  .| ~ S +   6 D R I U b L _ >.e.h.s.e.e.s.s.Y.L.h.j.3.e.=.=.Q U I =.r.' 7   r.| D p ' I.I.1.I.u.U.tXtX0XgXgXy.B.fXyXAXJ.  X     A N.] } } 4 # .     O O     .   # q 8 S A 8 f ~ <.5.i.` e + = * + d N e r d 3.3.f.h.T.4X4XT.j.K.h.s.=.7.` + + 2 2 2 a : O 2 L i.a.a./ P 2 n 5.Q._.U.VXKXGXDX9XV.t.`.dX9X=XgXVXrX=XrXgXtXgXZXBXhXrX-X&XrX@X4.G } o G 5.kXkXDXDXGXGXGXCXVXVXCXCXmXW.5 w w q X.o.M.D.M.J.D.D.|.;X|.;X;X XnXSX;X;XD.+XSX|.;XMX<XMX.XJ.G.OXoXG.S.# | '.'.wXvX6X;.%.;.f.7X",
"%X@X(.R.R.P.A.R.'.9X8XE.K.].U.U._.e./ a 2 ; <.R.A.t.V.E.P.U._._.VX@XR.'.'.@X#XR.U.u.U i 2 = = = l N l c 2 : 6 $ o # : ; .     = # + ; 6 S f       O * * * $ = 2 I =.2.` U Q 3.Y.e.s.3.s.2.2.` ` *._ _ ' I s +   <.( F F P m i c i b L L _ p.Z.C.4.y.>XGX.XA   ] +XOXAXPXAXLXPXAXBXNXyX$XF. .D 0 <     .     ^ *XNXgX'.VXZXqX8XN Q j.5XvXvX5X5X5X4X5X5X5X5X5XT.h.[.h.[.eX[.Y.8XwXs.` 2.T.~.h.Q , > 1 s x 2 > o b a._.9XE.tXCXCXDXGXkXtXVXDXkX9X&X`.=X=X'.#XgXgX-XlX#XR.A.R.`.-X-XP.,.< ~ P.ZXkXBXBXCXGXGXGXFXFXAXGXmXuXoX  4 X.2XJ.;X;XD.o.M. X;XnXnXMXnX|.+XMXSXSXMX|.|.|.nX<X;XMXNXnX+XG..X2XH.. [ -X&XeXcX4Xl.y y C w.",
"A.=XgX&X`.tXdX'.8XqX].U.U.'.a._.U.s./ P 7 v { B.t.(.#X@X`.V.p.`.BX=XA.).^.P.).Z.K.I.Z.>.U n i + O * - - . . o o     o O     .   O   $ O   8 | Z.p.F =     O + o = s L B c c b B U ` >.1._ ` ` =.U / ! x =   O = L ! P F I L b I Q _ / _ / v ) rX^.N.N.S.  ..NXPXAXLXLXLXAXSXNXNXNXNXVXVXNXyXyXyX] q .   < % N.F.y.R.ZX9X].].` Y ~.sXcXsX6Xk.k.5XsXsXeX5X5X5X4X~._.U.jXzX[.Y.[.5XL.*.e.5X4X5X~.Q a   o   . O   n P.I.].K.iXDXDXDXDXDXDXFXLXKXJXFXkXdX9X^.E.`.`.R.=XlXZXgX'.B.t.B.#XR G p.`.BXtXDXkXgXtXkXVXCXCXAXLXVXVXNXE f S.:XnX1X;XD.o.M.;X|.SX;XJ.J.|. X+X X;XSXMXnXnXMX XJ.;X1X:X1X.XG..X*X1 ) 9XwX5X~.V k C k C w.",
"tX'.`.`.P.Z.'.8XqX8X_._.U.i./ j.4Xh.b L 2 ,.B.-XZX&X&X&XP.P.`.^.@X(.(.rXgX0XrX&X`.^.`.`.^.]._.u.*.=.2._ a o = D 9X%XA.6.E z 5   O     5 B.-X^.R.9X`.E.i.L p 2 = = = * + = 1 1 = = = > 3 i a s s c 2 $ o . o .   2 ) <.! I ' ! / *.1.1.u.1.) { Z.B.J x J AXPXPXAXPXLXAXSXSXNX:X*X,X>X$X@X$XyXSXGX,XW.J # X % A.fX,XrXtXqXU.` *.5XvXcX4X4X4Xj.~.zXvXvXzXwXwXqXqX0X8X9XGXHXzXzXwX_.L.2.Q =.~.5X~.L.K.z 5 . . O   x E.P.`.V.`.tXzXDXGXDXDXDXDXDXDXGXKXKXZXtX9X9X#XE.E.&X(.E.9XrX^.p.9XD i.#XtXtX#XtX9X#X%X%XiXkXBXBXGXAXNX%XNXJ } W.H.D.|. XD.M.D.D.|.|.|.;X+XJ.J.|. X1XSXSX1XnXNX1XG.J.H.+X1X+X.XoXf F ].sX3Xj.C t C @.&.pX",
"P.p.P.'.].8X0X].].8X8X8X].K._ _.5Xe.B 3 + ) A.gX=XgXrXrXZXuX`.9X^.E.-XrXdX9XR.^.^.U.'.9X8XdXzXqXsXsX]._.u.> o [ @X%XXX%X$X$X/.J @ $ D E.-X-XgXgX9X9XgXdX'.'.qXtX_._.^.U.I.2.s   . o + o o + 2 s / | 1.,.~ D v z 2 x F D F L I _ *.2.h.j.1.1.5.} g % [ AXLXAXPXLXLXSXNX<X<XfXBXgX-X@XoX*XgXVXCXVXoX<X:XX.4   H ,XuXrXlX#X>.7.4XcXeX6X6XsXcX5X[.5X5XwXqX8X8X9X&X'.gXR.'.0XdXzX8X8X8X[.2.=.j.j.3.j.9XB.| S 5     v E.`.tXP.i.p.8XDXCXzXjXVXzXjXzXDXjXGXKXDXDXKXDX#X4.).^.p.B.I.`.9XBXD V.`.9X#XP.P.P.P.E.&XgXBXgXuXBXNXBXZXgX6.g X.] ] o.M.|.J.o.o.D.J.+X<X+XD.M.D.|. XnXnX;XnXnX X|.+XOX+X1X:XG.y.S x Y.~.*.V C C #.#.&.v.",
"zXqX].K.a.K.K.u.>.j.U.U.U.].a._.h.2.B s o <.B.gXBXrXNXBX*X-XBXZXBXkXCXgXuX'.r.Z.^.#XjXkX0X8XjXzXwX5XL._.].g o 4.%X%XW.XXXX%X.XA    .$XrXCXlXuXlXgX0X0XtXtXtX9X'.&X&X].'.]._.a._ .     O p ) '.lXlXlXZXDXDXBX9X(.@XtXlX`.U : = , N Q h.j.>._ { F 1 ~ ,X$XZXNXPXAXSXNXNXNX>X,XBXlXlXdX=X=XfXgX>XXXNXNXNXoXJ % % J E ( 5.c n ~.eXHXsXcXvXcX5X4XT.K.a.U.^.E.R.E.(.E.fX/.W.oX=X0X9XjXzXwX_.L.L.j.T.[.=X(.C.S.} :   S R.(.=XI.5.5.iXDXGXDXDXDXzX8X].8X].tXzXjXzXDXzX9XA.A.A.A.R.E.`.#XV.i | ,.5.>.5.B.5.5.B.R.#XuXgXgXgXgXBXFXrXR.< A J O.K +.O.X.N.|.SX|.M.n.N.D.D.D.D. X|.n.M.|.;X<X|.+X<X<X<XOXH.B.v 3 2.~.e.f.g.w.w.w.:.w.",
"8XU.K._.U.*.I >._ 1.u.a.L.qX[.~.3.=.a a . E.p.lXrXrX>XfXAXBX$X#X0XgXgXgXtX`.Z.^.'.tX0XI.a.K.].qXwX5XU.Y.U.c : B.A.A.m.N.N.G.F.q : W.gXoX(.,XgX-X).0XgXdXtX0XtXVXtXdX9X'.&XdXdX0Xi.7     ! '.lX-X'.0XkXgX=X#XiXkXtX=XkXDXDXzXa.i + r b a d L p   ) rX$XF.NXAX<XSXNXNXAXAXgXhXdX-XlXdX=X=X=XrX>X*XNXAXAXNXG.+.&     $   W 8X[.eXcXeX6XvXeXT.[.4X[.9XtXtX#XE.W.W.W.2X1X+X.XOX,XBXZXJX0X&XxXxXvXHXzXrX,X(.oXF.G . G R.A.C.A.P.P.FXFXzXzXVXDXDXZXzXzXzX9X#X9XqX8X8X0XZXZXBX=XV.4.i.V.6 = F v L D 7.P.V.p.i.t.V.^.uXBXgXZXgXrXNX$X; 4 +.O.O.A 4 +.D.IXIXnX|.n.O.n.1XnXJ.|.+XM.n.o.o.O.N.D..X:XOXH.H.(.m 7 Q k.k.g.w.#.@.w.g.x.",
"1._.U.>.>.7._ I _ I P _ 1._.s.1.L.=.b s > 8XP.#X*X@X>XfXyX>X>X>X(.gXrXgXkX^.I._.8XDXzXU.K._._.L.5X5X[.i.) 6 5 (.A.W.F.2XG.W.S.# E rX@XR.rX0X=XdX@X0X0X&X9X&X].qX0XqXqX0X0X0X#XR.kX) = . T P.rX&X9X-X&X&X=X=X&X#X'.`.VXFXzXzXzXU./ U i - + . . 7 I.r.(./.fXNXAXNXZXZXfX,XlXlXhXlXhXdXdX9X#X'.).(.$XNXNX<X<XA 4     O c s.T.4XvXHX~.h.sXvX5X8X&X`.`.uXNXgX,X=X@X.XOXNX:XoXoX:XCXZXBXZXDXDXzXqXqXzXhXAXNXXXB.[ . T E.E.P.E.P.V.GXFXKXKXDXzXzXDXZXqXZXzXzXjXjXjXjXqX9X=X0X#X).#X(.4.$ : g g P P 7.5._.E.I.Z.V.I.&XgXdXCXrXfX$X*X4 ; A +.K ] K J D.1X|..X;XD.K ] +X1XJ.K o.n.M.M.|.o.o.M.J.C.N.C.S.C.3 i Y h.~.k.g.g.@.x.v.v.",
"/ u.].qX8XU.5.>.I _ / >.>.>.s.a.[.=.B r I ].>.p.#XXXoXXXH.F.OX$XOX,XBXBXtX#X_._.U.[.wXL.~._.qXqXj.K.a.K.V.# f /.C.XX.XH.W.C.R.: `.9X`.^._.`.tXqXqXtXqXdXdXqX9X8X8X].&XjXzXjX9X9X&X#Xn   | '.`.&X'._.^.'.&X=X&X#X^.#XZXFXzXdXjXdX_.VX0XU._ 2 . >.a.K.P.R.(.fXZXZXVXBXBXBXBXBXBXBXkXlXkXdX9X#X#X#XfX<XNX<X.XXX#     . / a.h.sXcXeXY.K.1.].ZXDXrXrX*XoX*XNXNX*XoX$X:X<X<X:X$X,XCXLXJXJXJXDXjXqX0XtXgXNXgXrXB.4.5 F Z._ Z.tX'.'.BXFXZXDXHXqXzXzXHXzXjXqXqXjXjXjXzXDXzXDXdX^. .t.C.R.. 1 p P  . .{ i.Q.E.E.P.a.a.K.^.dXlXZXNXZX,X  A N.H.K O.n.O.K +.4 q K ] ] J K K o.O.o.M.J.|.J. X1XN.o.] X.:XN.S O 2 U s.6X3XbXaXc.v.pXaX",
"a.1.>.u.U._.p._ I ,.u.U._.U._.K./ N l , s.Q.,.t.A.=X*XW.XXG.G.NXNXCXVX=X=XqX8XL.~.[.[.e.j.[.sX5X5XU.8Xa.P O f *XW.:XoXW.W.W.R.f #XtXiXtXtXiXzXtXjXqXqXqXjXqX'.P._.U.].xXjXqX8X8X8X9X( . r.).R.`.I.^.'.'.^.^.'.9XlXDXFXdX&X0XdX0XlXZXkXqX].u.i ` h.K.I.R.).rXZXCXVXVXVXVXVXVXVXVXVXZXZXVXlXkXkXlX<X<XSXAXNXNX0     a 4X].h.cXsXe.s._.U.#XrXZXNXNXZXNX<X,X<X:XOX.X:X*X*X:X,XNXZXCXBXFXLXJXkX&X&X0XgXgXtX0XB.r.7 b a.>._.zXjXzXDXVXKXZXwXU.qXtXDXHXwXeXjXqXqXzXZXzXzXDXDXZX`.E.B.S @ @ 0 R L { P.7.Q.E.E.Q.a.p.a.I.^.0X,X,XAXUX& .XJ. X Xo.|.o.] J O.J K A K O.] o.M. X+X|.|.;X+XD.J.H.OX,XF...J < O 5 b B Q =.z.c.l.&.#.#.",
">.R D g g n n c 7.P.Q.E.E.P.V.>.n n i o p.>.( [ t.5.XX,X/.>XGXAXZXZXgX@XR.I._.[.5XwXeX~._.L.!.K.xX!.U.( 7 O T $XXX*XXXW.R.@XB.D `.iXiX9X9X9XtX8XtX9X8XqXzXjX`.a.u.a._.qXjXjXjXzX9XtXp.O A.E.A.P.0X8X&X&X&X].'.'.qXZXzX0X0XdX0X'.lXtXkXzXZXjX` n s.K.P.A.E.*XNXZXZXZXCXCXCXZXZXZXZXDXFXFXDXDXFXGXNX:XSXAXAXAX .    P.tXT.eX5X3.e.4XqX'.A.(.AXAXAXAXSXNXUXNX<X.XC.S.F..X,XNXCXCXCXPXlX).`.gXCXkX#XNXgXuX=XA.r.p x r.<._.8X8XzXVXzXzXzXqX_.4XU.wXKXzXHXZXjXjXzXjXqXDXqXjXFXDXZX(.$     # 6 R ) g W / 7.K._._.U.I.I.'.-X=X,XZX<X4 .X.X+X1XJ N.J.N.o.n.o.O.o.n.M.o.] D.nXnXnX1X;XnX+X|.1X:XOXN.A ] <   8 ) b r r y y t k Z #.",
"K.7.R F L { p.P.5.Q.P.K.P.P.a./ a n i + ,.P.p.5.R { 4.C.*XgXNXZXgXrX-X#X'.].wXsX~.~.5X5XU.u.a.`._.L.P i 1 . B.(.XX$XoXoXW.>X .~ 9XtXqX8X#X9XjXjXqX9X9XtXzXlX9XE.E.].iXtXqXiXqXtX9XdXE.$ ^.P.A.R.kXtX9X0XtXtX9X&XdXtX'.^.&X&X'.&X'.&XdXzXjXjXK.s >.a.V.p.S.(.,XVXZXAXAXAXAXAXCXZXZXCXFXFXDXFXGXJXNX:XSXNXNXBXR.  7 P.[._.5X[.T.~.qXtX#XZ.R.BXNXNXNXSXSXNX<X<XoXC.B./.fXCXAXAXGXJX-X=X0X=X=XrXgXVXgXrXuX0XR.i.p 2 r.a.8X].].ZXDXGXKXDX8XU.U.1./ 1.h.h.E.jXzXqX].].5X].jXjXtXtXkXT R O   < D L L I / *.5.a.K.U.].wX&XI.'.).XXNX] H.N.J.+Xn.o.+XJ.X.N.|.J.o.o.|.H.] |.;X<X;X XJ.|.|.H.<XOXJ.] J X.@   6 _ U l B V C V #.&.&.",
"V.V.Z.V.u.r.a.P.^.9X#X`.^.K.,.g 7 g 2 : v =XP.5.A.R.P.(.rXgX9X9XS.V.r.r.'.zXzX[.s.s.K.U.s.>.1.U.K.Y.i + +   C.*X%X$X*X,X%XyXE  .#X9XqX#X#X0XtXdX0X9X0XtXtXtX9X#X8XqXtXqXiXiXtXtX9XtXA.; E.P.R.@X'.&X0X0X&X&X0XdXxXqX'._.&X].U.E.^.dXzXzXqXqX8Xs / p.V.p.A./.*XVXZXAXAXAXAXAXAXCXCXFXFXFXCXCXFXGXNX<XAXSXyX,X@Xo G 5.7.u.~.~.5X5XU.^.rX@XW./.G.+XOX<XnX1X+X*X:XOX<XNXJXLXLXLXAXAXCXfX@XoX,XBXCXFXgXrXgXdX).r.p $ ) a._.U.#XDXDXDXFXFX4Xa.1.I i d n e 2 s b U _ p.4X5X8X8XDXkXE.p 5. .O $ h g >._ >.u.h.K.a.a.K.U.U.Z.'.'.oXgXX.N.N.N.+XnX] N.H.|. Xn.N.+X.XX.] M.J.|.|.n.O.o.X.D.H.:X/.y.J ..J   $ : L / Y *.;.&.M k y y ",
"( i.`.9X#X].#X9XV.P.p.V.P.Z.5.F g g < : O R.I.B.`.P.`.8XE.^.#XA.I.Z.p.Z.].xX8XL.~.T.u.2.>.a.Z.Z.8Xa.2   O . 6.$XXXXXoX*X$X$XA [ I._.9X8X8XqX8X8XtXtXuX9X9X%X`.E.E.].8X8XiXtXzXkX9X=X,.6 P.A.E.=X`._.'._.^.^.^.^._.0XqX8XdXjX&XI.&XZXlXtXqXqXqXi L r.V.B.P.).#XZXZXSXAXAXAXAXZXZXAXGXJXGXCXCXCXFXZXZXAXNXoX%X*X8 ( 5./ p.eX~.L.eX_.a.=X=X$X/.H.2XJ..X:X:XOXOX:X<XNXNXSXAXLXLXJXZXgXZXJXLXGXZXBXNXgXgXBXgX).<.p . F 1.>.| U.dXlXjXqXzXqX].Y.1.L W >.` ` >.a.K.K.Y.1.L.4X].jX#Xi.~ T P.! . = b b *.*.u.U.'.U.h.r.1.a.!.`.).rX-X| oX.XX.N.<Xn.J N.H.J.H.H.N.n.M.D.H.J.M.M.O.A J ] D.J.N.] ] ^ X.A X O O a >.Q Q B M M C V #.",
"`.E.P.E.#XuXtX0X(.I.5.i.B.4.( g S S 6 ;   ~ `.9XV.^.V.a.]._.V.^.d.r.r.d.a.a.j.L.[.[.5._ { '.0X9X].` * + 1 $ N.W./.W.W.W.@XA.6 E I.^.qX8X0XjX0XtXuX9X9X9XiX8X`.P.'.8XiXiXqXtX9X`.8X`.L v V.V.E.#X&X_.U.U._._.I.a.8XqXdX8XwXzXzXqX9XzXVX&XqXjXU.= i | i.t.A.A.(.BXNXSXAXAXAXAXZXNXAXAXFXAXAXCXCXAXGXAXNX$X/.XX*XG 5.,.P.zXjX4X5XwX8Xr.(.(.*XOXG..XD.H.OX<X<X1XOX:X,X:X:XNXAXLXLXJXJXLXLXJXAXBXVXCXVXBXZXdXI.| x   s 1._ _ Z.`.zXDXDXjX].zXzXtXK.u.h.1.>.1.a.K.Y.U.xX[.U.a.V.P.( ) P.i.#Xn . h L 7.7.u.K.K.K.h.K.U.a._.P.i.(.@Xt.rXX.K ] 0.H.A J K J o.N.S.D.N.N.D.|.J.D.n.] J O.o.o.] J X.N.] 4       1 _ Q =.f.f.Q %.&.&.",
"( ,.V.R.I.P.E.`.#X(.A.`.#XA.{ z z z 0 @   . { r.i.) / >.5.K.a.>.` | | _ r.!.8X5Xu.U.^.&X`.&XP.u._ b o g p   /./.oXXXW.F.%XB.6 ( a.Z._.I.U.&X].9X9X8X#XtXBXkX8XQ.E.].qXtXzXzXiXE.#X`.g R i.V.P.`.Y.U._.'.].].8XqXzXdXzXZXjXqXqX{.0XzXKX].dXzXu.+ = R <.<.B.B.S.rXNXSXAXAXAXAXNXNXBXVXZXCXZXVXZXAXZXZX,X$X%X*XXXG g V.].U.4X[.j.T.a.) ^.R./.W.H.G..XG. X1X:XOXOX,X<X<XfXNXAXJXPXPXLXLXGXAXZXZXZXZXAXZXCXuXV.! x     ) _ >.p.u.#XVXzX`.K.jXzXzXjXHX8Xu.*.r.u._ / >.=.>.U.].Q.E.{ V.E.`.R.E.b o g / >.u.K.K.K.K.U._.K._.&X`.'.'.} D H J J +.o.A 0 0 0 K J ] ] X.N.N.] G..X|.J.D.N.] J o.X.N.N.4 X   + + 2 _ L ` s.e.f.f.e.f.",
"v D R 4.~ 5.5.{ ( 4.5. . .4. .E S D %     . 6 D D v I _ / _ *.Q B B B L ! _ r.p.E.^.^.@XP.S.(.5.1.a i n :   S.R.F.W.W.>XW.A.; ~ P.U._.].&X].].].zXtXtXtXkXtXiX#X].iXzXzXtX8X8XqXqXa.2 R V.E.#X`._.[.5X8X].8XqXjXjXqXqXqX8X8XqX8XqXqXjXqX0X#XI.=   8 { t.B.P.R.B.:XOXNXIXAXNXAXZXAXBXBXAXAXZXgXfXZXZXVXAXyXoXW.E @ B.U.].].s.l s.1.>.=X&XB.A.F.+X.XOXJ.N.G.oX/./.oX>XBXCXAXJXJXLXPXLXJXAXVXfXNXAXBXuX@XdXA.P 2 v a 2 b _ r.a.K.9XdXxXqXK._.DXzX8XzXY._ >.K.'.`._.L.>.N a._.R ( B.9X#X`.>.P.. * b >.u.U.U._._.d.Z.a.!.I.5.z 5 S z S ] J ] o.A x A J X.S.H.2XH.S.X.O.X.J.|.|.J.N.N.N.N.X.J 4         O 7 _ 5.>.*.=.3.3.e.f.",
"R ( ~ [ R ,. .{ { i.V.t.4.,.R g z A ;       < z ) U b g a c b b b b m n n v v v S F z z 8 < 8 : 2 2 n a o   oXoXF.$XA.XX%X6.. ~ ^._.'.'._._.].8XiX4X_._.[.8XiXiX8XT.[.sXzXiX].8X_.u.2 { E.].qX].].5XqXjXzXzXjXjXjX].8X8X4X8X8X_.K.wXzXqX'.`.A..   8 G  .P.Z.4.B.,X<X<XfXBXZXNXNXNXfXBXFXAXgXrXgXBXZXBXBXrXyX%XG z V.K.K._.L.i L _ 5.#XE.i.E./.OXOXOXG.2X*X*XXX*X$X-XhXZXJXLXJXJXJXPXPXJXAXAXZXNXFXBXuX'.~ | u.d.b 2 7 2 U R 5.].].xXzX].U.'.5XwXzX[.u.1.U.wXwX].K._.s.K.|   O D  .S.4.p.5.( > p ,.4.i.a.U.!.a.a.!.Z.R 5 o < [ 6.X.] o...J X.S.9 A ] C.oX0.X.] J A K K J J J ] ] J J S q X     X     < F R D c b e B N e ",
". # $ = ; 7 6 8 v G G v z G G z S f @   .   .   = 6 a g g i i s i i i 7 2 1 1 ; @ $           O o i c 1 $ O #X*X$XXXW.,X>XN.4 5 p.a.K.U._._.Y.a.U.h.u.3.s.j.T.T.5X5XwXeXqX4XU.Y.U.K.2 p.8XqXzX8X[.].8XqXjXxXqXwXxX].].8X8XwX{.Y.K.L.[.qXtX&XA..   6 D P  .i.i.t.(.NXNX,XZXCXBXBXBXrX=XBXZXgXrXdXrXBXCXCXrX>XW.D { E.#XU.U.U.r r I a._.Z.A.).oX*X*XOXOX,XfX*X@XrX-XuXBXCXGXGXFXFXAXFXGXFXCXNXfXyXNXZX#Xp.t.'.^.Z.<.! x = 2 g P 5.U.`._.[._.Q.Q.K.[.iXiXU.i.u.u.1.1.1.U.u.1 < = ; 8 G S < + 2 . .     = v { r.r.| m p $     = G G ^ ^ H 5 % x C.oXA H H 0 J x 4 4 4 4 % % % 4 q q 4 4 % X     X & . O 1 g z g g D n i i s ",
"1 < < #     .   + ; : ; : 5 5 < 9 ;     : p x g < 2 * . . . o * o o o o o         X     < 5 8 F 1.1.1.R v ; oX/.$XoX*X,X@Xy.g   ! _ >.>.>.1.a.h.=.2.3.e.h.j.k.k.3.j.T.~.[.wXwX5Xj.Y.2 s.8X5XqX].qXxXxXqXwXwXxXjXDXjXjXjX8X[.U.i.].L.U.jXzX=Xt.    O v ~ P ,.P.4.S.,XBXBXgX,X*XrXlXhX=X9X0XrXrXrXBX=XrXfX@XA.4.S I.%XE.U.].qXb + l 3.u.1.I.^.E.@XoX$X$X>X,X-X&XrX=XlXDXFXZXkXBXCXCXBXgXgXfX>XrXBXgXgXS.<.R.&XI.I.Z.I.) c + p g n ) u.a.K.K.u.h.s.*.K._.K.>.) >.u.1.r.>.F = f S       5 6 B.tXVX%XN.] 8 1 O . ; X     O ; p G E T J H X   f z z y.J # 1 1 9 % % #     . % 0 J ] ] H A 0 q w % X   X # ; 4 ; . . o   P 5.( ",
"8 5 8 ;     $ . . .         . . o < T 5.i.i.<.| { ) F v D a = + * + + o .         X   . g G P ,.K.=.K.U.,.v gXfXW.yX>XW.XX[ 4 . g / 1.>./ / =.3.e.h.k.T.T.k.k.l.j.3.3.h.~.~.T.L.e.s.= ` U.j.[._.wXqXqX8X[._.5XqXxXqXzXzX5X_._.L.].8X8X8X`.R.!   O   6 | { { r.r.t.A.,XZXgXrXBXCX-XdXlXdXqXlXVXlX'.A.B.5.] G g 8 %X=XV.P.#XwX1., * B Q Q s.U.P.P.(.'.#X(.).&X0X=X].qXzXZXzXjXlXZXCXDXVXrXrXVXCXZX>X@X(.P.R.^.'.^.a.Z.r.>.= 2 6 7 c I I >.s.K.U.u.W L L L L U _ r.Z./ | $ 8 q < A X.S.$XNXBXgXZXBXLXLXLXPXJXZXAXhXdX@X@XrXBXBXfXNXCXJXZXoXF.C.y.t.} J X     %   J XXXXXX$X,XyX,X:XNXNX<X<X<X,X:X1X+X:XfXNX,XXXF.A.A.S S X.",
"6 < 8 < ; # ; . ; # $ # : 8 S T 4.t.(.@XR.P.B.i.,.4.{ R P D D L n g i < ; @ .     X     0 T S L 1.a.K.Z.#X4.S.,X$X$XXX%X%X] < o < b >.1.a.Y.Y.h.f.j.k.k.k.l.l.g.j.j.j.j.j.T.L.j.e.e.= N j.s.~.[.U._.].[._.U.T.~.xXsXvXzX5X[.4X].T.Y.K.K.I.A.f . x 0 6 z ( _ { p.B. .B.'.(.#XdXdXdXdX-X`.^.I.r.! G F H ~ W.rXC.[ 9XkXE.E.'.].4X2.o r Y U 1.]._.P.I.R.(.I.P.#X9X`.K.K.U.].qXzXDXZXDXCXZXVXVXZXVXBX@X=XE.4.A.^.'.'.'.a.K.a.n O : > i a s b 1.U.[.h.U.h.5.u.1._ _ >.P G 6 f A H 6.NXLXAX,XGXAXBXZXBXCXAXLXPXLXJXPXJXCXBXZXAXPXPXJXPXPXLXPXJXAXPXPXJXJXBXy.X    .A.F.%XXXXX/.W.W.G.H.yX:X.XG.G..X+XOX.X.X.X.X+X1X>X<X$XXXJ   ",
"= # @ O z G T D D T | C.(.#X=XrX=XE.=X=X`.@XP.i.[ [ [ P z v ~ ,.R W D g 5 % X   X &     f ..D p _ _.a.<.#X4.D *XyX/././.X.S 5 < P.Q.s.*.` 7.3.=.%.;.-.-.8.f.l.k.k.6XsX~.f.s.e.*.h.e., a h.2.j.~._.U.U._.4X8X5X[.vXzXzXxX_.j.j.s.h.=.>.u.I.A.; # [ y.~ 8 x I ( ,.<.{ ( ~ ! ! ! I / L F I I L c x R R.rX=XBXrXB.W.tXtXE.E.#X8XiXY.e , N Y =.h.a.Z.a.r.p.Z.Z.U._.V.2.=.*.u.].jXDXZXDXlXlXDXDXdX&X=X*XrX} = S ! ,.'.{._.^.a.>.= + + = 3 c n b ` a.8X5X8X8X].U.1./ L 8 8 z } E >X,XAX<XNXSXAXAXAXGXLXLXAXAXSXAXJXAXJXAXLXPXJXLXPXAXLXJXAXJXZXZXFXBXZXZXLXgX  J (.,XB.C.A.A.C.B.N.y.6./.G.F.H.G..X:X<X;X|.D.N.J.+X1X1XH.H.N.] ",
"| T ;   ] N.B.R.W.(.-XtXgXgXtXtX9X(.uX=XI.`.^.`.<.P v v F { t.5.,.,.>.[ T A q 4   X     A B.~ f a.a.K.1.p .   T E.yX/.E : . + | _.8X`._ g b *.3.3.e.f.e.-.%.%.%.*.e.j.L.L.j.e.2.h.2., , e.I 2.u._.s.2.u.~.wXwX4X_.L.L.L.s.s.a.u.1.s.K.1.r.t.  . 6.F.R.( p f L P v ( ! S F P v F U F P I i + 3 ! `.).Z.V.gX(.S R R.(.#XE.U.V.K.U.Y * s ` Q Y Y e.2.Q *.a.h.a.a.1./ Y / >.K.5XjXzXHXDXDXzXlXdX#XP.F.B.P .   X x | r.'.Z.u.5.g + . = $ 7 i i n *.8XzXjXwX'.E.a.P 5 . 8 [ | *X*XNX*XNXGXVXVXNXPXFXFXNXfX<X>XZXJXBXAXBXJXJX$XoXBXfXVXPXAXAX,X(.=X,X,X$X$X*X9 [ y.A.F.S.W.oXoXW.S.N.N.S.H.H.D.N.N.N.N.J.D.N.J.+X<X:X+X<X.XD.N.",
" .5.G < 6.} A.>XmXuXNXCXtXuXBXBXgXuX`.Z.V.I.K.p.r.>.P P >.>.7.P.K.E.Q.i.,.( D 0 4         F.B.B.t.r.r.g . o O O #   = n { ( I _.].#XE.(.5   . : 6 F r.d.' i +   o 2 x n L L n B ` a o + _ >.W U b B r d l B m *./ I B b n c c c / F L ,.[ 7 .    .-X). .6.~ f f T T D T ! F ! I P I m $ 7 | ^.a.r.x 5 F T 7 .   < z ~ ~ T [ p.R. .  i h = t Q t C M t B Y N B c d Y *.7._.qXqXjXDXjXzXqX8X8X].`.t.J #   $     . P 1.I.a.G 5 6 v x o + . * + n g u.8X<.P y.X.4   % f f | rX-XA./.ZXCXBXhXlXJXFXgX,X'.'.).B.F.-X-X@X).p...~ ^  .t.R.BXJXLXLXAXNXNXfXW.oXA g N.N.G.:X+X/.G.H.H.H.N.G.G.H.N.J.:XOXX.X.X.X.0.J..XOX+X:XOXG.D.",
" .[ E # 6.B.>XNX$X$XuXuXuXuXtXtXkXkXuX'._.].].!.]._.u._ 1.p.K.E.U.E.Q.V.i.5.,.{ P 5 #     } ] A < 1 2 7 P K.!.a.K.Y.K._.qXzX_.Q a.d.B.A.]   &             O 8 H f 8 : $ + . . . o o o o n >./ a l l r 3 r d , 3 2 i 1 + = $ + 1 O O ; 5 1       6 t.F.y.N.X.0 % 1 p G G F b I b b : = 7 F z D T Z.^.dXCXFXlX-X).<.f       O $ :   :   b e.e.&.#.;.C y y e - * , 2 e i n >.Q.'.4X].].8X8XU.a.K.r.8 #       #   $ p v v p p G }  .F p 7 P 7.2 + n c x G ( ^ F.G.N.X.G   z $XA.(.gXrXCXCXhXhXBXlXdXCX'.@XlXgX-X(.).S. .( (  .B.A.A.(.oX-XBXCXNXfXZXVX,XyXA 4 N.N.D.G. XH.H..XG.H.H.N.N.D.|..X.X.XG.J.N.X.X.J.+X.XH.G.G.+XOX",
" .~ ~ ; 6.XXBXyXW.F.C.R.@X`.%XtXgXBXkX0X&X&X&X].].8X_.a.K.U.P.K.K.a.a.V.V.i.t.i.4.T z 6 # 4 6 . 7 1.0XzXqX].{.].].]._.5XwXzXsX>.r.{.t.B.} %   &   1 D [  .|  .X.6.6. .p.,.b g 2 - - + o o c I c r d l = + + . o c ) {  .V.B.6.P.^.`.@X@X).E.(.(.R.*XoXA.B...H D 9   .   $ ; 2 = O   = 1 1 = ) gXgXDXFXVXZXJXJXDXJXlXR.) S v G ^ ] @   / s.T.l.&.w.f.;.%.%.Y o o * . . + = > 2 2 g L L / U b n = S [ N.-XgX@XdX&XdX&X'.dXBXrX@X`.P.Z.R K.8X7..   = 2 2 % o.NXAXSXLXFXoX  -XR.-XlXZXJXVX@X@X=X0XlX=X-X#X@X$XgXZXgX,XrXfXgXBXZXZXBXBX-X/.A.R.>XZXAXNXNXLX] q C.W.N.N.0.J.+X2X.X.XD.H.D.J.+X:X.XH..X.XH.M.o.X.H..X.XH.G..XOX",
",.{ T f B.@X$XW.F.6.} B.W.A.A.9X=XuXgXtX&X`._._._.[.[._._._.U.K.E.U.E.#X#XE.A.P.t.~ D S :   S ! _.jXiXqXjXqXwX[.L.Y.h.L.j.j.4X[.I >.`.R.W.q     ..y.V.A.A.A.W.@X(.).P.&Xp.L / L ` W i 2 o > 2 2 a > > . 2 ,.#XtXGXLXGXCXGXAXVXFXDXBXdXdXgXBXBXBXCXBXfXNXNXfXBXJXZX0 X   O   O = F ) S.).dXBXFXDXJXJXJXFXFXFXDXZXFXJXJXZXgXrX-X(.XXX.  | 1.j.T.z.f.z.f.%.*.3.= n L ,.,.7 o z V._.a.u./ h * o = { CXLXVXgX=Xt.JXZX0XdXdXgXlXBXrX`.(.P.| P.#XjXR $ 2 4.| J AXAXSXSXGXJXLX@X .CX$X@XrXBX-XR.#X-X).#X#XR.F.(.(.R.).#X-X(.).-XZXAXBX-XN.S.oX*X-XBXZXyXLXAXPXX.; X.oX.XN.G.J.D.+X.XH.G.G..XH.J.OX:X+X|.+X.XH.0.X.D.|.+XG.|.2X.X",
",.4.6 R C.W.A.R.A.C.6.y.R.P.A.`.R.(.=X0X8X].'.].8X].].5X]._.'.#X`.E._.8X#XE.I.E.B.,.[ T <   4.#XK.wXqXxXeXT.j.s.j.L.L.s.j.~.T.[.L.2 I P S 4 X J N.A.^.).).(.@X*XrX=X).=XV.I >.=.3.=.N N e > o + . 2 5.P.kXFXFXgXBX>XuXuX,XmXSXyXBX=X@X9XdXrXrXlXgXrXrX,X-XrXfX,XNX9   X X   < ( r.(.ZXgXgXrXZXCXDXlXlXlX0X#X=XgXkXuXgXJXPXLXFXVXoX/.S 2 u.~.sXf.j.k.f.-.e.s.> L 6.z g 5.=XZXJXLXZXqX8X].j.b = qXfXNXZXVXR.A.@XdX#XdXCXFXFXZXrXW.A.p.V.I.E.qX#X5.6 8 < /.PXAXIXLXGXVXCXPXXXyXCXoXCXJXNX#X=X@XA.(.(.B.y.A.$X$XoX*XAXZXgX=XoXF.B.y.4.[ ..6.X.N.$XNXZXBXGXS.& E C..X:XF.F.F.N.H.oXF.J..XD.X.J.<XnX:X+X XJ.D.H.+X+XH.J.H.2X+X",
"| [ O  .B.A.F.=X%X@XC. .4.A.).`.C.A.`.0XdXxXxXjXqX].8XxX8XU.E.E.8X].`.].].].8X0X^.R.V.~ p 6 A.'.a.~.[.4X4XT.j.j.f.j.k.f.T.3Xk.5X~.B 7 : 5 f   N.y.B.F.).).(.@X%X-X-X#XlXdX_._.h.h.h.*.Y B a * o o R @XuXuX=XVXGXGXNXAXGXNXNXSX>XgX9X0XtX=X'.#XdX@X(.oX*X,XyXfX,XNXK & X   X x 4.).-XdX#XtXBXCXBX0XqXdXZXDXkX9X#X9XuXgXVXDXFXFXFXGXoXC.2 + u.5Xj.~.~.T.~.Y.` + g 4 X.VXGXCXFXGXZXDXlXzXqXzX].a zX,XyXCXAXfXB.@X-XFXgXhXlXgX@XR.E.`.9XiXE.#X`.#X#XR.T   AXAXAXIXPXPXPXGXGXNXyXrXgXyXZXgX#X/.A.S.#XA./.S.y.y.y.4.X.~ S.rXyX/.S./.yX*X@X(.A.X.] X.6.H ] N.H.  ] X.*XoX*XoX.X*X.XC.H.H.G.D.X.X.H.+X<X:X;X XJ.J..XOXOXJ.J.D.D.",
"~ f o B.t.R.$XtXuX%XA.4.[ 6.A.R.S.V.E.9XdXxXqXjX].[.qXxX'.Q.K.u.U.U.U.K.P._.'.'.].P.p.L p ( 9XjX[.4X5X3Xh.e.e.h.3X~.3X3XT.l.k.6XT.h./ o S ; 8 N./.).'.&X&X-X*X*X0XdXrXjXzXqX8X4X~.T.T.s.7.Y a o g C.@XZXFXuX=X%X%XXX$XXXm.6.C.C.R.R.R.A.B.p.B.S.@X(.$XfXBXyX*X*X<X]       x ..A.).F.A.t.R.XXrX-X^.p.1.u.I.'.8X0XkXBXlXtXkXFXGXCXAXAX-XT i . 2.L.L.~.L.a.>.I <.rXAXAXSXCXLXPXCXrX@XlXKXzX]._.a `.@X:XNXCXPXy.#X(.A.&XgXkXVXDXVX&X=XBXuXE.kXtX9X9XE.A.g PXIXAXAXPXIXyXAXIXNXF.$X$X/.,XNX,XW.X.^ ] ] ..y.A.C.] E N.F.XX*X*XXXS.6...E.0XgXfXgXVXVXBXyXNXrX@X  A E F././.,XBXfX:X/.N.G.G.G.J.N.N.G..X:XnX<X XH.|.OX<XOX.XH.N.",
"P = ; R.t.@XtXrX%XC.C.W.t.~ [ 4.P.B.A.'.8X{.'.].5X8XqX5XK.U.E.a.U.].#X`.`.#X#X^._.a.K.{ F <.`.8XsX3X6X3Xj.k.~.4Xk.k.k.3Xk.k.3Xk.k.s.` g <   6.R.(.).'.'.(.(.XXXXR.=XdX0XqXwX5XeXwXL.4XT.3.*.` 2 ) @XR.gXBX#X=XrX@XNXAXBXXXB.N.H.#X=X&X`.&XlXVXrXBXCXNX-XfXZXBX<XnXn.X & % ^ N.(.y.{ 4.V.@XR.%XtXZXxXwX0X#X_.&XVXzXlXkXdXuXtXDXPXLXCXZXgXR.2 . = 2 2 3 x 1.&XFXgX<XSXSXSXAXVX>X-XA.R.dXDX].a.s K.NXOXSXAXGX(.t.-XP.^.&XtX9X9XtXZXtXiX%X9XBXkXiXtX9XA.T GXIXAXIXIXAXLX$X2XmX} CXW.N.H.@XyXgXyXrXyX$XyX>XoX*X$X$XBXyX*XXX/.oX$XoX(.@X#X#XrXBXgXrXBXVXBXVXC.  4 G y./.oX*X,XgXyXoX/.H.J.G.|.G.+X;X|.;X<XnXnX<X<X+XJ.nXnXmXmX",
"z O p A.A.A.C.^.(.#X'.A.C.V.4.T A.P.@XtX0X].].8XqX8XwXj.K.].].].U._.'.'.].8X&X_.K._.a./ + I.U.5XeX6X5X6X6X3X~.3Xk.l.k.k.f.l.c.c.~.k.=.I * < C.t.^.I.!.^.'.@XXX/.).^.'.'.].wXeXeX4X4XeXT.h.T.*.s >.'.{.DX0X=X'.dXBXVXlXgXZXFXgXR.A.`.tXBXZXBXVXZXgXrX,XrXgXNXfX,X<Xn.& X x J C.,XR.P.'.=X&X=X=X`.a.K.K.U.U.U.!._.#XjXzXtXqXtXkXtXCXJXLXLXJX0XF     : ) I.lX-X0XlX:XMXSXAXAX>XoXgX=XZ.Z.8XqXa.a 1.>X.XoXAXyXZXB.@XP.p.1.a.8XtX9XtX&XBX9XE.9XBXkXtX`. .A.GXAXAXLXAXAXIXNX$XF.0 NX>X,XNXVXNX>X%X$X*X$XoXB.@X*XyXyX>XBXyX>X*X*X>X$XoX#X^.R.@X=X=XrXgXAXrX>XW.# @ 8 y.@X-XrX-X$X$XoX.XG.N.X.N.D.D.|.;XOXH.nXNX1XO.H..XH.XX,XyX",
"5   z t.Z. .<.r.`.A.A.@X=X(.W.@XR.=X9X'.#X'.U.U.{.8X].>.1.iXtX8X8X&XqXzXzX8X].&XK.K.>.c o L.K.e.j.3X3Xk.k.k.k.z.l.l.l.l.f.f.l.g.l.f.` U = R I.S.p.I.).^.A.S.R.(.^.p.K.qXsX].~.5X6X5X6XT.j.T.3.l 2.'.!.dX'.-X9XDXgXVXZXVXlXlXhX0XrXlXVXtX).P.^.&X=X*XXX(.oX-XrXfXSXH.    S C.(.).V.I.&X9X].^._.U.s.Y.U.a.1.2.K.].U.].qXjXjX9X8X9X-X-X-XlXJXJX'.P 8 v P.`.dXdXdXBX<XSXSXAXSX,X@X#XZ.Z.^.{.].!.I U *XOXoXNXZXFX~ i.qXU.>.>.P.].iXVXi.Z.P.E.#XtXkXkXE.G @XNXAXAXSXAXmXSXNX$XS.@ F.%XNXBXVXVXNXgXgXgX$X,X*XoX$X>XfX,X>X>X>X*XXXW.A.C.5.A.S.} v S [ t.C.R.=XR.: 4 f G R.(.(.).#X*XXXA.} X.N.N.X.o.n.|.G.|.G.|.:XH.G.OXW.W.W.F.",
"5 . g [ <.~ ,.a.P R 4.).uX9X#X$XrX&X#XI.,.u.U.K.5X1.*.a.8XjXtXzXzXzXzXjXxX{.K.r.U.K.a.>.+ U I Y Q =.-.%.V V %.;.k.k.l.f.f.w.8.-.f.j.*.B = 7.i.B.I.!.^.^.P.A.A.A.P.r.p.{.5Xh.h.4X6X5X3XT.T.T.e.n u.{._.0X_.'.].jX9X9X0XdXdX0XdXlXR.A.t.,. .4.t.B./.(.XXXXXXXXoXoX+XG.  & J S.).{.'.8XwX8X]._.K.K.2.=._ ` / Q I U L.K._.8X4XU.a.K.Z.I.^.'.hXZXdX^.! S B.A.'.lXdX0XZXAXAXVXyX,X=X@X-X@X].&XK.d.L p F.G.H./.VXAX8 ~ I._._._.E.h.a.E.p.Z.E.(.`.#X9X9X5.z uXCXLXAXNXNXNXCXVX%XW.O B.yXNXgXrXyXgXBXVXZXBXZXFX$X,XfXVXfX$X*X>X$X/.A.A.A.t. .) | S.@XE.t.B.R.rXA.; : 6 0 ,.r.p.Z.R.(.F.N.N.N.N.D.N.X.X.N.H.;X.XH..X:X.X$X,XoXR.A.",
"O   < ~ T R v R 5.p.P.(.=XtXtXuX@X@XP.Z._.a._ 1.c b >._.iX8XqXDX^.&X0X8X8XdXjXqX_.a.K.K.e N Q Q M M M %.-.f.k.7X7X7Xk.l.g.f.;.;.q.l.%.l - ( ,.B.a.p.p.i.r.<.} [ | ' ' 1.h.T.~.4X4X4XT.T.k.h.3.i ` U._.qX8X8X8XqXCXqX{.qX0X'.'.0XZX@X5.)  .B.^.@XBXBXyX*XoXoX,XNX*X/.  G R.-X).dXjXwXL.s.j.s.2.2.2.2.2.=._ ` Q ` U U ` u.L.K.s.r.a.I.^.^.'.rXBXBX~ x ) Z.'.lXCXdXgXfXgXrX(.(.#X#X=X9X'.&XI.r.L p X.X. ...XXrX< v / >.1.>.>.*.u.8XP.R.`.E.K.U.].E.i.~ XXAXNXNXAXAXSXCXyXF.S.  E R.rX=X-X$X=XgXZXFXZXgXBX(.*XfX>XoXX.y.A./.XXoX$X*X0X#X(.'.(.R.^.#XW.@XyXA.# @ : 6 F ) r.i.i.B.S.C.>X.XD.N.D.D.N.n.N.N.G.H.D.<X>X/.B.N.y.y.",
".   O x D ) ! | u.i.B.P.E.(.%X=X=Xi.B.'.].^.1.c U >.K._.a._ ( >.^.U.U.K.i.1.j.5X5X~.T.e.3 N s.3.k.h.l.~.3X3X3X6X6X6X3Xk.c.g.8.-.8.-.N r e R i.P.<.r.p.r.) G G P p x c L e.5XeX3X4X4X~.~.j.3.Y = I I.`.qXtXqX8X8XI.d.d.^.&X{.qXCXBXBXBXlXgX0X#X(.#XrXBXBXfX-XoXoX*X/.X ..)._.d.[.=.=.Y B Q *.` =.sX5X}.5XwX4Xs.Q l N Q s.wXHXvXwX[.!.p.r.p.^.-X=XS 5 8 | r.Z.&X^.C.p.E.#XA.t.B.I.I.dX-X&X{.I.F p } J ] ^ ..A.7 x c c i a N Y *.a.V.i.K.^.a.1.5.u.a.( -XBXyX,XNXNX,X$XW.S.C.  8 6.B.A.(.(.).(.-XrXCXlXgXhX=XgX@X=X-X-X,XhXgXrX@X(.(.E.).9XrX#XE.P.R.%XuX6.; @ : 8 D ) r.p.p.V.R.W.$XOX.XH.N.N.n.X.J.o.y.y.C.W.N.T G ~  .y.",
":   . o 7 x P ) r.Z.E.P.P.^.W.R.R.#XE.Z.^.Z.) U ].5X].8X_.a.a.p.U.p.<.1.p.U.`.]._.L.j.2., e 3.3.-.k.3X3X3X4X6X6X7X7X3Xc.3Xk.l.l.g.-.d e d _ p.p.1.r.r.<.| ~ T D x n B U ` e.~.5X6X5X4X3Xh.*.d o >.`.#X9XqXiXiX#X_.I.U.{.].I.^.9XgXrX9X=X0X0X=X-XfXgXgXgXgXgXBXBXfXfX8  .a.K.2.j.=.e.e.-.=.%.%.-.j.~.5X~.e.*.*.=.=.=.*.=.h.5XwX4XsXwX_.a.p.P.&XgX~ S ; F <.i.K.r.) ) p.'.^.u.u.Z.^.qX{.&XqXK.v S N.X.X.X.^ 4.F 7 I Q Q Q *.*.=.h./ F { _.'.a.a.^.5.g ZX=XfX*XF.H.W.A.A.W.N.  . G { t.E.'.).R.^.(.).oX@X=XR.).A.'.#X).F.R.oX=XrXhXrX0X'.A.S.(.#X#X-XtX%XS O # 4 g P ) ,.5.p.A.R.F.W.+X$X+XG.D.M.X.G.F.S.y.F.6.G S ~ r.I.'.",
"t. .5.{ <.) F v Z.!.I.r.,.t.B.5. .B.`.E.>.' _ I a.xXjX[.a.p.U.a.I.p._ _ a.].!.r.2.` Y Y r , =.*.Y e.3X7X6X6X6X7X3X3X3X3Xk.l.l.l.l.;.d e e 1.1.>.>.) ! ) <.4.~ S ) _ >.` B B 3.~.3XT.3XT.-.Y r + ( E.].#XtXkXVXkXqX&X0XzXzX0X&X0X&X'.(.'.&X#XE.B.C.S.R.XX$XoX/.F.@X'.9 P _ r.U B l B %.%.V V &.e.V N l r r l Q e.4X~.s.*.Q *.3.s.h.L._.U.Z.Z.).uXD G O = v | _ / >.<.r.K.`.^.I.^._.I.!.{.&XI.L ( F.H.S.F.4.r.| 1 L U b d d l =.[.Q.Z.Z.^._.a.7.5.<.2 -XB.(..XG./.XX(.B.B.~ @   1 ~ ..4.r.r.r.r.i. .V.R.^.A.V.A.S.).F.B.y.p.F.(.=XA.P.V.r.i.P.R.A.#X'.{ $   # ; p g b P P ! { 4.4.F./..X.X;X1X|.N.X..XF./.F.N. .t.p.A._.{.",
"S G T P g p O O F F ( t.i.,.4.S.5. .[ ~ P L / 1.1.a.U.zXjXK.E.8X8X'.!.^.U.p.<.>.L >.` a o . Q *.%.;.l.6XcX6X3Xc.3X3X7X3Xl.8.:.-.#.V d e - h.1.u.>.| >.r.a.p.5.{ >.>.=.*.=.=.-.-.f.e.k.f.%.B r - >.`.9X9XlXkXlX9X9X`.(.9XjX0X^.Z.V.P.^.).R.A.S.S.X...[ [  .<. ... .S.S ( F I m B Q Q Q B t t N B l l l l l l B Q *.=.-.=.Y m I 2.j.L.`.8X#XR.i.6.; E 6 . ; P ! a.B.i.| | Y.].].]._.^.xX8XI.I.b 7 /.oXF.*XF.p.i.= a b B U U m N ` K.`.K.1.a._.U.Z.U 2 t.C.R.oX*XOXR.@X6. .~ [ S v 7 2 ; = 1 2 0 x S [  ...t. .p.^ ! )  . . . .<.r.t.5.5.<.[ R [ t. .T :   @ @   4 = 2 a i 6 p S T C.A.F.F..X*XOXG.N.F.B.#Xt.^.^.p.^.I.I.I.",
"S G S : o . o o o < F { { ( | p.(.).P.T z ( i.`.E./ U _ U.5Xa.u.r.! r.^.V.p.r.G P P $ + O . m =.%.;.;.k.pX7Xk.3X7X3Xc.x.l.:.:.-.Q Q l - 2 I { / 1.u.a.K.K.K.K.Y.2.j.L.3.Q %.-.&.-.-.=.` *.l = a >.`.8X8XlXtX`.9XtX0X&X]._.Z.1.) 1.r.i.V.S.p.X.] ..] ^ P I I I P ~ [ % 8 G F v v b L I U b c a s a 3 3 2 s a c m n L I =.2.=.U b _ ) / ) { ~ D f   G H .   # f ^ ^ ....[ i.&XqX[.].U.8X_.p.| G   o.:XNXOXoXfX/.1 p x x v P L ' Y._.K.V.p.u.U.^.r.4.6 R 5.t.B./.t.S.{ P ) R.uXrX@X-X-X(.t.~ v ;     O #   O   X     # # 1 8 7 3 7 6 9 5 1 1 5 5 4 X .       X & % < i 2 2 3 1 m m P <.r.r.p.A.!.{.^.K.r.) _ d.U.L.>.u.s.1.",
"[ ] D 4 @ ; 5 p D 2 + : z ( <.t. ...[ ~  .i.4.) { _ / *.s.U.L.u.I.r.r.r.| G x 5 O       O   1 B N %.l.x.c.pXcXaX7X7Xc.g.l.:.:.&.e.*.s * 2 U _ >.Z.K.K.K.j.j.T.~.h.T.j.-.*.-.q.q.;.%.*.Q m + + | >.`.9X#X0X&X].kXlXdX&X`.^.U.I.P.u.i.p.p.y.X.] J ^ ..t.r.' L U / 4.f   O : < 1 < 5 7 i 7 7 7 i a 1 + + 1 2 3 2 i 2 s i 3 n U ' _ I P R ) { T 8 @ o z S <       X & x ^ G ) Z.U.u.1.a.K.,.) S ; O % A X.oXoXy.J ; 5 0 p x m 8 7 x F b { P.E.E.P.5.< p D #   $ 6 # O 1 S t.=XBXBXgX#XrXdXrX0X&XR.t.S : 5 o   @   .   X     X .   O     O # O     X         & % 4 q : 2 i 2 x F i x P ' ' U U | 2.! d.b a s i / r.B U Q / U ",
": g } B.A.W.(.W.(.5.G 5 + . $ 2 ; 5 0 x x p i 2 : n n U Q ` s.2.I d.| 2   . . X   f -XA.'.&X{.Y.-.%.f.l.-.c.cX6X3Xc.x.w.w.g.l.:.-.Y , * e b U ) <.u.a.K.j.h.h.j.L.Y.e.` *.e.e.-.j.q.*.B l * + U V.`.^.E.0XdX0XkX#X'.^.P.Z.Z.U.^.I.r.( ( X.N.y.X.F.A.S.i.<.>.=.| ) .           O     O O O O + + O O + = = + + $ . = 2 + 2 1 p n F T ! G p ; O . X .   X % % X     X # 5 F { _ I / L L 7 o o                   . O O       X O + o + < 6 2 2 : . G F 5 : } W.E.4.B.S.E.-XgXBXBXlXgXgXgX=X0XgXZXFXE.D f ;   $   O 1 x F P b i , 3 l N I ` _ / G z < : # O .     . + o o   $ 1     1 # 3 7 3 3 2 =   O = - : 3 2 3 * = * + ",
"XX$XuXuXuXuXyXyX*XR.4.G 5 O   O # ; O O .   o . * 2 2 e > + = * O     . O     O O < P.^.'.I.!.].3X%.;.k.f.g.7Xc.7X7Xx.:.:.w.:.@.%.V , * , c L _ <.u.K.U.U.L.Y.K.U.U.a.e.s.k.~.k.k.f.=.m 3 + : ~ (.`.V.i.E.`.A.V. .<.5.5.,.,.,.4.Z.Z.t...^ ^ ..y./.B.4.r.Z.K.1./ ;   # @ O O = 2 D T ) <.r.r.,.| F F s O   . 2 x v ; o o O O $ ; = O       . .               X % % X X @ O     . + . + +   o o o < A H J X.S.R.(.=XgXdX'.I.>.i   * > > $ > F 5.i.t.A.,.4.R.C.(.=X=X=X=X-X&X-X=XrXBXZXZXgXrX=XrXrXBXA.g 8 ; O X 1 ,.I.{.!.>.N l N V f.5X6X4X5X9X9X=X#X(.P.a.5.5.7.D = . 5 R C.C.1     O # = ; 8 F ) r.| F s +   . = * + o ",
"BXVXCXAXCXBXNXgXAXgX(.5.G 6 < 5 S S < + . o 2 i I / >.s.K.j.L.T.L.8XjX8XV.,.R g + . p p.U.s.U.sX4XY d Y ;.-.l.3Xk.k.f.&.&.f.8.%.B B r * , c U / 1.r.u.u.r.r.e.u._ _ _ ` ` *.=.=.e.Q N s : $ f P.P.E.V.,. .[ R P ~ { ,.4. .[ [ [ | r.C.B.y.X.6.y.] ~ ^ P v 2 +   5 z 4.i.(.'.gXBXBXBXBXlXrX'.I.d.^.I.r.b 1 $ p ) v : O #     .   = 6 z x 8 q A E } X.N.N.N.N.J.G.N.N.0...^ G z p o + o . + $ # D C.F.W.%XBXCXCXJXgXBXlXdXdXdXU./ b ( p.E.E.V.B.Z.S.).R.@X=X=XgXgXgXCXGXBX(.S.W.-X-X=XrXrX*XoXoX%XBXtX[ G g = O P &XwXqX5Xj.e.3.3.c.v.6XcXcXwX5XqXDXDXVXzXjXeXeXeXzXtXh = 6.A.X...@ G X.y.@X-X@X=XdX^.'.dXdX8Xp.D * + o . ",
"VXBXBXCXCXVXCXFXtXBXCX=X6.T ^ 6.[ ! 8 + $ g >.s.h.L._.8XsXzXvXvXzXa.r.4XDXDXDXDXGXjXV.1.Q U L d N e * * - y t V V V V V %.-.-.%.Y r o . o s F c L I ! ! L b c c I / ) I m a r r r 3 3 +   . ; D ( [ ~ P T T G z z v S v z g g x 8 5 : : 1 %             = c 1._.(.BXBXlXFXZXZXlXtX9X#X'.'.'.`.^.'.!.^.!.) 7 2 F G f $   : X.=XrXrXrXhXNXBXVXNXfXNXNX:X+X:X:X|.N..XJ.N.N.A.R.C.5.) R D 2 : . g B.%XXX$XyXVXAXZXJXGXDXCXkXtXqXK.U _ U.tXkXqX`.P.E.@XgXlXZXgXBXCXZXVXZXVXrX(.R.@XrXrXrXrXgXgXrXfXBXuXgX(.~ P i + a.5XY.h.h.T.4X6X3X:.#.@.w.eXvXsX].dXtXqXiX5X5X4X4X8X%X%X5.R 4. .^ 4 ..y.B.BXFXgXBXlX&X^.&XBXDXVXlX).I.Z.P.",
"AXVXCXGXGXFXAXGXBXVXCXCX>Xy.E D G 8 O   7 a.[.Y.~.5X].sXeX[.sXvXeX[.2.` j.jXHXKXDXHXHXKXKXHXHXHXHXvXvX5Xh.=.Y M - , y - - - - * o e =.=.2 + 2 i 2 7 x c a 2 : = $ = 1 1 = O o O O i P 7       X O .     . $ O   o .             . O O       . $ $ 5 F 4.P.`.'.`.#XBXgXBXBXBXBXBXgX=X'.^.).).^.^.^.A.I.Z.| x 9 x  .J ;   B.VXCXoX@X-X,X,X*XOX,XNXXX:X+X|.;X;X+X:XOX.X.XXXW.A.R.%Xi.,.5.( D =  .R.NX>XuX$X@XrXBXFXFXVXVXVXkXkX'.>.7 u.9X9X9X#X(.E.lXkXrXrX=XgX=XtXNXgXgXgXfX>XXXR.(.(.*XBXBX,XXX(.(.rX=X) ! s 3 _.~.*.d r d %.3.&.k @.@.:.3XvXzXqXdXdXjXjXeXeXbXsXiXQ.tX%X[ B.y.g q } 6.N.,XfX/./.B.@X(.R.=XP.t.&XrX&X#X9X",
"LXAXAXGXLXGXGXLXVXNXBXAXNXC.z $ . $ : = b ].5XT.[.wX~.HXeX2.5XHXvXsXh.e.eXHXiXiXzXDXKXeXqXs.T.5XHXvXKXKXvXHXKXvXHXHXHXvXcX6X3X3X-.M Y j.L.p.I =     O + O o . . . $ 2 x F I _ 2.p.Z.'.A.X...H 0 < < : $     .   o .   . o O o       X .     @ ; S ~ t.R.@X#X&X9XtXBXVXJXdXgXgXDXCXlXrX0X0X=X@X).p.I.A.d.r.[ S 5 x A 4   $X<X>X$XNXfX,X-X*XoX.XG.<XNXOX+XNXnX+X:X+X:X<X1X<XyX%XA.A.R.5.R <.: [ E.yX%XBXVX9X=X9XVXZXkXBXDXzXtX_.>.= R P.#X#XK.i.R.R.#XP.4.5.@XS.@XN.F.oX-X-X$X$X@X-XoXoX,XyX*XXX(.S.0X'.{ I : l j.e.V d t y M Y C u u k &.3XeXzXzXrX0XqXwX5X5X7X7XeX[.tXzX>.4.S.% D C.A...X.oX-X)./.S.B.R.'.E.B.t.A.i.i.P.",
"GXGXGXGXGXAXBXBXBXyXZXAXgX=XC.G ; 2 2 . a._.5X5XsXwXj.j.h.*.h.sXsX5Xh.=.j.wXHXeXzXvXHXsXsXj.3.3.T.sXvXvXvXvXvXKXKXvXKXvXvXvXvXKXeXsX3.B j.a.u.) 1 8 1 # ; F ^.'.ZXZXCXDXFXCX0XI.B.Z.^.=X,X$XoXOX*X6.E ~ T 0 : 4 z S f 9 f 8 @             @ x ( [ V.=XuX9X9XuXtXtXBXVXlXVXFXGXDXZXlX0X-X=X=X-X-X!.A.Z.d.r.) T G X f 0   N.H.G.yX*X*X*X*X:X*X*XOXOXOX;X1X:X:X<X<XNXyX<X$XOXXXW.R.B.rX .~ ( 2 R P.uXuX=XtXZXkX9XtXtXjXDXHXtXqXiX>.= F 5.V.p.V.V.V.`.P.A.i.t. .T 6.XXB.^ A.*X,X>XoX>X,X*Xy.[ y.XXR.).&XB.<._ . Q e.%.M y t M j j M y u :.l.4X[.jXlXkX=XtX8X~.k.4X3XT.T.~.h.p.b 7 < [ E.R.t.[ ^ t.(.C.C.S.F.(.*XrXgXy.C.R.R.",
"FXFXFXCXZXBXBXBXCXBXCXCXNXuXW.[ P z 2 i T.wXsXsX6X6Xk.-.3.3.~.5X4Xe.T.T.eXzXeXHXvXeXeXeXsX4Xh.h.h.4XwXsXvXvXsX5XcXeX6XeX5X6X6X6XvXvX5X` c L a.| f 6 6 ~ rXFXZXDX=X=X#X).(.9XlXZX#XgXVXlX,X,X:XOXBXA.[  .4.~ S z ^ X. .T [ 4.G < X X       8 R ! <.I.9X0X-X=X=X&XtXtXkXBXVXBXBXVXVXgXrX,XrX,X-X#X).!.Z.p.i. .! G 8 5 #   /.,XXX>XrX,X*X*X*X:X<XNX<X<X<X<X<X<X<X<X1X<XyX<X+XW.W.XX=X=XW.{ L = W u.&XjXtX&X#XqXzXDXqXZXzXjXiXiX8X1.b _ E.P.9X`.=X^.#X#X(.5.4.5.~ ~ X... .y.-X/.*XF.F.S.B.6.X.y.A.A.X.t.<.| ` + ` f.M t y t M t j j j ;.c.3X3X[.iXkX&X`.].K.j.[.6X~.3Xf.j.j.s.n : v 4.(.R.y.~ F ) r.} ] [ y.F./.A.t.*XA.t.C.",
"gXBXZXFXGXJXJXJXCXBXVXBXkXtXXX5.[ z : 1.].sXeX4X3X3Xf.M N 3.wXT.sXcX3XsXsX4XcXeXeX5X4XT.~.cX6X4XsX~.T.5XsXsXsXsXeX5X3XT.6XcX3.5XeXcXcXwX[.u.<.L x # y.JXJXZXlXCX@X(.^.S.V.(.9XtXrXrXtXNXCXAX:XS. .T J } t.t.[ G |  .t.t.S.A.4.G 5 ;   . $ T ,._ Z._.qXtXtXtX9X&XtXiXtXBXVXdXtXBXCXZXZXBXBXBXfXrX{.^.Z.p.i.| G f 7 # o   N.%X@X$X=X,XrXyXyXfXyXyX<X<X<X<X<X:X:X:X$X,XNXyX>X$X$X,XgX(.&X! L = d >._.].].K.7._ =._ h._.U._.8X4X_.u.b _ P.p.`.E.@XV.4.[ | B.R.t.~ 5. .A.B.y.N..X$XS.} ..X.N.S.X.^ E .. .{ | ` - -.j.V t t t t j t M t f.3XT.T.4X4XqXqX_._.T.~.T.3Xk.g.g.k.-.=.Q 3 F I.&X).F.S.[ x 1 v J X.).rXVXZXZXZXlXuX#X",
"qXtXtXtXkXkXlXlXkXtXtXtXtXtX%XB.T p = _.~.eX6Xj.~.-.=.M e , =.T.sXcXvXsX5XeX5XeXh.j.4X~.3.~.3XeXvX4X4XsXcXsXvXvX4XT.3.3X5X5X5XeXsXsX5X4X].K.>.G 0 S.ZXBXZXAX-XF.#X@X).R.`.&X`.P.=X(.R.R.F.C.B.F.G G D F T ( ( ! [ [ t.F.S.S.B.4.T 0 . . f | <.1.K._.8XqXdXjX0X#XtXqXqXjXzXjXlXZXCXCXCXAXAXZXBXgX!.a.r.r.r.| D 7 z 1 o    .uXgX(.=XrXgXlXgXgXrX,XNXNXNXNXNXNXNXNXyXyXyXyXmXNXNXNX>X(.A.g I 2 2 / U Q a.5X].L.a.3.3.s.s.[.8X[.T.1.2 7.&X9X`.#XE.5.B.P.A.S.A.B.|  .] X.} X...W.oX$XS.C.X...X.....N.S.4.) ) I , 3.f.V M t y y y M Y T.eX4X4X5XeXT.~.eX~.4X5X5Xk.k.z.l.7Xl.Q Q e.i i i.'.).S.y.) ) ( ! ..y.B.C.Z.P.E.^.&X#XZ.",
"qX8X8X].].#X8X9X8XiXiXtXBXkX`.B.( D > ].s.5X6Xf.%.M M t B *.T.4X5X5XsXcX6X4X=.*.3.Q *.h.f.~.f.h.4XeXvXeX5XsXvXeXvXcX4X%.j.k.-.5XcX6XsXeX[.8X>.  ~ rXlX,X,X/.F.-X'.'.).).-XtX9X%X%X(.R.S.4.] [ y...| ( G G ~ ..| ~ r.).I.p.I.'.R.4.~ <   I | 1.s.K.~.[.{.wXqX&X_.8X8X8X#X8XjXVXBXgXBXZXCXZXNXfX,Xd.1.>.1.r.>.U x g 1 =   F P.&X^.dXdXrXrXrXrXgXfX,X,XyXyXyXNXNXNXNXyXrX,X,XNXNXVXR.-XR._ 1.b - r l d B 2.s.L.4X5XT.T.T.5X[.4XT.Q . ( #X'.E.9XuX`.(.`.V.4.6.4.t.A.y.^ ] ] X.] X.N.o.y.X.} X.X.X.N./.X.! / b , *.Y t y y y y t B *.vXHX[.4X5X5Xf.l.k.k.3Xk.k.l.~.3Xc.7X-.%.3.2.2 1 r.F.t. . .r.Z.!.A.i.| ! ~ ) { { G ) t.Z.",
"].4XqXqXqXiX].'.`.9XiXtXCXzX`.B.{ R i ].3.~.~.%.%.V M d %.3XL.%.r k.4XvXh.*.-.=.=.Y d N e.sXsXk.~.eXvXcX6XeXcXeXvXcXT.V V -.6X6XcXsX5X5XwX].b O ).@XS.N.A.$X,XB.R.'.-X-X9XtXtXrX@X9XuX=X*XoXA.y.t.4.{ ! ~ [ [ ( ( 4.A.A.i.p.I.).B.B.D   I >.s.s.~.5XwXwXqXqX&X_._.8X]._.`.0XkXtXgXBXZXZXBXNXfXfXR.Z.i.u.r.| F a 2 = 2 + 7 U 1.K.'.#X=X0XuXrXrXrX*X>X>X,XyXyXNXNXNXBXBXNX<X,XNXAX,XlX&X1.U m l , B Y B N N =.j.T.j.j.h.e.=.j.L.d o b V._ | { p.<.B.5.~ ,.t.| t.*XN.X.X.] X.H.F.F.S..XoXF.S.S.H.W.F...) | n , %.M y y y y d Y 3.T.jXtX_.T.3Xk.8.w.w.w.w.;.&.#.-.c.c.c.&.;.e.` 2 + ~  .] X.A.A.p. . .[ ! G G ! <.i.| p.P.I.",
"8XwXqXjXqX].Y.a.Q.#X8XiXVXtXQ.5.{ P i U.h.k.f.V M t M V V 3.*.j.e.f.k.k.f.3XY N V f.=.N Y f.vXcX4XeXvXKXKXcX5XeXcXvXeX%.V -.-.4Xf.5X~.~._.I   z ).-X(./.oXF.F.gX^.{.0XrXtXgXtX9X%XtXBXrX*X-X,XfX).i.( F S F ! [ |  .r.A.A.r.r.!.A.A.( $ n ` j.j.[.5XeXeXwXqX8X].`.].].].].#X#X@XgXVXCXCXZXNXNXBX9X].E.V.1./ b s i : 2 1 n / / / >.r.Z.^.#X#X@X(.uXrXyXyXyXfXyXfX>XtXNXfX<X*X:X<XBXgXZ.2 - l Q B , r r t N %.=.=.=.=.%.Q Y =.*.e o + z L r.,.V.B.R.'.B.t.A.A.S.6.oX,X/.N.X.<XoXF.H.F.*XyXOXS.y.X.N.[  .<.i = Q B t t t d Y 3.4XjXzXZXzX4X3Xg.l.w.w.#.#.#.;.C V l.g.g.q.Q =.W > . 4 E } 6.N.y.C.A.p.Z.Z.r.) P / | >.i.>.x ",
"DXzXjX8X8X8XqXtXK.`.`.].tXiXK.5.i.W 2 u.j.T.j.*.V -.Q V Y eX~.4X6X4Xj.sX~.j.Q V %.k.h.=.%.M l.4XvXsX5X5XvXvXeXeX6X6X6X3XY V Y f.k.4X~.T.3.n O G C.B.fX$Xt.,XlX).'.'.'.&XdXDXDXkX#XE.R.`.-X(.R.F. .| | { ~ ( 4.I.r.A.I.^.'.'.A.A.^.a.) 7 a I L.~.h.T.].].[.{.{.'.8X].8XtXqX'.E.(.hXlXBXBXgXfXfXNX#X`.U.a.1.) U b * 1 7 : i U b s L T [ 4.B.P.E.(.(.(.(.W.W.W.E.R.E.(.`.@XoXW.A.B.r.S.,.  l I B l B e o + e N Q 2.s.e.%.-.e.%.N e / 7 = g / >.i.`.Z.t.R t.#X(.(./.F.H.oXC.F./.F.C.*XN.y.A.N.6.N.A.6.^ | ) + . B B t l N Y =.j.4X8X8XqXsX3X7X3Xc.w.@.#.#.#.w.%.%.-.g.-.f.V Y n $ O ; J X.y.y.X.t.S.p.V.Z.Z.r.| I F | Z.].`.",
"jXzXzX9XE.E.9XVXtX9X^.V.V.P.P.V.u.W 2 1.U.e.[.h.=.N V *.=.5XeX3.B ~.vX4Xh.*.Y Q sXvXk.e.f.k.k.3XsXvXvXvXKXHXcXcXeX5XsXsXk.%.%.l.7Xk.3Xh.3.e * v #XR.A.).).S.9X&XZ.Z.P.#XrXR.V.#XR.B.t.Z.P.A.P.^.B. .[ |  .~ | C.[ W.B.t.(.=XA.&XU.i.a.B + U s.5Xa.r.e.L.wXxX{.!.u.E.#X`.I.A.P.F.S.(.*X>X,XNXfX*XdX].].].u.I F B 2 a p f   S T 8 @ : 6 6 8 z D F L P P R / R R / F F L P I I U L / ) s : a n i l 3 l a - = r m b m Y Y B =.=.l s R T z ; 7 R R _ >.,.1.P.9X%XS.A.y.A.A.A.(.=XR.{ { | r.I.I.r._ )  .t.y.D o . i N d l B e.[.T.h.[.5XeXvXcX4XeX7X%.V %.;.;.-.l.f.:.&.q.-.%.B a :   4 0 ] N.S.y.d.I.i.| ! ,.P.'.&X&X0X9X`.Z.",
"9XtXtX9X#X#XtXlXkXkX9XP.V.Z.E.`.>.>.i L h.5XwXU N d B Y Y f.j.Y Q ` 3.[.5Xe.Y =.f.eXT.h.h.4X~.k.e.4XsXeX5XzXHXHXvX5X~.6XsX7XT.k.7Xk.;.-.B - > .  .C.t.S.(.'.'.^.dX=X^.'.9X^.p.A.&X^.^.'.#XE.V.p.B.C.B.{ ^ ~ ~ T 5.#X%X%XtXuXXXtX8X[.].K.h b P a.5X_.U.].8X8X8XqX'.^.).'.'.).@X0XA.S.C.N.A.*XNXCXI._.].K.r.u.>.n v 7 p : 4 # 4 D 4 @   . O @ ; 6 p p c c a n L n P L n c n b b b s i * + s b a s i B U s = = s m L B U I L 3 + a r.] E f : v ,.,.a.U.`.P.i.S.@X=X-X@XA.t.S.I.r.P a I <.>.I B U / ,.N.5.z     = 2 c b U *.j.T.h.3.f.3.k.4Xk.f.j.f.-.-.-.-.-.q.-.-.l.:.%.N l 7 ; X 4 0 O.X.X.} [ | ^.{.dXVX'.<.,.P.Z.p.Z.^.",
"9X9X9X9X9X9XtXtXkXlXtX`.E.E.`.#XI.1.e N s.s.r.b d n B N l Y =.Q m Y =.j.[.j.*.Y Q =.j.j.3.5X6Xh.e.s.5XvXsXsXcXsXeX3X~.4X6X7Xk.l.l.k.j.=., > * + ; ~ G T 5.`.I._.#XtXdXgXkX9X'.#X5.r.p.A.V.r.5.r.| E.=XA. . .5.t.B.@XgXVXFXrX#XuX0XjX8XU.b x g I ].xXjX{._.].'.!.^.Z.p.A.(.#XrXVX/./.$X,XfXyXfXNX0XK.Z.'.Y._ P L m v g # A @   : 4 % X . $ = + .   . > 7 1 1 i i 2 2 7 2 1 = o . o + + o o + + + = 2 2 1 O   . + = = 2 3 = .   2 C.N.4.[ g * b E.Q.p.V.A.t.A.@XW.BX=XR.t.r.<.| ( L ! U b b I I L  .S < + o + +   > a b c b / Q l N B *.f.-.%.-.f.-.k.c.l.;.V -.k.f.;.V N a 2 @     4 S ] X.t.B.V.^.rXdX^.r.<.t.V.r.<.p.#X",
"kXtX9X'.`.#X9XtXtXdXtX9X9X=X`.V.'.,.i c L s n Q b U U d e r l b l s.L.` U s.~.Y.m B Q B j.5X5XsXj.j.4XsX~.k.6XKXvXvXcX6X3X3X6XcX4X6X~.Y e 2 . o . S D S T | | r.'.#X`.#XkXBX#Xp.! T P R ( {  .<.).'.#X#X@X^.R.P.E.E.9XrXBX#X-X0XrXtX`.E.<.x x / I u._.!.U._.!.a.K.P.a.4.r.Z.R.A.(.W.XX>XyX,XyXVX#XE.U.U.a.p.d.>.v P = 2 T } S.A.F.R.R.R.XX%XA.<.8 : $ = = + * 1 1 1 : + o O : i 6 7 v L ( r.V.i.| | 4.B.B.4.{ { ( P L f 6 2 = $ X 5 S t.| ; 2 { V.i.5. .~ | C.S.y.B.R.).t.! G ! ( ! F b U _ >.{ g $     . o * + o = a b b I I c M V ;.f.k.f.-.f.&.f.f.-.;.&.l.z.q.%.V N s =     & q K ] X.A.R.A.t. .r.'.0X#X&XgXR.^.&XdX",
"9X9X9X#X`.`.9XtX9XtXtX9X#X`.V.,.L ! g $ $ 2 F / i d c a i i i h 2 ) d./ i a P / _.s.=.Q 2.[.T.j.vXsX4X~.6XeX6X6X3X6XcXvXHXvXcX6XeXeX2.n c $ O     5 [ { { ! _ <.^.-XtX=X&XdXlXgXdX'.Z.V.E.#X#X^.&X^.`.9X0X'.`.=XdX^.^.R.#X^.0XrX-XA.A.).R.$ 2 ) U F / r.s.2.2.s.>.r.r.| ) | | [ [ ~ ..y.N.X.X.4.<.V.a./ L 1.a._ a p P BXFXPXPXPXJXAXAXGXGXCXZXFXrXR.f   o + . + .     O 6 ! I.rX`.).9XtXuXBXFXkXW.R.XX>X>XXX%XuXBX>X$X%XuXyXW.H.4.g $ # O . O     o o : G } J 0 f x G [ ~ ~ 5.^. .~ R ~ ( ! L F 7 v >.V.i.5.5.{ z $ . = 2 i x s d N V -.f.-.%.q.%.-.&.#.;.f.z.k.-.%.B c 2 .   & & 4 0 H ..S.P.V.Z.`.'.R.^.#XR.,.V.R.&X0X",
"E.`.#X=X#X#X9XtX9XtXtX`.V.i.,.{ ! ( D $   o O + = = = = 1 2 1 1 7 2 6 2 + O : i P a.a i L _.` 1.~.wXwX5XeXT.=.=.f.3.f.k.k.k.k.3X~.e.>.n :   # X   . ~ 4.| ! u.I.P.Z.P.E.'.kXVX0XgXkXdX9X&X9X=X#XI.'.0X0X'.^.=XBXdX#X`.`.=X#X`.R.XXS.F.N...  1 [ i._ I I I U Q r.<.>.<.r.r. . .t.[ T D z x x A G ) / / U c b ' _ / x #XPXGXLXFXPXJXJXJXAXBXNXCXGXFXJXS.:         o O 1 S 4.E.`.).`.=XVXZX0XhXBXgXgX$XXX$X$X$X>XyXN.W.$X$XNXLXGXAXyX*XS.} g 2 i p   .   . @   X x H H T ..[ S 8 6 8 p v D f = $ : R V.9XE.5.i.V.| P =       . ; s r B Q Q -.-.e.k.;.-.q.&.q.g.z.z.%.Q L a ;     X & w +.] A.-XrX=X&XI.i.V.P.P.I.^.{ 4.P.#X",
"E.(.`.#X&X9X9X9X9XtX9XE.i.{ ( P z < < = O O   O = O o o o .         O 1 1 2 2 = a L 7 i i 1.<.' L c s L _ ` B l Q Y %.3.-.%.;.f.U./ I 2   O     O . G | ! ! 1.K.a.P.&X&XI.^.0XrX#XdXVXdX9X=X9X=X0X9X&X'.&X9X&X^.'.9X-X9X-X'.r.[ C.D.N.J 9   5 ( r.r._ I I =.s.s.u.| / ! ! P P ! T [ }  . .X...[ ) / | >._ >.r.>.P ! `.@X`.(.#XBXCXLXLXCXNXVXAXCX,XGXZXX.;         # z t.=XlXgX0X0X=XgXBXZXZXgXE.yX>X$X$X1X+X2X2XH.NXAX$X$XmX>XyXSXNX*X@XrXE.( ~ f : O O X   4 ^ oXW.R.W./.A.6...G 1   # S ~ z = = L K.V.( R ( P O # ; # O     $ + r l d M Q *.*.f.%.V &.k.k.f.-.Y U b 6 $         X 4 J 6.t. .~ R ! G z P 5.i. .t.P.#X#X",
"9X@XE.E.@X=X=X#X9X9X#XE.B.,.L p 6 : 2 o   = O   O O = 6 8 8 6 1 O   O O   . O           1 7 ( P 5 1 ; + = c W a / N B =.3.Q *.e.L / = .       X     f  .{ u.5.P.5. .i.a.r.P.dXBXlXgX0X&XtXkX=XP.^.^.R.^.-X0X&X^.'.dX&X'.Z.a.! G A A 4 4 X   X 8 ,.r.d.u.r.e.e.s._.Z.| ! ) 4.r.,.V.R.R.C.C.F.A.C.V.{ 1.I.a._ I L v B.,.B.(.t.E.rXBXNXNXNXyX>XfXCXGXAXJX,XD # @     2 | (.=X#X).E.R.#XgXVXBXgX#XF.*XVXLXGXNXoXXXoX$XNXAXNXyXXXW.CXBXfXAXCXZXFX9Xp.V.r.T #   f F.-XXXXXXX%XyXBXCXCXNXrXR.4.X.C.%X=XE.>.W W v g g p G X.| A 8 < O     o + 3 l l d d *.l l ;.e.%.V *.Q W p O     X       4 J } T p 1 < 5 5 < 8 P <.B.P.uXuXZ.",
"v ( { 4.( F { B.V.i.( 7 = + <   o @   . .   x T G T ~ J ^ D S f $         . ; p 0 x z f ;     $ .       .     O   = * 2 b n l a = .         : z 5 0 2 D ! i.a.r.<.V.5.p.I.p.P.'.0X9X#X'.'.&X0X0X0X^.Z.Z.&X9XZ.a.&X#XI.r.| ) F 0 4 % X X X     < T | u.u.s.a.s.2.i.^.'.Z.i.I.`.(.#X#X-X#X@XXX@X#XE.U.^.'.V.P g v 6 P.Z.V.).=XrXDXCXVXBXCXAXCXyX$X$XVXVXAXN.J q     x (.rXrXhX(.A.R.A.@XZXGXgX-X-XBXNXCXJXGXgXyXNX,X*X*X>X$X/.XX,X*XrXBXlXdX0X9X&X`.R.{ 8 . ~ F.X.W.A.C.N.C.H.F.S.NXyXyXA 6.X.6.@X#XtXtX9XuXBXuXW.@X$XR.A.N.X.J X   + o . = - = , > e N %.%.*.-.*.U , .   o O o o .   ; 8 f D T x 5 S S p f z S P { G g f ",
"o O + = o   .   o     < : g F {  .| [ B.6.z G ~ [ ~ J x f < 1 # 4 4 < < f T [ ^ [ [ | [ S 1 O #   & & X     . O   o . o * + + o 1 2 i i ; $ 8 ( ~ v = T P | 5.#Xr.A.).P.Z.#XBXDX#X'.&XrX9X#X0XVX9X&X'.I.Z.a.,.,.| <.<.! v p 2 = %     X @ O O O x I 1.a.j.s.>.Q _ _ 1.^.9X&X&X0XR.(.@X#X-XrXBXFXDX_.K.V.I 7 7 v 2 V.i. .p.=XdXdXgXrX$X$XrXyX>X$XNXAXVXBXA.} A   % ~ (.#X-XgXrX-X@XrXCXJXGXVXgXlXZXZXCXJXFXhX-X-X#XN.| y.(.#X).F.=XrXrX=X#X#X8X0X_.8X) z ; f  .y.X.B.C.N.B.W.F.6.N.XXW.8 X././.F.[ `.ZXZXgXNXZXAXNXBX(./.N./...@ f J ] R R [ L 6 = * - d N l r e + - 2 p G  . .T g @ o : 5 p L ! ~ R v 5 < 6 f v 8 ; O . ",
"D g D v v { ,.( ) ) E.lX9XtXP.P.A.Z.A.).A.~ 8 ; X   . . 1 5 z A z H H H ] S.F.t.A.R.(.R.t.! v x % w %       X   @ < = : 2 > 2 2 , 2 a F v p p v G 1   S ~ ) { Z.'.B.'.`.Z.^.R.R.'.'.^.E.&XlX0XR.^.).^.P.r. .<. .! ~ P x 2 = $ O X         . O   1 L Z.{.[.h.h.L.>.1.>.I ! 1.P.E.@X9XgXtX=X=XuXgX`.a.E.^.R i p 6 o 5.A.5.4.'.&XA.R.(.=XrXgXgXgXgXrX>X>X,X$XN.E 1 8 B.@X^.#XdXlXgX#XrXkXBXZXCXVXdXZXZXDXJXCXdX'.).).4.! | ^.-X'.^.F.).'.#X#X].{.8X_.U.K.a i ) 0 T [ 4.A.XXR.B.S./.X.F.} ; H X.X.] 6.A.W.R.F.XX>XrXNXBXfXfXoX*X6.  S } XXuX%XXXI.{ o + = e d B *.h.3.j.Y.h.u.1.{ R S S f = . = 2 1 o           . . .     . ",
",.,.V.<.) P.@XP.P.i.E.B.V.V.P.V.P.R.'.#X'.A. .^ 1   X O 4 f H J J ^ ^ ^ ..B.F.A./.(.).A.i.y.{ J +.q &     X X   5 g i i i 3 i d B h e a L U L F ) v x z  .~ i.t.P.4.p.V.5. .( ) B.^.P.<.4.P.B.) R L F ! R R { L f 7 : $ $ $ + O     $ O   O = $ O = l e.[._.K.a.s.1.r.d.1./ ) u.<.Z.#X9X-X@X@X@X_.a.u.( i 6 <     ~ S.4.) ^.dXdX9XgXkXtX=X&XrXVXgX*XrXyXfXy.H ; g E.#X^.9XtXkX0X=X&X9XdXZXFXDXVXjXlXZXCXCXhX'.Z.>.) ) | i.!.-XdX'.&XdXVXZXjXqXqXK.{.u.n n F p 7 6 [ Z.B.t.A.A.6.A.oXE % 4 A J ^ ] N.R.W.F.F.A.C.B.6.oXoX*XA.A.4 J K } W.XXm.S : D i.'.[.5X5X4X4X5XT.f.3.*.L n n i g g 8 : .     # . $ 5 5 7 g v T S v G ",
"i.V.9XE.i.`.`.i.{ { 5.V.R.B.^.V.Z.V.E.'.I.t.t.E.z @ ; 1 0 S J J ^ ^ ^ ^ ..S.(.(.hX@XP.Z.p.5.4.6.] 0 &       . O D _ I I Y N B Y N d d m L I ' | <.a.r.p R  .A.G F 4.4.{ ) | Z.).5.<.) P P R P v z i 2 g z v G 8 z 6 = o .       = 2 i x G F P _ b i 7 b _ 2.r.e.U.r.2.a.a.1.{ >.R  .B.Z.B.4. . .{ L p i T i.5.R   S 4.4.( Z.{.qXjXkXdX0X8X=X9XrXdX>XgXrXVXW.E # G '.8X'.9XqXtX&X#X'.8XdXdX0XkXFXjXzXZXZXZXjX_.1.F P / | u.^.qXZXtX0XqXzXzXeX5X5X4X5X3.L i = s p 7 = : T R.#X/.C.F.(.x     & 4 4 J ] 6.J.W.W.S.6...] A.A.R.y.t.% +.J } H.S.T 5 6 K.K.1.=.j.[.T.j.3Xf.V V V N d 3 n g p a c p ;     o z 6.5.4.6.4.A.| G S ",
"P.R.#XE.E.tXtXP.V.E.V.E.i.V.P.<.U.I.K.E.`.E.(.^.G @ 1 < 0 A S A ^ ] ^ ] B.,XfX). .S p z z 8 x ~ ] A < @     ; p / >.Q ` *.Y %.%.%.=.h.k.T.L.~._.].a.| { g   < ~ G <.( ! ) T  .p.V.r.) R ) 4.| R S v f f 6 < 4 ; # O     o : S [ { 1.1.a.]._.K.U.`.K._ n 3 * , s s c c c n F n i = : < 5 6 6 8 p = > 7 R V.P.6.{ $ 8 ( t.i.!.a.Z.p.u.5.V._.`.P.t.I.(.@XS.=X*X[ < <.8XqX&X9XqXqXqXtX].].qXqX].8XlXzXDXDXzXlXdXK.I L F D R 5.I.U.a.r.1.a.].wX4X[.4XzX4XL.b , 2 i 2 $ 2 ;     8 ..B.y. .4 X X   X         % +.] X.6.S.S.y.t. .C...  < J ..J 4   @ G / c i I h.j.j.k.k.#.k V -.*.Y Y l W P b F ) P <   = S  .t.C.W.#XA.4.~ ~ ",
"#X#XP.V.P.@X#Xi.p.P.P.E.p.`.^.p.a.U.Z.I.'.9XgX).D   ; 4 z ~ ] ] ^ [ ..y.(.=X).y.[ G D T ! T { B.] D 5 O   = c _ h.j.-.=.-.;.-.-.k.k.T.~.4XwXsXsXwX0X^.R.A.t.A   O     O < 2 5 8 6 x z 7 2 8 g f < 4 4 = O .           = 9 D 6.(.qXqX8X].].8X].U.[.8XwX8X{.]._.U.~.u./ n 3 O o = O .             = 1 L i.V.i.5.4.  $ 6 S I | B B 1._ I I _ { / U P ) ~ S D E 8 < P.].jXqXqXqX8XqXDXjXqXjXzXzXjXzXVXDXDXzXlXkXV.D F v v F | i.| F I U _ L.5X5X5XeXwXcXj.n i s / = L F F G S 8 # O $       %     % % % % &       % 4 A H 4.4.R.~   & & % # X O 8 | I c l ` *.Y =.l.g.V t C V M M Y d r n L b P | ) o 8 ~ t.R.R.B.t.4.5.V.(.",
"#X9XP.K.E.E.E.,.V.{ V.P.E.V.V.I.i.`.U.^.r.! t.i.G   @ ; 8 J J J ~ ~ X./.oXB.~ H [ 4.4.} [ 4.t.5.[ G 2 . o i / 1.j.j.-.-.l.k.T.3XT.3X5XeXeXsXsXzXdXdXdX=XyX@XgXrXt.P z : . # O   .     . O     .   . O   . o   O . O 5 R B.E.`.8XzXsXqXY.2.Y.5X_.[.zXDXzXqXxXjXjXHXKXKXzXwX[.1.c 2 2 2 6 x D D v p 1 a ! [ t.i.R 8 S ) | ) I = O   o * = * + o .   O + O       z U.~.zXzXqXqX].8XwXxXjXxXqXxXzXzXjXDXDXjXlXlXP.D v R { <.V.E.P.r._ L U 2.h.j.~.6X6X4X[.d r b L I u.a.u._ ! I G v z ^ X.X.N.N.H.H.n.o.J A 0 4 &           = z ! p 5     5 5 1 x ! L a l l r d =.3X#.V C k t t t d l a i > $ x ) S   8 T 4.R.(.B.4.[ t.W.=X",
"9XI.^.9X#XP.u.( ,.5.i.i.,.,.i.A.5.V.A.4.[ [ ~ G 8 # $ 5 A E ] ] N.B.(.-X@XB.X.X.N.A.C.6.B.@XXXN.~ ) 6   ! <.,.U.4X5X5X4X4X4X4X4X5XwXqXjXjXtX0X=XrXoXXXXXF.XX<X<X<XyXyX,X$X.XW./.A.g   O   D t.B.`.`.E.A.B.z   o   g / 1._.wX[.h.j.N B l B m U U s.[.zXxX].wX5XwXHXvXvXvXzXHXvX8Xu.L P n / r.Z.V.^.^.r.v x 2 z r.&X^.I.I.I.a.| B l r 3 > : = = * o O = # X     ~ !.j.5X5X}.~.T.wXwXjXwX5XwXwXqXzXZXlXdXzXDXZX&XK.| <.K.'.E.I.I.Z.1.u.r.s.j.k.j.}.3Xk.6XB l m L 2.K.K.K.K.K.j.s.r.x v ] F.<XNX<X XD.J.o.O.] J A ] A 0 5 1 1 F <.' v f 1 2 7 1 ) / 7 i i : 2 g c *.k.%.t l d e l d _ n i = 4 < z G < 8 T ~ 4.R.R.).'.@XE.B.",
"K.K.p.,._ / U L | ) (  .i.p.<.) G f 8 g g 6 8 S } ~ 9 9 J y.N.y.B.).-X/...H ^ 6.A.S.S.F.W.H.6.} ~ ~ . f ,.i.V.V.a.K._.8XqXqXwX8X8XjXDXDXVXtX#X(.F.A.G./..X+X;XOX+X+X.XG.H.H.W.XXW.y.x O x C.).R.B.5.P.`.).R.$   < { u.1.e.*.l e N , r r l d r , Y 4XwX4Xh.wXY.[.sXsXvXsXeXsXzXzX5XsXY.I I U.U.^.&X#X).|   F &XxX'.^.I.!.!.L.u.` B m l l a p p i 2 = = + $ # X 6.[.z.3X}.~.~.~.eXzXeX8XqXxX8X8XlXZXzXdXqXdXdXqX8X].!.Z.U.^.<./ <._ >.s.L.~.f.f.z.f.z.~.Q l 3 =.u._.E.U._.~.~.Y.a.I G ^ N.1XSXMX;X;XH.o.O.o.o.J J X.X.y.r.r.p.j.>.P L v 2 1 i ) I 2 2 2 2 > 2 b W Q Y *.*.l i a c i 2 6 = : : A G @ f  .A.(.=X(.R.P.(.@X).",
"u.P.5.I ! ! P R { ) R R R T L F R P P ( 5.E.%X%XS.5.< f } 6.X.B.R.F.C.y.t.S.E.(.F.$X$XR.W.>X/.X.B.~ . T ( (  .( P.K.K.K.Q.U.[.].U.].tXlXlX9XE.B.R.F.A.H.G..X+X;X:X:X;X+XG.H.G.W.A.XX..  ~ B.t.<.4./ |  .5.A.v . f r.>.L n r d d e - d r d d d d - ` L.~.wX5Xh.T.4X4X5XsXvXzXsXwXsXjXjXY./ U._._.tXzX) + u.#X&XqX_.!.U._.{.[.L.d.e.=.` I I U L b b i 7 : : #   6.!.s.e.2.2.3.e.L.4XqXzX8X].xXzXqXzXzXdX{.U.K.U._.0XdXU.p._.K.2.a.s.Y.4X6X~.j.f.f.l.z.k.=.N e s.s.[.[.[.].5X]._.!.p.| ^ ..G.:X:X+X|.H.N.n.N.N.N.N.G.G.@X&X^.!.!.a.1.1.| 2 = n / b = > : 2 = : b d *.e d r e d a e i 2 > + = : g S o f  .R.A.t.C.R.E.@X=X-X",
"x b v c I ( R R F R ( R L P ) 4.B.V.P.R.5.~ ~ 5.A.t.5 T y.6.X.B.B.F.A.t.t.S.E.E.W.W./.XX%X%XW.H.[ f p C.@X(.E.(.E.E._._._._.U.U.U.P.P.E.#X=X@X/.R.W.S.N.H.H.H.|.:X<X<X<XOXG.S.C.A.oX[ . t.y.|  . .<.i.4.B.4.t.  < 1.1.I b e d N d a l d d m l d e B Q j.s.T.*.e.~.5X5X5X5Xj.h.~.e.wX8XzX_ o a.].i.: $ p.qX0X].dX`.^.!.`.5X5X_.L.j.s.r.>._ ) ! P N c b s 2 #    .L.s.2.=.=.e.h.Y.u.u._.jX8X_.8XjXDXDXZXxX`.U.U._._.wXU.a.`.{._.8XsXsX6Xk.q.k.3Xk.3Xk.z.e.B l r.s.[.[.[.4X5X5X'.^.^.B.X.X.J.OX1X+X<XXXD.X.N.D.N.X.oXoX-X-X'._.[.5XI.I.1.3 = F / s = = > 2 : > g a W - r l e 2 2 * > = 2 i i i D [ 5 g A ~ y.B.F.t.R.(.XXE.",
"g i v ) ,.5.p.p.5.r.u.i.i.5.,.>.p.>.( ,.V.P.4.T 4.5.f G  .t.B.t.i.R.^.t.~ ~ | 4.C.A.W.$X=XXXA.B.t.G 4 G } 5.t.(.`.@X#X9X9XtXtXqXtX#XE.V.i.B.C.S.S.W.W.G..XG.D.H.H.2X+XOX.XH.B.N.S.A.z 8 B.4.t.p.{ 5.V.t.t. .V..   / i.=.L r e r r e e 2 r d - = , = Q B e.=.j.s.e.j.j.j.e.Q m I U Y.zXzX8X2 . c . + R 8X'.&XqX&X].`._.].{.{._.!.j.s.r.1.7.>.*.` I B I m x 2   T p.e._ Q U U Y L ` W 5.qXqX_.].dXzXzXzXxX8X5X8XwX~.U._.[._.!.[.5X~.k.l.&.;.l.c.w.3Xk.k.f.B a 2.s.~.~.~.4X8X8X#X`.).F.C.B.F.2X/./.XXW.N.] ] X.C.C.F.(.-XdXdX{.[.5X5X[.>.2 2 L _ i + = 2 = > 2 > a *.d d Y e = d d - 2 b 7._ N L ,.+ G }  . .B.@XW.C.F.F.C.",
") P | i.{ ( 1.r.( / / { 5.i.r.5.r.E.E.r.i.`.#XA.6. .z f ~ } N.t.r. .~ G G P T G E X.6.X.6.A.F.N.B.[ . g T 4.6.B.4. .[ [ { ,.i.B.I.'.9X#XR.C.C.S.S.F.W./.XX.XG.G.2X.XOX+X.XF.H.A.C.N.5 G  . .5.<.P.i.B.t. .(.S.z   g _ U h e e d e h d h h l l *.B r Q k.-.*.=.e.~.s.3.=.2.s.e.j.5XwXU.U.5XK.1 . 2 i Z.qXjX!.8X{.].'.`.'.'.'.!.L.s.e.1.7.1.1.7.=.h.-.Q B m p O 5 u.a.r.2.=.` *.Y 3.2.h.8XzXzXxX5XzXsXwX4X4X5XwXwX[.~.wXsX_.~.wX~.z.w.&.&.&.:.q.&.q.k.f.j.l + _ s.~.~.~.5XwX0X9X#X@X(.A.t. .[ ^ ^ [ B.F.N.N.S.XX-XA.@X0XdXlXxX[.[.]._.=.r h I >.a + * > * > > = a c - - N n c / N L N L 5.7./ L / < A E X.6.6.B.S.F.XX$X%X",
"V.V.P.A.5.| ,.5.U.I.K.V.a.a.K.I.9XU.a.K.U.I.E.#XA.r.v < [ (  .4.F v f 8 5 2 7 f z 6 6 z G T  .A.W.E   # 8 G ~ 4.~ ~ ~ ~ ~ ! T T R 5.E.9XrX0X=X=X,X-X,XyX,X,XyX,XW.XX$X*XoX/.W.F.A...< | 4.4.4.r.r.,.<.B.t.@X5.G O i >.U 3 e , - - 2 e e - e l j.j.t B ~.~.-.=.3Xj.h.sX5X5XvXsXvXvX4XzX8XK.jXP o s u.U.&X'.zX8X8X[._._._._.!.L.K.u.3.2.>.>.*.` Q j.e.*.Q B m #   I 2.e.h.j.L.4X[.4X~.4XsXvX5X[.wXeXeXeXwXwXwXwXwX~.4XsXwX~.sXsXk.k.;.k u u u k #.-.k.f.f.a . b s.~.~.~.5XqXtX9X=X>X/.y.( F x 7 3 T 4.4. .S.).S.y.A.-X-X&XdXxX5X[.s.e.>.3 2 I *.c * = > = = > 2 a 2 = * - , N 7.7.` Y N Y W ` Q >.$ 8 [ N.X.]  .W.XX*X>X$X",
"5.E.E.P.`.#XE.E.E._.`.`.`._.^.E.1.) I ( r.K.E.E.<.t.z   G T S x p 7 7 f g 8 f S v S S S G ~ 4.6.6.$ #   1 5 4 S [ ~ E G G T T ~  .[ ( { 5.p.t.4.C.B.R.XXH.S.N.X.] X.H.XXoX/.F.A.[ 8 . | t.t.<.R.i.Z.t.(.#XE.A.} < i >.L , d e e d i 2 r r s , Y j.B r 4X3Xz.M =.6Xe.T.-.e.sXeXzXzXHXvXjX8Xa.,.* I a.`.Y.wX{.!.K.!.U.U.U.!.L.Y.K.s.1.>.` / W B M B *.%.=.I B 2   L 2.e.s.h.j.3X~.3XvXvX3Xk.k.j.j.e.j.}.5X5X5X5X5X5X[.5X5X5X5X4Xk.:.:.@.k C C @.;.g.k.k.e.r + 3 2.j.k.~.].wX0X9X=X>XR.| G v m s 3 2 b g 5 S ~ ~ | ! i.a.p.'.{.Y.e.Q ` 2.= * I / c > > > 2 = > g h e i b i h *.*.W W 3.7.Y , h N `   6  .y.F.yX=XXXR.W.A.6.",
"[ R R ) ,.p.V.V.) u.a.<.| 1.1._ _ / P P / | >.,._  .g   5 S F g x p x x i g L P g v P R R P F D f # O   . # ; 8 4 8 G E S S G G z S ~ } | | ~ E ~ ^ E J J J ^ ] A E m.N.W.W./.C.f z O ( 4.t.t.V.p.p.(.9X-X(.r.G : x >.=.N N l l h h d , e l N 3.*.f.V e.-.M M Q e.%.3.j.e.h.wXsXsXsXDXqX].U.b > r.L.8XU.s.U.L._ u.2.u._.8X{._.U.j.1.*.>.` L B Y Q Q Q B U x O   : e.s.}.3X6XcXsXvX6Xj.&.&.e.e.e.-.=.-.j.[.4X[.[.eXsXsX6X5X6X~.%.#.C k y @.#.;.;.f.;.3.-.= o = _ e.j.}.wXxX].).uXtXC.,.) n l s 3 l I L a x v S G ) ) ,._ U ' >.Q 2.` *.- - h d c 2 i i 2 > > e a e e I N N I e e a Y W W N > , /   5 E N.B.@XB.N.t.6.N.A.",
",.{ ( R R T L F ! { >._ ) _ ! b P P I / _ _ _ ) P >.D   $ 2 p p b n n n n L ( { / P D g p 6 : = $ . o . . O # 8 5 4 9 0 8 f z z T [ T ~ ~ T [ ^  .E S A G ^ ^ E J E E N.C.XXA.F.B.G + G B.'.R.'.V.Z.#XuX(.r.~ z . i >.1.` B N d d d n N d l Q =.3Xk.V r l r r t M t l ` e.j.~.~.wXsX5XL.]._ + b s._.Y.e.j.[._.1.L B Q r.U.U.K.j.a.1.s._ c ` h.*.N M Y B n 1   o . =.j.~.z.e.l.z.q.%.Z V V V Z Q k.-.Q Q -.e.f.k.4X~.~.~.f.-.=.V #.k #.@.#.C #.;.%.%.N d s 1   x r.e.~.{._.8XdX^.B.( R ' ! B l - l U n 2 2 p v F ! ,.1.| _ >.=.=.a.1.1.2 , g g d 2 i h h 6 e i h 2 2 c d c U d c n / L h d d d W o 8  . .E G ] t.4.4.6.C.",
"[ { { { ( ! R R { ( ! ! _ >.>._ / Q P L U / >.r.P / g   O 1 6 7 a c c b L P U I / R L g 6 : = = o o . o o . = < < 1 : 4 g A g f G E f A A 0 J S f 0 0 g S G E ] E H J } 6.X.6.t.C.8   2 i.'.P._.r.E.=X).t.4.T <   i 1.1.2.B B N d d B e.=.Y e.h.3.e.*.r M M t t M l N *.T.5X5XsX].sXqXa.i.L = / Y.[.=._ a.L.j.2.=.*.2.a.L.K.s.r.a.a.p._ L B Y Q N l B Y p $   @ . Q j.j.k.f.q.q.&.q.&.;.#.V Z Z ;.q.j.z.k.e.f.k.z.j.k.j.-.-.q.-.#.C w.:.V t C ;.%.h.3.1.!.<.+ X ! | d.L.8X0X_.Z.) I / ` B a r , l B l 2 r a c b P <.<.>.a.a.s.K.K.u._ = = h i - 2 i d b b c h e > , 2 2 e g n n b g h > h N i v = 5 S P 4.<.t.[ { 5.P.R.",
"E ] } { ( R R / P b c b L U I ' _ _ _ ` I I / _ a L x O   . $ 2 2 2 > 1 g b L R R _ ) D < o . o o o . . o   o   . .     @ # O O < 9 : 9 9 < 0 4 4 0 A G E ^ ^ ^ ] E  .} N.X.C.A.[ : . 2 r.a.r.p.r.Z.^.A.t.r.T # O 7 a.1.s.Y N B N d N e.=.l Y e.e.f.-.l C V B B l l N Y ` e.L.5XU.wXjXK._ n 2 >.a.s.B ` e.e.s.e.r.2.2.r.u.r.2.>._ / I _ _ I Q e.*.B Q B 2 ; . .   l s.=.e.f.f.-.#.;.#.Z C V V V %.&.f.z.5X7X3X7Xk.l.l.q.-.f.z.l.g.q.l.f.f.-.%.%.T.4X5X]._.I.S   = ' <.! | r._ L U / _ ` n 3 , e l V N d b L B b I _ | >.u.a.s.K.E.5.P = 2 I L i 2 i i g n c d r , 2 - = - 2 s i h 2 2 = h D > i . v { R G G { G F ( [ T ",
"D G E T F v v v n v F L b c a l r i a a s a n B i i : = : 2 +   o = = 3 s 2 * + o * > = o . . + - 2 i L { ,.i.,.S z 1 . o     @ . X @ # # # # #     $ 8 G ~ ~ G E [ E [ E  .] ~ :     2 i.i.Z.V.I.i.Z.(.A.} z < . = K.a.Y.=.N N e.-.3.-.Y r y V e.3.B N B Q V N V B =.=.B ` L.[.s.K._.a._ > o 1.e.` Y e.e.` j.Y.s.r.7._ / / / / _ b U / P 1.!.s.e.` ' l # # &   O 2 a.1.I B %.V #.C k M M M M V %.V V &.f.k.z.3Xl.q.-.;.%.q.f.-.f.~.~.f.;.Y Y ~.zXqXjX&XZ.S. .#   O v I m b ` ` B I Q ` Q l e e N V B M Y ` Q U _ I / _ / _ >.>.p.R 2 o = F c 2 p 2 > , e i i r 2 i > - > - i 2 : < p ; 6 G 4 # = v z F R p.p.P { ! D x ",
". o o o o . . .   o + O .     . + + o o + = 2 s L >.p.I.p.r.>.<.L b s e i i h a 2 i h c L R { 7.>.a.K.Q.K.p.u.,.p.r.( z 4 @     .         . . $ @ O O O @ O     O @     . : $   + . . 2 u.K._.I.E.I.`.@Xi.T f 1 . . >.u.s.3.Y V 3.k.5Xf.=.B , d r d t Q V V N N Q V -.-.B *.L.L.j.=.a.r.n o . L e.e.e.~.e.Y e.s.h.s.1./ I I I P m l n L / s.L.e.Q Q Q 3   . X X     D _ b l l l C M k k M M M M V V V %.;.;.&.q.q.V V ;.&.;.;.%.e.e.V l t e c eXqXqXtX#X^.t.~ 1 . . 1 v P U B m Y *.=.=.Q l r l V %.N l V =.` Q / b L / I / =._ R f O . $ p i 2 p i e i a a r e 2 h 2 2 2 2 p 2 $ = 9 4 4 5 @ . = g D { { p.r.<.P g i b ",
". . . o = : < 2 ! ) / U I _ r.2._ ` ` _ *.=._ ` ' 1.u.a._ _ _ u.u.e.a.j.h.K.U.U.Y.K.h.h.K.K.K.a.U.U.Y.7./ _ _ _ p.p.V.r.R g < $ # # . . @ # 9 0 f x f 8 < # O O .   @   ; ; f f S v v v i.`.U.K.E.#X0XE.,.! f O o   n >._ *.%.B r Y f.h.-.B t t r t V Y M l M Q %.*.-.*.B =.L.T.~.1.s.L + o + : _ s.L.s.Q m I Q Q ` / U L I I P n b m b I b s r l l l $   .   & X . 6 L W ` Y V t M M d M V Y V %.V V V %.#.#.#.%.C V &.;.V V V M m r e - - i #XtX#XB.~ z @ X     9 1 . i =.Q d Y =.q.=.Q l d Y %.%.V M Q =.` U L n b Q ` Q I I : #   $ O = : 7 i s c c l l r 3 3 i 2 2 2 2 i < : O % : %     . < a P I v s 6 i L n D I ",
". . @ 7 R i.E.`.Z.I.Z.e.s._.~.j.e.2.2.e.j.~.].5X{.jXqXU.c 7 L j.L.T.wXsX4X~.T.s.=.1.Y._.[._._._.5Xj.*.d d I _ 1.>.>.i.V.1.{ P g < 8 : 8 z z { (  .{ ) [ [ R v 8 8 f 8 8 O + 2 L i g R F ,.&XI.`.'.'.'.P.4.~ f .   . 2 1.` Y ` e , r V f.%.d B V V l =.N B V B %.*.e.=.B n Q s.].T._.2.* . . . + i 2.s.I l b N I Q *.*.Q L U B c n 7 x v 7 7 s , 3 , = . @ %   X & 8 4 = o = o o - - - * o o + - y l Q %.Q M C V C M V Q M t y = + o . 3 s c = 7 + . O O .   S ^ (.E.r.p . = l N l B Q =.e.` B Y =.-.Q Y =.1./ b F L D U / n 1 2 D H A D :     > x s i 2 3 3 2 7 2 i 2 > = : 1 ; 6 < # #     X .   + x 1 2 7 v P i.Z.5.F ",
": : 5 z } P.=XtX&X{.!.s.e.j.!.j.j.Y.s.e.5XKXKXzXzXKXHXs.s l e.s.*.%.-.6X5X6Xk.M , t e N 3.e.j.h.k.j.%.r d B Q Q ` u.j.1._ 7.1.>.<.i b ( / 1.a.p.a.a.i.1.*._ =.1.>.=.2./ I U d l b n W c 5.#X'.0X9X!.Z.| d.! 1     . . P / / 1.3.d d N Q Q B B Y %.%.%.Q B M M Y ` U.U._ / I r.[.L._ i 1 2 = . . o : a L I P P I B b Q ` B B B l s l c c a a c b 2 = O         O < = + + O     o * 2 2 1 : * + . . o * - , - * + + + o o o o o o       : a v v S P p v 7 2 O F ^.A.4.[ L     = = s 3 3 s m b a , 2 i 2 x z 7 8 6 5 8 4 O   . < 0 0 X . % @ $ #   O ; . O ; %   $ # < =   : ; # O @       # 4 q 8     O < 6 < < 7 f f z v ",
": 8 D E ] ,.B.E.0X].Y.s.d.s.j.~._ =.r.xXvXvXDXDXqXvXHXvXs.B Q *.k.k.l.-.-.-.-.V t l t e - e U 3.%.-.3.=.Y N B *.~.].[.j.a.h.a.7.a + a u.7.I _ s.r.s.h.h.h.s.s.e.=.e.j.=.` Q l N =._ a i 1.=X%XR._.!.d.d.p.>.1 = O + + / 1.u.V.>.l l V *.%.B M V Q -.-.%.B B V Q 7._ U.^._ b a.5Xh.a * i _ _ W v : = = 2 n L b c l m B N N b n n l i 3 i c c 2 * + .     : g T ~ | ,.| ~ R ! P D G D 8 ; < =   o 2 2 2 > = = , 3 r i a b U ` =.2.c O . $ 7 S S P } 5.) v g O ; I P.) W <.c + 3 s.h.j.Y.r.r.2.2.' +         . $   % % q A J A A A A A A H D z f f f < # #       X ; J D ; O ; O ; % 1 6 z G ~ }  .X.9   . # O @ < 8 0 f g ",
"o # : ; o = n { _ / ` =.=.Q U Q r.2.wXxX5X[._.[.U.L.U.sXvXsXj.l M V %.V %.N V -.-.Q B t y d V *.%.=.-.*.B Q 2.e.2.s.s.1.1.s.h.a.p.n a 1.K.a.h.s.u.u.s.h.Y.Y.j.j.s.j.L._ -.T.e.j.j.K.i > { &XrXA.0X!.Z.u.I.F = = r - o a ` h.Y.*.Y ` =.Y t e t V Y -.-.Q M M Q =./ _ p.1.*.L I *.l + . o , L / c + o . o + = > 3 l b b m m 7 3 L l c a r 3 = * + o : v <.E.9XuX0X&X0XtX=X&X&X@XE.E.E.R.A.`.i.i 6 _ 1.K.K.a.s.a.Y.u.s.h.j.j.L.L.Y.1.= $ 1 x { [ t.^.(.p.5.v p ! <.I ) L L L n s I h.!.L.~.s.j.i.a.v     ; $ $ 5 f 0 H ] 6.X.] J J K X.X.} X.~ A D G D f 5 q 4 % J S.@XA.T   f G y.C.X.T A z D T ^ N.T <     . .   # # ; ; ",
"R R R R R v > . + O + = , 3 r l r 3 xX!.a.j.>./ P u.U.].5XsXj.t y y l t N t t e.*.l d r e d e , - d *.3.=.=.Q l B I Q Q >.s.Y.K.K.>.L _ 7.7.h.h.r.e.s.Y.T.T.h.e.s.e.*.a Q ~.j.[.5XwXI * F t.W.5.-Xd.d.>.` s 2 l b l r N Y *.*.d e r r r M Y V M t t M V M M V *.I _ 1.c 3 , , = d Y 2.e.3.s.3.L D g 2 + . o = 3 = , 3 i b L v F c a 3 = + + = 2 a U r.E.@XuXVXGXlXdXkXZXZXlXlXVXlXkXgXgXVX=X[ 6 K._.].].~.L.~.~.~.~.[.[.~.~.L.j.K.: 2 p D 5.<.R.dX@XR.I.R b ^.&XU.u./ I Q I d 3 Q 2.~.].j.L.U.a.1 O ; < 9 G E ^ N.H.W.N.o.] ] O.o.D.N.X.N.4.G S G ~ G A J 0 X ] B. .t.[   T t.C.$XE.y.[ D f 6 < 0 E G 1   O @           ",
"B.i.i.p.V.p.,._ I I b a 7 i r 2 =   B >./ >.>.u.u.L.].wX~.e.B * y y d M t M t M %.M V M M M t y y , t N d e l N l l c b ` u.h.s.>.{ I 7.s.1.h.U.L.j.h.h.Y.T.T.L.j.s.=.a N e.e.s.s.a.>.o v t.%X(.^.I.d.p.i 2.e.L.e.h.h.*.N N Y N r B *.-.-.e.k.3Xk.k.3X4X~.f.-.=.s.3.L 3 U Y B h.[.5X5X4XeXeXwXqXiX].U.j.r.I 3 . O = 7 2 1 i s > 3 - * o + : c I p.a.p.5.5.A.9XCXlXdXdXlXlXkXBXCXDXFXBXCXBXgX(.: _.~.~.[.[.~._.~.~.}.4X5X5X5X4X}.!.7 p p g ~ [ A.rXrX#X^.B.a | U.[.Q Y 2.-.e.j.e.Q 2.cX4X[.Y.]./ 2 x G x T t.B./.oXXXW.N.N.N.X.o.o.6.6.X. . .E S f f H J A 0 % ] y.4.N.G 1 4.B.5.-X@XF.y.~ G D D 4 z E G 8 # # 4 @ @ O O ",
"V.P.^._.E.P.P.I.V.U.U.a.u.u.1._ B l U HXqXqXqX]._.qXvXzXL.*.` B e e t N t M t y M t t t t N V Q %.V B B N m Y ` B U U B n d c b >._ a i / u.u.1.2.>.*.*.=.3.e.e.e.e.=.l , m =.e.s.r.K.1 D t.R.A.5.u.1.N o I e.=.3.f.~.k.l.-.;.M ~.j.j.j.j.e.f.T.3X7X7X3X4X5X3XT.*.l j.eXeXvXcX6X6XvXcXeXvXvXsXvXzX8X_.].wX5Xh.=.+   O = O $ < 1 o * - 3 i L 1.U.^.E.E.`.@X#X#X'.9X0X0X#X&XtXgXdX#XtXgXJXCXFXBX= s.e.s.j.L.!.!.j.4X4X5X5X5X5X5X5X!.b i 7 p P t.#XgX=XrX0X#XF r.L.j.Q *.e.f.~.5Xs.e.` =.[.[._.1.v D |  .| B.C.N.*X$XW.H.H.D.N.n.N.] ] X...^ [ | ~ [ } ~ J g 4   0 6.E.X.% 8 t.B.S.E.S.N.B.S.N.[ G G A G 4.X.S 9 8 5 4 4 < ",
"a.5.,.u.U._.Z.1.U.P.V.u.1.<.,.>.` b I xXjXjXzX].[.[.L.~.5XsX5X3.N l d l e , t d V %.V %.&.q.g.k.e.-.Y l l m N B a n L U L L I _ F / s . + e a I _ =.7.2.2.=.=.=.=.e.2.I e l h.~.=.2.K.n i { [ [ R F / 2 s B =.Q e.%.-.-.g.l.w.V ~.5XsX5Xj.3.f.k.l.k.k.f.f.f.f.e.V *.5X~.T.T.T.6X~.sXcX6X5XeXeX5X5XwXwX5X].~.L.h.d.i     $ $ o   - - , s I r.U._._.E.E.`.#X@XR.V.P.^.'.`.&XdXkXgXtXgXrXZXZXLXFXv L.j.s.e.=.e.s.j.z.z.k.z.z.~.~.~.L.) 7 7 z R (.BXZX&XrXgX&Xr.I.!.Q Q =.j.cX3Xk.k.3X*.- *.K.Q.N L L R.-X(.$X@XB.[ F.H.S.C.X.o.o.n.X.] } X.X.4.t.t.T  .G g f 4   0 H ..S < ~ (.E.(.(.t.[ [ t.S.C.t...E E 4.B.4.G g z g f 0 ",
"_ <.a.I.E.E.E.E.,.,.5.V.a.,.[ _ _ - >.!.zX].a.>.2.e.s.~.5XwX4X=., B %.N l r B M M %.%.&.&.#.;.&.f.f.-.*.B r s ` _ B l N ` ` N h b _ >.b d 2 2 1.2.` B i 3 r B ` B I ` *.a d e.e.*.s.Q.P . < O o = o 2 a u.e.h.[.f.-.f.-.q.;.;.V ~.4XT.=.%.f.k.3.;.-.l.~.j.-.%.%.%.Y 3.*.T.3X-.-.3Xl.k.3X3X4XeX5X[.5X5X[.!.L.~.5X_.p.s     # ; : = 2 l n b I u._._.E.I.A.V.B.B.p.p.a.I.9XkXlXZXGXLXDXkXgXgXCX=Xx s.j.~.}.~.!.~.}.z.j.h.e.e.e.q.e.U.r.7 7 v P (.=XZXCX9X#X#Xa.! _ r e.k.q.5Xe.Q f.k.e.d * *.U d L V.R.P.#X(.t.6.[ X.6.6.X.X.X.] K X.] J ^ 4.4. . .E ~ E E 0 5 4 4 ] z 5 G  .R.C. .A./.(.R.t.5.t.S.X.[ ~ } 6.6.X...G G S A "
};
