/* XPM */
static char *_a7c639445554a03cef3863f93484a0dDLbQQUNdnIqq4hb3[] = {
/* columns rows colors chars-per-pixel */
"275 183 250 2 ",
"   c black",
".  c #010101",
"X  c #020202",
"o  c gray1",
"O  c #040404",
"+  c gray2",
"@  c #060606",
"#  c #070707",
"$  c gray3",
"%  c #090909",
"&  c gray4",
"*  c #0B0B0B",
"=  c #0C0C0C",
"-  c gray5",
";  c #0E0E0E",
":  c gray6",
">  c #101010",
",  c #111111",
"<  c gray7",
"1  c #131313",
"2  c gray8",
"3  c #151515",
"4  c #161616",
"5  c gray9",
"6  c #181818",
"7  c #191919",
"8  c gray10",
"9  c #1B1B1B",
"0  c gray11",
"q  c #1D1D1D",
"w  c #1E1E1E",
"e  c gray12",
"r  c #202020",
"t  c gray13",
"y  c #222222",
"u  c #232323",
"i  c gray14",
"p  c #252525",
"a  c gray15",
"s  c #272727",
"d  c #282828",
"f  c gray16",
"g  c #2A2A2A",
"h  c gray17",
"j  c #2C2C2C",
"k  c #2D2D2D",
"l  c gray18",
"z  c #2F2F2F",
"x  c gray19",
"c  c #313131",
"v  c #323232",
"b  c gray20",
"n  c #343434",
"m  c #353535",
"M  c gray21",
"N  c #373737",
"B  c gray22",
"V  c #393939",
"C  c #3A3A3A",
"Z  c gray23",
"A  c #3C3C3C",
"S  c gray24",
"D  c #3E3E3E",
"F  c #3F3F3F",
"G  c gray25",
"H  c #414141",
"J  c gray26",
"K  c #434343",
"L  c #444444",
"P  c gray27",
"I  c #464646",
"U  c gray28",
"Y  c #484848",
"T  c #494949",
"R  c gray29",
"E  c #4B4B4B",
"W  c #4C4C4C",
"Q  c gray30",
"!  c #4E4E4E",
"~  c gray31",
"^  c #505050",
"/  c #515151",
"(  c gray32",
")  c #535353",
"_  c gray33",
"`  c #555555",
"'  c #565656",
"]  c gray34",
"[  c #585858",
"{  c gray35",
"}  c #5A5A5A",
"|  c #5B5B5B",
" . c gray36",
".. c #5D5D5D",
"X. c gray37",
"o. c #5F5F5F",
"O. c #606060",
"+. c gray38",
"@. c #626262",
"#. c gray39",
"$. c #646464",
"%. c #656565",
"&. c gray40",
"*. c #676767",
"=. c #686868",
"-. c DimGray",
";. c #6A6A6A",
":. c gray42",
">. c #6C6C6C",
",. c #6D6D6D",
"<. c gray43",
"1. c #6F6F6F",
"2. c gray44",
"3. c #717171",
"4. c #727272",
"5. c gray45",
"6. c #747474",
"7. c gray46",
"8. c #767676",
"9. c #777777",
"0. c gray47",
"q. c #797979",
"w. c gray48",
"e. c #7B7B7B",
"r. c #7C7C7C",
"t. c gray49",
"y. c #7E7E7E",
"u. c gray50",
"i. c #808080",
"p. c #818181",
"a. c gray51",
"s. c #838383",
"d. c #848484",
"f. c gray52",
"g. c #868686",
"h. c gray53",
"j. c #888888",
"k. c #898989",
"l. c gray54",
"z. c #8B8B8B",
"x. c gray55",
"c. c #8D8D8D",
"v. c #8E8E8E",
"b. c gray56",
"n. c #909090",
"m. c gray57",
"M. c #929292",
"N. c #939393",
"B. c gray58",
"V. c #959595",
"C. c gray59",
"Z. c #979797",
"A. c #989898",
"S. c gray60",
"D. c #9A9A9A",
"F. c #9B9B9B",
"G. c gray61",
"H. c #9D9D9D",
"J. c gray62",
"K. c #9F9F9F",
"L. c #A0A0A0",
"P. c gray63",
"I. c #A2A2A2",
"U. c gray64",
"Y. c #A4A4A4",
"T. c #A5A5A5",
"R. c gray65",
"E. c #A7A7A7",
"W. c gray66",
"Q. c #A9A9A9",
"!. c #AAAAAA",
"~. c gray67",
"^. c #ACACAC",
"/. c gray68",
"(. c #AEAEAE",
"). c #AFAFAF",
"_. c gray69",
"`. c #B1B1B1",
"'. c #B2B2B2",
"]. c gray70",
"[. c #B4B4B4",
"{. c gray71",
"}. c #B6B6B6",
"|. c #B7B7B7",
" X c gray72",
".X c #B9B9B9",
"XX c gray73",
"oX c #BBBBBB",
"OX c #BCBCBC",
"+X c gray74",
"@X c gray",
"#X c gray75",
"$X c #C0C0C0",
"%X c #C1C1C1",
"&X c gray76",
"*X c #C3C3C3",
"=X c gray77",
"-X c #C5C5C5",
";X c #C6C6C6",
":X c gray78",
">X c #C8C8C8",
",X c gray79",
"<X c #CACACA",
"1X c #CBCBCB",
"2X c gray80",
"3X c #CDCDCD",
"4X c #CECECE",
"5X c gray81",
"6X c #D0D0D0",
"7X c gray82",
"8X c #D2D2D2",
"9X c LightGray",
"0X c gray83",
"qX c #D5D5D5",
"wX c gray84",
"eX c #D7D7D7",
"rX c #D8D8D8",
"tX c gray85",
"yX c #DADADA",
"uX c gray86",
"iX c gainsboro",
"pX c #DDDDDD",
"aX c gray87",
"sX c #DFDFDF",
"dX c gray88",
"fX c #E1E1E1",
"gX c #E2E2E2",
"hX c gray89",
"jX c #E4E4E4",
"kX c gray90",
"lX c #E6E6E6",
"zX c #E7E7E7",
"xX c gray91",
"cX c #E9E9E9",
"vX c #EAEAEA",
"bX c gray92",
"nX c #ECECEC",
"mX c gray93",
"MX c #EFEFEF",
"NX c gray94",
"BX c #F1F1F1",
"VX c gray95",
"CX c #F3F3F3",
"ZX c #F4F4F4",
"AX c gray96",
"SX c gray97",
"DX c gray98",
"FX c #FDFDFD",
"GX c #FEFEFE",
"HX c white",
/* pixels */
"W q.u.] ] :.s.M.M.Z.d.Z.x.{.^.] M.L.#XM.d.x.%.z.D.L.#XD.j : ( x.Z.D.x.s.M.d.J.d.[ s.J.D.M.:.s.8.E.M.%.D.`.d.x.Z.=XL.~.oX{.~.{.O.r Y [ O.] e 3 r  .z.s.^.L.[ m ( r h e e h i 3 3 e e i j i r i i h 3 e 9 > : r  .[ E.E.#XM.W W O.x.u.M.^.D.( W j r V Y j . * . : 3 <.D.<.S r m  .( ( j * 5.D.5.u.S j x %.x.D.8.D.s.<.%.q.M.M.d.q.H O.s.u.Y W  .O.S h I ( h r i 3 3 @ @ @ 3 @ 3 > @ . e * m . : . r x W {.E.M.z. .( O.O.J.x.[ `.z.d.L.J.x.x.d.x.{.oXL.u.s.d.Z.s.5.u.s.Z.Z.:.q.^.s.Y u.~.D.9 @ @ r @ r S I m  .8.8.s.u.d.5.s.5.q.5.O.q.O.Y :.x.s.:.M.s.d.:.I Y S j 3 9 e ",
"5.E.M.:.q.%.%.E.u.x.E.{.=XiX~.j V <.s.d.Z.E.^.^.~.~.iXD.e e 8.M.q.s.s.~.L.{.oXZ.[ z.M.M.%.z.q.8.8.5.<.d.5.:.Z.x.J.{.<X^.z.x.J.W j e h [ q.9 . * 3 W O.m . . * . . . @ : > > 3 e > > > 3 > : * . . * . . i [ [ %.W D.hX2X<X#X~.Z.5.d.( ( %.O.m j I W ( ] 5.h e .  .L.M.%.d.M.%.q.x.O.S h S %.] x S Y 8.W x.#XM. .] 5.8.:.q.M.q.H [ H V V i h x h S V 3 . > > . . @ . : V r @ @ . 3 m x Y 8.[ 9 . r H I x.8.<.D.M.D.d.5.s.J.s.I [ d.s.s.x.D.J.J.D.:. .x.<.Z.5.5.O.O.u.5.O.(  .q.5.[ D.s.:.x h W s.> @ 9 e j m j Y O.%.<.[ 8.u.q.] :.u.:.( ]  . .O. .I H m i 9 : * * : > ",
"u.5.q.E.`.d.q.`.^.J.L.^.zX2XJ.z.z.M.J.Z.^.<X`.{.~.^.9Xq.V  .J.J.L.M.d.Z.8.d.d.[ d.~.E.J.:.J.5.q.%.]  .s.z.z.Z.x.d.~.{.d.<.d.~.q.r r S [ O.. . . : . > 3 j V (  .9 * . : : . . . : @ . . . @ . . . j :.d. .q.s.%.O.%.x.q.zXqXu.q.<.H %.D.<.O.W x H s.Y I > H I ( Y W  .[ [ H m O.Z.Z.8.( > H 8.%.] O.%.I m [  .] W H Y O.[ m i x e : e j j e r r : . . : > * j [ I ] q. .[ %.. > r I ( M.x.d.] @ j j ] <.5.x.s.M.d.~.L.d.<.s.q.M.%.u.8.u.E.J.8.q.8.:.5.%.:.5.:.5.<.%.%.O.Y [ 8.( q.5.:.`.5.m <.D.:.. 9 r i i x H m S H m Y ( Y h I  .O. .] S j x ( I h 9 3 * . . > 3 9 ",
"5.L.x.5.q.M.Z.#X#X<X9X`.<X9X#X<X5.~.J.J.&XyX#X .#X{.L.( q.J.M.s.d.d.J.J.E.E.oXJ.~.`.#X^.x.z.q.d.u.[ :.q.%.5.Z.L.#XZ.q.8.E.&X#Xs.r i V ] W * . . @ . . . V H x [ x.O.r . . . > S r h r . . @ e Y <.8.M.oXq.:.( i S ( D.M.9X2XD.O.:.m <.M.s.H H 5.] ( (  .x  .W  .d.8.M.S O.3 m . E.qXoXD.I * j [ %.%.S W 9 9 I Y x x m j > . @ r h @ . . > : * . . > e r i I u.M.8.M.<.Z.d.i * h ( I ] Z.~.D.x.3 * I :.d.u.5.u.u.u.d.M.^.x.q.x.J.x.J.#X^.<.[ 5.q.[ O.u.%.8.( <.:.%.W O.5.%.q.s.Y s.8.5.{.O.I s.x.q.* @ e 3 : e i x j m m x e e i h r 9 3 i x m V r r @ . . . . * . . . ",
"q.<.5.s. .%.:.<.<.q.=XyX`.iXzX=XZ.W u.Z.`.oXu.L.zXD.S * %.^.`.oX~.{.oXD.~.J.E.^.{.=X#XE.M.u.D.J.s.%.u.x.u.~.2X^.{.d.d.D.=X=X^.u.: 9 j :.Y > @ 3 . : . . j ( x W 8.z.5.O.8.] V O.( ] [ ( 8.Z.z.D.O.<.] <.d.<.S ] O.z. .:.{.L.u.<. .I u.z.q.[  .8. .Y <.O.I s.q.S %.oXM.d.8.O.S r j =X9XM.u. .Y . ( V H I V @ > . . . 9 ] s.Z.^.9XoXM.W > . @ : > * m e x <.q.x.^.E.Z.L.oX5.r ] ] I 5.d.Z.M.W  .W 9 r <.%.5.z.O.q.x.L.#XE.#XqXoXE.2X&XZ.d.J.L.Z.L.D.E.M.Z.Z.O.O.V m ] 8.z.J.M.:.[ ] 8.<.L. .I W <.:.] . . > @ . i r e 9 e > @ * e . . . @ > r 3 . . . . * 9 > 3 m S S H ",
"i ] :.q.:.L.^.J.oX<X^.~.^.J.5.J.z.d.J.D.M.Z.z.s.8.x 9 W z.oX&X^.`.=XL.s.s.D.x.#X{.2XL.u.[ :.d.u. .5. .u.#X{.Z.D.`.D.^.D.z.q.O.V * j I q.m : . @ @ * * : > Y Y S H %.[ O.z.<.m m 8.5.5.<.E.#Xq.O.8.%.] I <.:.V H z.d. .~.D.8.5.] V O.] I Y  .[ d.8.I [ z.%.W D.L.L.z.[ j [ m W e . S <.M.^.J.^.:.H V Y e m 8.I @ m s.`.L.x.Z.D.x.J.`.M.O.i 9 . @ > x W M.D.%.z.#X<XD.#XO.S %.%.:.q.M.x.J.<.V H Y . r %.5.O.W 5.z.M.d.D.&X2X~.<X{.u. .%.8.<.s.Z.q.8.d.( u.8.s.u.<.z.Z.E.Z.s.u.u.M.J.x.z.{.[ m [ u.( %.* * 9 : . @ . @ . . . 3 3 e i V W Y V S S h j I O.(  .q.%.O.:.:.<.",
"( &XoX#X=X`.s.9X2XL.s.:.I [ <.Y ] W Z.D.s.5.m h x 9 3 u.z.Z.~.E.{.oXE.Z.L.&X~.&X2XqXE.x.<.D.Z.d.d.~.5.s.{.q.:.{.D.:.u.8.u.M.q.V x H Y :.x 3 * @ . x H j e H O.]  .8.q.8.u.8.( x I  .8.[ u.E.z.E.<.] d.S e x [ u.Z.M.]  .<.D.8.I j I [ 8.<.x.z.O.O.%.E.x.`.u.=XZ.O.O.q.W S Y W * 3 h I 8.z.^.yXE.] ( ] 5.S r r q.L.u.q.J.L.q.( Y  .s.<.s.[ ( > > O.D.#X&Xs.5.E.s.J.D.<.[ :.%.5.s.Z.J.Z.D.Y Y ] O.e * ( O.5.5.8.q.x.L.D.9X&XM.{.%.:.<.q.z.x.s.<. .:.%.d.<.z.8.x.x.D.M.&X#XM.d.u.8.u.q.D.`.[ i %.j Y ] Y [  .[ I @ . * @ 9 9 V S Y :.s.~.^.M.z.D.J.M.u.M.O.%.Z.5.O. .O.O.",
"oXE.M.D.5.9XbX{.Z.J.8.d.&X8.] 8.<.W j r > 9 j 3 : r . 5.u.s.J.=X=XJ.Z.<.z.L.J.Z.L.x.s.u.d.~.x.d.z.8.O.x.z.q.~.L.~.u.~.E.x.z.8.S V V ( 8.x . r %.8.%.( 5.x.m j  .] u.E.z.( W  .Y Y O.8.[ d.E.8.s.L.O.u.i S ] <.J.L.d.Z.d.W q.( Y h [ j j E.oXx.W <.x.^.x.s.Z.d.d.L.8.%.W Y ( . . . @ 9 %.z.^.{.M.e %.W O.J.J.&Xu.O.I S W Y x x W s.x.] O.h S x <.s.M.W i e h V . 3 W %.q.<.u.s.z.d.d.H h S O.Y [ ( r V O.q.5.x.8.s.J.Z.E.Z.%.S 5.[ <.J.E.u.8.x.M.M.( [ W x.^.u.%.8.8.q.<.s.s.:.s.z.u.u.E.x.e q.%.W Y S j O.<. .V . @ > S x m S :.9X^.J.s.] [ Z.<X<X .[ Y Y O.H O.:.:.<.",
"&XbX{.Z.{.oXJ.d.s.Z.E.`.M.L.J.x.q.I * e x j > 9 @ . x J.d.z.^.~.&Xu.O.M.E.E.oXD.u.s.L.E.%.D.L.^.s.u.q.:.O.Z.M.D.D.%.[ u.<.u.z.I V r . h m :.z.[ S %.( 5.E.L..  .S s.:.<.5.[ ] x m %.] S <.Y M.H d.I 3 h Y d.8.8.Z.d.Z.d.[ [ V r S H h i E.~.s.<.`.<XoX~.J.L.d.8.8.O. .I m * @ . 9 @ . j %.M.z.h h ] z.`.{.L.<.u.:.x h i S  .Z.J.<XL.L.<.q.[ h . * * . @ @ : . x  .d.D.z.H r (  .W [ ] ] H H Y 9 . 3 r :.W I :.q.J.J.L.s.%.S Y  .H O.u.:.Y <.J.L.8.^.D.&X2X5.q.[ 8.u.H M.q.<.D.M.z.z.~.z.oX .u.u.:.H Y Y u. .Y ] e 9 : x j m j 8.#XJ.2XE.%.8.L.mXmXu.8.H 5.J.( W ( [ Y ",
"s.s.%.:.s.D.{.^.~.oXx.5.:.5.:.x.W x 3 * > : . * . 3 O.z.<.8.M.`.u.s.=X=XE.~.Z.L.oXz.u.V [  .z.u.d.8.z.d.q.%.8.O.<. .d.~.#X{.J.V h h @ 9 W q.%.[ q.:.%.M.J.<.* h W u.s.u.] x Y Y %.Y  .W :.M.L.M.:.H * 9 :.u.L.<.I q.z.L.5.q.( I Y d.:.Y :.x.5.L.&X&XD.D.x.%.m ( [ ( S h > @ . * . . @ > m W r i Z.&X`.q.j ( x j z.( 3 9 Y Z.<.:.Z.Z.[ W <.<.j O.r . . . * . W <.:.Y h x x i i 3 3 e 3 > . . > . 3 . e ( :. .8.Z.z.s.:.] H H H I [ :.q.d.q.[ Y (  .8.D.J.M.x.s.L.%.s.d.u.E.L.5.O.%.<.<.d.^.d.H . r x H x.E.M.O.%.5.. e i Y S ( &XyX<X<X&Xx.Z.M.<X2Xz.q.H I u. .8.5.:.] ",
"O.u.q.W e W M.q. .Y H [ I x > * W u.x.W S W 9 . . H V 8.E.L.<Xu.5.x.J.E.~.oX#XL.%.s.M.z.z.%.[ W H Z.z.%.D.^.D.W x.L.#X=Xq.O.Y W Y d.q.M.5.O.q.5.%.q.x.z.z.x.q..  .z.M.u.%.( ] :.8.V %.H H z.z.z.h h x > x u.] V O.j > V D.O.%.<.O.M.E.z.h ( q.#XoXJ.q.:.Y [ [ W H H h e . . . @ * 9 : . . h ] &XqXD.z.u.[ [ Y H [ [ ( h W Y 3 V H V [ H %.[  .] W i * . 3 r  .V @ : . . @ . . . . : > e r V O.%.. > . j V O.d.( W x 9 S I W Y  .( %. .[ %. .( O.q.s.q.[ u.J.Y s.5.u.{.~.<.M.<.( ( :.%.d.~.#Xs.: * ( d.&X{.s.:.%.[  .9 i x [ J.M.iXVX=XM.#Xd.8.#XoX<.Y ] 5.E.d.Z.Z.q.] ",
":.W I  .]  .<.Y ] W W H . : I 8.u.O.O.s.E.{.S 3 . 9 Y %.D.L.D.:.M.^.M.z.x.z.Z.8.8.q.W u.u.L.M.u.O.[ V z.=X~.u.J.q.:.u.S x e m W ~.x.M.M.M.^.u.5.q.:.u.Z.^.~.E.i e  .5.W O.<.W  .:.<.J. . .%.:.H S r h V :.j Y  .V  .] q.{.z.<.z.s.q.s.%.V H <.( %.L.z.] Y [ I Y S 9 . . : 9 @ . . @ . Y 5.~.=XoXd.Z.yXoX] m H I W W ] V [ h e  .S x 8.Z.<.q.J.x.O.W m S I %.Z.D.z.Z.] @ . > 9 : . : 9 h m W q.Z.J.m Y @ m 5.d.[ %.( Y :.:.O.] O.:.d.s.<.5.8.q.u.[ 5.u.8.<.u.8.s.q.u.8.O.5.I ( W u.8.:. .M.`.^.H 9 %.x.J.:.8.<.s.x.u.m . m 5.z. .{.z.s.<.<.O.{.<X:.<.q.J.J.M.<.%.z.%.V ",
"W I Y 5.<.I m h i m 9 x 5.`.L.Z.d.8.5.Z.D.^.V j i . I :.z.x.x.Z.s.s.J.x.z.x.<.8.d.d.z.d.O.O.~.`.`.d.M.^.q.%.V r r V i @ * 8.z.L.z.<X^.#X&XD.s.x.Z.M.L.^.D. .<.z.. i O.:.s.E.M.M.8.J.~.%.:.O.O.( [ ( h <.O.W h W Y  .O.8.=XoX8.8.8.E.d.[ :.I O.] L.:.I Y H :.[ i h * . . . . . 3 i ( O.D.E.J.8.x 5.M.<XE.] ] Y x Z.Z.:.z.u. .V H W ( 8.Z.d.x V 8.u.[ %.O.Z.q.:.<.%.D.Z.] V m 9 . . . : e h m ( u.:.8.J.] . [ s. .( :.q.O.O.:.5. . .%.d.Z.d.5.%.] u.~.s.<.E.x.5.<.:.z.] Z.:. .I ] u.5.8.[ q.8.M.W 3 Y {.Z.^.~.x.%.u.z.z.] V ] 8.q.O.] ] M.W W %.] j <.s.[ W O.z.q.%.] i ",
"Y ] x h i : * @ [ <.8.D.L.L.q.%.] q.5.8.s.&X%.x m > j :.D.{.oXZ.L.d.s.d.z.x.s.u.M.5.z.M.x.z.{.J.Z.W ( m e 3 9 e 3 . . . O.~.{.d.D.J.oXoX~.~.5.x.L.oXE.q. .V Y D.W * V 5.8.x.z.%.:.u.u. .:.x.:.Z.d.M.M.W ( %.S Y h 9 V x q.8.s.{.z.x.O.u.J.s.x.D.q.8.O.5.%.W i h * . * . . . j ] %.M.M. .5.5.H ( I I D.5.z.Y :.<.d.J.s.D.Z.q.O.e r V [ O.z.i V q.O.H r > ] s.[ W I I Y W 5.s.( h . . * r V H ( z.Z.q. .:.Y @ q.:.5.d.x.O.O.:.s.q.z.:.%.:.O.5.x.z.D.s.d.%.O.] W x s. . .W r S %.q.:.8.q.s.q.:.s.u.@ 3 u.[ s.J.d.:.d.8.E.^. .^.d.8.O.<.x H H V V O.W u.u.I S Y :.H O.8.S ",
"> 9 @ * * . m <.u.z.E.^.:.O.:.<.d.~.`.J.Z.D.:.( V e W ( 8.{.s.d.x.d.5.M.x.d.oXE.Z.8.q.Z.s.5.V : . * * . 3 . . . 9 j Y Z.~.{.~.J.oXM.x.E.d.J.`.~.J.q.Y H [ I Y %.5.@ . S :.M.J.x.I %.z.d.z.{.x.`.q.x.I I x r H q.[ z.z.s.Y %.] O.q.O.8.J.z.z.D.#XL.u.5.q.S j e * @ . . 3 W d.D.x.O.L.oX .( j V x.S Y M.V x.I ] Y H Y H V 8.s.Z. .( [ V :.j Y (  .r S m h m 8.5.%.m m W W ( %.[ W > . . > h j x :.V V W O.Y Y I J.~.Z.u.%.[ ( ( W [ ] :.d.d.5.O.O.M.5.%.<.x.Z.q.<.:.5. .[ %.Z.( 5.q.q.O.u.q.5.8.d.. : j <.I D.:.z.q.z.z.{.E.( L.M.D.q.8. .Y h ( [ <.s.5.W S W <.%.[ M.[ ",
"3 9 . @ S 8.z. .z.{.M.] ( x.D.Z.D.^.Z. .u.x.q.V I S 3 ( s.x.z.~.L.d.~.{.L.L.s. .] V m r 3 * . @ . i 9 r * > m Y :.5.d.`.#X^.#XE.J.8.5.q.u.x. .%.H W W S x r ( ( E. .> e O.u.z.^.I 5.D.8.5.D.{.#X8. .[ Y %.x r ( <.u.x.J.%.I <.u.Z.D.`.x.J.=XZ.z.5. . .<.S e * > 9 H W O.s.=X&XJ.8.q.:.H ] j :.q.] u.q.[ s.5.H  .Y %.Y S V ( ( O.u.%.Y s.I ] [ V V h H H O.( L.J.r r H S W s.s.%.i @ . : h h h %.5.O.[ Y W j . M.u.8. .:.8.Z.d.8.<.[ :.J.L. .[ E.q.d.M.{.s.<.z.d.8.%.s.s.s.z.s.8. .q.8.d.u.O.q.~. .9 h h Y I  .%.W x.x.Z.E. .I d.8.z.Z.x.8.[ :.D.q.Z.q. .Y :.%.Y m z.] ",
". . H W 5.{.J.5.u.q.8.z.z.<X2XE.s.] 5.O.O.[ s. .S Y 9 S 8.~.8.<.d.J.u.%.%.Y m r e . @ . 9 i <.d.%. .I %.S %.M.z.Z.L.{.oX^.{.~.s.( ( H W W I [ [ W [ x V W  .[  .5.5.* r h d.D.{.`.x.~.<.W ] ^.`.<.%.( ( ( j 3 j h m  .V [ 8.J.oXqXE.s.D.E.J.O.V e i x i * > x I ] :.<.x.d.<.s.`.{.9 m x W <. .H O.S <.5.:.Z.5.W [ <.x m j :.<.( ( J.E.[ e i h e r H V V 5.W [ oX] 3 e r S I %.u.S r * : 9 i 9 H 5.q.[ ] H h : H O.q.:.x.] :.z.x.z.z.x.8.]  .8.q.s.d.q.:.[ s.D.[ ( [ <.<.s.]  .z.d.s.d.<.( <.5.x.d.: j O. .u.x.x.q.%.x.u.D.> ] u.8.5.s.[ z.z.x.J.~.M.s.] O.x x m  .5.( ",
"Y m I 5.8.x.D.8.Y <.5.s.J.Z.%. .%.s.M.q.[ H W O.x i @ 9 ( [ H W :.V V e i i : : x 5.8.x.8.8.:.E.z.q.8.W j %.^.&X`.^.oX=X{.M.%.H j S Y ] ( H V x S :.<.x.q.:.u.z.u.%.: > @ <.{.z.:.D. .:.<.%.z.u.x q.L.W u.<.I m %.H x d.q.D.`.&X .q.[ ]  .[ V m j 9 > > x s.s.u.s.8.O.h  .O.s.M.Y h S :.[ %.S V `.8.:.H O.J.D.%.q.O.O.x ( x.s.8.d.<.%.m : i j x h i V j h j ]  .m j Y W <.V ] #XM.x . . i * i H Z.<.W W %.> . 9 W [ q.u.u.q. .8.8.Z.^.Z.:.O.5.<.<.J.s.%.u.D.d.W V H ] W I Y O.:.q.x.Z.<.z.[ <.s.8.. W 8.u.L.<.L.E.z.D.8.[ W Y D.J.%.O.:.z.L.`.L.<.q.%.q.<. .S H O.<.W ",
"5.~.d.J.~.Z.5.:.M.^.D.u.D.u.O.5.<.( O.q.h Y :.] I i : . Y S S I j j > r @ .  .%.8.q.D.~.u.d.Z.x.^.M.L.d.<.Z.oX<X<X=XM.( H ( ( I Y S m m S Y H S W ] z.J.Z.^.s.d.%.s.x . @ 9 ~.q.O.z.q.W 5.u.z.u.V S x.^.E.s.[ u.~.s.5.d.<.<.oXd.Y D.O.H H m r x h . 9 V <.z.8.D.<XL.<.x W ] x.r O.:.S %.:.%.W  .5.%.( O.W %.<.x.] Y ( :.^.E.d.S  .] ] i r i > I I Y ( V W %.O.i Y Y 5.W s.S ( x.Z.[ H * 3 9 h m 5.<.W %.] * @ x S s.x.Y O.u.O.q.^.qXx.h x ] %.q.[ u.%.O.<.H H 5.u.s.[ H W :.:.<.s.u.u.8.E.%.s.8.9Xu.H [ :.5.Z.L.J.z.z.q.H 5.x Z.<.O.<.z.Z.^.#XL.x.Z. .q.:.5.<.u.O.:.( ",
"x.~.Z.u.d.E.[ Z.] H I W <.[ :.d.8.:.W ] j (  .<.V x r . i r i 9 9 * . i Y 8.s.%.%.J.L.5.Z.oXL. .`.{.{.oXd.~.E.^.z.8. .:.s.5. .<.I H ] I I ( Y ( [ :. .z.^.#Xx.] 5.:.q.@ . : Y u.s.] ] x  .J.`.<.W j 8. .O.O.Z.x.d.5.5.r V S ^.Y d.&X<.W W V i r . m s.5.x.q.%.O.] %.s.S V 8.:.x.`.&Xd.V V h W O. . .:.%.:.r I <.:.L.oX9X2XL.u.m O.( :.I j W O.( ( I [ :.5.I W <.[ H I I I  .Y S Y z.[ r . 9 r e :.D.u.u.I * i ] V s.:.O. .:.8.`.`.O.S [ O.( H S 5.[ O.<.Y Y 8.:.O.O.d.D.( O.5.%.:.:.D.&Xx.5.M.Z.2X8.S 5.&X=XD.s.%.:.8.Z.q.8.x 8.i q.M.Z.E.D.z.%.u.s.%.5.d.:.5.:.%.:.O.",
"x.z.V L.D.d.M.W 5.m e j ( x W d.q.Y h W 8.L.M.%.S x 9 . * : * . . x ( Z.E.oXM.x.D.s.5.J.L.s.O.s.E.`.D.`.Z.L.s.[ O.:.] ] s.Z.5.W Y W %.] ] O.Y I ( W :.8.M.D.V W u.<. .:.* . j W :.] m d.8.M.^.:.q.:.] oXL.d.5.L. .%.%.i j ( d.:.x.M.H S m r e @ . <.d.[ ( H Y Y H V 8.`.x.#X{.^.E.d.Z.8.z.I Y ] <.<XE.x.5.Z.J.Z.L.E.~.O.W <.[ W Y d.u.I Y V W Y W m Y W Y H 5.D.8.H W S ( O.%.H V ~.Y W i > e e ] 5.5.I H . Y [ H <.O.Y W 8.D.#X<.Y i V :.5. .] ( 5. .%.s.<.8.L.~.~.x.x.z.Z.u.u.q.<.M.^.[ [  .u.^.%.Y M.^.:.H ] ] %.d.L.E.s.S 5.z.^.L.u.L.M.x.O.u.<.( I <.[ 8.8.5.:.<.",
"( W %.s.%.u.:.O. .%.I j ( S i m 8.I <.x.u.s.u.x x m h e . * m 8.M.E.u.^.J.8.O.8.`.q.q.8.] S [  .~.M.q.D.Z.:.:.:.d.<.%.q.d.<.O.8.%.<.<.( H ( [ O.( :.:.L.M.W x W 5.O.q.s.( . @ V q.%.V ] m e I u.D.J.M.#XoXJ.D.<.u.s.z.O.<.z.5.8.5.( e h > . @ . 9 L.x.u.W V x W S m D.~.E.L.m 8.x.:.Z.M.=X=XL.s.z.d.s.z.D.W ( [ ] :.x.[ x : j W h V I Y W S 8.I I W S h [ <.u.z.Y V I x  .z.z.:.m 8.u.%.( h . e h H Y j j : [ 8.%. .s.r I Z.M.u.:.m O.D.u.%.5.:. .H [ d.:.O.L.`.E.J.L.D.8.s.q.W  . .%.<.:.5.( q.8.H :.d.:.H m 8.:.8.Z.u.x.8.V 5.M.%.O.( <.%.u.( H W O.u.M.8.H x I V I ",
"j H ] [ z.~. .j h [ Y h H %.O. .:. . .:.x.u.[ x H h 9 m W 8.x.L.#X<.5.I I ( S d.x.x.d. .5.m m ] [ <.D.oXZ.( ( s.5.<.%.[ W %.z.J.O.x.D.8.W ( u.M.M.u.D.oXd.O.W O.Y 5.q.8.J.: * e %.%.O.Y [ x > H Z.`.^.9XE.2X`.[ I <.^.u.:.( ] z.] m 3 r . . . @ S #Xd.j 9 m Y %.[ H ] 8.5.%.( ] s.M.x.r S x.z.W Y [ Y %.5.u. .S Z.Z.8.<.W : m H q.:.W H q.O.<.] ]  .W ] z.[ W x.:.<.H 5.9 u.x > i h s.[ [ I . . x O.5.( j m 5.M.q.V <. .Z.M. .%.:.D.^.J.x.q.%.[ q.q.<.:.q.L.{.z.s.8.( I 8.s.5.<.:.Z.L.Z.d.:.] u.J.<.I <.:.<.~.u.5.8.s.O.z.V m O.( j W O.q.8.5.W 8.] H S Y O.I O.Y m ( ",
"E.J.E.x.8.8.<.] H ( 5.z.%.5.<.[ J.<.<.<.( [ :.H > W x.E.D.L.`.oX9Xz.M.O.%. .:.:.( z.Z.d.H [ ( Y q.u.O.Y x q.u.L.D.5.<.d.z.z.M.z.M.J.u.8.z.L.oXJ.Z.z.z.J.W Y 5.Y ( ( <.s.z.<.@ . e u.W ] H W S V z.L.d.O.u.L.J.s.s.I S  .u.q.H S j 3 @ : . @ @ 9 S s.8.x <.] W O.%.z.s.8.[ ] W u.<Xx.5.Y u.] j e <.O.:.5.:.[ z.=XoXqX9X`.5.d.[  .S  .D.d.s.O.M.J.x.d.z.8.s.u.u.:.Z.( s.{.Y ] W e ( x V %.s. .W @ 9 ] M.V H ( J.Z.%.V H 8.^.Z.q.Z.oX{.D.s.u.<.:.8.u.L.d.s.L.Z.u.5.( S I ( 8. .O.q.5.x.q.q.] :.J.#Xx.j ] <.%.D.Z.8.:.8.<.%.^.. S ] :.[ Y H 5.M.5.8. .I [ [ q.x.O.8.Y x Y ",
"s.&X`.5.<.%.u.<.:.x.`.d.%.5.:.<.s.] O.<.s.%.] j ] E.J.`.E.Z.{.s.J.#Xs.[ 5.8.M.^.z.8.:.[ :.8.O.5.<.( O.%.z.:.[ q.Y O.8.8.u.M.z.:.:.s.z.u.8.^.L.`.2X{.Z.5.x I ] O.<.L.L.D.d.d.S . . ( u.Y O.m S W x.2Xd.5.5.~.:.5.W O.d.[ ] W [ i > . . . 3 . . m H <.Y  .O.q.x.<.s.J.[ :.O.j {.%.%.Y H I W 5.]  .H ~.J.S :.Y ] 5.`.^.Z.M.{.D.oX#X[ s.D.%. .M.D.M.s.^.Z.q.u.J.d.s.%.8.u. . .:.(  .5.<.8.8.8.u.%.x . d.M.Y I z.M.D.u.m 9 8.s.:.s.[ 8.u.{.J.#XoXoX^.E.s.z.5.:.u.z.H I :.8.z.O.:.5. .D.z.q.d.5.z.5.x.oXW S 5.<.8.[ [ [ O.z.5.Y e ( j [ q.%.9 O.z.] 8.W O.z.u.8.s.s.%.H V m ",
"[ d.x.5.] %.8.%.J.E.~.8.[ %.] W j 9 3 e [ u.E.`.E.2XJ.D.<.] %.W M.`.D.( %.( 8.<.8.E.Z.%.d.L.d.q.I W <.] q.I %.q.<.u.8.<.q.q.<.<.q.Z.[ d.x.M.z.&XE.z.x.h Y 8.z.&X9X=X8.8.[ s.%.r : * W q.q. .<.<.s.E.J.8.W 8.{.J.<.<.q.M.Y x @ * . * > @ @ . . e 5.L.8.[ [ Y Y %.D.=Xx.oX<.%.d. .[ x Y m Y <.] 5.H <.<. .I <.8.:.q.L.x.x.q.m Z.d.8.u.M.Z.~.<X{.z.] ( %.z.q.x.J.E.D.<.] [ 8.q.<.x.s.~.E.%.I <.u.( @ ] ] Y j <.~.%.q. .> 8.q.Z.s.(  .:.x.s.Z.x.d.5.] [ ( 8.5.J.E.`.d.M.M.D.M.~.x.<.s.D.L.Z.s.s.5.u.5.W * 8.u.:.8.z.<.L.[ x. .V S %.I H [ ( [ z.<.( h d.5.M.L.q.<.S V S S ",
"5.[ Y Y S 5.%.I [ [ :. .( H j j ( Z.{.J.`.^.~.E.z.D.%.5.%.z.5.I O.d.d.V m S 5. .Y x.u.:.L.{.D.z.D.u.O.W z.%.8.( u.q.q.:.:.Z.L.5.&XM.W q. .E.oXD.u.s.[ s.oX&X&X{.9X5.h 5.d.D.x.V r . 3 s.q.] ( W Y M.d.s.V %.~.D.u. .( m @ : . . . * 3 i 3 . 9 [ Z.<.5.:.] m ] `.d.D.8.%.8.5.( O.[  .( d.L. .%.S %.8.8.<.Z.W x I ( %.%.q.M.J.[ z.%.8.M.~.L.L.E.d.] Y [ s.8.d.u.%.W S I ] [ Y ( M.oXZ.z.s.<.O.:.<.<.3 j ] 3 I x.z.q.s.e <. .O.Y W d.z.s.8.8.5.8.:. .8.L.Z.8.q.Z.s.`.^.E.s.O.:.] <.5.s.5.<.q.%.W I 8.<.3 O.M.s.Z.L.:.L.] D.Y h %.( ( O.x.`.z.<.[ :.5.Y <.Y :.<.O.[ x m S ",
":.]  .] S H 3 . @ * e r : 3 :.2XqXyX&X~.~.D.u.:.] ] V ( %.M.%.S H s.E.x.] q.M.5.Y  .W q.^.L.M.M.Z.D.z.z.s.<.q.d.8.%.] <.Z.z.x.#XhX`.Z.J.s.Z.8.Z.~.M.J.oXJ.oX^.oX&X .H `.J.D.:.3 m @ @ ] 8.Y h H I d.:.u.] d.M.8.<.r e @ . . * j m W W %.I . .  .u.[ s.( I  .8.Z.q.I  .j S H W H O.O.8.<. .H ( <.O.[  .Z.q.h x j S Y #X[ d.E.( x.8.u.s.x.u.d.`.L.M.J.z.d.q.5.Y m [ O.:.8.x.x.s.x.s.s.D.^.E.Z.x.s.J.m h V @ H z.d.d.s.9 S 8.%.O.<.x.L.Z.J.x.q.s.8.{.=XL.5.{.oXJ.d.u.:.W H I ( [ Z.<.q.O.q.q.] O.z.D.M.:.9 3 3 H 5.O.O.{.d.* e m H I q.d.8.W V O.d.W Y m <. .s.O.j S I ( ",
"W H S 9 r 3 . : * . . r I O.x.{.#Xx.s.D.x.5.O.%.q.[ [ 8.q.%.Y ] [ s.~.x.V  .8.O.:.:.%.x.D.d.x.z.D.:.O.u.x.x.<.<.<.H ( 8.:.<.J.=XyXJ.d.u.x.D.q.5.L.z.J.q.z.^.qX&X8.h D.8.~.5.M.j * . . * Y H x ( ( W :.:.5.q.<.r i @ . * . i V  .q.L.u.5.] 3 . W ^.Z.D. .<.O.j x Y [ O.] W ( I 5.E.M.s.[ S ] W %.]  .[ W  .r `.L.#XW  .d.Z.{.x.q.Z.J.d.5.] :.E.^.&X=X`.L.8.%.O.u.s.z.q.q.D.~.L.D.{.~.E.J.D.L.x.O.d.%.@ S j 3 5.5.q.d.j * [ :.u.s.E.&X=X2XoXJ.~.~.`.^.D.^.J.E.q.[ %.5.%.:.u.:.%.:.8.Z.8.u.%.<.u.Z.d.d.`.( e 9 9 h W u.s. .h r 3 I z.:.%.O.O.m <.5.m %.( %.Z.M.%.e V S I ",
"3 9 e @ i 3 @ * j I Y (  .8.Z.Z.d.d.Z.L.<.:.5.8.x.q.d.D.J.u.O.O. .5.#X`.%.( [ H %.u.M.d.<.u.D.s.x.I Y ( <.:.:.q. .5. .( q.J.E.~.^.D.x.q.O.<.E.5.I ( h 5.9X=X^.O.:.] L.E.z.M. .9 @ @ * * j W :.5.O.] W H Y V 3 @ * : e i ( d.D.<.8.M.q.q.8.W . H Z.I I :.d.<.W [ [ ( %.s.W O.8.q.iXZ.V ( [ W I S 8.M.8.~.W Y oXL.q.i O.z.D.S d.E.q.d.5.] Y  .x.~.<X^.~.D.] 5.L.E.u.Z.x.z.d.8.z.~.z.[ [ d.J.x.<.Y x L.[ e . e :.5.8.u.V . h [ <.x.{.#XoX^.Z.8.s.z.5.q.Y I s.D.5.<.M.Z.<.[ q.s.J.d.J.5.[ ~.M.5.5.`.z.q.u.:.> e r 9 : Y  .r Y Y x 5.8.%.] ( z.S S m :.x.W D.s.u.<.[  .( I ",
"S W m : . . i S H [ %.d.J.E.E.d.I <.u.d.<.q.%.Y 8.s.8.s.s.d.O.V [ [ J.~.O.Y (  .O.5.s.:. .5.q.8.5.x h m ] :.d.z.z.<.u.L.^.E.x.5.j j 3 ( L.s.q.M.u.<.q.=XqXoX%.d.s.s.E.`.D.z.V * . . @ : . h S S S W > > @ . . m W I O.x.#XJ.~.q.O.:.q.x.x.x.: * ~.<.%.L.D.Z.J.5.8.<.] H  .I I  .<X:.V x m H :.=X&X=Xu.[ Y e %.z.]  .8.5.z.L.u.5. .W V I 8.x.M.{.oXZ.Z.Z.O.s.E.x.u.u.%.q.d.:.%.:.:.%.%.[ Y [ <.:.m z.D.S . 3 V Z.x.%.m : x u.u.D.E.Z.E.x.x.%. . .( :.d.%.q.d.L.s.^.u.:.<.J.D.s.I x ] q.5.Y u.D.D.5.d.Z.z.@ . @ @ : 3 . r u.8.8.h V d.q.j 5.<.%.W :.V ~.J.s.<.I :.<.( m ",
"O. .m i @ j %.O.H Y ] M.L.u.5.O.I %.O.5.O. .] s.8.d.O.:.( %. .( V m 5.^.] I x ] z.%. .O.5.O.H  .O.I r ( ] 5.5.W q.L.<XiX=Xz.W j ( V ( s.J.J.8.s.J.D.~.#Xd.m x.=X5.Z.J.%.W m r . . * . > . : . 3 h x ] s.8.V u.M.d.^.M.~.:.O.8.O.5.<.q. .[ {.I . z.q.O.&X&Xs.:. . .O.I V Y S m O.I ] i i i e M.{.#Xx.q.W j m q.O.] %.M.d.u.Z.x.8.[ W I W 5.:. .E.E.Z.D.#XD.u.q.M.M.u.( %.x.u.:.W ] <.M.D.d.s.s.5.H u.x.O.3 3 x  .d.<.O.@ > :.5.8.d.] %.Y <. .%.<.q.z.s.d.s.J.J.~.=X5.q.s.M.5. .] 8. .s.q.[ 8.x.x.[ 8.J.:.. : > 3 @ 9 i M.%. .r j %.8.z.<.8.5.u.%.i [ E.:.[ I Y 8.8.] x ",
"5.x : * H ( <.q.d.z.W m H ] %.:.[ I ] O.5.q.%.:.<.x.5.O.%.[  .] I [ u.{.^.8.5.u.%. .W s.u. .q. .q.[ 5.x.q.s.8.M.M.`.{.#XD.O.O.:.( I s.M.H ] u.D.{.L.E.M.8.D.oXM.:.D.Y S %.<.[ H : . * . > h %.q.z.x.L.J.L.z.x.Z.J.Z.8.%.d.s.s.] ] s.5.%.%.{.%.. 5.Z.M.{.~.W H [ [ %.r i h m V S m V e : r m D.Z.{.:.W  .m I h u.5.8.<.5.Z.Z.J.8.x.5.:.<.O.W O.z.z.x.u.z.:.5.d.d.M.(  .O.[ ( %.I %.q.L.M.x.J.J.] ( M.( x @ : m V u.q.I . 9 S O.O.[ d.8.Z.E.8.~.M.8.5.u.q.M.D.oX&XJ.8.%.:.%.%.<.<.u.5.<.%.:.s.u.( ] d.M.M.V > 9 r i V r L.u.d.] ( V W %.u.d.M.8.x.W  .O.m S z.:.s.x V H ",
"W 9 @ I O.O.M.q.<.u.%.H I x ] O.O.u.D.Z.x.z.5.O.[ W %.s.8.s.x.O.Y ] W J.#X^.:.q.O.:.u.<.q.d.%.<.d.Z.L.J.d. .x.J.&X<Xz.O. .Y [ <.H ] M.u.Y [ q.q.%.d.u.[ :.E.E.5.<.V W ^.9X~.q.V : r m I 5.%. .M.E.q.s.~.{.5.W ~.E.8.<.] ] x.O.E.oXu.5.] q.:.q.@ W {.yX#X5.I V m W x.Y h x W i Y I Y O.8.S 5.9XJ.q.Y V q. .x [ I 5.s.5.z.d.x.z.8.z.M.x.d.s.s.u.5.q.:.8.( x.5.H %.%.q.u.<.S W ] W I 8.d.z.#XL.<.]  .%.h e . @ j I %.z.:.e r I <.s.q.<. .D.`.5.%.z.s.x.x.D.d.z.q.u.:.W W  .[ [ ] W <.:.:.[ ( 5.z.q.] [ %.Z.r e x j V h m q.#XyXE.:.<.r x :.qX`.O.H 8.:.e H Y V ( h ] %.8.",
"i ] 5.5.Y  .D.`.#XoXL.u.5.Y O.:.q.D.oX#XJ.q.5.5.( u.<.] z.Z.:.<.O.O.Y L.~.oX<.:.u.d.x.u.8.M.x.O.q.~.#X^.s.H 8.E.`.z.d.q.H Y s.%.<.#X&X] [ <.:.5.z.z.:.<.J.z.S 3 m x.2XZ.[ : * m :.d.z.s.J.{.D.#Xx.J.oX`.J.^.s.J.8.5.:.:. .[ M.~.&X`.L.<. .5.D.. ( oXhX`.D.d.8.x.q.5.9 H h ] %.] H I d.s.H > z.Z.Y x h I M.z.W O.%.x.Z.^.x.q.u.z.s.u.q.u.z.Z.Z.x.[  .] u.[ S :.8.s.J.s.%.Y I m I  .%.Z.{.=XZ.5.[ x.] i j > @ 9 S O.d. .e e W 8.^.d.O.u.L.s.z.<.%.x.q.] [  .5.:.%.%.] O.q.s.d.d.q.5.5.<.:.5.x.Z.u.<.q.5.D.m 9 9 j V S i Y <XhXqX .<.Y ] 8.oX9Xu.%. .S W q.<.H I m ( :.d.",
"L.J.Z.d.d.x.] L.J.~.~.E.x. .:.8.s.d.s.q.[ Y %.z.W ] <.d.E.x.] :.5.:.:.#Xu.x.x.<.d.q.<.q.x.L.J.8.d.J.L.d.:.q.:.M.] I V Y %.s.L.`.yX`.^.Z.d.%.O.q.[ :.5.u.%.9 > O.s.( h > 9 j [  .u.]  .q.:.5.:.J.u.Z.9X&Xd.{.#Xx.%.<.O.V :.5.:.W O.%.5.s.] 8.M.j H =XhXu.oXqX&X#Xz.<.S S ( <.h I #Xz.5.W Y x d.Z.<.S :.O.O.z.m O.Z.M.M.L.^.x.M.d.u.8.8.z.M.d.q.8.8.5.O.O.W :.:.J.z.J.u.( u.5.:.u.<.J.yXqX^.:.5.D.M.H x V 9 @ . r H q.<.S r m Y J.q.( d.L.s.M.d.x.8.8.u.<.5.:.s.x.M.5. .( Y [ 5.5.d.q.<.%.5.d.z.q.Y <.s.s.Y 9 x I S W  .( L.qXx.( %.] %.8.5.q.Y u.d.:.x.( <.L.%.r O.<.q.",
"5.M.E.M.x.Z.W q.`.M.q.%.<.W <.%.] <.q.<.O.O.O. .( z.~.D.Z.5.H O.<.<.%.E.5.8.`.u.%.%.<.8.<X&X:.{.iX<Xz.(  .x.Y r ( q.z.z.~.oX{.=XL.~.J.J.~.M.W  .[ q.<.V i S Y I 9 m i Y ] W :.u.:.:.u.x.O.O.%.Z.=X<XqX`.d.L.=X%.. O.8.:.s.L.<.Z.5.] q.<.q.[ u. .m J.`.z.E.E.M.E.Z.~.<.I V h H W M.] S J.u.5.I r u.q.<.q.5.%.( ( E.~.^.L.Z.<.x.J.s.s.s.d.d.u.q.8.W Y 8. .:.s.^.oXI z.u.I 5.q.u.M.E.q.Z.M.:. .u.O.:.j m h 3 * @ e S q.q.H r H V %.8.~.J.( %.8.[ I %.<.u.<.%.W ( ( i r j V m V m i i x j i r r i h i x [ ] 9 9  .I 3 O.] O.d.8.( h Y [ q.Y :.q. .(  .W m H Z.~.M.] <.:.:.",
"] s.s.u.d.`.J.S V x  .] u.Y :.I 8.%.:.[ [ :.O.<.u.8.q.q.z.L.x.<.s.s.[ 8.M.x.`.u.u.Z.J.oXiXL.%.`.x.u.]  .x.u.:.x S  .s.u.z.{.oXE.d.8.E.<Xu.] H [ :.( I m @ . > j :.#X%.( 8.q.<.8.d.2X`.O.H ( 5.E.{.<XZ.[ <.Z.`.Y 9 i ] 5.O.:.q.z.s.u.Z.:.Z.z.Z.5.i {.~.Z.q.#XyX~.L.u.^.u.I V V Y <.5.O.Z.8.:.H Y 5.u.] O.^.d.Z.M.~.`.D.~.x.s.q.8.z.5.<.q.q.<.8.z.s. .] u.s.D.^.j [ D.M.d.x.D.z.~.d.M.:.m ( S I <.S r h * . . . > r %.u.x 3 W ( O.d.q. .( q. .W ] O.( x m j x 3 * i r r e : 3 9 * e j m V H V h h j j e e . r Y m S [ 8.( s.8.S  .W V Y  .8. .( q.( H i  .u.V V [ W H m ",
"O.W I u.L.^.2XM.S O.M.s. .m O. .O.S ] ] O.<.I  .s.Z.d.z.x.Y W ~.Z.z.8.q.~.{.#Xx.{.2X&XyX^.O.q.u.Y W O.z.Z.%.<.[ 5.x.L.^.zXyXd.<.%.J.~.:.I Y H [ x S x * . m %.O.z.s.<.8.:.5.J.L.2X<X8.S m e %.{.x.z.O.%.Z.oX=XM.%..  .5.]  .^.yX`.E.M.J.x.<.[ Y > s.Y 8.s.d.<X=X^.J.u.:.<.S j ] %.Z.d.Y O.M.x.<.:.H x.x.d.q.L.^.M.~.J.E.z.s.u.8.s.%.%.u.u.O.( [ O.8.5.5.d.^. .5.z.x.s.D.J.J.M.~.{.x.%.Y  .[  .[ e 9 e . * @ * : . m d.S @ r m Y I r r r e i r . . : : 9 @ @ . . @ * 3 3 * 3 e * 3 > . @ 9 e 3 e e i . . @ i S V H  .W V s. .H  .%.s.O.O.I ] [ 8.( H j 9 > r > 9 * * @ ",
"x.%.[ ] 5. .] W %.q.%.8.S ] [ I [ H :.( O.x.O.<.L.D.s.:.m V u.z.x.5.J.J.^.iXzX&X&X9X#XZ.<.] ] :. .:.z.d.:.x.q.5.8.O.^.qXL.5. .%.s.8. .e V [ ] Y x : . r W O.:.8.~.M.z.u.M.x.E.#X=XM.Y H W V z.Z.x.s.z.J.x.oX{.8.O.] * D.&Xx.=XoXoX{.D.~.d.] O.Y . x.H ] ^.Y Z.oXd. .:.:. .8.[ ] H i H q.:.Z.Z.8.V V z.D.z.5.[ s.{.L.u.<.x.D.~.z.<.:. . .<.u.5.] [ u.q.<.d.8.Z.{.=X`.E.d.z.s.M.z.oXq. .( ] Y Y x 9 h V j ] W Y I V 9 I > . . . . 3 . . > @ > . * . @ r i V j j i * * > @ . . * . . @ . . @ . . 3 > . : > : : I r m ( ( W z.8.r H ]  .V e x h I V h : . > . * . . . * > ",
":.( [ %.S I q.~.8.O.u.<.[  .W j W O. .Y 5.u.[ <.:.[ s.s.%.O. .:.Z.d.~.J.J.&XL.z.s.L.~.<.[ m h V :.O.<.%.s. .H <.x.oX9XqXE.:.:.5.( V m e j . : j x I H  .]  .<.u.^.D.D.Z.s.~.L.Z.oX%.W ( ] 5.s.d.q.d.L.d.d.^.Z.u.s.z.9 3 2XoXJ.J.9X<.8.Z.O.[ z.z.j 8.Y 8.Z.q. .%.x.5.<.q.u.d.D.J.q.] W x i W <.I 8. .<.u.x.q.<.W q.W I  .M.~.x.z.%.8.M.u.u.%.q.s.z.J.oXE.5.q.^.&X#XM.<.<.u.d.d.z.5.<.] H r S j . r %.x.M.u.x.M.Z.E.J.u.O.%.O.:.M.{.x.Z.:.I  .:.I m I W V (  . .I j V H h x H m S x Y m j Y I i e > . : . * 9 h j r h W m [ W r x m i r h i : . @ @ @ @ * . : > . . . ( ",
"( V V  .Y z.D.u.5.( I ] ] O.I ( Y [ q.q.8.:.] 5.<.8.q.%.]  .5.M.^.Z. .s.L.J.~.5.u.5.( [ H ( %.(  .:.O.8.J.d.~.<X~.M.D.M.D.8.] S Y H r > i H ( %.] ] x.u.%.:.8.#XE.u.Z.L.D.x.x.L.E.[ [  . .8.q.u.J.`.u.s.x.M.u.D.#XM.x : S z.5.d.z.oXx.[ :.`.^.J.I d.] Y 5.8. .I I  .q.z.D.E.D.s.z.x.8.Y I S V <.u.s.J.M.M.z.d. .j m %.[ m S ( <.<.W Y H [ %.d.d.^.&XJ. .O.z.x.q.{.E.x.5.%.%.%.%.I H 9 e : . . Y q.D.#X^.=X<XyX=X2X{.iX#X^.&X~.9X=X&X=XL.{.L.#X#Xd. .[ 8.8.8.z.L.x.x.z.z.s.:.:.M.^.9X{.z.M.M.:.Y Y x W S j 3 3 e 3 9 . > * . : . . . @ . . * * @ . * . * 9 @ . * . . Y ",
"m ( Y [ x.oXZ.5.O.I 8. .( Y [ H O.%.s.q. . .:.5.%.z.<.] 5.z.M.z.z. .W <.E.#XE.E.d.W  .z.s.d.O.%.W O.8.L.=XE.`.E.~.x.J.O.( r e h i e : r ] q.u.s.d.x.u.d.D.d.=X=XE.x.{.{.`.M.x.D.L.Y W H I u.z.E.2XM.J.~.{.%.I :.O.[ 8.H . H O.u.s.u.s.E.x.#XD.W > [ ] H Y  . .q.D.E.s.M.<XL.8.^.~.L.J.d.5.] H <.z.s.J.~.`.E.~.M.:.<.:.[ [ [ %.E.~.s.d.z.x.x.E.L.z.{.z.] q.Z.d.x.d.d.5.Y h r 9 : : * * > . : h D.^.E.Z.&X#X<X~.E.M.D.d.q.q.E.yX`.oX^.z.&XyX<X<XyXs.d.Z.^.M.L.oXqXiX#Xz.8.J.#X&X&X`.E.<XqXZ.:.<.%.H r H Y W Y ] <.( x V . : . . > . @ . . . @ * . 9 . . @ : @ @ . . @ Y ",
"( ( ] d.{.Z.s.^.=XoXq.[ W 5.W O.<.d.Z.d.u.z.u.[ 5.u.O.%.u.z.L.E.Z.Z.8.J.&XE.D.d.] L.J.<. .V [ ( 5.8.{.#X2X=X`.{.z.] Y h H h 3 @ . 9 I I q.8.x.Z.M.x.Z.q.Z.&X2X=X5.5.D.J.~.E.L.E.L.Y ] I ( M.M.~.`.iX{.J.E.S O.8.x.O.{.J.[ . H Z.L.d.<.8.(  .m . j [ [  .<.^.x.M.&X<X=X&X{.~.L.^.~.E.J.J.u.q.u.q.z.Z.#X`.d.] <.u.5.d.L.M.q.E.&X~.D. . .u.x.J.`.D.<X9XD.8.L.L.q.q.S H V j i i e 3 : : 3 . . m  .E.&X~.s.#X^.zX#XoXd.] 5.J.~.~.L.oX^.Z.oX#X2XE.yX=X#X{.oXqX#XJ.D.=X`.s.5.5.z.Z.x.#X~.Z.x.~.`.:.H :.<.H ( ] :.8.q.8.=XZ.:.s.( ] 8.x : . . @ * @ . . . . @ . . . 3 . . > Y ",
"8.8.<.E.<.`.`.^.Y h  .O.<.O.5.<.x.M.8. .<.s.u.:.J.:.( z.M.5.q.q.s.8. .<.D.x.] x M.u.z.] I r 9  .8.s.`.M.q.%.O.<.I x 3 > > : j V V I W m d.E.^.s.x.M.M.Z.~.qX`.M.5.8.Z.oX=X<X^.{.oXO.5.%.5.^.J.L.`.^.=X&X( O.x.#XJ.8.~.x.~.( 3 r :.( I V 3 > : . 3 ( u.( O.^.~.D.L.oX=X2XoXu.8.oXD.`.<.d.O.q.x.^.^.E.E.d.8.O.[ m m %.8.z.^.D.:.( S I u.~.x.z.D.Z.2XqX^.:.W S j x x h i r 3 @ . . e : . . 5.D.J.yXD.D.s.<.u.<X2XM.E.#X&XE.D.L.L.oX{.{.oX{.L.2X&X~.u.J.^.~.#XD.M.`.#X~.D.H ( J.z.Z.=XZ.D.&XL.Y S u.<. .8.5.z.L.L.d.d.E.#XD.d.V q.<.O.] ( ( ] W S h H I e . . @ . : . 9 I ",
"D.~.#Xu.L.#X=X .<.J.D.s.( I j 8.q.q.<.q.z.5.%.:.O.Y [ z.z.u.d.8.( [ D.<.W [ I z.D.s.] :.( ( O.I V O.:.O.%.Y ( m j e . 3 j m W I I %.%.] <.x.J.E.J.~.z.=X2X`.M.[ L.Z.s.u.d.`.~.&X^.<.s.s.M.<X#X{.M.~.M.~.q.<.M.J.Z.( s.^.oXM.. M.S 9 9 j i : * * r S s.H :.x.`.Z.d.z.~.M.O.z.~.8.J.%.5.W x.( `.Z.x.u.d.u.u.8.8. .] ] 5.d.[ j m x S x m H j H I V Y x e r x m j e 3 3 9 e > . : i e x Y <.~.J.`.hXL.E.J.J.Z.2XoXq.u.Z.[  .<.:.{.iX#Xx.s. .^.L.d.z.D.E.u.W z.E.L.z.`.`.<XZ.z.Z.5.Z.Z.~.Z.~.iX~.%.s.z.d.L.u.q.M.D.z.z.5.`.oX8.d.d.8. .5.8.O.%.8.5.] I :.q.s.Y 9 . . . e S ",
"E.oXz.&X#X#X] O.s.d.Z.:.%.<.u.d.x.q.5.Z.x.5.s.s.5.z.J.u.( ( <.M.Z.x.%.<.[ I 8.u.~.%.[ :.I Y [ M.:.d.%.H Y x x 3 : 9 S :.z.8.%.W [ [ ( O.z.J.L.^.{.E.<X=X~.M. .5.q.x.L.L.{.<X^.{.z.:.x.Z.D.&X#X^.D.x.#Xu.%.s.Z.<.u.( s.L.`.2X. ( <.z.S . : > . 3 : V z.O.] ( z.x.8.] W %.q.x.M.s.d. .] s.5.J.D.d.D.%.O.8.Z.x.d.:.Z.D.[ h j m x > e j h h 3 x h 9 3 3 e h i > @ : @ * * * @ : e x S m V J.#X<X<XE.d.:.:.`.D.L.8.] O.5.u.%.5.D.x.d.^.M.<.5.d.<.:.{. .s.~.^.D.z.M.L.^.#X{.M.L.oXZ.5.m z.`.D.E.<X`.<.D.x.J.8.5.d.L.E.q.x.L.Z.M.O.M.d.Y 5.s.:. .8.x.x.d. .W x.8.s.H * . r V ",
"s.u.s.D.~.q. .5.O.:.:. . .[ I <.<.] %.Z.s.<.u.] x.8.8.8.d.u.8.^.`.q.%.u.u.d.{.qX{.D.O.S  . .5.d.d.~.E.Y m i 3 x I ( J.D.E.q.%.%.%. .[ W L.#X9X#X9X=X`.J.D.8.u.:.d.s.L.^.=XL.M.{.J.s.x.s.<.z.E.E.x.D.#XoXz.[ :.#XJ.D.qXJ.d.x.r Y 5.z.z.:.. . * . : H 8.d.u.`.#XZ.x.( I [ ] [ 5.u.O.u.s.O.s.{.x.^.E.Z.J.D.E.~.{.D.D.O.j m j @ . . j h . . : H h * . 9 9 . * 3 : @ . @ * > m %.u.s.q.z.] oX`.~.~.=X2Xs.x.~.^.d.q.( 5.5.:.D.M.s.~.J.oXE.x.q.q.%.L.#Xx.s.d.d.%.z.z.[ `.yXqXhXiX{.L.z.J.L.`.=X2X&X{.^.E.x.J.x.x.D.E.~.^.M.oXZ.8.s.d.J.D.oX&XZ.O.[ 8.Z.`.=Xx.J.u.L.%.%.. h S ",
"z.L.z.Z.E.8.] ( 5.8.<.5. .%.O.:.<.8.%.%.s.q.%.5.<.s.M.q.u.z.u.Z.J.O.8.z.s.u.L.~.qXZ.%.H W M.8.q.q.5.h > @ 9 . ] ] u.u.:.%. .W [ ] [  .i s.<X&XqX&Xd.Z.J.`.8.8.O.8.Z.L.#XoXu.`.#XD.q.q.q.O.d.E.x.2XL.M.%.Y 8.oXJ.s.M.J.D.O. .( V O.] u.8.[ * * . @ ( u.z.D.L.J.L.u. .:.%.] O.O.O.W :.d.z.z.u.z. .z.M.9XoX~.<.V ] h h 9 > . j u.{.J.O.5.O.[ z.d.s.M.<.O.3 . r V x H 5.%.H L.oXx.D.z.( s.&X{.x.{.D.`.D.J.oXoXu.D.#X=X`.Z.5.5.Z.oX2X&X#Xz.Y :.z.x.5.x.5.8.u.M.z.D.M.^.J.L.x.M.#X=XqX9XZ.J.L.z.`.#X#X8.=XiX<XE.Z.E.Z.&X#Xu.%.s.L.`.D.q.8.s.[ :.^.iXZ.#X~.=X8.u.8.M.d.:.e 3 ",
"x.s.u.D.~.:.x ( ( %.5.O. .O.5.5.q.d.~.~.8.( %.8.%.<.s.M.x.u.q.Z.u. . .u.W J.2XJ.D.W ( W 5.<.H S h V j i r i .  .:.W  .<.u.%.:.O.s.q.<.V z.iXyX{.~.d.5.D.s.d.8.u.d.Z.L.#X#XE.Z.d.M.J.J.x.8.D.#X=Xs. .5.[ S  .Z.5.8.^.x.Z.q.q.8.* H ]  .M.z.5.m * j [ 5.J.E.5.x.Z.q.5.q.<.%. .S S V ( 8.u.u.u.D.5.M. .[ W I Y V 9 i . 3 ] s.x.~.&X{.%.O.O.5.D.8.W ] Y H V ( 5.d.<.M.8.5.O.[ ] 8.O.O.I J.{.J.~.8.oXD.{.~.#X#XZ.L.oX&XM.] 8.E.Z.`.J.`.%.I J.5.<.( <.D.oXbXiX~.D.z.5.O.O.:.s.L.`.M.E.L.`.s.5.`.2X9X~.q.O.^.hXL.8.x.L.`.~.Z.L.#X<XoXD.x.d.( z.z.J.=XD.=XM.{.L.^.Z.<.M.8.h 3 ",
"d.[  .d.E.8.i S ( [ %.W %.8.u.%.<.oXoXs.5. . .Z.u.s.u.q.<.<.s.u.%.:.O.O.D.d.E.D.q.[ z.D.J.%.h h H . > j : 3 . W s.8.q.O.d.%.8.s.q.q.5.Y O.L.<X~.z.d.z.J.d.x.M.J.M.`.&X`.q.q.8.M.E.E.s.z.~.yX&X{.W W H e m  .M.^.Z.oXoX`.J.~.d.W .  . .[ Y M.M.<.. W [ <.8.x.#Xz.s.z.d.5.q.5.] %.e V <.d.d.s.Z. .h ] S V I e . 3 H u.s.O.d.u.z.{.^.%.<.8.%. .H I x S h W <.q.q.:.x.s.z.x.8. .d.5.> E.iXM.E.<X<X^.D.=XM.E.~.Z.^.qX5.5.O.M.&X~.`.u.[ Z.#X=XoX`.E.L.#XoXqX#Xu.D.d.:.] 5.5.s.^.{.x.L.M.Z.z.E.D.Z.J.q.5.[ s.z.u.M.M.M.M.d.5.<.M.E.~.2X~.d.s.%.%.q.x.`.Z.Z.Z.x.M.J.q.E.u.x : ",
"[ q.L.^.E.q.H I [ %.u.d.L.L.D.u.~.L.s. . .5.5.O.<.:.] [ [ <.Z.u.5.O.I s.8. .q.q.s.[ I H h m h ( i e 3 : . @ .  .J.%.s.M.Z.d.x.] 8.u.q.5.%.5.^.#XqX~.z.u.s.x.z.<.z.M.Z.Z.d.Z.D.`.u.M.M.{.{.`.8.[ O.H W x x <.{.<X`.~.`.`.oX<Xz.8.i H s.x.s.Z.{.&XI I V [ W q.d.q.J.L.M.q.8.<.%.<.%.%.u.s.q.8.x.W j S j e . e Y M.q.u.u.<.d.~.J.] Y S  . .( ] V i 3 H I 8.s.q.<.s.x.M.D.D.oXL.q.W > zXyXJ.M.8.&XJ.{.&XM.`.~.s.M.L.d.L.`.^.J.J.u.:.^.&X2X8.L.z.~.L.D.O.z.Z.z.&X{.J.s.z.d.u.L.E.`.iXL.s.z.9X^.~. .<.%.V Y :.d.J.~.oX^.M.L.D.z.L.^.=XZ.^.O.<.%.M.M.d.s.q.x 8.oXL.x.Z.u.V @ ",
"( d.x.u.%.( ] ( q.q.8.q.:.5.x.{.~.D.D.E.J.u.<.5.u.[ V (  .<.D.Z.5.s.:.x.s.q.Z.z.`.u.( W I Y j m > @ @ * . m :.O.8.5.u.M.x.O.%.x.D.D.<.5.<.:.x.E.{.`.D.^.x.`.J.x.^.D.z.M.L.M.~.{.oXL.M.L.d.8. .] I ( ( h (  .O.M.^.2XE.{.#X`.J.z.H e 5.q.Z.{.J.] O.9 S [ q.L.:.%.{.oXoX~.M.x.M.u.z.q.q.q.s.z.D. .j : . * x M.D.{.D.D.x.D.M.5.S m 3 e I I e . . : m m H q.J.E.<.5.E.d.Z.x.#XL.m @ d.{.:.s.5.J.Z.D.9X^.d.z.z.u.`.E.hXhX&X`.d.D.d.M.^.d.M.J.D.M.^.{.`.z.<X&XE.oX&X{.=X~.E.x.L.x.#XyXx.q.~.yX:.q.[ W :.H  .M.u.s.{.E.Z.( q.D.D.=X{.%.8.z.s.u.&XM.D.<.H u. .z.=XD.D.L.M. .i ",
"x V 3 > e j ( W :.:.O.5.Y m j W ] O.H I 8.8.q.oXz.q.<.8.u.d.M.z.z.L.d.<.^.L.<XqXiXx. .I I e > 9 . @ . i :.q.8.%.L.8.5.8.[  .u.d.5.z.u.Z.M.8.( V H 5.E.{.q.<.5.u.Z.] x Y z.d.x.u.5.u.J.J.5.( %.q.<.H ] V S O.u.z.E.^.d.q.8.:.O.J.J.r V u.D.~.D.M.^.@ m 5.#Xq.i I J.E.~.J.s.d.J.s.8.5.<.<.z.x.M. .x @ : S Z.oXs.~.D.u.d.z.S V V 9 9 . 3 I O.[ H m ( S Y O.u.x.:.8.z.x.oXJ.^.O.. m L.J.5.q.%.L.#X2Xz.u.x.x.D.`.yX~.~.#Xq.d.u.D.oX~.Z.E.`.=X`.^.Z.z.D.M.9XoXL.^.<X<X`.`.`.M.J.J.#XD.^.=XZ.x.J.d.%.] s.M.q.<.:.s.D.%.<.:.5.s.^.2X&XoXZ.8.u.L.L.8.( x. .z.u.( J.^.E.J.x.5.S ",
"O.%.] S e : : * u.:.] ] H h 9 9 i : 3 m O.Z.D.5.O.u.x.s.u.s.8.8.~.8.( q.O.Z.{.`.8.I h 9 9 . @ > . : Y x.M.:.:.5.5.M.x. . .] %.s.s.q.5.Z.s.q.:.O.h V O.q.8.s.D.L.d.5.q.5.<.%. .<. .[ [ I 8.u.x.d.M.%. .V O.M.E.9XoXx.5.[ 8.d.( ^.L.<.I  .q.^.&X=X&X( h V s.q.Y V d.L.J.M.s.s.Z.s.z.Z.u.%.u.q.d.<.S : :.^.J.z.z.q.:.s.%.x 3 3 > : i %.s.8.d.E.z.W h I q.s.8.5.Z.oXq.J.9XJ.8.e * x.<XM.8.M.^.u.`.J.8.q.Z.x.x.{.=X~.~.`.d.Z.oX&XiX`.9X<XE.D.&X&X~.~.u.5.Z.~.~.^.^.J.5.D.x.d.x.J.L.z.D.L.D.Z.d.<.d.8.q.s.W H 8.z.5.:.( ] r S L.E.8.q.E.d. .M.J.m [ <.8.q.q.] z.d.M.#Xx.d.[ ",
"8.:.%.I S [ W Y W Y ( H H j x h j W Y S I H I %.z.s.5.S i i m q.u.O.%.8.Z.s.[ m i e . . . 3 * . x ] q.O.O.%.8.~.:.%.%.I  .W <.s.5.H ] ~.Z.M.s.q.S I m d.O.J.M.~.Z.s.s. .H %.[ s.q.M.s.Y J.^.{.E.5.m ( I  .z.M.J.<.D.8.5.x.M.5.Z.#XD.x S d.J.oX`.{.s.: ] s.d.%.W h <.q.s.x.z.x.s.<.Z.Z.z.~.L.~.L.S ] d.8.<.q.L.d.x.W 9 @ 9 . * h O.<.%.] W ] %.<.i m %.Z.{.~.oXx.d.<.J.5.3 * %.{.#XZ.D.=XqXL.D.q.Y %.M.L.D.`.D.~.9Xq.<.d.yX=X{.J.x.M.D.oX^.&X{.L.q.( ( E.<X2XoXoX~.&Xx.`.D.8.%.J.~.L.&X^.8.d.q.<. .( ( I %.s.O.( j x W d.q. .8.8.] 8.M.oXz.O.Y %.] q.:.<.{.^.L.8.W ] x ",
"[ d.q.u.] O.O.:.V O.( Y W i ( ] [ Y ( O.( x I 8.q.:.( [  .<.s. .:.V S ] V j j e . m e h I r . ]  .] 8.5.:.u.E.d.] :.u. .O.z.d.z.( 8.x.d.D.s.O.W H (  .D.J.s.D.[ W I 8.D.M.d.<.<.oXoXx.O.d.u.`.u.V V  .W L.#X^.s.%.q.u.] 8.x.~.oXM.qXu.e x I  .x.2XoX. <.M.<.O.[ I x ] ^.`.Z.E.M.J.D.x.`.iX8.m i H :.Y x Y  .I * . 9 S [  .( :.Z.]  .W [ O.u.^.[ x : V <.8.5.q.L.~.8.d.I . s.9X`.Z.`.M.5.^.D.8.s.:.%.E.L.d.8.u.Z.`.8.8.z.:.L.oXq.`.{.s.D.#XM.5.%.Y V L.`.#X<X`.Z.&X#Xx.#X{.q.~.`.<.M.`.z.M.M.x.~.E.] q.d.r m Y O.5.d.&Xz.u.j m [ u.] I q.Z.[ S u.x.%.%.:.M.#XD.%. .H H ",
"5.s.5.[ %.%.z. .O.q.( ( V 8.( ( <.W H  .s.z.8.%.<.5.5.5.O.<.d.u.] I m V m 3 @ 9 H r H Y 3 I 5.H x.J.u.L.z.8.E.O.d.u.u.x.^.z.H ( ( u.u.D.x.x.[ ] d.x.^.J.^.oX%. .Y  .J.`.u.d.J.&XJ.s.8.%.%.H ] Y O.s.8.M.Z.M.<.8.q.x.^.L.`.&X{.^.u.yXJ.( * j W u.&XzXx. .5.D.q.O.Y S m u.~.x.z.L.z.:.:.( h * : 9 e i e e i x ] 8.z.%.d.O. .( s. . .:.x.d.d.d.x.H j @ r W 5.x.z.z.Z.D.Y 9 W 9XD.J.oX`.d.u.~.{.z.8.x.M.O.<.H :.L.oXq.d.Z.J.u.Z.~.{.z.s.L.L.Z.d.( ] <.s.{.~.E.qXmXqX&X#X2X2X2X<X#X&X2XE.=XVX`.{.~.`.z. .8.d.W :.Y  .J.#Xq.Z.x.O.8.E.E.u.8.u.[ j Y d.s.O.I O.z.&XD.m ] W S ",
"5.S [ h I [ [ H Y ] I  .O.q. .:.W :.u.u.q.8.5.:.:.:.q.q.<.:.W j m m S * @ 3 H x Y ( m j ~.<.O.`.=X=X&X^.<.s.D.~.L. .s.&XD.H S x.`.E.E.z.D.q.u.u.Z.<.L.^.#X<XS :.O.q.&X2XD.^.&X9XJ.E.( ]  .d.W <.q.<.%.{.z.5.q.M.~.=X`.&X`.L.D. .s.Z.J.%.m * ] q.s.d.5.V %.5.( <.( j x W W d.qX9Xd.j 9 3 . 9 i V S I O.<.d.oX2X2XM.( W W I W :.] :.:.J.s.d.z.J.u.S . @ x ( <.d.^.J.8.j @ E.{.z.^.{.<X<X<X`.oX`.{.=X#X~.s.u.[ 5.H ( q.{.=Xx.E.{.J.J.5.{.~.u.Z.q.[ s.D.{.=X~.`.#XJ.z.M.s.s.z.Z.Z.s.J.M.#XoXd.8.u.u.O.W 8.( x %.( %.{.Z.5.Y  .z.M.J.W :.W V [ :.8.E.=X<.:.u.[ E.hXY ] %.V ",
"L.%.I [ Y Y  .] ( O.x ( d.x.x.[ Y O.8.s.M.J.M.u.z.8.q.%.O.O.m 9 r @ . x : j m H h . j ] :.q.J.8.x.L.z.s. .5.J.x.E.8.d.D.M.L.~.s.~.M.:.O.( ]  .u.s.<.L.<X^.#X%.<.O.8.<X2X`.{.~.u.oXoX=XD.M.O.q.d.J.z.D.~.d.8.~.^.`.{.J.~.z.Z.D.q.~.d.D.5. .. S ] 8.u.( h q.u.8. .:.%.H m  .q.:.H V 9 * j  .D.M.J.q.x.E.5. .Z.J.d.z.<.( O.:.%. .5.( %.E.~.E.D.x.:.Y . . 9 j I 5.{.z.S e r 2Xz.J.{.^.=XqXiX<X9X2X<X&X#X<X&X`.`.q.O.5.M.oX#XJ.qX<X<.<.J.~.u.q.8.O.q.~.E.~.2X^.L.x.q.q.~.^.D.x.Z.D.q.d.x.D.5.s.d.s.] M.8.Z. .z.oXx.s.d.s.d.5.%.q.9Xu.x %.H e I ] [ Z.Z.M.s.<.E.{.#Xd.( <.m ",
"d.V ] 5.[ q.I ] 5.s.( M.Z.q. .Y O.%.<.5.:.[ W Y i j V r > 3 @ : . 3 e 3 H S r > j :. .u.8.`.s.5.[ d.`.L.J.~.L.5.%.M.Z.8.8.x.Z.u.5.%.[ :.O.%.<.u.Y s.D.D.d.&XD.q.8.z.hX9X=X{.^.q.<.iX2X] u.%.D.M.^.^.J. .J.#X^.x.s.x.=X&Xx.D.q.u.Z.L.u.z.] V m ] u.M.V : :.D.J.:.O.( m x W I e : . :.D.J.s.D.D.u.D.J.`.d. .q.d.z.<.5.s. .q.O.u.u.D.J.Z.L.d.s.8.O.H @ . @ 9 S [ q.W j . <.#X`.E.D.`.{.oX`.=X<X<X#X9X&X=X<X&X=XL.`.E.=XE.z.~.zX&Xx.J.L.oXE.x.E.L.s.s.d.D.{.E.^.x.s.M.Z.#Xd.x.=Xx.8.z.q.5.M.u.D.s.] J.s.D.d.^.oXd.E.u.d.x.d.H W D.5.<.I I s.~.D.s.z.`.O.q.J.E.9X&XO.[ <.H ",
"> @ * H O.5.q.W [ :.q.s.5.Y V [ :.%.%.[ x @ . : . : 9 @ . @ @ 9 h r m i S > S 5.d.s.z.J.z.s.<. .<.u.<XM.M.~.s.<.8.u.s.M.M.u.u.5.%.( <.%.q.%.u.5.d.x.8.d.#XiXJ.{.^.oXVXqXyXqX9X{.~.J.u.&X<XL.D.d.M.I  .%.<.`.E.( ] D.^.9X^.z.~.L.=X<Xu.E.5.[ 9 i <.u.x . j 8.u.q.<. .8.:.V e > : 8.L.~.~.Z.#X<X8.O.s.~.J.s.s.M.J.{.D.^.M.%.( u.8.Z.D.u.L.z.x.8.:.Y * . @ @ 3 x  .Y 9 i {.J.oX#XL.2X<X=XE.^.^.<X2XZ.Z.Z.J.<XL.&X&X`.`.x.z.Z.`.~.^.#XM.Z.8.Z.2XD.u.:.u.^.2X&X`.D.J.J.q.s.z.J.L.q.q.s.Z.D.^.^.L.x.q.5.e  .J.Y I  .u.~.E.&X<.u.D.Z.Z.D.<. .5.5. .8.`.J.O.Y q.M.9XJ.d.5.<.O.",
"3 . @ @ x  .8.5. .5.8.( s.~.`.D.{.s.%.u.J.D.q. .j j @ . > i m S S [ m S @ O.d.`.u.x.M.8.oXs.:.5.E.^.%.5.d.u.Z.] ( 5.s.z.u.d.s.H q.8.%.5.( 8.8.5.oXJ.8.^.hXE.<.E.&X2XiX9XqXiX`.E.z.u.:.q.=XE.{.`.M.`.D.E.&X^.z.<X#XhXx.~.^.u.=XE.&X~.M.E.^.<.H i %.{.x.@ 9 :.q.<.M.z.[ i j r 3  .<.J.<X#XZ.q.<.Y q.2XbXoXq.:.z.E.`.z.z.D.%.O.q.z.q.<.:.z.d.Z.q.z.W @ . : . . : Y ] e d.<XL.~.&X<XbX&X{.~.E.&X9X{.z.J.<.x.M.E.E.^.^.Z.s.Z.s.x.D.^.^.d.D.s.8.L.L.M.z.Z.D.D.M.q.z.z.s.z.D.qX=Xu.8.u.8.D.D.d.`.L.L.u.s.. Y D.Y W s.] :.~.{.q.&XoX&XD.D.z.%. .8.8.q.M.q.x.O.%.d.d.H I 8.( <.",
": > . * @ . : 3 * 3 . u.J.L.M.J.L.x.s.d.s.8.%. .m V * : m Y ] W Y Y m r s.Z.M.u.%.%.%.E.#X~.d.J.~.L. .s.z.q.q.O.5.E.s.%.8.q.q.5.<. .O.W Y  .q.:.z.<X9XZXiXx.J.L.#XhXzXVXyXqXs.u.J.E.L.s.d.`.#XL.`.oX^.#X#X{.<X<X&XM.8.8.#X#XD.u.J.^.=X`.^.<.O.i V oXE.x x ] s.5.8.H V x > . .  .%.`.qXM.x.8. .8.( J.D.q.O.[ 8.u.J.M.x.:.u.O.<.:.s.O.8.8.8.u.] 8.I . . @ : > @ : m ] 2X{.<XqXJ.qX<XZ.M.~.z.oX&Xd.E.J.D.8.J.{.~.^.&X#Xu.q.M.D.x.#Xz.#XD.Z.`.D.D.E.^.2XD.%.<.5.J.<.`.^.=X2XyX9XM.:.<.s.Z.J.O.s.#XJ.M.( O.Y O.[ E.z.:.z.oXd. .s.%.L.D.8.s.M.5.5.u.%.( ( u.d.M.u.x.S  .r  .",
". . . @ * . @ * . . * 9 i O.5.O.] <.8.O.( [  .( H : > x m Y  .Y m > S D.`.8.[ s.s.( 8.=XyXJ.`.~.s.<.q.D.u.( %.~.^.~.E.^.#X{.D.q.I H [ q.<.5.d.Z.8.~.{.{.~.`.^.<X2XVX9X=XJ.q.E.L.oXL.oXZ.M.`.2X<XzX2X<X{.oXD.Z.z.x.s.z.:.~.hXoXM.D.qXqX{.s.[  .W * O.:.[ . r Y Y j V i 3 e 3 r ] [ 5.x.u.[ O.H Y u.{.E.O.] 8.d.x.{.^.M.Z.{.<.]  .x.M.s.q.d.s.u.z.H . @ . * @ x . [ E.^.{.=X=XJ.E.^.D.^.`.oX`.oXJ.^.E.M.z.~.`.J.<X{.J.J.x.x.D.z.x.`.^.u.5.z.M.{.<X~.M.d.%.] H O.d.q.z.{.&XyX~.8.z.5.L.Z.J.8.8.8.`.d.O. .q.<.5.5.s.8.^.2Xz.V O.:.L.&X~.L.Z.D.E.u. .<.u.M.Z.qX2XhXH 8.O.( ",
"9 V h e * . : . 3 @ 3 Y h : @ e h r e e e e r h x . . h j * * * r z.<X#XE.~.E.s.q.O.Z.<.V q.<Xz.D.x.M.D.J.z.x.J.~.oX#X^.x.[ S H W <.<.( 8.5.8.u.s.{.yX<X#X&X^.d.x.u. .q.8.O.d.J.`.x.z.D.L.Z.s.x.d.~.&XM.q.O.:.O.J.`.D.~.^.&X<X{.#XD.x.d.I r H m : . e u.@ . j D.d.9 e * . S 5.<.W I u.L.x.%.O.x.D.M.( W 8.u.J.#XoX#Xu.Z.Z.L.u.u.:.8.z.Z.M.q.q.M.<.S > . m j 3 8.`.^.q.Z.x.z.L.u.E.D.^.{.&X2XqX&X#XE.M.5.E.`.^.<XJ.Z.M.z.z.M.Z.L.{.^.E.s.J.J.~.`.L.:.W %.[  .O.J.:.5.x.9XyX<X8.#XL.`.oX8.] x.&XoXZ.u.d.D.<.J.D.9X=X8.%.H q.[ d.~.&XZ.3 x %.<.O.O.u.L.M.`.9XqXE.q.z.8.%.",
"u.:.d.%.Y Y r V  .8.z.d.( Y S x e @ . : 3 * . . r h : : > . . @ 8.Z.s.s.J.oXoXu.I %.J.x.s.<.:.M.E.d.z.z.D.q.u.s.x.x.<.Y W ] %.d.q.z.x.E.z.Z.M.J.x.M.^.x.5. .:.( O.%.O.%.q.Z.L.Z.Z.:.<.E.d.u.x.M.d.x.Z.8.<.:.u.s.Y :.J.{.~.2Xs.`.d.8.<. .x m W h i . . ( <.D.q.D.^.%.: : . i <.<.[ W x.L.D.u.D.oXD.<. .M.u.O.z.8.z.J.s.x.s.u.<.O.D.u.u.x.d.8.s.Z.z.H L.M.q.] [ x.z.5.z.x.] ]  .5.s.J.#X9X<XqX2XoX<XoX{.z.&X`.L.E.8.s.z.L.`.{.{.^.M.J.oXD.Z.Z.D.=X#Xz.8.u.:.O.( u.~.D.~.{.L.L.M.z.^.#XqX<.( u.M.%.W q.q.D.z.[ x.5.8.%.[ d.z.%.%.D.=Xs.H i ( <.I q.d.&X~.~.D.z.#X~.q.%.] ",
"S  .O.s.q.O.d.M.u.O.( ] h h V ( s.5.O.[ ] ( I V S I H I W j V Z.d.`.D.E.{.{.E.( 5.8.z.s.d.Z.Z.M.8.O.d.M.{.d.u.:.O.( j > S <.8.z.Z.~.=XZ.L.#XyXD.x.] m h S ( :.[  .[ 5.s.M.L.D.L.M.^.M.~.#X#X&XqX`.Z.8.%.5.s.z.s.[ 5.q.x.5.L.J.x.Z.d.W j I ( H j e m [ <.~.L.z.Z.[ 9XE.> . . ] ] W [ Z.~.D.z.z.5.%.Y [ <.Y O.D.q.`.~.x.x.8.5.z.D.^.x.d.d.8.5.q.8.%.:.`.ZX<Xq.@ O.O.I %.:.:.z.O.x.L.<XyXyX#X9X9XqX9XoX{.Z.{.J.M.L.`.E.x.J.{.{.`.M.s.#X2X=Xd.J.x.E.J.Z.x.q.x.z.x.5.s.yXhXJ.J.q.M.:.E.oX=Xu.5.u.[ <.M.s.x.8.q.q.x.u.%.D.<XJ.^.q.<. .`.J.s.I W Y s.5.M.x.E.q.q.D.`.&X:.] I ",
"L.L.Z.x.Z.M.q.] u.Y H q.8.<.<.d.q.u.M.L.E.D.Z.D.s. .[ [ <.] m d.u.{.`.&X&X`.~.%.:.d.:. .d.{.J.[ S H  .( u.u.x.5.Y S Y W 5.d.q.M.M.#XE.~.^.=Xs. .j ] [ ] ] %. . .j [ x.d.Z.oXM.<.M.z.z.J.~.`.&Xd.M.M.8.O.O.s.s.:.( [ u.8.[ ~.=X5.( Y S W  .H j ( [ [ d.L.~.s.d.O.:.L.9Xd.3 3 > %.<. .%.z.u.<.%.O.( :.<.] u.^.D.z.M.D.%.x.%.x.q.8.d.d.x.u.O.5.z.d.8.H Z.{.=XqXE.9  .5.O.<. .%.5.d.Z.#X2XiX2XqX#XoX#X`.#X#X&X^.L.=X{.~.z.J.`.^.^.M.:.=XqXqXJ.&X#X^.^.`.s.<.J.^.oX%.J.`.=X#XL.J.E.%.E.L.`.x.q. .S 8.d.u.d.E.z.&Xx.z.5.J.2Xs.D.oX^.Z.L.L.M.W ] [ z.%.5.&X`.^.z. .8.=Xu.:.] ",
"z.( M.u.L.yXs.M.:.%.5.J.E.{.D.5.E.x.Z.^.M.[ ( 8.oXJ.J.8. .W S 8.J.{.{.oXs.V V V %.%.%.M.q.:.<.W O.[ [ x m S s.~.~.s.E.&X&X~.M.oX{.E.oXoX{.O.Y Y ] 8.<.q.u.s.O.<.s. .u.~.{.Z.<.s.M.J.z.d.oXJ.z.z.z.u.%. .W ( I S ] 8.`.O.8.J.O.x  .( ( x 3 i S ( :.z.M.~.x.s.M.d.u.Z.{.^.( m . m S V j O.:.[ S V x H [ Y 8.D. .W M.`.s.q.%.z.q. .%.q.d.q.u.J.{.^.:.j I ^.L.^.oXZ.x ( D.9X#X=X&X`.L.L.M.J.`.#X{.oX^.`.2X9X#X`.E.&X&X&XoXoX{.E.Z.d.L.2XiX2XJ.u.`.#XE.~.%.%.:.d.x.%.{.~.oXD.9X<Xz.d.%.W d.<.O. .u.D.D.J.d.`.Z.`.^.E.5.:.#Xd.J.d.q.<.{.`.D. . .5.Y 8.J.~.yX~.z.d.O.Z.d.<.[ ",
"u.D.^.=X`.x.J.^.~.J.J.oX^.{.E.D.2XL.Z.J.u.Y ( d.Z.s.Z.L.( * I ~.oXD.O.H S Y ] Y S z.Z.J.z.O.m ( ] I I V i > V 8.<.Y z.^.E.L.x.E.{.`.~.Z.W [ 8.q.Z.z.u.u.q.s.~.hXoXD.x.z.s.u.z.^.^.D.J.E.E.Z.d.z.Y m x %.:.O.] :.q.L.5.V q.O. .[ H j j i m  . .[ z.x.u.Z.z.z.z.^.u.Z.oXD.2X. . i ] %.m m [ <.8.5.V r m V H 5.u.z.5.E.J.8.x.s.q.W :.s.z.M.E.{.^.L.M.q. .:.yX#X{.^.#X:.Y %.z.<X#X&X^.J.Z.L.#X^.E.`.`.`.#XM.d.M.L.^.~.~.{.{.oX&X#X&XoX^.=XoXD.5.E.=X9X9X{.Z.%.%. .:.q.Z.2X=X2X~.J.D.s.q.x.8.%.s.~.^.{.s.L.x.d.M.s.D.O.] q.oXM.D.%.:.~.&X<.8.%.W ( q.8.u.oXJ.u.x.J.u.<.[ I ",
"D.9X=XyX<XE.&XE.<.s.D.oX^.=X<X<XJ.Z.~.#X~.q.:.u.L.u.<.J.8.H :.] :.O.O.[ ]  .<.d.8.u.J.M.] u.:.I [ H h m S Y I Y 5.O.L.Z.<.d.x.Z.q.s.<.] %.8.s.x.z.8.d.z.J.^.&X~.L.J.E.^.D.d.L.qX^.E.J.~.{.E.] ( ( %.u.`.J.d.O.%.E.[ %.W [ ( S x S > > I O.j j `.{.L.&XJ.<.Z.`.M.8.^.{.M.qX<.3 @ I O.x > I ( :.<. . .( ( O.O. .:.u.M.] W 8.Z.M.x.x.D.M.d.d.u.s.D.[ x.5.[ <X{.J.=X<XoXI H H x :.oX&X`.E.Z.E.u.z.`.~.`.<Xs.x.~.&X`.z.z.~.oX2XyX#XoX2X{.=X{.^.oXD.5.z.d.`.q.:.:. .5.8.=Xd.2XoXD.x.D.5.~.D.^.E.#XJ.E.`.J.5.D.s.5.z.d.~.x.~.~.x.d.&X<Xz.8.z.J.D.M.8.8.q.:.5.M.d.&X( H %.W S ",
"~.2X2XoXZ.D.M.I 5.D.d.x.#XqX2X`.&X^.D.D.2XZ.] Y <.Z.<.W ] (  .<.z.%. .Y ] x.D.Z.8.( :.O.%.d.%.O.O.H W W W <.:.[ W z.z.5.s.^.J.d.u.:.q.s. .5.M.u.z.5.s.`.Z.`.Z.~.x.~.^.z.M.s.Z.~.L.{.`.=XL.q.J.z.8.%.x.] W [ <.M.d.q.O.W ( ( m 3 . V O.O.V x E.Z.M.D.Z.M.J.{.&X&X#XJ.D.M.L.D.m . e Y S x r r %.O.O.<.q.<.[ 8.d.5.d.L.%.8.z.J.{.`.Z.J.Z.J.{.`.L.L.s.d.Y x J.`.&X&XyXqX`.* h x  .%.L.{.E.{.&X8.<.D.L.&X=XE.#X2X~.{.^.#X=X`.oX&X=X`.{.L.`.^.`.~.~.d.:.q.8.E.E.q.D.J.<.u.s.^.D.E.x.Z.z.~.~.`.D.D.M.z.z.s.d.d. .q.q.x.E.u.J.x.J.`.2XqXD.8.d.s.8.s.d.x.x.s.&XZ.8.<.q.] 8.%.r ",
"<X`.~.s.u.z.s.=X`.Z.u.E.x.D.<.%.<.Z.s.{.`.S %.%.I q. .%.] x 8.J.E.O.:.5. .5.8.I [ I O.s.z.u.:.8.Y [ 8.]  .<.q.x.%.s.E.D.`.u. .H W <.d.O.[ x.d.M.M.D.L.E.^.Z.x.z.E.d.:.[ 5.M.L.D.#XL.`.^.~.z.Z.d.z.Y :.] ( 5.5.W O.Y H H h . . V 8.M.:.i > D.x.D.d.d.d.x.Z.x.d.u.q.^.x.~.oX`.J.. 8.H [ %.O.e > %.q.<.q.M.x.q.s.M.z.~.s.s.L.~.`.d.s.%.M.^.Z.&X&XO.8.%.%.9 oXJ.&XD.=X&X~.5.: x I %.m :.:.L.~.z.q.J.E.yXzX2X=X`.x.D.`.{.oXL.`.{.{.J.^.=X&X^.&XoX`.D.q.E.oX<X{.J.E.u.L.L.x.L.^.{.^.<.:.<.x.u.O.[ 5.^.u. .] %.q.L.~.E.d.q.u.s.M.J.9X2XZ.] m I 8.L.J.x.d.L.Z.x.] Y 5.] <.] > ",
"{.d.8.u.:.z.&X#XJ. .z.J.J.E.Z.5.q.8.%.d.M.5.D.5.Y <.<.<.Y h %.J.L.z.5.8.5. .[ [ %.<.:.q.s.u.s.u.5.z.x.q.d.x.O. .<.L.`.#Xz.q.O.u.`.D.s.d.s.x.5.x.D.E.J.Z.E.u.s.[ d.8.q.u.5.M.J.z.d.d.E.~.q.u.O.u.M.q.x.:.<.8. .( ( W i . @ e W d.D.[ m V L.d.E.u.z.d.x.J.Z.s.8.u.x.D.J.`.^.&X9X5.H O. .5.[ Y x I 8.O.O.u.s.:.5.D.`.D.u.D.#Xz.z.u.%.s.z.s.x.E.J.u.d.5.q.x &X#X<XJ.E.oX#X~.5.x . h m x V L.9XE.8.d.M.<X2X#X^.Z.L.=X^.~.L.x.L.`.&X`.{.#X~.#XzXJ.u.x.M.L.~.D.x.`.9X&XyXd.<.L.=XE.=Xz.{.L.5.[ :.%.Z.x.x.d.s.L.E.&X=X{.s.x.5.u.d.q.oXL.<.%.[ <.d.q.5.:.u.x.M.8.<.u.<.Y O.V . ",
"`.^.M.Z.z.x.L.%. .W ~.J.z.%.q.] ] Y ( W ] z.~.8.5.%.u.( V ( Y :.I  .I  .s.5.5.q.( [  .%. .Y  .s.q.M.Z.D.d.x.[ [  .u.J.D.D.z.M.M.M.M.u.oXx.u.^.`.J.J.J.L.z.8.u.%.q.u.u.M.d.`.&X=XoX^.L.z.O.M.<.s.z.M.M.5.q.<.S m r : . 9 :.s.:.O.( h r &XD.%.d.E.D.J.L.E.J.D.E.oX^.Z.z.`.{.{.<XD.h ( W %.W Y W V %.5.O.( O.8.s.Z.d.M.s.5.8.<.x.z.J.z.8.q.d.u.<.%.5.5.q.] `.9X#XZ.#X`.yXd.<.] Y . r m [ :.~.^.{.J.8.D.J.#XyX&X#XoXE.~.^.D.E.^.#XoX#X#X~.&XyXd.8.M.d.s.oXyXqX9X{.J.Z.oXD.x.qXD.s.x.L.D.^.u.q.Z.L.&X`.D.5.Z.x.`.L.z.d.D.q.x.x.8.L.z.%.z.s.u.%.S W :.x.z.5.5.<.L. .%.W h : ",
"E.<.D.D.8.d.u.:.:. .:.J.M.<.W e i m H  . .d.{.d.d.:.5.H H <.Y Y :.8.5.q.%.:.z.8.[ ] ] Y ] 5.u.z.J.z.x.u. . .W W u.z.L.M.u.O.5.u.u.E.d.x.u.M.J.( z.z.Z.x.u.%. .s.J.J.u.M.`.qX{.~.J.J.J.[ <.q.x.8.8.O.:.[ h 9 * . . r H O.8.O.W ] x @ d.d.M.{.D.^.^.`.^.E.~.oX<X2XE.M.=Xz.q.~.z.{.z.S  . . .( Y I [ z.d.:.s.E.E.M.Z.`.M.%.j V [  .] [ :.d.x.5.:.z.q.5.u. .D.&X#X~.qXoX=Xx.8.d.s.( j 9 Y  .x.u.Z.M.D.#X&X<X#XL.#X9X~.oX2X{.~.D.E.E.&XqX9XoXE.s.Z.x.L.8.M.~.oXoXJ.Z.q.q.Z.Z.{.{.L.~.VX=X5.s.Z.E.=X&X5.%.:.q.q.u.8. .q.d.q.D.E.D.L.J.Z.J.u.q.q.%.8.z.q.s.%.q.Z.:.:.:.I r h ",
"D.J.8.:.Z.s.] 8.:.M.L.`.Z.%.:. .I ] <.8.u.#X&X~.J.Z.5.] ] [ Y m Y V i i m [ :.Y ( I [ O.%.8.5. .O.I 5.] O.%.s.q.<.M.x.5.j [ s.E.<.L.E.5.8.d.u.Z.M.d.u.:.E.u.] s.d.^.`.oX&X~.5. .O.x.x. .%.[ :.W I V r 9 . . 9 ( 8.%. . .O. .I j * <.s.x.D.J.<XE.&X#X^.E.{.<X=X`.D.=X`.x.8.s.E.{.#X<.h :.O.d.s.5.H <.x.D.^.{.J.q.E.M.5.5. .5.8.<.V q.D.x.<.W ( s.8.s.s.M.s.`.^.`.~.^.{.M.x.:.( 5.i h ( ] s.<XzX&XyX<X^.^.oXoX^.D.{.&X2X`.J.x.~.&XM.O.d.^.`.Z.L.J.J.s.s.x.{.qX&X=Xx.d.J.L.D.E.Z.qXE.s.8.u.d.E.8.5.%.<.=X`.oXM.D.x.z.u.8.L.{.~.M.J.E.~.D.Z.z.5.:.<.( <.8.q.L.Z.z.8.] i S ",
"D.D.:.q.D.^.#Xz.^.^.`.x.5.I ] [ %.d.~.Z.d.`.M.#X`.<XD.O. .] I h > H :.%.( Y ( 5.W I z.9XZ.Y  .5.H %.Z.:.O.8.M.D.qX<XoX5.8.z.E.8.Z.z.D.5.Z.u.8.{.Z.s.8.s.{.~.d.u.O.Z.&X{.J.q.8.q.L.^.<.[ Y ( m i r e . 3 H W ] ^.x.( ( <.[ V V S d.q.x.x.Z.{.M.^.^.E.J.J.E.^.^.E.=XJ.Z.z.Z.^.L.Z.oXL..  .] s.D.M.I W 5.J.^.L.x.u.~.J.x.q.q.J.M.[ u.q.x.u.] <.d.%.O.d.M.#Xs.M.M.D.=X#XiXZ.u.u.z.O.Y 3 m S I O.J.#XiX=XE.d.x.`.{.`.oX&X2X{.~.J.&XiXoX] 8.E.^.u. .%.q.d.s.d.`.<X{.oX9X^.oX^.D.<XL.Y [ <.%.s.L.{.{.M.u.O.~.s.M.x.M.J.^.z.:.J.^.M.:.u.M.z.M.d.%.( I W  .5.:.u.:.<Xx.J.8.h S ",
"E.8.d.8.%.E.{.d.{.s.<.u.m V V s.d.oXL.qX&Xq.<.J.{.iX&X[ ] q.Y h 3 . x [ Y  .%.( [ <.q.x. .%.E.5. .Z.d.%.:.&X^.^.9XE.u.q.8.M.z.%. .q.~.s.d.O.d.q. .] %.~.5.M.J.%.s.s.E.Z.x.s.Z.u. .[ S r e @ . @ r h H s.%.S V 5.8.] W x > H z.M.Z.8.~.oXL.E.oX&Xu.u.d.x.d.s.Z.`.2XZ.x.8. .d.E.E.`.=XI . j O.q.[ 5.( O.x.D.Z.L.E.D.d.J.M.u.O.8.q.J.#Xz. .s.d.:.8.~.E.oXL.s.O.{.<X=X^.z.q.M.s.] :.I . h i W S O.( ^.^.oXE.~.<XoXE.oX=XhXyX9X{.#X=X#XD.oXd.q.x.s.s.5.x.s.s.`.oX`.2XO.J.&XoX~.^.{.&XJ.x.J.E.#X^.D.z.q.:.L.z.:.Z.M.<X#Xx.] M.E.q.] :.s.] %.8.u.z.:.] <.O.d.q.J.( z.z.M.j x ",
"s.D.q.( :.L.:.u.:.d.s.O.z.d.M.E.<X&XZ.Z.Z.d.5.D.M.`.O.u.E.8.3 i r . . V ] O.8.:.8.W x.s.:.q.M.L.d.E.Z.s.^.Z.E.~.L.(  .d.z.s.8.s.<.`.E.Z.q.j  .M.u.x.s.z.%.d.5.%.E.&XoXL.u.d.s.r m r * . 9 V (  .%.J.{.O.j i . . * * h  .&XVX5.q.z.x.Z.M.E.#XyXZ.s.s.z.z.x.^.=X#X8.z.L.oXoX~.M.u.E.oXE.. j u.D.z.d.q.^.^.M.u.`.:.:.d.x.s.:.x  .H Y :.M.J.2X&X&X&X~.~.L.u.q.> [ :.~.Z.u.S S M.x.I * . . h i V I Y Y Z.#XqX<X{.9XzXqXZ.s.J.qXZ.Z.u.%.E.#X<X^.^.E.&X{.~.~.Z.^.2XE.u.D.Z.J.J.M.<X&X^.5.~.J.E.oXZ.u.8.u.q.E.s.u.9X=Xz.{.~.D.oXoX:.u.q.<.q.d.x.M.Z.M.M.q.x.8. .z.{.~.z.s.W r ",
"5.u.8.q.V 8.H [ :.:.%.O.J.~.^.{.<Xs.q.<.I O.x.%.%.<.d.<.M.x h @ @ > i j <.u.Z.`.d.5.x.%.%.`.M.Z.x.%. .8.M.[ [ <.:.M.L.u.<.d.z.d.<.z.s.5.5.] V <.E.{.L.J.u.x.x.{.2XqX9XE.%.S @ e ( ( O.q.d.M.E.`.{.J.Y 9 * . 9 j [ s.D.2XFXbXd.x.L.{.^.L.=X&Xz.] d.L.M.Z.=X2XJ.d.M.M.E.&X#XJ.x.Z.D.oX^.S H s.E.d. .E.s.q.J.x.<.q.~.d.s.D.M.O.:.:.u.M.D.^.`.5.d.J.~.J.`.Z.8.r Y ( O.q.J.^.#X<X=X<Xx.<.d.O.I i ( Y O.s.~.L.d.M.^.&X~.L.#XZ.Z.s.L.E.M.^.L.L.L.{.`.&X^.^.&X`.L.J.x.D.E.J.8.O.u.<XqX~.<.q.z.u.M.J.q.x.M.q.L.D.Z.&X<X9X&X{.M.L.D.<.d.s.J.D.D.Z.M.d.8.:.z.z.q.8.x.Z.q. .<.V > ",
"x.O.8.%.] [ I [ M.5.( W M.&XqX2X`.L.<.S %.] Y ( <.u. .d.:.W : : i s.Y .  .q.Z.:. .x.u.j Y ] z.O.(  .s.8.5.<.%.W ] d.q.O.%.O.( Y S [ I  .d.L.M.=X{.J.M.x.L.L.&XhXbX{.d.h 3 5.oX9X^.^.<XqXoX{.2X9XD.S x i W 8.:.{.#XqXx.:.q.x.M.~.L.J.<XqX`.d. .s.E.J.&X<Xs.(  .:.Z.M.D.^.E.x.z.Z.z.`.E.:.r O.J.x. .E.q.5.x.D.u.J.8.O.8.z.%.( W <.D.D.q.z.Z.%.q.8.q.`.d.J.^.9 * m  .oX<X~.`.=X&X`.{.Z.d. .z.m x Y :.:.z.q.d.&XoXZ.x.u.^.D.~.#XqX2X^.oXL.J.L.^.Z.M.x.E.=X`.s. .] :.5.oX~.^.{.L.^.:.M.J.x.q.s.Z.Z.u.Z.u.M.M.L.{.J.L.M.M.<.s.u.q.J.L.^.oXoXJ.8.O.:.u.^.d.<.<.:. .( I ] j * ",
"z.<. .8.u.d.Y s.q.<.8.z.D.D.J.L.{.s.( S W I ] <.x.u.u.q.j i j : O.Z.M.9 I %.] u.x.<.h > :.%.`.d.z.5.u.s.D.L.s.8.z.u.[ u.E.s.O.] ] u.:.D.^.D.Z.u.s.s.J.x.s.8.`.qX8.S Y M.yXiXVXL.qXE.#XbX{.s.M.^.W j i I :.u.E.qX{.&Xq.O.s.D.Z.M.#X2XL.q.8.z.8.~.q.{.2X`.E.E.L.J.J.L.J.D.D.L.L.D.M.`.&XJ.: ] M.D.O.5.:.%.<.s.u.:.O.O.<.x.:.8.%.8.z.d.8.q.q.:.s.x.x.Z.J.s.H @ 3 5.&XiX{.E.oX#X#X`.{.L.5.u.#Xu.h h W %.z.d.M.{.`.J.s.s.E.d.u.d.Z.u.O.q.q.q.u.u.:.:.8.x.D.s.8.s.Z.L.Z.8.D.u.`.oX:.O.x.z.~.8.8.{.M.<.8.:.<.q.~.&XJ.Z.s.z.q.E.J.D.J.E.J.^.~.z. .[ s.^.u.W I ] ( W ] ] m 9 . ",
"8.%.q.L.L.Z. .M.5.] %.J.E.q.Y H [ x H :.] O.q.8.x.L.d.h S r e 3  .L.x.j i I  .5.H h O.x.q.u.O.D.D.z.d.Z.`.J.<.Z.q.5.W %.x.M.z.%.q.d.z.~.~.Z.oXx.s.M.u.M.8.{.s.S S u.D.~.E.s.x.x.<.x.{.~.s.z.u.V : h ( %.<.u.x.Z.`.s.] O.L.~.D.~.E.u.:.x.q.J.E.5.E.#XE.q.u.Z.L.L.D.D.M.z.D.^.~.Z.z.D.=X^.: W %.5.5.q.:.:.s.s.] Y ( %.:.Z.] [ 8.E.{.<.[ q.D.L.s.d.J.L.Y 9 . x J.E.iXoXM.{.yX<XoXL.Z.z.x.E.L.E.:.e V ] [ <.q.<.8.s.<.Z.D.8.<.x.^.q.H ] ( I W ]  .<.q.q.:. .[ O.O.[  .<.<. .:.Y  .8.O.s.u.E.~.~.&X8.q.%.[ %.x.M.8.z.~.Z.q.J.z.5.5.x.x.s.<.O.%.8.z.D.] m x m x V I H > . . ",
"J. .D.L.E.x.d.s.E.D.u.d.M.Z.%.I H [ I ( %.u.q.Z.u.] j j 9 i @ * %.x.^.i . [ ] W %.:.L.E.Z.~.d.d.5.L.Z.s.s.d.u.^.s.s.O.W %.x.x.%.u.x.2X#XD.s.M.s.x.z.d.<.^.] ( Z.L.L.#XiXJ.M.<.D.z.u.D.~.d. .S e > r 5.%.5.`.~.oXJ.5.q.s.#X<XE.{.~.z.<.~.`.D.^.=X&Xd.d.~.L.D.Z.u.d.u.u.z.J.J.Z.M.^.~.=XJ.e  .O.<. .8.<.5.O.%.( s.M.u.( 8.%.M.D.D.D.q.x.Z.z.J.u.z.Y h . @ <.9XoXL.=X{.L.^.&XoXD.<.x.z.L.E.{.oX^.5.e S x H ] ] ] x O.8. . .u.d.8.m ] ] Y x Y ( O.<. .] ] q.s.%.[ ( [ ] ( Y O.%.O.[ u.<.x.{.`.D.s.<.I W Y ( u.M.s.q.x.:.( :.O.Y ] q.:.] Y ( :.5.%.( h j S I m r @ . * @ @ ",
"^.u.x.Z.%.z.8.q.5.E.z.O.I ] Y W [ [  .:.%.%.( S e @ . @ > . . V 5.J.~.q.j 9 :.u.:.x.^.Z.=X{.~.8.Z.x. .:.8.d.z.^.q.q.:.[ 8.8.O.<.L.~.L.5.( W  .<.q.%.O.] : d.qX`.x.x.`.~.q.^.L.u.J.x.d.8.] x 9 : . i O.D.~.`.oXZ.q.8.M.u.~.oXJ.Z.M.z.Z.D.M.x.Z.q.D.=X{.M.M.x.s.Z.q.d.Z.L.L.J.Z.x.D.E.^.:.: m ] O.8.q.J.L.5.%.s.2XL.q. .%. .M.d.s.q.x.~.D.<.s. .Y @ . j Z.<X&XoXz.Z.z.s.x.D.q.[ q.L.D.D.x.`.Z.Z.J.S m S S j H I > x Y W :.s.O.x h V V m r I Y [  .( I S %.5. .O.O.[ W 9 S ] %.z.<.5.:.%.d.q.W W H O.q.8.<.q.s.:.W Y S W :.<.Y S Y h x V I W I x i i r > . . @ > r 3 9 r ",
"q.u.L.:.] W W <.d.M. .W V m h ] :.H S S I e * . > . @ . : m Y  .M.E.^.u.I : O.:.x.z.E.Z.`.x. .Z.u.s.<.D.x.d.5.[ Y :.u.d.J.8.W D.{.{.I S  .:.<. .I j > . L.=X#Xq.5.:.5.d.#XE.oXZ.O.( H V h : @ 3 > 3 <.J.E.`.Z.Z.z.q.d.<.x.M.M.Z.z.J.`.z.D.z.d.L.&X~.D.D.E.`.D.:.[ z.E.D.x.M.z.8.<.L.^. .: 3 Y [ s.8.^.~.`.<.<.L.{.] W <.8.z.( O.%.J.=X{.W h 9 e ( 5.Z.~.2XZ.8.`.M.J.D.Z.^.z.:.{.#XoX<X`.J.Z.{.&X=Xx i S i x j . i W O.O.5.%.h V Y W I r V x I ( V V j I ] Y Y x m 9 S  .V S j ( I H ] I I  .(  .<.u.d.u.[ V H [ [ Y ] I I e : * . 3 h x x i 9 3 . @ . . : @ @ i 3 r h ",
"M.D.5.( [ I x Y O.W H S m j e > : . . . h h S I j  .O.:.d.( O.q.^.oXz.z. .3 ( J.J.s.D.L.8.5.z.d.8.%.s.~.D. .H I ] d.Z.8.u.^.=X{.{.u.V  .:.H m Y 9 @ [ ^.2X^.L.q.s.%.[ 5.:.5.[ H W x r 9 @ . . @ 3 3 I 9X^.q.x.Z.:.%.:.q.x.^.J.oX~.~.~.u.q.E.^.{.Z.E.~.Z.q.z.s.[ D.`.`.Z.u.~.D.E.E.Z.D.S h @ ( <.s.:.d.s.<.:.O.%.u.( W 8.z.x.Z.D.D.L.:.[ 8.d.E.`.#X~.`.L.J.E.J.^.s.~.#X^.D.J.J.M.{.=XJ.`.Z.~.^.~.oXz.. . r > 3 x 9 i W O.I j m V j x V h 3 r V V m m 9 3 : . : : h i e m H S m j m H W I h e m ]  .[ s.O.( O.q.8.:.O.[ V : * : . * . . . @ @ . . : : e : > r > > j e 3 ",
"(  .Y H W m 3 > . . . . @ . . * . @ 3 <.%.5.s.[ <.:.u.s.x.8.W H 8.D.5.E.u.e I z.q.%.d.D.5.%.u.s.<.s.d.s.x.z.q.u.<.<.:.<.u.s.[ j Y ] 8. .S m S . Y 5.#X&X~.J.`.M.8.[ Y V h h V m r @ . * . . * * . . S zXE.u.M.q. .O.%.:.E.9XoX~.=XZ.d.Z.L.M.d.M.J.`.d.[ x.5. .z.J.u.J.<.%.[ q.z.x.E.D.W r @ h  .8.[ Y I  .q.:.Y Y [ :.E.<XM.%.u.<.H m I ] O.8.M.{.~.~.z.d.D.Z.J.d.~.M.[ S m ( D.Z.E.oXJ.s.`.Z.E.x.u.[ 9 . : @ . > i V h > > 9 9 h * * i j x V m 9 . x ( 5.8.x.x.{.^.8.( > i 3 j e 3 > 9 r e : . j 9 h  .8.M.:.I ] H r 3 3 > * @ > * @ * * @ . . 3 3 i 3 3 x V ( [ ] <.",
". . . . 9 r e 3 h r h h x 3 . > . Y <.q.8.J.<.D.&XD.u.:.Z.M.x [ ] :.^.J.z.m 3  .d.u.s.d.d.D.M. .%.W [ <.<.d.~.~.x.L.~.x. .S I [ <.<.Y Y V m i <.<XE.`.oX&X{.E.<.Y j j r h e 9 . : @ . . > > : 3 3 . . s.oXJ.z.O.] ] 8.s.oX&X#X=X#Xx.5.J.oX`.{.&X~.M.] :.<.O.H <.J.8.%.:.D.d.q.D.M.~.z.H x : * h O.8.8.8.:.( W ( O.O.5.s.] I <.O.W h 9 . * m V Y ] 5.M.M.D.^.D.d.E.5.I x j x x h H s.L.L.M.D.Z.u.z.Z.M.j . @ > H ( ] [ :.x.M.O.m . @ e j i j x i > . ] 8.~.2X#XoX#XE.z.^.x.* * @ . * e i r 3 : * . @ . 9 * 9 i h 9 3 @ > j 9 . : . @ : @ * 9 r 9 9 . * r H  .8.L.^.s.z.",
"I j r e 3 r j h h x H H Y j 3  .5.O.E.D.s.z.M.<X`.L.Z.z.^.oXW O.:.h :.M.J.W .  .u.Z.L.M.z.L.L.u.5.<.] ] <.O. .d.8.<. .Y Y ] O.O.W > x i r > O.#X&Xd.<.:.I > . . > @ : . . . * . . . . @ . . : * . * @ I E.<.u.8.5.O.:.M.9X2X`.^.E.J.d.J.^.~.#X&XE.%.8.5.<.O.D.Z.L.<.q.z.z.d.M.x.L.L.d.x V : @ . W 8.:.%.O.W ( ( S :.[ Y H V ( ( Y . @ e . . : . . 3 x S ( :.%.[ x : : 9 3 h V e > i 3 i H I W e r > j j > . j V H 5.J.`.`.J.^.iXx.<.I e * 9 i > e S 5.%.M.zX9X#Xz.Z.=XZ.D.%.] x i * . . * @ . @ > . . @ h h V e e r e 3 > . . > : 3 e e 9 9 r i r W x.E.Z.8.5.d.z.8.J.",
"I V I I j x H V H ] %.] H e h x.s.z.8.:.q.8.<X`.^.Z.~.L.q.{.^.d.u.I . Y :.:.i * d.D.E.E.E.L.E.{.Z.L.D.O.( D.{.q.x I O.:.O.W V h 9 r 9 : @ 8.D.`. .j * : h ] 5.q.u.d.z.z.<.<.O.Y S e H Y 3 h ( V W i . 3 q.u.M.( O.d.Z.oX<X&XD.z.8.z.M.`.#X{.=X&Xz.d.:.u.q.L.D.Z.q.u.z.%.{.D.^.E.E.L.x.S i @ > . . [ 5.%.:.5.q.O.[ [ V m V r e 9 > @ . * > . . * * * . . * 3 i j ] O.V @ . . . @ S i m i m W I [  .u.8.5.^.s.] O.d.L.`.`.`.E.oXVXqXoXL.u.V @ . . . x <.%.8.{.=Xd.<.5.:.oX~.O.M.oXs.%.[ ] x . . . . * 3 h x * j H r h m i @ * e e i e i S S j V ] d.=XmXhXoXL.M.u.:.%.d.",
"@ : h m h m Y W O.8.8.<. .x V 5.( D.d.q.D.L.L.d.L.z.~.oXz.J.#X^.J.z.H . x s.5.. q.D.Z.d.x.x.d.x.E.J.x.J.E.q.(  .%.Y V m j e e h r 9 3 *  .( e . . i ] 8.5.d.D.^.J.Z.x.D.M.`.J.u.5.x.z.8.8.<.:.q.D.d.m @ H u.q. .s.z.s.=XiX=Xu.] d.J.L.~.{.=X&XE.q.M.J.q.M.s.u.8.J.Z.~.~.oX^.`.<.{.~.u.Y 9 h r > r W %.8.z.z.5.I e * 9 e * r I H O.Z.<.[ 8.8.d.x.q.8.%.<.:. .%.%.z.#X&XJ.Z.J.^.=X=XoX`.E.u.:.O.u.q.s.^.L.^.^.M.^.L.<XiX=X`.~.`.=X&X^.{.<X&XJ. .e . . H %.%.5.&Xq.:.] s.Z.L.E.D.&X`.D.D.~.L.8. .%. .[ O.E.D.[ h V m x S x 9 h V r h V I Y ] :.q.q.q.z.Z.^.{.J.u.[ <.:.[ ",
"@ . * @ . . @ * : j h H H x ] %.D.:.u.s.O.s.z.~.^.Z.J.D.Z.Z.{.qXZ.( %.. * V ( r e q.d.W I ] ( ] O.[ Y m j W ] m V x j x x h i i 3 . . W S m H Y W <.d.J.q.:.:.z.x.J.^.~.M.x.8.Y Y z.5.O.D.z. .u.x.#Xz.9 x 8.] [ u.M.D.=X=Xd.5.s.s.d.M.D.{.2X&X`.2Xd. .s.M.`.J.8.q.L.J.&X^.Z.x.L.{.{.8.I j Y m i . 3 O.D.d.I 9 e S 8.L.M.D.M.<.z.`.s.`.<Xs.Z.qX`.s.x.s.d.d.d.D.x.D.~.^.^.oX`.x.8.E.L.%.z.d.d.z.8.8.J.^.~.E.Z.q.^.8.z.J.J.D.~.#X#XoXoX&X#X#X2X<XE.[ h : I I [ ^.<X#XE.J.d.E.^.E.z.L.~.~.M.5.%.u.L.Z.q. .<.:.W r m %.W j 9 9 h V V ( %.%.[ O.u.u.:.s.z.u.x.M.z.M.d.] d.8.",
"> : : : : > 9 9 @ x i i @ . ( 8.d.E.J.d.J.&XoXJ.u.d.&X~.E.#X=XM.~.d.<. .. r I H . [ O.H  .5.O.[ Y S j x S V j h j x i 9 r j 9 . r O.O.( [  .q.<.5.u.u.~.E.J.q.8.z.q.q.:.u.x.x. .x I O.s.~.&X{.D.z.oX<Xi @ ( O.O.u.L.~.L.Z.%.d.L.#XZ.^.qXhX#XD.^.&Xd.z.L.z.%.u.Z.oXZ.z.E.J.5.J.=XE.#Xx.H I I S I j . . r e r V <.{.D.9XiX2X&Xx.Z.<.8.x.O.H u.~.^.<.x.z.x.Z.L.{.D.d.<X#XL.E.5.W z.8.d.M.L.x.~.8.5.x.E.d.E.D.D.^.d.q.:.u.L.~.{.&X&X^.D.L.^.L.x.q.O.L.d.. S m I H ~.L.x.~.<X{.&X .%.<.q.8.<.q.Z.J.Z.J.M.s.S H S i i S j > 3 m H W 5.5.[ [ <.8.<.:.5.O.Z.x.s.M.{.`.:.z.{.q.",
"j j H ] ( %. .I H Y m r r @ x O.D.M.`.oX^.iX{.^.L.~.^.=X`.D.&Xd.I %.H u.( . > V j m Y H Y H W Y I S V j i r e 9 * r 3 : . . 9 ] d.x.oXu.I <.Z.u.d.E.8.^.&X#XD.O.Y %.%.8.<.L.u.M.u.s.{.#X^.J.&XyX2XoXd.8.h e 5.8.z.J.M.z.[ Z.J.D.E.z.&X9X#XJ.x.qX`.d.x. .] u.^.~.<.M.^.x.u.z.&XqX{.oXd.m h  .( V m h > @ > I :.&Xu.{.9X^.D.8.u.D.L.Z.%. .I ( :.~.q.q.s.L.&XzX#Xs. .~.#XoXM.:.z.oX2X<Xx.Z.M.z.s.u.J.d.M.^.Z.Z.`.s.s.5.z.s.~.#X&X#XqX~.u.5.8.5.%. .q.E.u.9 S H H z.^.<X9XD.~.oX:. .5.d.5.J.x.z.J.s.<.`.E.( Y h * . * 9 j [ O.<.u.J.x.E.=Xz.<.z.5.5.M.Z.Z.u.M.Z.D.u.8.D.d.",
"8.J.8.( x.E.u.Y S  .W x 3 . W J.L.oX`.z.Z.{.x.Z.L.L.Z.q.M.x.#XZ.Y I W :.s. .h > r S ] ] H m x m i m * > . * . . r r * e x S :.d.d.L.J.( [ <.q.Z.J.L.M.^.&X{.d.8.( 5.d.d.x.x.u.s.{.9XoX{.E.8.q.J.Z.`.#X%.j . :.Z.=Xz.:.q.M.E.J.M.L.bX~.z.M.<.s.J.d.:.d.u.q.x.D.D.^.M.D.Z.D.{.<XL.E.d.E.I S h s.] I h : . x 5.D.<XZ.`.J.~.s.:.<.^.D.E. .( ] u.D.L.q.s.d.%.oXE.<.5.=X#XoX`.L.x.L.~.=X=XD.E.Z.<.<.J.Z.~.E.D.J.~.J.s.E.J.L.s.M.J.q.8.O.%.5.u.s.u.q.q.[ J.d.j > Y W <.`.E.`.L.M.u.( %.J.D.z.z.8.[ I W ( q.s.V : . h (  .:.z.8.s.s.`.#XE.<XqXD.5.d.u. .`.u.%.%.q.x.J.z.Z.L.5.",
"[ E.q.:.^. .j W [ s.<.] j . ] Z.E.J.~.D.M.z.d.s.2X`.^.^.x.#X&Xq. . .W <.d.S m r r i r V j h @ . @ m . * . 3 m 8.%. .] <.q.q.z.u.M.{.8.] Y s.<.~.z.d.`.#XqX&Xz.x.%.u.q.q.d.q.:. .{.oXq.x.q.<.O.h 5.~.E.L.V i m z.q.M.z.u.&X~.E.oX{.E.:.q.~.u.%.d.z.q.s.Z.x.z.s.Z.J.<Xd.u.E.9Xs.8.z.x.M.( x . Y ( m 3 . .  .E.oX^.x.M.J.{.^.d.u.] z.u.S ( %.O.x.E.u.D.M.O.%.s.I &XbX=X=XZ.s.z.oX=XZ.L.L.J.%.q.J.D.~.D.Z.D.J.^.^.J.D.Z.s.L.`.z.( S :.<.<.<.8.q.q.8.E.{.^.8.h h x Y M.z.D.Z.<.I m S [ S u.8.H V V S [ ( V . * H 5.] <.%.Z.J.J.s.D.M.J.^.~.d. .%.5.( 5.8.5.d.Z.Z.u.8.z.J.u.",
"] <.z.`.5.m W j q.M.<.] j . 8.~.M.u.J.^.E.z.L.D.D.5.^.J.{.~.J.H V s.<.O.%.S V . . . . 3 r V W O.x.Z.[ ] <.<.J.E.:.5.8.u.:.%.x.x.~.L.D.[ ] 5.E.~.s.d.&X{.iX=XJ.J.L.`.d.x.d.d.s.s.J.~.z.s.%.q.x.( d.Z.L.#XV > @ 8.E.J.L.M.E.~.qX#Xq.m 5.Z.8.M.J.:.L.M.d.L.x.d.s.^.iX^.Z.=XoXx. .O.d.M.u.] > @ 3 m ( r . > 5.^.^.x.x.D.d.8.L.L.#XJ.u.u.O.V %.:.Z.z.q.J.5.( S x ~.hX9Xz.x.8.D.L.&X2XoXoXJ.D.d.u.u.D.Z.L.u.z.oX^.x.x.Z.E.u.&X`.d.M.q.%.<.<.%.%.:.%. .#XJ.~.Z.[ 3 i W [ q.8.] I [ 5.5.( h O.( S W W m Y 9 3 h [ <.s.u.5.5.Z.<XM.s.<.:.z.8.z.D.d.8.5.%.( :.M.~.s.D.M.:.M.`.Z.",
"5.5.<.^.%.Y ] m z.J.q.%.m @ 8.~.L.oX{.D.^.D.J.E.M.#X2X&X{.x.m W H %.z.u.I 9 . j Y [ s.L.{.L.Z.M.<.z.z.E.x.5.Z.q.H O.q.u. . .Z.~.~.`.L.d.W d.{.~.~.`.=XJ.<X#X#XE.J.E.8.5.:.O.<.u.L.`.M. .:.8.M.^.qX=XqXmX .V : W d.q.<.D.#XD.Z.Z. .z.q.u.L.~.E.J.Z.M.s.D.d.d.M.&X&XM.~.z.D.q.J.q.x.<.L. .> r I S 5.x . i <.`.#X^.<.#XD.D.~.^.L.qX^.d.x. .x.8.z.J.{.Z.d. .[ z.<X2X .S <.x.qX{.J.~.9XL.D.J.:.q.s.:.u.u.z.oX&X=X{.W z.`.{.&Xd.M.oXJ.8.x.J.x.8.:.8.s.u.s.M.q.( : e W ( u.q.5.x.x.5.O.O. .( I q.Y * . . h ( [ s.x.Z.z.&X=X#X2X8.x.x.z.Z.5.D.~.J.z.( Y Y x.d.s.M.J.8.d.<.M.q.",
"5.8.x.9X] I O.] L.J.s.8.] h 5.d.D.L.^.L.^.`.`.{.^.~.{.Z.qXx.I I V I h h S 5.8.d.O.] 5.z.~.M.x.d.%.5.q.=X~.^.D. .V %.d.x.8.<.Z.J.E.^.`.5.q.<.^.E.s.L.E.q.L.D.`.M.{.J.s.:.x.5.8.5.~.z.s.8.d.u.J.=XyX9XyXyXO.] 3 . d.:.8.#XJ.Z.oXL.8.[ O.q.D.Z.d.L.E.D.q.8.<.u.J.^.O.8.Z.~.E.u.u.J.x.d.=X<.3 S [ %.<.x . V <.~.oX`.D.{.=X`.D.E.~.~.d.E.<X .%.s.z.x.^.^.5.u.s.^.J.8.e ( d.8.M.z.D.oX<XyX#XZ.x.~.M.M.^.#X^.=XiX<XD. .D.x.&X`.Z.&X`.E.z.Z.E.L.z.<.<.q.8.D.x.d.I * : I j  .d.M.x. . .{.[ u.5.:. .* . 9 Y ( s.^.#Xs.8.Z.{.d.%. .Y O.8.q.d.8.x.u.u.s.( [ Y M.d.s.J.s. .D.u.Z.8.",
"r Z.^.J.Y S S %.^.x.8.5.:.[ D.E.&XJ.^.~.z.J.x.d.`.&X<X`.s.[ S ( [ I 3 Y :.] q.J.:.8.Z.~.J.d.z.L.z.D.L.&Xz.z.u.<.S <.8.8.5.5.z.M.J.~.u.q.<.:.u.J.s.~.oXJ.`.E.#X`.&XJ.Z.5.D.q.5.5.%.[ 5.M.q.<.Z.J.&X&XbXD.q.W ] j S z.x.^.{.^.Z. .O.%.s.u.M.Z.u.&XoXJ.q.%.:.z.^.u.d.J.~.`. .x.L.L.M.oX&Xx.3 ] W s.<.H e I 8.J.`.x.J.u.{.L.E.`.{.x.z.M.Z.s.<.8.:.D.^.J.E.q.~.~.Z.x.8.D.d.( [ M.=X=XyX{.E.J.s.z.8.d.^.Z.L.E.`.&X`.oX{.z.L.J.#X2X{.<Xq.s.E.9XqX^.M.Z.M.M.8.z.] 9 9 I ( H  .5.s.%.S :.d.M.q. .j x %.z.x.M.#X2X#Xx.s.u.5.H S I %. .5.q.%.q.s.%.5.u.q.L.d.:.D.L.:.:.J.z.x.Z.O.",
":.x.J.E.5.[  .J.L.M.Z.M.q.%.D.~.M.Z.z.O.:.`.D.~.#X#XZ.[ <.] I W ( r j Y s.u.5.J.J.Z.M.E.M.z.d.L.<.8.s.u.u.q.u.z.W z.M.Z.M.q.8.5.E.d.[ 8.:.( <.z.M.`.#XD.D.x.L.oXL.L.~.s.:.( ( d.:.M.:.x.L.E.E.z.J.~.D.M.Z.Z.<.H @ d.L.E.~.`.E.O.s.d. .d.E.s.L.{.J.z.q.5.M.`.&X[ <.u.d.x.&XJ.z.D.~.`.#X^.9 O.u.z.[ m e V s.oXbXoXJ.x.u.s.E.E.<.=X`.Z.[ D.Z.~.q.D.Z.J.:.x.x.M.=X#XL.E.E.=X=X<X2XJ.D.J.s.O.<.M.<.8.L.~.`.%.8.M. .D.:.x.z.Z.=XJ.D.J.<.8.L.qX9X^.~.=XE.q.[ O.] 3 e 3 ( I O.H V  .[ 5.<.:.i 9  .9X2X~.&Xq.M.2X9XE.M.:.x Y <.:.<.O.8.d.q.J.D.z.q.W Y s.M.M.D.s.x.M.J.q.O.d.8.",
"[ ( q.J.{.[ %.~.u.#XJ.=XO.( O.( <.%.<.z.<. .5.L.8.[ W ( %.( O.S 3 i W s.u.s.8.q.E.d.J.x.x.M.M.d.q.u.<.q.s.s.D.M.] :.d.Z.s.8.z.`.`.~.8.Z.d.s.^.~.d.`.&XJ.{.`.~.z.E.^.D.q.] O.x.q.s.#Xd.{.x.M.oX{.^.^.=Xx.J.yX] S V W M.`.&X`.z.x.d.d.u.d.E.E.#X~.oX2Xd.8.L.oXZ.L.E.=X{.J.s.^.{.^.2X=X#XE.( :.u.5.O.j e I u.iX9X#X~.M.~.z.z.u.s.yXu.d.<.5.^.`.8.M.=X<X8.%.z.:.~.J.D.^.=X&XzX&XhX#Xz.M.E.d.u.x.Y z.E.=X<Xu.J.8.M.q.<.d.d.s.Z.O.L.`.Z.d.~.Z.^.z.z.5.%.z.q.:.[ : : x W  .O.:.Y m ( I j 9 : %.iX^.Z.L.^.d.J.~.^.E.u.:.s.<.x.x.L.u.M.d.~.<.s.~.x.d.x.5.u. .z.5.Z.d.8.Z.q.s.O.",
"e e 8.d.L.[ d.Z.oXE.`.E. .Y r x O.8.L.H <.I :.H O.H ( q.<.W [ m m . x M.d.x.s.&X`.~.M.q.M.J.d.L.x.d.:.q.Z.x.D.J.] z.J.D.<.u.{.2X&X~.L.J.~.D.qX&XL.oX&XE.^.J.L.L.Z.Z.Z.L.s.5.:.Z.^.&XL.D.D.`.#XL.D.M.D.Z.u.=XD.S i i M.D.s.8.d.z.u.8.5.Z.^.9X=X=XL.M.u.5.z.8.L.L.#XL.<.J.L.#XJ.`.L.^.`.`.O.5.8.<.:.H 3 O.x.yXhX9X#X9XM.<XJ.E.E.yXq.E.x.x.#X&XE.`.FXM.u.x.d.q.J.z.M.:.J.J.zX2X<XJ.E.{.<XM.8.x.<.s.oX=X=XJ.oXZ.E.u.%.M.u.5.L.z.^.{.Z.~.M.s.Z.d.^.q.s.M.s.:.O.> 9 V m Y O.<.[ H m i 9 I M.<Xx.O.x.`.#X<XL.E.D.Z.{.z.:.<XL.#XE.q.z.{.D.d.M.M.8.L.^.q.S d.u.s.q.<.O.x.~.D.O.",
"i 3 ( `.D.L.D.M.Z.`.D.O.V V 5.[ I 8.O.m  .D.x.:.%.S W s.] m I j j . 3 s.M.oXL.L.&XL.M.D.J.oXD.M.u.z.8.d.L.D.z.8.] q.M.^.u.z.oXyXqXD.M.`.L.E.oX^.{.#X&X`.^.z.M.`.M.E.^.#XL.L.u.&XoXd.Z.z.~.M.D.^.J.q.z.oXM.`.J.W Y @ %.J.q.<.8.O.s.Z.L.z.u.`.^.oX:.s.L.#XJ.M.{.2X~.Z.z.M.#X^.J.J.D.~.~.L.[  .O.%.:.W * q.M.&XyX9X#X<Xx.Z.E.D.oX~.q.{.Z.s.J.^.2XhX=Xz.Z.d.O.( 5.x.8.x.<X~.~.M.z.] <.s.`.D.u.u.q.q.<.oXhX&X`.^.^. .[ M.%.] Z.L.^.~.Y :.O.s.Z.u.d.[ D.M.s.[ [ . * e h x j > . @ e I 5.<.~.hXD.:.M.^.x.D.~.z.M.x.oXZ.Z.~.L.[ q.:.%.L.s.q.z.^.x.Z.<.j W D.<.d.:.O.u.J.s.<.S ",
"I j ] <.5.E.~.q.z.x.J.:.Y V I ( i V H m d.d.5.[  .H S <.I m V j : m . :.L.M.J.9X{.z.d.s.5.Z.Z.x.D.Z.u.s.z.z.x.5.%.] :.L.z.J.~.<XyX5.<.`.M.M.s.x.D.^.&X<X&XD.d.Z.{.x.d.&X`.M.z.zX=XD.`.z.E.Z.z.d.d.J.~.q.u.#XL.<.:.e ( qXM.:. .[ ] O.q.O.z.`.oXE.x.#X<.J.~.J.{.Z.Z.s.M.M.=X&X`.q.D.J.~.x.O.I ( O.:.Y e s.Z.E.#XoX{.~.s.%.8.`.E.M.5.M.q.( [ <.E.<XqX#XM.d.d.s.L.L.M.oX^.Z.5.D.~.8.Y q.^.L.L.M.J.Z.s.Z.`.2X#XoX{.q. .z.%.%.z.J.D.x.H  .<.u.5.8.<.z.#XJ.Z.%.:.@ . : . . . * V O.[ 5.( `.bX=XZ.8.q.q.z.Z.L.E.M.M.D.z.x.q.8.[ Z.<.D.( [  .q.~.q.%.W I M.:.O.D.{.E.`.s.<.%.[ ",
"I i  .L.M.q.[ 5.J.J.5.[ S j x j ( I ( i q.( %.O.I ( S O. .( V j 3 3 . 8.5.M.9XL.I ( [ S ] O.<.J.^.D.x.M.u.z.~.z.d.[ %.u.s.`.^.9X=X .s.D.M.5.q.s.D.^.^.~.~.E.Z.J.^.L.M.D.Z.E.=X&X#XZ.J.M.#X~.M.8.] Z.^.<.d.~.J.s.<X[ . <.5.:.8.u.O. .<.Z.oXD.z.<.u.<.5.:.^.`.L.Z.D.z.Z.&Xx.M.z.d.s.z.E.z.s.H W  . .V I d.E.E.`.oX=XJ.M.q.z.<X^.L.<.%.5.W  .<.J.<X9X~.s.s.:.5.E.E.`.~.M.8.] x.d.q.8.=X2XD.~.^.`.Z. .x.E.E.Z.<XqXq.<.u.d.J.J.M.s.:.( z.x.q.[ 8.8.D.{.x.Z.<.<.: . : @ * r m :.z.5.u.z.hXzXoXM.s.[ :.z.`. .^.8.z.L.x.s.u.q.Z.d.s.d.x :.8.q.s.5.s.8.%.M.:.L.Z.s.[ ( ( q.:.%.",
"( q.s.u.( Z.:.8.O.J.I [ H V %.I i H j m  .z.O.H :.q.[ O.%.W m h : i * x s.E.u.( 8.O.:.[ q.q.8.8.z.E.J.s.<.J.=Xd.Z.<.u.d.J.~.~.yX^.d.E.D.:.%.<.<.L.{.L.M.M.~.E.~.oXD.x.^.^.L.#X~.M.q.z.~.=XE.J.D.%.z.L.~.J.d.J.u.q.O.e m %.W 5.8.%.u.u.oXoXE.M.u.5.] ^.=X&X`.s.M.oXu.<.M.z.Z.x.q.Z.Z.~.x.Z.H V W H i O.q.J.`.{.&X<XL.Z.L.^.`.{.`.J.:.5.( 5.z.^.=X<X~.u.O.<.D.M.M.x.Z.&X<.] 5.[ :.L.zXqXJ.{.oXJ.u.( %.z.oXE.E.oXZ.<.<.Z.{.E.q.%.Y z.D.H I  .u.J.E.M.%.q.%.%.3 : r h V W ] %.s.J.&XzX{.s.L.z.M.O.q.<.5.( :.%.s.J.s.u.8.%.O.] 8.( [ O.s.d.8.z.J.M.8.:.8.D.u.x.D.5.J.L.8.:.",
"(  .D.5.:.%.]  .x.%.V V r i j d. . .S m ] z.8.( s.u.<.<.O.m j i h * @ H d. .Y <.q.V S W <.L.L.d.Z.#XZ.[ O.L.#Xz.x.d.d.s.^.M.E.<Xx.Z.Z.z.( <.:.O.d.`.^.^.E.`.J.J.x.E.J.D.M.^.J.5.s.L.=XE.~.E.E.x.M.`.L.z.O.D.#XM.q.:.i @ [ <.q.<.x.J.x.J.E.&XL.q.<.d.I oX&XL.#XL.s.q.z.:.J.Z.`.J.^.`.^.L.J.Y r S x m <.5.x.#X=X<X<X=Xz.oXs.~.~.oX2Xd.:.H :.u.D.u.u.E.Z.u.<.d.z.J.%.D.`.<.d.E.^.`.#XyX<X~.oX9XL.8.u.d.Z.~.oX9XyXJ.u.:.z.M.D.:. .] Z.M.H %.L.E.L.M.s.] 5.<.%.h i Y ] [ O.5.q.q.d.q.Z.u.z.x.<.8.<.8.<.H 5.] s.q.d.q.<.8.j S x.8.M.s.z.^.{.8.%.I ] :.[ Z.J.D.J.Z.u.^.x. .[ ",
"Y ] L.L.[ H x %.8.%.h j r > @ e %.O.(  .H I S Y  .( <.d.5.h x i 3 . @ %.`.%.q.q.u.5.O.<.z.~.d.z.`.&Xz.8.J.D.M.M.u.E.s.( x.u.{.E.5.<.8.%.5.u.x.q.Z.oX`.^.D.E.J.`.Z.^.~.~.J.`.q.u.s.u.~.x.L.M.x.d.J.J.z.%.H oX^.#XL.s.S @ I s.u.Z.M.Z.{.D.L.J.x.d.D.x. .W L.L.J.&Xx.~.J.u.`.L.x.z.Z.~.~.=XoX:.9 x H [ s.s.z.2XiXyXzXqX<Xx.q.D.<X<XoXs. .W z.L.#X%.q.8.%.{.d.q.^.s.] `.x.J.^.x.^.~.<XqXoXz.z.yX^.%.8.s.~.9XyX&X=XL.D.s.u.%.z.<.5.u.J.^.x.<.d.Z.s.x.8.Y  .%.( i r ] s.s.u.M.z.x.`.E.`.8.x.8.~.q.8.8.( m V 8.s.<.z.D.~.q.Y H D.M.d.s.:.q.u.Y 8.:.u.u.^.{.x.L.D.<.d.x.%.H ] ",
"H I 8.J.%.8.8.] :.x 3 @ : : . . m S S I ( :.V H O.] ( :.x x r 9 . * 9 ] =Xs.5.d.q. .:.O.%.D.^.{.{.2Xq.8.z.5.q.Z.8.d.8.D.q.^.:.O.d.s.M.:.O.D.Z.5.8.#XoX&X^.9X~.L.s.L.#X{.`.~.M.D.<.E.M.x.Z.d.u.s.M.z.z.m s.E.#X^.`.J.] x . s.~.D.^.{.Z.D.^.L.Z.d.d.d.u.] O.Z.M.x.q.8.q.~.{.d.s.<X{.~.z.Z.~.M.O.> i [ q.q.x.iX9XzXbXoX~.u.J.{.VXqXL.8.<.%.x.^.^.%.<.%.z.M.d.d.M.&XE.M.x.D.<XZ.oXhXqXmX<X{.D.{.oXZ.z.D.iXoX#XoXL.~.^.d.:.W %.5.{.J.&XoX~.x.=XD.q.:.] q.z. .] i @ W 5.z.D.d.oX^.#X&X~.L.`.{.x.s.z.u.[ W I H H q.E.E.L.x.H W q.x.<.<.d.<.D.Z.^.M.~.Z.J.{.~.L.x.5.%.I i V ( ",
"m S 5.L.:.( I H S h 5.<.Y H I r 3 i j x S Y W <.V H O.W x r i : @ S V S q.8.z.~.s.%.Y q.~.#X<XL.D.oXD.5.<.q.^.M.D.D.<.Z.<.^.x.~.qXx.J.<.x.oX .5.s.{.&XqXyX9XJ.q.z.D.#XoX~.E.z.u. .J.D.q.d.5.d.x.M.z.q.] z.M.~.E.D.d.W h . 3 J.%.5.Z.D.Z.s.%.<.5.z.M.M.z.<.O.:.:.<.:.J.q.E.s.~.D.Z.u.J.E.oXoX%.I r %.O.d.E.&X<X2XyXu.[ Z.Z.<.2X#XE.z.8.8.J.J.q.5.E.d.L.O.O.<.`.#Xx.d.Z.Z.=Xz.`.2X<X2XJ.x.x.=Xd.:.Z.M.{.oXs.d.yXs.q.u.Y ] d.x.z.x.<.q.8.5.L.u.u.d.d.D.z.Y <.: e z.{.z.`.E.M.^.oXZ.%.E.`.u.5.J.`.J.`.:. .W %.D.8.J.^.8.] %.5.x [ 8.x.~.yX^.J.x.`.J.z.O.] 5.] I <.8.u.z.Z.",
"e :.s.] 9 i S ] q.^.~.J. .5.Y <.] Y V Y <.O.O.O.:.H S x x * * . i I j S 8.x.x.D.D.E.z.^.iX`.q. .M.2X%.s.x.`.d.D.J.Z.u.I O.u.#XoXE.2X^.q.M.L.x.Z.u.x.z.E.&XE.Z.8.L.Z.{.oX{.oXD.5.:.z.O.<.q.D.d.d.M.q.] 5.L.J.E.D.8.q.] V r . L.Z.M.z.<. .I I :.5.z.x.x.Z.5.O.M.Z.q.#XZ.x.d.~.z.^.`.oX^.E.`.`.x.( h O.[ z.{.{.`.{.#XY S I <.[ x.ZXZ.M.oXoXd.z.~.yXoXJ.J.D.<.u.8.:.z.d.8.z.~.J.M.s.M.<.s.`.~.zXz.O.s.x.E.^.^.#X=X .<.E.M.q.u.%.[ <.%.:.I [ M.M.L.^.z.J.<.H [ : W x.=X~.qX=XJ.^.z.8.q.Z.5.[ D.qX#XZ.q.O.M.E. .O.z.s.s.r %.%.[ H 8.M.J.~.2X~.L.z.Z.u.O.W Y %.8.u.s.O.d.z.x.",
" .D. .e x i > ] J.J.x.J.H u.:.q.<.S 9 m 5.] ( j @ j i * . > 9 9 H I j V O.u.d.D.x.u.L.L.z.s.%.] s.u.:.Z.Z.s.s.x.E.x.W H  .z.~.Z.L.L.x.O.q.M.8.Z.oX#X^.`.J.8.D.`.~.M.D.L.#X2XJ.8.<.:.:. .x.u.d.d.s.%.[ s.{.`.`.E.<.u.O.m r . j z.<.] S W [ 5.D.z.5.q.M.L.d.x.^.Z.L.D.2Xx.z.q.`.s.`.<X`.`.~.d.] . m [ :.u.`.oXD.^.`.M.%.Y x.[ s.E.~.z.x.^.x.~.oXM.O.5.Z.{.{.~.d.%.q.M.D.E.`.J.J.z.<.s.L.&X2X9XO.%.5.L.M.Z.<XqX{.d.O.z.E.:. .I  .W W 8.%.5.u.5.q.8.q.z.W 8.S 9 [ ( u.d.^.x.q.u.q.x.d.J.D.Z.E.L.Z.L.%.D.q.S j x 5.x.( <.] I [ S q.{.^.~.Z.]  .5.d.O.] M.q.] 5.x.Z.~.E.L.Z.",
"<.I V 3 . x M.L.~.u.s.8.]  .%.:.%.x * > j : e * . * . h Y ] S ( m x j j ] u.M.Z.z.{.=XD.x.d. .5. .%.<.u.M.M.~.L.%.O.W <.( m ( u.5.~.J. .Y s.~.Z.x.M.M.oX`.Z.D.D.D.D.z.s.`.#Xx.d.u.8.%.z.q.q. .s.<.:.Z.J.`.^.{.&X~.~.x.[ V : . %.S H Y :.8.z.~.D.M.z.{.oXD.D.M.5.D.{.oXJ.M.^.~.q.`.D.oXoXZ.] . . V O.:.5.E.{.E.~.qX^.q. .8.u.D.x.z.J.x.`.z.O.( m Z.2Xx.M.8.~.q.x.`.L.&X#X<X:.8.:.z.M.{.oXZ.x.d.:.d.Z. .Z.oXoX9Xq.J.5.:.[ M.M.u.S 8.<.V x [ s.s.%.q.s.Y ~.I * V S 5.8.E.x.u.8.L.D.`.^.J.D.L.J.s.%.[ q.z.x [ d.D.D.D.[ %.H H %.M.`.oXd.q.d.q.x j  .u.J.J.D.{.L.8.s.d.s.q.",
"j h : . x <.u.%.5.:.:.[ O. . .M.O.S i i e @ * . h :.%.W :.d.u.d.:.S V S W [ O.<.5.qX<XJ.x.:.O.:.Z.~.8.8.u.z.:.q.q.( ] 5.d.( (  .M.M.:.z.8.%.oXL.#XJ.M.D.J.~.J.x.M.^.J.s.E.~.d.E.J.s.Z.z.x. .[ 5.d.d.#X^.^.~.`.oX^.D.s.:.H * : j ] O.:.u.d.z.~.~.&X^.qXqX#XoXE.L.J.<Xz.O.=X=XD.oXoXE.J.d.W 3 . > m <. .u.~.L.2X^.yX{.D.5.W 5.H q.~.x.M.9XL.%.<.[ Z.E.s.%.&XL.s.8.Z.5.q.2X&Xu.8.x.d.D.M.J.`.u.M.L.u.u.z.`.E.oX{.u.5.q.d.d.u.O.W 5.:.:. .Y O.s.d.q.[ u.] z.W . j [ ( :.M.d.L.x.E.D.E.~.J.x.s.8.%.] x.E.D.[ 8.u.D.M.q.8.[ ( u.<.{.M.O.5.5.:.5.u.x.J.<.:.Z.J.q.[ O.s.Y I H ",
"h 3 > 9 I V Y O.8.8.~.&X%.8.5.5.Y j j x i h 9 * %.s.W ( 8.Z.q.D.W e r S x ] u.oXqX&X&XE.Y Y u.S :.( u.s.:.[ z.x.%.O.] q.O.5.] 5.z.z.oXs.W 5.u.d.O.8.#X^.E.^.J.z.Z.^.E.M.^.{.D.`.D.J.~.J.<.:.O.z.~.E.#X&X~.E.~.L.~.L.s.:.I : * @ m [ <.x.L.L.{.oX&X{.{.oX&X<X#X^.D.8.%. .Z.D.`.{.z.x.] V > . @ . V  .O.M.^.J.hX&XZ.oX<.( Y :.d.{.u.x %.Z. .I q.s.{.J.] :.&X^.d.d.u.s.s.yXE.M.z.E.x.Z.J.{.`.M.E.u.:.M.hX`.d.`.x.2Xq.<.s.z.x.M.d.x.~.8.5.( <.5.%. . .:.( ] V . j [ O.<.u.[ %.W V V m ( [ <.Z.D.x.J.J.M.:.s.%.<.^.%.u.8.z.Z.s. .z.5.%.8.8.s.M.x.u.u.D.O.%.] h 9 9 r W  .:.",
"O. .O.Y [ m e @ 3 W M.d.:.] Y W ] H H m : h 3 3 [ J.] %. .J.:.x.Y i 9 S V z.s.z.^.s. .S [ 8.] ( Y O.:.J.z.J.d.^.u.[ :.:.8.:.8.L.J.D.~.z.s.~.D.8.%.%.{.d.J.`.D.<.Z.M.Z.M.`.<X^.~.~.D.D.q.u.M.z.s.^.oXoXyXJ.x.L.~.J.`.d.O.W x . > > W <.z.D.x.L.oX9X#X5.W :.Z.E.q.%.:.u.q.d.D.`.L.q.I h * @ : . > H S <.J.`.~.yXqXq.u.L.[ q.2XqXL.8.H d.q. .] :.Z.{.oXZ.J.2X^.M.u.q.q.x.Z.~.J.^.8.O.#XoXJ.D.oXE.W <.J.&XL.x.<X^.&Xs.] z.5.8.E.=Xs.Z.O.D.z.D.q. .<.L. .I  .j . e S Y S Z.Z.O.5.O.Y ] s.5.:.D.z.( W E.yXZ.q.u.x.%.Z.{.J.j x.{.O.W :.q.8.%.5.u.8.%.s.M.O.W V j h x 5.[ <.d.",
"q.J.:. .~.~.O. .%.W I Y H m S W S x H W i 9 @ h H Y [ [ W [ q.Z.[ H x H r W <. .z.<.Y H u.s.q.O.[ W ]  .x.D.`.`.J.z.8.s.u.Z.d.u.L.`.^.^.u.M.O.<.d.d.Z.E.2X^.z.8.x.Z.M.M.J.L.L.L.M.{.x.d.:.q.8.d.E.{.`.2XL.5.D.~.x.J.~.8.W e : . r . q.`.D.E.^.oXZ.Z.O.O.( S ( x.<.Z.Z.8.d.z.] j 9 e . > * i @ . x ] z.s.J.M.=XyXs.8.M.%.:.oXoX^.:. .5.d.:.D.s.`.2X#XD.L.{.&Xd.d.:.I Z.q.x.oXx.x.D.d.z.x.D.&XD.8.:.z.`.^.L.`.:.5.q.u.:.q.%.5.Z.O.O.L.<.x.J.q.O.q.d.H H O.m * 3 i j W  .z.%.q.E.<.D.D.z.8.:.2X`.8.q.q.5.q.:.5.~.oXJ.d.O.5.z.W (  .:.] S ( H :.H  .V  .S [  .5.( q.[ I :.",
"8.x.M.Z.E.5.Y  .W O.[ ( q.E.Z.:.[ H h : . . @ e :.^.Z.[ O.:.8.E.s.H j [ e e [ 5.<.:.%.O.z.s.q.[ Y ( %.<.u.q.q.<.:.u.Z.E.^.L.E.D.~.z.D.^.8.O.]  .S 8.E.L.`.E.J.M.D.D.`.#Xx.`.{.z.M.D.d.Z.s.<.%.%.5.Z.Z.`.z.u.~.^.oXZ.z.d.8.m : . . . * q.J.D.L.J.q.I I [ 5.] <.] q.Z.8.%.V i W W . * . . r :.H * i ( J.9X#XJ.x.`.E.d.%.:.s.{.9XJ.Z.x.d.Z.<XJ.8.^.<X{.z.`.{.oX8.M.`.s.oXD.M.zXJ.J.`.Z.D.x.^.M.q.D.z.E.&X{.{.:.D.8.d.D.J.u.u.~.`.[ s.Z.x.#XD.O.O.s.z.S W [ 9 . 3 r x Y I  .8.s.2X`.=Xx.oX<X^.yXE.{. .m :.x.5.x.~.8. .:.Z.%.%.9 H m S j [  .S V h 9 i i ( Z.%.:.8.z.d.u.:.",
"J.E.{.D.M.d.d.5.] %.[ [ s.E.&XzXL.u.( S x * @ * O.z.u.5.x.M.d.z.q.q.H x h j Y d.%.z.( [ D.L.s.z.W [ %.u.d.M.z.z.:.s.d.x.L.M.oXoXd.~.{.Z.d.D.D. . .z.~.Z.~.E.E.L.oXL.Z.L.5.#X<XM.L.^.Z.d.u.q.x.8.5.s.D.yXE.:.J.9X{.Z.u.z.O.i @ : > . @ : [ s.x. .x W ] :.%.O.5.5.8.O.j .  .d.%.q.x.W * . : %.O.] r S Z.9XoXJ.d.{.z.d.d.s.`.zX=X^.z.Z.M.x.oXu.x.9XqX<XJ.s.8.W ~.J.J.8.D.x.z.qXJ.<.D.5.<.{.L.=XM.s.5.s.J.M.M.M.`.z.M.s.J.d.z.D.E.8.q.s.u.x.u.5.<.u.M.I  .( . . e j h h V :.8.8.<X{.q.`.Z.E.&X^.E.L.<.<.Z.Z.M.J.8.W %.%.8.x.W O.(  .Y S ] [ %.q.8.:.H i j [ 8.M.Z.u.D.Z.I ",
"%.s.Z.u.8.x.d.( %.8.[ ( z.~.~.{.=XL.:.I I 3 > . %.D.J.E.^.D.z.s.z.x.] j Y h : u. .s.] 8.:.M.5.8.s.<. .x.D.J.u.u.8.x.q.x.E.x.L.z.u.{.L.M.#X`.J.d.x.x.Z.J.`.Z.M.J.L.&X#X~.8.J.`.#XL.#Xs.%.<.q.d.<.8.:.8.L.^.J.&X&XM.~.J.D. .m 9 : . . . . . <.D.s.%.u.M.{.d.D.Z.( I . [ {.hX`.2XE.oX<XE.Y . W ] [ 9 i L.{.2X#X{.=X:.J.E.s.<XDX`.L.oXJ.M.5.] <.J.~.{.J.<XoX .z.{.{.x.5.u.5.x.=X2Xu.u.5.M.{.D.=X{.O.z.D.E.~.M.=XD.Z.u.d.E.u.x.L.oX<.H H Y z.`.u.[ Z.z.Y ] x . * 9 m [ V i [ [ [ ( S V O.:.:.L.Z.:.d.~. .s.J.%.O.d.x.s.] O.[  .5.W H ( 5.O.q.J.L. .[ W  .O.W %.8.Z.~.`.E.<.",
"u.x.x.z.5.<.8.x.W 5.5.8.D.L.Z.E.Z.L.%.r x h j . ] {.Z.s.{.{.L.^.<.<.s.S m V 9 [ u.qX~.8.:.:.Y M.&Xq.W s.D.D.8.8.z.~.d.E.`.M.s.%.x.#X~.^.^.z.z.{.Z.J.{.&X#Xq.5.M.d.L.^.M.%.O.s.D.] D.O.8.d.u.8.d.Z.:.:.u.~.L.<X#XD.`.d.8.W I x * . . . * * @ Z.E.z.^.L.x.^.:.j @ . s.bXJ.^.9X&X=X&X2X~.<.e %.O.[ Y j d.u.E.~.oX&Xx.&XZ.x.`.&X<XL.~.M.&XD. .z.E.x.:.5.d.=Xz.D.^.E.~.J.oXE.{.yX<Xu.M.d.[ M.D.hX{.x.:.M.M.{.^.~.u.^.z.8.s.x.J.u.J.O.H ] :.x.`.D.x.oX:.S x . . * @ V j j m V W d.u.z.x.[ ( ( :.x.z.:.O.5.M.u.S [ z.( (  .5.Y ] 8.I S  .u.O.%.s.u. .<.d.O.:.<.z.u.d.8.:.(  .",
"8.z.D.L.M.O.W <.8.q.5.s.E.L.D.^.s.J.q.H Y S i * 8.L.8.q.E.J.D.D.O.x.#XY x ] j V E.oX2X:.( W O.z.M.] I x.{.L.8.:.M.oXM.D.x.q.5.u.L.E.M.z.d.~.`.x.<.z.~.E.E.s.z.E.M.q.z.z.5.u.Z.s.: Z.d.M.:. .8.L.Z.5.x.L.`.z.~.{.Z.J.<.:.] H m * : 3 . h : . e u.#XL.q.O.V . 3 j ^.FXE.~.x.oXVX&Xq.q.u.M.( [ O.:.z.<.E.<X=X&XL.Z.{.5.W u.L.&X<Xs.L.M.<Xz.O.] ( [ [ u.2X<XoX^. .:.d.Z.yXqX<XVXL.s.oXq.x.z.~.] x.Z.u.E.J.{.L.<X .J.<.J.D.O.W %.~.[ %.<.:.Y [ x.^.q.( V 9 . @ : @ H W m 8.( H D.2XZ. .8.<.<.Y  .^.oX^.~.s.8.[ j Y O.V H %.r I I H [ I I 8.M.E.8.5.I W  .%.] 5.[ ( Y I x :.",
"Z.M.M.O.u.%.5.O.%.D.`.D.u.q.d.Z.J.D.<.Y m r @ h <.u.d.`.~.z.`.#XL.E.{.O.Y H i 9 x.~.yXq.z.z.O.z.u.] Y O.s.8.5.8.8.L.D.x.s.%.O.s. .8.`.Z.:.5.D.Z.M.E.L.u.s.8.q.q.8.s.z.x.q.z.z.q.j ~.L.d.S x <.q.5.8.d.x.Z.{.`.M.5.M.M.L.Z.] V . * . i @ 9 > . H q.O.@ . . . V M.bXE.d.=XM.#X#XM.q.:.O.<.<.5.D.8.E.M.M.`.d.~.Z.z.Z.5.J.#X^.`.oX#X&Xx.8. .8.d.z.L.<.{.~.^.%.q.:.:.[ z.{.{.^.<X^.#XE.] <.~.{.<.x.x.:.M.D.s.u.bXq.Z.s.Z.M.5.W O.J.s.E.s. . .q.d.J.[ Y V e * : @ : I :.j (  .] z.{.] x.O.u.x.8.:.r q.oXL.~.J.O.(  .H :.] j S > Y h  .O.( s.Z.s.j x * e ]  .H O.O.] ( [ [ %.",
"Z.q.z.S 8.%.Z.5.:.] :.Z.x.:.5.J.D.Z.:.V e e @ I x.`.M.~.{.x.Z.D.Z.8.s.W j ] 5.. s.Z.yXM.%.x.] u.S ] z.D.~.d.8. .<.Z.L.u.s. . .d.O.x.2XM.J.Z.z.:.d.L.^.Z.~.~.`.{.#XiXZ.8.s.~.s.z.5.Z.u.d.:.O.L.8.L.D.z.L.s.^.`.#X5.x.z.z.x.( Y @ * @ > 3 @ 3 e 3 @ . @ * 3 I {.9X{.J.D.q.u.^.D.^.x.%.8.M.x.W `.#Xz.x.8.u.Y M.L.z.d.D.5.J.&XJ.x.8.u.:.I 5.q.E.J.~.u.<.M.D.8.u.=X~.O.`.~.J.Z. .z.d.u.u.s.~.9XJ.D.L.J.&X=Xd.J.~.{.M.:.O.:.<.:.x.z.] Z.M.( S <.%.u.] S j 9 3 @ . : S H  .V <.u.O.5.D.<.8.x.D.W W H 8.x.L.^.d.5.[ x I S 9 : @ . j h i ] O.O.%.V . e ] V S <.z.u.z.J.s.s.D.5.",
"u.d. .E.d.8.5.%.x.M.s.s.Z.z.d.L.D.L.I V h r . Y d.x.Z.yX~.`.oX~.`.5.u.Y V ( %.. :.J.&Xq.u.<.<.5.] x.s.L.`.x.8.M.x.{.s.[ :.:.<.8.z.u.^.Z.&Xu. .W 5.5.L.z.L.&X&XJ.Z.M.J.D.s.z.8.x.L.J.L.M.L.x.d.z.~.s.z.z.J.Z.<XJ.5.^.M.Z.Z.Y V i @ > S j h e i : * 3 . e <.iX#XZ.E.J.u.M.~.E.`.~.^.L.{.D.M.~.[ s.D.8.<.s.:.L.E.<.<.5.J.u.#X^.oXd.h I ( %.z.z.s.z.D.H V 5.D.d.e j  .oX&XZ.E.s.5.W s.8.[ &XL.q.5.:.E.Z.D.Z.=XJ.&X`.J.5.:.q.d.oXx. .q.5.:. .I M.J.O.j ( 3 . : * i O.W m [ %.d.<.:.V V %.[ S ( ( I [ h  .<.[ h j e 3 @ . . @ . . @ * . 3 j I r x S Y W u.~.L.z.8.%.O.5.s.d.",
"s.M.%.q.`.x. .<.s.] %.<.5.M.L.^.Z.u.j x r > @ q.d.Z.~.L.O.q.d.q.J.M.8.e j I I . ] <.z.z.u.q.L.x.Z.M.E.oXz.O.Z.^.M.z.s.q.q.5.O.%.q.d.D.x.`.x.:.s.s.q.z.z.D.M.^.^.&XL.{.d.q.:.z.E.Y #XL.z.D.M.x.u.Z. .5.q.^.L.&Xx.d.J.M.q.Z.[ S S > e x W Y > i @ @ . > s.mX&Xu.J.<X~.s.q.x.#XqXZ.u.5.z.D.^.2Xz.Y ^.:.h :.L.{.L.L.~.~.M.W d.^.iX~.q.W [ ] W W I Z.E.8.{.8.`.Y ] M.{.8.[ :.J.s.5.d.L.<.O.^.=X~.Z. .^.u.( ~.~.{.Z.oXE.5.x.d.J.M.8.5.d.q.8.%.d.L.Z.( S V . . 9 . : Y S H I V  .d.M.<. . .O.O.O.O.O.:.[ W H H V @ : @ . . : 3 3 > > : 9 3 . e ( <.[ [ 8.{.D.Z.O.( ~.d.O.<.8.",
"<.D.M.u.J.<.H d.~.u.s.:.5.d.:.u.5.] x x 3 . : Z.E.x.L.J.z.Z.:.S O.J.q.x 5.%.m : Y 5.<.M.s.M.#XD.~.oX&Xu.O.Z.9Xs.u.x.x.<.q.q.( %.8.M.z.x.^.L.%.d.O.u.5.5.Z.~.2X{.oXx.J.z.x.q.u.:.S #X~.L.D.x.z.z.5.[ q.q.L.oX&Xx.^.~.z.:.D.[ m V . 3 x V j 3 j e . h Z.qXhXM.L.&XoXx.O.s.~.E.D.M.8.%.O.<.d.`.`.x %.Z.e ] <X{.`.yXD.#XE.%.O.5.`.L.q.<.z.8.S Y ( M.Z.M.L.J.J.D.s.J.oXO.[ [ <.8.u.Z.<.d.^.`.D.L.^.z.M.~.~.`.x.E.D.E.{.Z.x.u.<. .S %.<.<.:.:.E.`.M.O.j h @ * > . 3 x V ( ( V j H [ 5.x V m x I W V h 3 . . @ 3 . . . . @ * * 3 e r h 3 e e h ] <.z.J.z.%.:.<.H V [ [ 5.q.u.",
"s.s.u.x.u.8.W  .8.Y 8.u.%.u.8.O.O.H S x 9 > 9 5.u. .<.s.D.E.s.( j j W  .:.:.<.r h s.q.z.x.`.{.~.`.2X{.8.8.z.D.s.Z.d.D.u.] :.8.O.s.D.Z.M.M.x.O.s.:.O.( u.#X=X=X=XE.~.~.~.8.z.d.u.<.M.`.`.M.M.z.M.x.8.s.s.s.^.D.u.J.D.<.5.E.5.W I r @ j 9 e S i i <.oXZX#XZ.J.iX`.q.Y [ u.8.z.~.x.:.5.q.<.<.z.oX[ i :.S S q.s.z.E.`.9X{.L.:.( J.=XM.u.<.s.s.D.^.s.:.I s.:.Z.s.{.^.oX^.&XZ.8.E.qX2Xz.J.J.z.q.J.q.O.~.oX&XD.L.z.D.q.x.d.q.I :.S W [ :.H S J.<XE.] Y j 3 . . @ . . . @ 3 9 > 3 . . * %.~.{.#XbX<XM.E.z.z.L.Z.8.s.( O.H x h i h r > h m H H W D.Z.s.q.x.8.D.I > H I 5.s.u.u.",
"d.5.5.M.s.u.8.] O.x.z.u.M.u. .5.q.S m j i 9 h W %.d.J.D.Z.D.E.d.8.s.d.M.D.8. .r . W s.z.x.{.E.&X<X<XJ.z.z.5. .x.L.J.8.5.u.O. .5.D.D.~.z.8.q.z.E.z.5.%.s.{.=XE.`.J.&X~.L.O.M.z.u.%.s.L.M.Z.E.E.d.Z.Y I %.x.D.M.J.x.s.<.d.L.D.( W j @ x x i Y :.{.yXbX^.d.oXhX9Xd.<.z.Z.Z.J.D.x.Z.:.z.~.x.s.x.#XE.%.> I j h %.W ] q.D.L.iX=Xz.Z.J.D.%.%.E.oXL.^.u. .:.5.d.8.[ <.M.qX&X~.M.:.z.&X^.z.z.s.8.u.u.[ M.Z.<XoXJ.d.q.Z.q.[ s.m  .%.%.Y W ( 8.D.~.:.H j m . > W Z.M.] H V i I ] h S Y M.<XhXE.[ 5.oXM.( %.u.D.{.=X`.oX~.{.`.Z.Z.M.z.] e x W x.L.u.d. .:.L.J.8.m m S h Y u.q.<.%.",
"m ] q.5.5.Y :.5.%.u.s.q.<.%.5.<.z.H H m 9 . I 5.d.Z.z.L.J.J.~.J.Z.D.D.E.M.u.<.: . @ d.x.u.d.s.`.`.~.D.z.5.d.d.J.L.s.%.u.s.5.8.( D.s.L.z.Z.L.{.~.z.z.d.8.z.#XE.L.J.#XE.M.d.M.u.( ] D.M.M.&X{.&XD.oX<.:. .d.:.q.d.Z.8.M.Z.M.oX( ] H > . S s.#XhXyXZ.Z.:.D.&X&X~.s.M.Z.#X&X~.E.M.q.q.J.#X~.J.Z.J.J.u.H j > h Y ( W ( [ ] d.Z.M.E.E.x.%.M.{.M.5.<.8.q.#XL.8.M.[ ( O.&XL.5.d.u.s.Z.z.D.u.<.] {.oXJ.~.s.`.E.M.u.u.5.S x.Z.] :.J.q.u.5.d.L.J.I r x H > H %.d.D.8.W  .%.u.s.D.z.`.E.{.~.J.%.] q.q.O.] [ 5.`.^.~.#XoXhXE.J.z.x.z.z.] * e j [ #X9Xz.%.u.5.W u.W W [ S %.s.D.d.8.",
"I  .M.5.z.<.q.x.s.Z.x.<.<.8.:.u.q.Y W m * . u.L.q.W i  .q.M.D.`.^.oXd.z.M.q. .i * . z.q.8.( [ M.d.s.L.Z.:.8.Z.=X8.d.%.O.z.s.O. .d.8.D.M.oX&X`.x.M.s.u.Z.Z.^.E.~.{.<X^.d.D.s.z.q.s.`.L.{.&XJ.{.{.D.x.s.5.q.:.u.s.M.u.J.J.z.#Xx.8.S i * :.^.yX2Xx.:.s.q.J.M.d.J.M.:.Z.M.O.q.Z.u.z.s.L.~.`.E.L.s.O.%.J.( @ e e I Y Y I S I  .8.D.E.^.L.d.x.[ s.q.5.z.&Xx. .q.<.Z.J.s.d.5.M.~.oXL.J.~.`.~.O.D.`.^.q.q.s.`.Z.8.W S ] x.Z. .O.8.x.z.M.x.s.%.x x r r r ( 5.%.[  .%.<.( [ %.d.s.Z.Z.D.u.z.:.5.8.O.:.5.] %.~.^.Z.^.&X2Xq. . .5.%.q.O.> 9 h i u.L.W ] s.O.:.S S ( <. .Y z.oXJ.z.",
"( W d.5.<.q.%.8.d.:.z.<.[ s.q.8.<.I H r > 9 `.E.:.O. .s.q.L.x.#X~.x.u.oX~.x.s.x . * z.] s.I Y z.u.d.L.8.u.z.x.M.%.O.%.:.q.<.] s.8.z.^.Z.~.L.x.z.z.J.z.L.J.=X&Xs.<X{.8.%.E.M.d.u.#X{.=X<Xd.s.Z.^.z.z.[ z.q.q.:.5.E.`.J.~.z.Z.#X5.[ 9 . ] d.^.M.s.J.{. .] D.{.&X#XD.x.d.u.s.%.( D.J.E.d.M.d.L.L.5.E.`.&Xm . 9 i m W S S S [ O.<.<.J.2Xs.L.O.J.E.d.#XM.S d.:.z.~.L.~.{.L.^.9XhXJ.E.x.&X9Xd.( <.s.] ~.~.&Xu.:.`.z.M.{.&X&Xq.z.L.L.D.d.x.V . 3 S e > j %.<.:. .W  .:.%.q.8.(  .L.D.I [ O.<.q.5.%.[ ]  .q.E.Z.x.`.<.( S  .s.5.z.u.3 @ j Y V V j m m [ O.m ] [ [  .Y q.E.z.8.",
"5.8.8.Y 8.L.%.:.<.J.8. .q.u.d.x.:.h H S * I E.( Y M.J.D.Z.5.^.#Xs.x.D.~.oX`.u.S * @ j ( %.S :.O.%.5.x.8.J.d.s.s.5.%.:.<. .%.u.s.u.8.<.M.#XoXM.z.~.s.<.d.z.x.:.M.E.M.( O.S H m 8.d.x.<XqXx.u.E.E.s.q.%.5.8.:.s.s.~.{.~.x.D.E.~.(  .m . ( s.M.x.`.oX5.u.D.^.D.=Xx.<.z.E.E.z.5.E.J.D.%.W u.z.s.z.z.u.`.J.E.e . : m x V V I W ] ] O. .<.V {.#XyXJ.J.E.O.s.{.#Xx.Z.x.{.Z.Z.`.qXVXiX^.D.^.L.L.9XZ.u.{.~.D.E.s.E.M.5.E.J.oX~.d.&XD.~.J.s.j * r i i . h m j I <.z.J.z. .] %.Y H ] u.:. .<.O.[  . .O.:.8.d.M.J.Z.L.q.:.:.5.%.<.u.s.W 3 . j 9 : e e m x ( W 5.[  .8.%.%.q.u.u.u.",
"5.z.W q.D.%.<. .Z.z.O.<.s.u.d.d.( m I j . e :.] q.s.:.[ ( :.:.s.oXE.J.^.^.z.%.%.i . . ] :.] ( 5.] O.<.s.s.] d.5.O.:.[ :.J.J.u.u.x.u.] O.[ %.] %.%.:.q.O.e  .L.`.z.s.s.~.J.M. .<.u.S ( d.L.L.Z.E.u.d. .q.5.J.s.<.Z.s.d.^.{.oX~.u.%.j 9 > 8.~.#XhXL.s.~.~.^.E.yX^.:.5.z.`.x.x.L.E.Z.O.^.s.Z.=X8.E.E. .s.D.E.* 3 3 h r S I I m Y ( ] :.d.~.oX^.x.z.E.u.J.D.~.^.yXD.{.^.{.=X=X=X=X&XL.5.:.z.M.J.^.`.D.8.5.x.#Xx.O.d.s.E.{.E.`.8. .x r i j I  .] m . @ > m S H V Y Y d.5.Y O.u.O.:.5.:.8.x.Z.z.q.q.d.z.s.( ] Y  .( <.W ] q.J.s.] i @ * r : > i Y s.( <.8.u.x.s.[ [ 5.q.<.O.",
"E.<X~.s. .V ] u.q.5.5.u.u.u.z.u.( S j * . 9 W ( <.q.8.d.D.oXE.E.D.L.M.M.D.s.O.:.j @ @ 3  .5.5.%.O.W  .D.x.%.z. .:.%.<.q.z.E.&X2Xx.8.<.d.z.s.( h I  .Y W  .z.~.<XL.z.J.E.J.J.s.d.E.q. .H x q.^.d.d.u.x.u.d.8.5.<.E.s.M.#XE.L.s.:.q.S j . M.~.&X`.^.L.2X~.M.z.Z.:.s.:.d.^.x.z.u.d.z.J.M.u.E.L.=X2XoXM.:.&X=X2X .* @ r m Y i Y W H  .] V I u.q.{.z.~.u.q.u.`.s.{.=Xu.J.{.{.J.s.<.<.%.8.E.`. .%.5.( I 5.O.%.L.9XE.O.u.oXE.s.u.I e h Y [ [ [ :.8.h * . . * e j j x Y ] %.[ 8.M.[ 5.5.M.s.5.:.[ S i 9 x j j V Y j i H W H S u.Z.x.x . * . i > i %.8.d.:.[ :.q.s.u.:.] V Y  .",
"Z.z.D.8.5.q.[ s.`.L.M.8.[  .u.x.I I x : : : O.8.Z.^.x.Z.{.x.x. .Y u.Z.E.oXM.W S [ . . . Y O.q.8.( i S <.:.8.8.O.]  .d.E.~.#X&X~.E.s.Z.d.D.x.E.M.z.<.u.{.L.x.^.~.u.<.L.D.Z.D.J.E.d.Z.Z.Z.( S s.5.x.s.M.u.:.%.<.D.M.s.L.J.q.Z.d. .] ( m * d.:.{.~.L.x.#X{.<X9X#Xz.q.W <.8.E.~.z.x.x.z.Z.L.yX&XhX2X=XM.Z.u.~.^.`.u.Y 3 e i S 3 x I H m [ ( ] :.u.u.s.u.J.E.Z.<.x. .u.~.~.x.x.x.5.] I ] ] W j H ]  .s.D.8.O.q.&XE.<.D.M.q.<.H x 9 @ V u.Y W 5.i > . . : . e : @ . i Y O.Y Y O.[ 8.5.S x h i 9 9 j I j e r e Y x h i I ( V <.x.Z.V > . * * 9 e x [ z.u. .] ( :.s. .W <.q.z.",
"8.M.z.J.L.d.Z.D.d.5.:.:.:.[ :.D.( I h 3 r * s.s.s.x.:.q.^.D.J.<.Z.Z.M.E.~.:.Y u.O.r : . . [ u. .] :.x.L.J.x.%.( q.M.z.s.J.L.D.J.s.5.M.z.L.J.&X^.s.q.x.~.z.:.d.q.J.x.`.D.M.d.D.D.d.D.d.M.M.( Y x.Z.5.M.Y d.d.^.~.] u.oXd. .q.z.<.:.q.x @ I [ ~.E.x.:.z.E.9X2XZ.:.<.z.{.d.x.s.5.{.9Xs.s.u.~.&XhX&XZ.:.x.d.~.{.~.Z.L.O.: 3 > 9 : m V Y V :.%.] d.<.[ M.q.:.x.J.J.D.M.^.L.x.^.&XL.u.[ ] ] ] 8.:.O.:.%.:.u.q.s.=X^.L.5.z.[ S r 3 . x %.u.~.[ [ . . @ S W [ 8.q.%. .d.x.L.%.i 9 V e . . . > i j j S W S  .I m e V S ] ( O.%.x.u.M. .x h W I 3 x Y :.M.5.O.[ W %.:.<.^.d.:.Y ",
"u.:.m s.J.5.~.&XJ.Z.x.5.:.5.z.#XO.V 3 > i : q.<.%.<.O.O.5.M.s.M.s.8.8.M.s.m h <.z.3 @ 3 @ : Y <.M.`.s.8.d.%.5.%.s.Z.J.D.L.~.L.Z.s.q.8.s.x.^.`.~.d.D.z.d.`.J.d.d.5.q.L.{.&XD.M.u.d.u.D.M.{.^.(  .d.z.u.J.Z.oXD.D.L.D.~.Z.~.`.D. .Z.Z.S . > q.J.M.s.:.q.E.<X`.u.<.J.`.~.z.M.L.:.D.#XJ.5.L.#X`.zX<.O.q.&XL.Z.{.^.`.^.Z.:.e m I W i . @ m m S V ] <.d.5.%.s.z.Z.d.z.J.Z.z.x.J.J.z.q.5.z.J.q.<.%.<.] %.5.E.d.<.E.d.:.%.Y S j . r Y q.[ %.u.x.j . ] O.:.%.u.q.D.<.5.5.z.q.O.<. .W x ( %.I r : @ . * 3 3 m I ] I x S 5.<.W %.Z.<.D.q.: x S <.. j ( ( q.x.Z.8.]  .]  .E.<.( V ",
"%.^.E.:.[ s.L.<.] 5.J.x.s.J.E.E.I m h e * . W s.d.Z.d.5.%.u.d.~.x.s.8.q.5.[ ] <.%.i 9 . > . I O.u.x.%.%.M.<.x.z.J.z.M.D.J.#XoXs.%.z.d.x.u.D.J.`.^.Z.D.z.J.J.x.:.s.z.d.J.L.<.5.5.d.] s.E.`.oXZ.u.z.Z.J.oX^.x.s.d.u.x.Z.J.M.:.:.q.q.M.] e . O.E.~.M.x.d.E.{.x.5.q.:.%.<.q.z.E.z.E.~.s.d.{.2XqX9Xx.8.u.oX&X^.yXJ.Z.E.M.x.z.] :.5. .] W 9 . e > S h  .:.[ I 5.z.%.D.~.d.:. .[ O.<.8.[ u.Z.s.8.x.D.s.L.<.s.q. .] ] ( Y j 9 i I %.[ 5.q. .8.D.S 5.8.Z.%.%.d.s.d.u.D.J.5.{.~.s.d.^.^.d. .O.%.[ m : . @ 3 . : h O.H ( :.:.W O.5.[ s.5.> r W :.H i j [ %.s.d.%. .5.8.8.5.%.O.[ ",
"x.q.[ s.x.<.5.W :.( z.J.M.~.J.q.S h e 3 . 3 j z.5.J.M.D.^.z.J.s.x.8.%.<.q.8.[ m V j . * 3 * x 5.d.u.Z.s.D.<.u.J.z.~.E.z.z.x.d.s.%.q.<.%.q.M.D.~.oX{.z.W E.&Xz.<. .u.8.J.D.] %.q.5.q.%.M.J.J.#Xx.x.~.D.M.q.q.M.Z.J.J.8.M.z.O.[ u.M.L.W x . h J.D.Z.L.z.L.^.z.s.D.u.H [ %.q.<.O.( s.I [ z.~.&XoX9X~.`.iXE.M.hX&XoXL.x.{.Z.H ] D.8.z.^.D.:.W x 9 . i S <.O.q.<.I q.q. .Y S m ( :.O.[ O.]  .] [ 5.{.Z.] :.s.8.Y Y h h e I ] Y Y S W O. .( i  .L.E.u.D.s.O.s.u.{.^.D.z.Z.u.J.<XD.s.Y %.%.<.5.O.S e : : h r e e H ] 8.<.<.] S O.s.O.j : S z.5.. j j O.M.8.O.d.Z.u.<.W O.] I ",
"5.[ 8.5.~.z.s.L.M.J.d.q.Z.z.O. .j m e : : : H D.~.J.~.&X`.s.E.J.Z.M.u.M.z.Y O.j H 3 . . > e 9 x.8.~.q.<.q.5.z.x.D.~.L.^.x.J.x.<.:.<.<.%.( ( :.q. .d.u.q.^.Z.8.( [ 5.s.O.J.d.:.8.q.O.[ s.{.&XL.<.J.z.J.J.q.s.Z.s.~.M.s.u.L.O.z.^.5.Z.<.m : . L.~.x.E.D.9Xz.x.d.M.z.z.Z.`.x.s.L.I q.5.E.M.~.<X2X{.yX#X&X~.E.^.E.M.5.u.~.M.8.@ ] <.<.q.x.E.`.~.M.u.D. .S ] 5.5. .H ] W W h r S H W S h H [ Y i e W ] W  .%.I x x j h r S I m 3 . h :.%.5.~.^.d.:.x.s.:.Z.D.L.D.z.5.x.s.z.#Xd.s.%.[ %.:.x.<.( [ :.x . > x h i * r j W 8.[ [ 5. .O.@ @ e Y q.r @ I m u.8.s.~.z.d.<. .j H ] ",
"8.8.~.J.Z.D.#X#XJ.x.<.[ W x V 5.I j @ . 9 i H M.{.~.&X`.#X{.Z.M.s.#X<XJ.O.I O.H ( i > > r h e s.O.M.u.u.q. .s.Z.M.L.^.^.D.J.%.[ 5.x.D.z.q.q.:.W <.W r r Y [ :.:.q.x.E.x.u.E.q.z.%.q.z.Z.x.x.M.Z.5.M.J.J.E.D.d.u.~.x.M.q.x.:.M.M.u.x.s.I : @ E.z.E.x.d.J.s.<.d.s.x.q.~.{.^.~.x.s.x.{.oX^.oXoXqXJ.`.L.J.D.M.{.z.O.d. .z.u.s.S > W 8.u.x.J.~.{.#X&XiX~.I : m ] ] ] [  .:.] Y ( H I S W S ] Y e i 9 @ . . r m x 9 . . * > . : S <.Z.~.~.#X^.<XD.d.8.q.s.z.M.M.E.M.~.E.~.{.<.Z.s.O.:.%.:.:.<.%.u.:.:.] 3 . : e * > e 9 i 9 e V ] H * j * e ] %.. > m O.%.%.<.] %.<.u.%.5.u.",
"5.x.x.[ Y 8.x.( W L.=XD.%.O.5.u.Y i 9 9 S Y  .&XE.`.=X~.#XE.u.s.Z.{.8.Z.z.5.D.W %.j @ . * 3 3 <.<.z.x.`.D. .8.M.L.#XM.d.%.Y O.z.u.u.5. .] O.8.z.s.( S I x h j I s.<.x.E.d.D.[ M.<.d.J.D.x.x.D.`.d.u.s.u.5.q.s.<.d.5.8.<.<.M.J.d.8.D.5.m . * s.=XE.Z.M.&Xz.s.q.<.M.M.E.z.D.{.u.M.Y ^.{.E.J.Z.yX2XoX .%.5.x.:.<.u.d.M.oXZ.s.:.. m Y  .q.M.J.^.#X<XhXs.( x @ i ( x x x x e 3 e 9 r h 9 i . * j e h : : * . . . > x j h V 5.D.L.J.M.M.oXE.J.d.D.5.%.%.q.L.E.<.:. . .M.=XM.%.s.u.Z.Z.<.8.O.%.s.Z.<.s.z.] j 9 . : . . . : 9 r i I 9 . e j > 5.`.M.i h H :.<.[ S I ( %.%.:.:.",
"W W m %.d.%.I V M.D.^.`.J.d.s.d.H V %.s.Z.8.( L.~.oX`.~.L.8.Z.^.&Xx.x.M.q.M.5.d.x.W > . . . . H [ <.8.x.s.5.x.D.8.d.M. .] 8.W m S [ <.<.%. .<.M.D.d.u.z.%.( Y 8.:.<.M.d.J.E.5.:.%.<.q.d.L.^.J.E.M.5.5.q.O. . .I  .5.d.M.%.D.s.s.~.{.:.I . . m &XD.J.L.#X<.s.u.5.u.#X{.E.J.L.L.^.:.L.L.d.u.<.<.:.I ] <.q.W 8.d.{.E.oX^.`.J.5.* 9 j I %.u.M.~.<XzXyXq.H S i @ . . . . : : : > > 3 x W W ] O.5.u.%.:.:.[ ( [ ] [ 8.<.q.8.z.Z.E.#XE.D.Z.~.{.^.<.:.M.d.J.M.:.s.q.z.{.<Xq. .<.8.z.9X:.O.u.z.x.^.u.<.u.q.] ] O.i > . 3 @ ( Y q.%.V V . j 9 3 ] <XE.S 9 j 5.s.%.W W I W W I S ",
"D.u.I  .8. .q.^.^.x.x.L.J.u.u.M.[ j x m ( W H L.D.z.8.<.:.O.~.oXL.q.z.s.q.L.O.( <.S 3 > * . . r ] <.[ m j [ M.M.E.q.:.Z.s.[ s.q.:.M.M.5.:.5.u.x.z.M.<.5.8.8.<.D.z.( q.L.~.q.u.%.%.:.s.M.#X<XL.L.d.s.<.q.z.%.I [ q.d.u.d.u.D.O.%.O.x * 3 . e ] oXZ.Z.`.Z.s.M.^.M.Z.#X~.9X=X~.L.Z.L.J.5.%.:. . .:.<.:.d.( <.Z.L.8.x.~.J.D.x.q.x : 9 h H Y W (  .<.8.W I H 9 . : e 9 9 3 9 i V ] :.:.z.M.L.L.Z.M.u.q.8.%.<.d.q. .O.s.d.M.oX`.L.`.J.s.^.~.:. .:.8.:.Y 5.~.Z.d.J.9X{.:.q.] W ] #X8.x.8.u.5.x.J.<.x.x.8.O.<.8.Y I x I q.W <.j h ( I q.W m I  .u.<.S . e O.8.[  .%.:.:.u.q.<.",
"[ %.<. .[ s.^.Z.Z.oX`.u.%.s.E.oXm h m H [ W Y J.s.O.u.<.d.{.#XL.Z.Z.W :.s.D.{.:.5.( x V i 9 * h q.s.:.Y V Y 5.M.s.O.M.8.( 5.D.M.Z.~.M.8.u.q.<.8.5.Z.:.O.<.%.5.M.D.5.x.J. .<.L.Y 5.8.d.x.oX&Xx.Z.M.u.%.:.8.%.%.d.5.q.z.z.E.<.e . . . @ . 9 e V <.z.x.Z.s.x.oX=X`.Z.D.Z.`.^.<X{.^.~.L.( %.[ S %.5.:. .<.M.s.E.E.=Xz.z.~.Z.D.D.Y H . @ e x S I Y Y Y S W j . : S 9 i m I %.5.<.s.d.`.D.~.x.s.x.q.Z.z.x.x.x.z.q.u.x.{.u.u.^.~.M.E.`.^.oXZ.x.q.M.s.M.z.:.O.`.`.u.5.L.M.V Y 5.{.E.x.`.Y 8.<.5.( <.L.M.z.Z.D.<.O.z.8.8.d.:.H S  .] u.8.8.s.z.Z.Y  .] h 3 Y :.] O.:.5.%.u.u.u.",
"z.8.J.D.D.M.D.d.x.L.D.x.J.D.z.z.r x H ] O.S h [ ] O.J.D.{.&XJ.8.5.d.{.`.Z.d.d.s.J.d.<.5.Y j 9 h <.5.5.u.d.:.%.M.Z.O.[ %.5.q.`.D.L.J.q.:.u.8.:.d.s.~.d.u.s.%.J.^.{.u.s.D. .:.d.O.:.:.8.%.d.M.%.s.M.s.8.:.[ O.5.5.u.s.5.] H r i r x m r . @ * x z.u.8.%.%.<.E.J.{.{.<X{.Z.:.J.D.oX#X~.8.J.D.M.D.z.d.<.x.x.L.~.^.E.=Xd.J.^.2XL.i %.H j 3 : e x S H V m : @ H :.O.[ 8.q.<.s.z.d.L.^.L.~.u.s.u.5.M.u.x.z.Z.E.E.L.L.J.5.%.q.8.O.s.L.L.:.u.M.8.D.d.q. .5.Z.#X<X8.s.{.D.O.q.] O.8.u.d.:. .O. .<.z.<XZ.S s.s.Z.u.J.^.z.D.x.q.I %.z.u.J.d.L.x.x.s.<.x O.%.> S 5.%.O.[ O.W 5.u.z.",
"<.:.s. .d.u.d.L.x.z.<.8.E.~.L.#Xj x r m ] H h S ] J.&X9X9XZ.x.d.q.5.u.5.5. .O.V [ [  .q.] m e r ] 5.<.:.z.u.] ] 8.W  .:.z.z.Z.x.x.^.Z.8.d.x.u.z.x.D.u.M.Z.O.Z.8.d.u.<.( O.8.[ I :.u.x.:.<.8.%.~.Z.{.x.] ]  .] %.W H > m x 5.z.5.W x e m . * 9 ( %.O.u.5.Z.s.8.D.Z.M.W  .<.L.L.&X<X~.E.M.%.d.d.E.^.M.x.s.q.D.~.oXD.<X2XJ.D.d.: V :.H 3 @ > r i r x 3 m s.J.d.8.u.L.J.d.M.M.s.L.^.oXE.Z.s.z.L.M.z.D.z.Z.L.M.d.s.8.8. .x.^.E.`.D.q.u.z.s.x.z.u.<.u.u. .O.q.z.J.=Xs.D.[ Y :.d.d.u.5.x.8.E.J.`.E.q.s.%.s.D.:.`.<X8.I [ W j O.q.d.x.z.u.^.u.u.8. .( m > m 5.%.[ Y O.( 8.z.L.",
" .<.] d.L.Z.E.s.z.5.<.^.s.z.~.x.H i ( S h I j : H W :.s.%.<.D.8.^.u.%.S e > @ e H  .x.<.I W m > j Y q.8.8.O.u.d.H  .5.%.[ 5.z.s.D.E.d.5.q.<.D.s.J.z.q.q.s.u.s.q.x.%.<.S 5.L.I :.`.=X~.8.q.E.{.E.&X<X~. .W s.Y H m H O.8.:.<.s.z.( I x i e . . h %.L.E.~.z.:.x.q.u.<.%.] D.D.`.`.<Xd.8.s.:.M.J.~.L.d.D.J.u.L.J.x.Z.J.9XM.L.M.@ W ^.<.V . . 3 3 9 I 5.u.:.%.M.d.L.~.D.5.d.E.{.D.J.~.%.5.z.E.L.M.u.z.Z.z.Z.z.J.z.s.J.J.oXL.J.L.8.M.^.q.%.D.s.d.D.z.s.z.E.E.<X^.M.q.H ] 8.s.d.8.D.8.s.q.~.<XZ.Z.W Y s.J.z.J.M.5.W V H W ] W  .x.%.s.s.s.q.8. .Y ( V : e S D.x.z.O.<.8.z.5.",
"m 8.d.q.u.L.oXL.J.8.5.5.d.{.~.D.] @ H W m ] i > V m h x i h O.5.q.x @ . . 3 . . %.^.^.%.8.H Y i i I u.s.8. .M.J.[  .5.5.%.u.D.x.z.~.x.5.O.[ u.O. . .<.q.x.M.%.d.d.O. .] q.z.%.M.`.u.V W x.u.q.=XE.d.%.* 9 O.O.s.q.u.D.J.<.Y ] 8.Z.%.m V i * 9 @ I s.5.d.Z.x.d.u.Z.u.d.q.D.u.L.&X#X:.z.u.E.J.M.D.z.q.Z.L.L.`.`.Z.d.%.M.M.Z.8.3 x ~.M.W S @ . . m 8.Z.x.5.s.oXJ.Z.D.q.u.d.s.x.J.z.E.s.:.D.L.q.8.s.J.<.<.Z.D.D.u.~.L.~.`.u. .O.<.^.u.8.[ s.M.M.x.M.D.J.d.5.E.M.q.%.:.:.5.u.M.D.E.z.Z.5.~.5.:.L.W 8.%.<.q.q.s.8.m %.<.[ z.<.I ( %.x.^.q.[ %.i r S W * h h :.d.Z.s.x.<.x.s.",
"d.u.:.H [ J.^.D.Z.=X~.D.:.q.8.D.Y . m [ x [ e : . @ @ i S r > : . @ 9 > * : @ * d.{.2XI O.5.S e x  .s.z.s.<.z.<.( <.O.] <.5.5.Z.L.M. .<.<.O.8.5.O.d.z.x.Z.J.<.x.I V Y q.x.5.5.z.:. .:.5.:.5.%.S . . @ e ( =Xs.q.:.:.8.8.5.u.d.q.^.`.( x x 3 > . 3 [ d.x.Z.D.L.E.M.5.q.5.d.5.M.L.^.q.E.8.`.Z.:.5.<.s.x.8.s.d.D.s.u.D.d.<.z.8.h e D.^.:. .i . . : W [  .:.8.M.q.s.q.s.s.<.Z.L.z.W 8.5.z.&Xu.O.d.Z.D.M.E.x.d.{.D.^.{.L.u.O.<.q.u.x.:.q.%.z.J.E.J.M.z.E.^.D.s.<.s.] %.q.z.Z.J.E.s.8.8.M.M.:.u.M.x.D.8.E.x.M.J.s.O.s.M.<.z.J.8.5.%.d.Z.W d.d.S @ h * @ m r V 8.s.u.s.5.q.( ",
"~.D.J.L.J.z.<.<.~.L.`.J.Z.J.%.x.j * x  .x Y 3 > 3 I :.q.<.Y V S x x j 9 3 9 * . V Y x  .5.8.q.( j %.O.<.J.^.`.s.%.O.5.8.:.5.z.J.^.J. .%.O.8.5. .[ L.M.Z.q.s. .( I W u.<X=XM.q.%.8.<.I e 3 @ . . . x z.Z.Z.s.d.J.M.M.z.:.[ q.z.8.E.VXL.I x h r @ . i E.E.d.d.{.{.x.d.M.u.s.z.^.E.<.d.Z.%.d.Z.%.8.] 5.<.8.Z.d.d.5.Z.M.]  .J.<.3 . d.J.8.] ( i * * [ ( ( q.x.M.u.s.5.O. .q.~.M.M.oXD.d.L.u.s.^.z.<XE.q.q.s.L.oXz.u.M.J.u.:.O.%.M.{.J.Z.M.^.M.L.~.q.`.oXu.d.L.u.8.<.q.E.&X#X~.E.5.u.Y s.] s.M.5.x.<.:.~.u.u.z.x.x.d.%.z.J.<.s.J.Z.D.5.x.s.5.] H : : @ h r h  .[ O.] I 5.5.",
"s.Z.`.2X#Xx.u.s.%.O.O.q.{.x.{.8.h h r  .( S 3 r W :.d.8. .O.:.O.O.u.q.W 9 @ > 9 Y 5.H x.M.M.D.] e 8.s.J.9X#Xs.%.%.d.5.<.M.d.q.E.J.x.%.5.%.<.<.5.z.d.x.^.s.x.u.z.5.Y I I h r e > > . . @ . . : ( <.d.u.=XM.s.d.{.L.d.<.( V I O.:.E.iXyXq.i h j * * . [ M.d.z.x.M.~.x.z.s.M.^.#XD.z.^.u.W ( %.[ :.( q.8.x.s.O.%.z.z.s.z.L.^.d.V . ( %.5.8.u.Y . @ O.8.8.s.<.q.u.s.M.z.d.d.8.D.^.J.s.M.z.^.D.s.#X8.Z.q.q.d.z.q.s.L.x.x. .<.Z.D.J.x.z.d.d.J.s.L.{.d.E.8.:.{.Z.] :.%.x.x.u.5.5.d.( ] s.] ] d.q.s.O.<.8.s.D.M.x.`.q.O.<.<.x.[ D.q.z.z.J.u.Z. .:. .q.x > : > e ] [ <.W 5.5.Y ",
"d.J.D.M.M.D.Z.8.Z.5.:.<.d.`.J.W I m @ O.q.S e H <.q.M.d.d.J.z. .5.d.s.q.O.H j 3 9 8.8.] 5.D.Z.W j 8.u.d.D.s.[ x.x.u.s.z.s.s.u.O.E.z.O.O.%.5.8.q.:.s.^.q.H x.] * : . @ . . 3 : . : . * * . j :.O.Y O.u.L.~.Z.`.D.8.O.] ( W <.M.D.^.=XqXL.[ x e 3 r . . %.x.Z. .d.~.z.q.u.x.Z.Z.z.x.L.D.D.^.x.z.q.5.~.D.s. .O.<.x.z.L.E.Z.J.M.Y : :.s.d.z.u.u.> . x.M.d.Z.u.z.J.J.M.s.8.M.M.E.J.L.8.u.E.x.M.s.s.J.s.x.D.D.L.x.s. .:.8.%.u.D.x.q. .s.D.d.M.D.`.oX`.#X^.8.x.x.q.z.L.z.D.M.q.O.%.%.q.[ I Z.qX~.~.%.s.Z.s.z.E.Z.M.:.I 5.I [ s.u.u.Z.`.( O.8.s.[ Y :.] V > : 3 [ s.D.u.D.#X{.",
"S O.z.x.Z.^.L.D.E.&X~.E.:.s.M.%.W r . [ u.V h [ [ d.^.D.D.J.u.q.D.x.<.q.q. .I i j ( Y  .q.W Z.5.m :.d.q.5.5.m Y <.z.Z.x.x.d.5.O.W ] ( V O.M.M.:.m 3 @ * * h x r e > 9 : : e > . @ . . r  .5.:.<.:.u.z.~.M.{.Z.8.O.:.8.<.[ :.u.q.L.`.oX&XD.W h i r > . x 5.M.5.M.Z.~.E.Z.s.q.d.L.^.M.D.d.d.:.s.8.D.^.L.s.M.{.E.x.9X`.<.8.oXL.( h q.Z.:.H i [ j . L.s.%.J.^.{.E.u.8.~.L.s.z.D.D.E.D.s.~.^.L.^.L.d.J.d.x.q.u.<.q.M.J.E.M.M.L.D.Z.M.Z.L.s.d.q.q.8.<.:.u.z.M.[ 5.Z.Z.L.x.s.s.M.z.q.Y I <.z.D.q.s.M.^.d.5.V [ ( I  .] Y M.^.&X%.u.:.%.:.O.L.J. .> M.z.:.] I e ] Z.D.Z.`.#XD.",
"q.] <.:.%.:.[ M.u.] s.[ z.d.M.5.V : : Y  .m V O.W s.J.M.E.D.:.s.^.D.8.z.Z.d.d.q.O.* I [ ] Y u.d.> V <.<.q.#X5.V 3 I d.z.:.5.d.8. .V ] q.q.e . . r :.m Y 5.q.J.j > 3 > > > 3 3 : . . H s.O.Y 8.L.Z.%.d.Z.z.M.u.M.D.<.<.M.J.z.:.W 5.:.x.=Xd.S H . 3 > 9 . Y d.^.z.~.{.D.s.M.~.Z.z.x.d.oXE.s.u.z.8.&XL.~.z.x.z.Z.oXZ.z. .O.8.u.<.r O.M.d.O.H W :.( 5.M.L.#XE.L.x.] %. .z.^.#X~.{.^.~.#XJ.x.8.M.D.q.M.O.u.8.~.oXL.L.Z.J.M.z.M.x.z.M.`.L.Z.~.q.q.d.%.<.] ] u.u.D.M.D.<.u.Z.z.5.Y  .m [ z.q.] O.u.z.d.z.u.:.] (  .S ] x.Z.d. . .( q.^.u.Z.u.:.I . %.x.x.L.M.m Y d.5.d.q.M.u.",
"Z.:.=XL.q.8.M.8.<.M.E.x.s.:.s.%.i @ . ( O.x (  .S d.D.^.`.d.z.^.~.`.x.#X^.&XJ.z.:.5.j 5.( ( 8. .j e q.<. .E.Z.W [ S S ] u.d.:.u.[ Y Y z.L.`.2X&X~.Z.9X~.D.]  .i 9 S h @ : i 3 . m  .u.8.d.q.M.`.z.O.O.M.z.q.u.( :.%.<.x.J.<.H Y <.M.s.d.q.j S j r 9 * @ V W 5.x.{.~.D.`.2XJ.z.W 8. .:.Z.q.O.( %.] O. .:.:.u.J.q.%.Y I ( O.`.<.] V %.( I %.[ 8.W <.D.2X{.s.<.q.u.8.D.L.E.{.D.M.=XL.oXJ.d.M.`.oXx.5.<.Z.z.z.u.8.s.x.z.z.M.L.E.L.L.^.`.oX8.D.D.O.u.8.<.5.z.Z.s.:.[ 8.<.q.s.z.H u.%.L.[ d.8.D.`.u.<.( ( ] ( ( :.<.] x.8.<.[ q.x.D.8.:.( %.O.i . W q.s.z.q.( V z.s.O.O.%.V ",
"{.O.d.s.`.J.u.Z.%.V q.q.E.M.`.[ m i 3 Y Y j W I S ~.{.E.J.M.L.L.^.&X^.#XZ.x.s.s.( Z.z.W W <.%.Y h @ <.s.<.Z.`.8.8.d.5.Z.Z.] x . e m I ~.^.{.J.z.8.Z.O.s.O.q.s.e h r 3 9 . . i :.M.x.<.%.O.q.5.5.[ <.5.s.M.x.s.5. .5.u.u.8.%.( W ( %.<.s.8.O.m V r > e * x [ V 8.] 8.q.d.u.O.8.%.8.O.Y  .:.[ z.#XE.z.8.O.z.{.u.W x I <.M.~.#X<.q.[ x I %.s.O.[ . %.^.d.5.J.q.<. .d.q.s.J.L.M.L.<X~.{.Z.J.M.L.{.oXs.q.M.d.M.x.d.x.s.D.x.M.J.8.:.E.d.L.s.5.] O.8.d.%.z.M.5.[ :.u.d.d.L.L.x.z.:.q.s.8.[ q.M.d.<.8.q.q.] m [ s.[ I u.5.[ 5.z.M.5.z.( Y V z.<.: i 9 :.J.Z.z.W 9 8.s.Y I I x ",
"Z.[ 8. .d.M.d.M.oXq.x.E.E.M.z.S m x 3 > : r O. .m E.L.x.J.`.9XoX<XyX<X`.s.O.8.s.q.M.`.<.x Y ( V x . Y 5.[  .oXE.J.8.:. .h @ m M.s.5.Y s.D.^.D.Z.q.[ s.d.oXJ.z.h r m j > : Y 8.z.Z.<.I W ( <.:.O.:.5.8.5.8.q.:.:.d.q.O.H S ]  .Y I W W :.5.<.S H m r r @ * m 3 :.5.S Y :.z.L.s.D.D.<.Z.q.[ :.Z.E.Z.u.q.q.Z.z.( [ Z.L.L.E.=X#X8.u.<.i Y z.5. .%.3 ] #XD.s.L.:.O.q.5.%.Z.&X#XoX#X~.E.J.<.Z.M.^.`.oXL.8.:.[ q.z.d.q. .<.d.J.~.E.E.~.=XE.V ( d.x.s.5.q.J.J.5.O.q.x.d.x.M.%. .s.Z.<.d.<.x.^.oXM.J.^.u.<.] %.5.] O.x.J.%.L.Z.z.^.:.[ V [ L.{.x.r I H x z.J.D.( 3 ( [ x x j S ",
"O.q.x.M.#Xd.:.~.&XyXE.s.u.D.d.h j S h 3 @ e W H  .E.D.^.<X<X9X~.M.:.V h W O.x.z.x.z.J.L.H V ( ( j . j u.8. .x.8. .r @ * ] x.5.s.^.^.E.L.^.z.d.Z.5.z.Z.~.Z.bXJ. .V x e : ] x.M.x. .m S Y [ ( :.:.x.W  .:.[ :.5.5.Y Y ] Y x I <.8.W O.[  .5.Y  .O.m h h r @ * : V d.u.[ Z.J.D.^.`.`.{.~.d.I S s. .I [  .q.%.m %.~.{.#X~.D.=X&Xu.] s.[ Y x.q.x.d.j H Z.x.( <.=X^.:.M.D.{.{.L.oX=XD.J.E.d.M.8.q.8.8.Z.D.L.z.u.:.%. .:. .%.<.8.Z.E.M.{.%.<.s.q.5.M.x.D.s.:.[  .:.8.q.q.:.<.H q.[ q.`.J.5.5.8.] s.q.O.[ %.( H 8.^.`.D.s.D.E.Z.q.8.x.:.[ {.8.O.h H Z.Y 3  .] e 9 V H  .] ( u.",
"~.D.Z.Z.u.O.M.D.`.z.( ] x.:.s.j m H V i * e H m M.{.E.#X2X&X<X`.] <.s.u.z.5.Z.Z.q.{.&XE.5.[ j 9 9 > 3 %.q.8.] : * x m q.L.[  .J.&X{.^.M.J.q.s.E.s.L.L.x.^.&XyXz.j m r . 8.^.s.( H V ]  .:.5.M.x.Z.] %.<.[ :.q.s.5.O. .[ ] <.8.[ ] 5.8.5.u. .s.D.O.i h r @ . 3 3  . .W O.s.#XL.q.D.L.z.]  .:.m  . .Y m Y W O.E.oX`.{.^.^.=X#XZ.( d.L. . .q.J.Z.j h u.M.%.V M.L.M.`.#X{.x.q.x.J.M.E.M.q.J.oX{.D.5.s.D.^.Z.z.5.q.5.J.^.~.J.M.u.u.E.M.8.5.<.s.8.u.x.s.%. .<.5.:.<.s.Z.M. .M.<.x.d.^.E.s.s.z.5.z.%.I %.W H :.E.^.M.s.5.O.M.E.8.z.Z.D.{.&Xx.z.] W %. .h Y h @ e i S 5.O.%.Z.",
"d.^.M.s.z.M.oX#XE.L.s.s.d.E.#Xh x V x > . 9 S V z.`.#XoX^.J.J.M.z.x.x.z.D.u.z.8.~.oX=XS j Y x 9 e . . M.x.V @ h  .d.8.u.{.^.x.M.J.z.d.Z.E.E.M.J.&X{.oX`.&X=XoXJ.5.V : . q.M. .[ O.5.<.8.q.^.`.L.%.5.u.:.O.O.%.q.<.d.z.<.%.d.Z.s.<. .:.q.D.&XD.oX~.j i : * 9 > @ > 8.8.M.q.<.^.D.d.M. .z.~.z.O.%.:.W :.%.( 5.M.`.{.J.8.x.M.d.8.H 5.~.<.h :.J.L.i x :.] M.q.Y ( u.x.J.D.M.Z.x.x.J.J.Z.D.&X2XE.D.x.Z.Z.z.8.z.M.E.x.D.{.2X#XD.u.u.u. .O.] <.( u.oXM.%.O.<.z.Z.x.z.z.8.5.M.M.M.d.`.Z.[ 5.%.[ I [ :.W %.:.L.&XZ.u.u.<.%.:.8.O.%.M.x.#Xz.z.:.q.I W W <.Y i * : j S %.5.W [ q.",
"oXx.s.M.u.:.8.Z.s.q.u.~.u.J.M.Y x S V 3 . i S j 5.L.qX9X~.u.( H V [ 5.s.z.q.x.z.z.x.E.S m H x : . 3 : e . 3 S %.O.:.E.oX=X{.q.d.q.<.M.L.J.J.L.&X~.L.D. .H M. .O.J.s.W . e d.s.q.d.d.%.<.d.~.M.u.I %.<.<.%.O.5.s.Z.J.z.8.d.M.8.Y 8.] [ <.D.2XJ.{.#X[ i r h i @ . . S s.d.O.I %.x.^.d.z.M.x.x.q.u.u.( ( O.z.E.s.:.M.J.O.u.q.5.<. .5.u.:.S :.<XZ.. j q.q.L.2XL.D.J.u.d.x.D.~.E.L.^.s.u.5.L.^.E.D.M.D.`.^.Z.Z.x.L.z.{.~.oX~.s.D.~.8.d.z.] (  .s.s.:.<.%.O.<.s.x.M.M.^.u.J.s.s.:. .h  .[ :.8.q.] ] q.5.{.#XD.Z.d.%. .H ( x.d.Z.~.L.d.8.s.V V i H q.z.[ h * * i i W H [ <.<.",
"z.u.x.L.&X`. .<.5. .s.x.D.x.<.<.V H m @ . Y u.5.d.x.=X&XL.s.[  .O.u.d.x.d.q.M.M.J.yXZ.W W i : @ : 3 I <.[  .s.D.] <.u.z.5.<.u.] 5. .L.L.^.Z.~.`.^.E.8.%.S [  .u.q.z.D.O.>  .:.z.%.I V ] D.z.q.u.s.:.<.z.%.( q.5.D.z.:.O.8.5. .O.%.:.:.O.q.5.Z.oX<XD.9 i h * * @ . : S ] z.M.D.s.z.L.Z.O.[ W %.5.[ u.[ ( s.L.J.5.%.{.5.O.S H  .u.M.s.x.8.x oXs.3 m ( 8.<.oX`.^.~.s.x.D.L.^.`.J.s.D.oXL.^.x.J.L.J.d.Z.d.q.x.M.^.M.E.J.J.E.{.&X#X`.J. .5.:.J.#XE.~.q.5.8.s.z.d.z.Z.O.Y M.u.<.[ O.z.L.u.M.] :.5.I 5.L.M.x.u.<.5.<.[ u.L.J.5.2XZ.q.z.Z.q.( S [ [ s.s. .W 9 . h j O.8.:.s.:.",
" .( M.`.Z.O.L.x.:.( 5.[ s.~.Z.J.W > i . V <.z.D.d.L.oXoXoXs.W d.z.5.%.%.q.%.5.D.&X9X5.Y I i . x ( J.&X8.( q.x.x.D.5.:.:.8.<.q.<.] u.^.~.D.E.Z.Z.<.] ( 5. .%.8.x.<.D.{.J.h M.8.5.( s.q.:.%.s.q.u.[ 8. .<.%.x.d.L.Z. .%. .<.8.Y ] u.:. .[  .<.x.^.zX^.e x 9 : . * * . j 5.Z.#X{.<.5.u.:.I :.u.x.M.M.%.z.J.~.J.Z.D.M.z.5.:.O.8.M.:.z.<.z.8.e d.Y h h u.x.[ d.~.D.O.M.`.~.hXJ.s.H %.`.u.5.H 5.&XD.E.J.E.d.Z.J.qXbXqXz.E.^.<XE.Z.u.^.[ u.z.z.L.~.L.J.] x.M.<.z.%.[ u.D.u.s.( ] <.x.W Y %.M.d.D.Z.s.z.J.5.z.d.z.] %.:.O.( :.d.z.z.q.] %.x O.] 8.z. .5.%.8.[ . i Y ( O.q.q.8.",
"E.x.x.M.%.D.u.:.8. .8.[ <.s.8.s.[ i * *  .J.O.d.5.s.{.~.%.W O.<.O.d.8.q.:.z.x.^.&Xu.I j 3 .  .%.:.8.u.] ] u.s.d.8.q.Z.d.u.8.s.<.q.L.x.x.W 8.8.q.x.[ S %.8.u.<.<.[ q.5.O.r %.s.s.x.x.d.q.s.u.q.u.:.5.d.5.{.Z.D.Z.u.O.8.8. .j x %. .[ ] ( W ] <.d.L.Z.j j 9 @ 3 S j x . 8.q.z.<.O.W %.<. .s.Z.J.J.:.s.oX#XL.L.Z.E.d.z.d.~.<X<XoXz.s.M.%.x > 5.W r *  .D.s.x.J.Z.M.J.oX{.J.[ m W Z.q.u.Z.j W W ] s.`.^.5.s.x.J.L.E.`.2X<Xd.J.z.d.5.<.8.x.L.O.] qX5.<.W m W ( :.q.M.8.M.Z.:.S W 5.u.E.J.8.<.[ 8.8.E.s.W 5.W I W 5.W ] O.Z.z.%. .h W h 9 W q.J.Z.] q.z.:.W : > I 8.x.8.8.8.",
"2X`.~.J.s.s.8.D.Z. .u.Z.J.8. .8.S 3 > i s.Y  .Z.=X{.^.u.j m :.( :.z.z.W 8.J.2X2X^.x x r .  .q.8.u.[ ( Y ( %.<.z.[ <.Z.z.u.5.u.<.s.x.u.u.%.q.~.L.D.u.O.8.5.O.W  .[ <.( I j x u.J.x.u.z.u.:.I O.q.] 5.E.{.~.z.d.q.<.s.5.m m I q.<.5.5.<. .( Y I I %.q.S i 9 . j O.W x I . 5.[ %.( W %.8.:.d.z.x.z.q.^.`.s.] u.d.L.D.D.M.J.J.z.s.u.q.s.x . . W ] 9 9 [ Z.J.x.x.d.E.^.:.[ I x W z.8.:.%.s.O.S V I ] ( 5.m S 8.s.q.E.~.=Xz.W H [ 5.J.q.x.u.u.8.J.( ~.%.:.( [ %.z.x.D.5.5.q.O.D.Z.~.D.<.u.] :.O.8.O.<.5. .8.8.q.M.z.%.:.D.d.%.O.( Y S j e Y u.8.x.8.5.D. . .Y * j  .%.q.q.q.",
"J.{.x.5.z.s.d.<.] 5.E.D.M.x.x.s.i . 3  .( j H E.z.{.J.5.W Y :.5.M.L.d.u.Z.#XZ.<.V r . : s.E.M.M.M.[ W ( ( [ O.u.<.[ <.q.s.8.d.u.x.s.z.u.<.%.D.D.s.Z.d.u.O.( I %.O.q.%. .H * ( x.E.8.%.[ H r h h x S %.D. .z.d. .<.W S V %.<.z.s.O.] W ] ] W H S ]  .H r 9 @ S  .<.S x > j u.O.8.] O.5.:.u.d.D.D.=XE.q.d.J.J.d.Z.oX{.~.x.%.] %.<.%.m @ @ . e Y : 9 H ] u.8.<.[  .] W m H q.M.5.( [ O.( :.8.( r m i [ [ %.u.d.u.5.D.d.:.( <. .u.z.%.:.O.L.D.O.<.V I Y <.d.z.] %.D.z.M.z.J.u.8.( W  .D.M.z.s.u.u.:.d.2XE.M.x.~.u.5.:.J.8.Y ( m %.S : <.D.Z.x.M.:.W d.%.8.s.9 i m h ] [ [ ",
"z.^.s.s.x.D.M.u.M.L.~.x.x.J.~.<.9 i s.8.V Y V D.<.<.j j :.q.s.d.~.x.:.u.D.M.W h h . * q.5.Z.s.d.M.[ ] [ O.5.<.:.s.O.:.8.x.x.J.Z.D.Z.x.u. .d.d.x.u.M.8.:.<.u.O. .O.<.5.u.[ : * Y d.O.I H h x j r Y O.x.z.s.M.M.[ H I <.8.d.q.<.%.O. .O.%.( V H O.[ Y I i 3 * Y [ <.q.O.r > 8.^.O. .O.5.<.s.z.J.D.q.L.`.^.oXE.E.~.M.5.O.Y m ] :.W j . . > : @ 9 . 9 %. .:.] [ s.Z.Z.s.8. . .:.:.I I H %.W  .5.^.s.d.z.`.~.%.5.{.x.I 5.8.:.5.J.`.%.x.u.x. .O.O.] S r j 5.<.W [ M.s.M. .%.[ O. .s.<.<.5.Y ( z.L.Z. .d.s.Y d.~.<. .z.J.8.<.%.:.<.[ H s.D.{.Z.u.D.x.:  .8.s.z.i m S V S S H ",
"%.:.D.x.z.d.D.2X<XE.Z.L.~.M.M.( . d.~.( H H W S ] ( W :.s.s.u.q.s.8.Z.^.9X8.m 9 > . O.:.E.x.q.D.<.] :.<.<.z.x.u.q.8.z.s.z.Z.~.Z.x.z.x.5.E.zX=XZ.L.Z.:.O.5.x.%.H O. .<.x.q.V . > S H V V h Y ]  .<.L.L.<.d.<. .[ u.:.d.~.d.Y S q.%.I m ( 8.d.d.s.[ Y W j > . I %.x.q.D.:.h r 8.d.] W :.5.d.d.x.q.O.M.J.s.D.J.J.<.%.W Y m V  .( i . : > : i 9 @ @ 3 8.:.%.5.z.`.&X .s.s.( d. .]  .Y H [ %.5.S ( u.z.q.s.L.#X^.~.8.]  .W L.q.s.M.~.s.d.s.q.u.z.] Y :.W ( s.q.x.D.J.E.<.Y <.] M.D.z.s.d.8.z.z.5.] [ <.8.q.%.8.Y 5.( ( O.%.5.j Y [ :.M.s.O.S 8.L.D.Y x u.d.s.x m V H 9 9 9 ",
"%.] M.s.Z.`.9X&X%.8.u.d.s.u.M.m I oX%.%.%.D.s.V M.<.5.s.z.D.Z.z.z.D.z.Z.[ h . r x 5.5.x.x.q.d.]  .[ d.z.u.E.{.E.M.M.L.M.M.Z.~.D.Z.J.E.q.2X<X{.s.^.Z.8.8.%.5.O.( O.] :.x.z.] * . W ( I S Y  .O.%.E.J. .Y %.s.5.d.d.M.q.d.[ ( ( O.Y  .O.( Y  .8.u.%. .W j 9 . h 5.u.M.{.%.S e j :.I V [ 8.M.M.M.8.s.:.%.d.s.[  .[ H ] O.]  .( > . . h i h H W H S i q.x.s.2XyXJ.8.5.5.z. .I i H H [ :.5.W h 5.x.5.( 8.8.<.z.:.5.u.5.E.M.5.Z.x.J.O.8.%.:.<.~.q.<.q.q.M.q.s.E.2XL.q.O.8.Z.M.:.:.d.M.x.u.d.d.x.:.O.s.#X:. .( M.q.5.H Y 5.W Y H <.d.O.] ( s.d. .O.[ r 9 q.M.z.H x m S h h h ",
"<.H V Z.z.L.~.u.s. .H O.s.u.s.> u.Y Y I O.D.8.5.Z.Z.E.Z.d.s.5.d.E.#X{.5.V * 9 I [ s.s.8.%.:.O. .8.O.d.Z.J.<X9X{.=X~.^.~.E.D.^.^.#XbX9X{.L.:.5.D.D.u.8.d.%.O.<.s. .] :.d.d.( e @ ( <.8. .O.] <.M.x. .( O.[ O.8.8.Y [ V Z.5.I V Y O.<.O.H ( u.u.[ q.8.I r h @ : <.q.`.Y %.:.V @ S 8.[ 5.d.J.D.M.<.z. .i S H ( [ V Y O.[ Y <.( @ r i m x ( ] q.Z.u.* q.&Xq.Z.d.S W %. .]  .H Y H S H S q.:.q.8.q.%.8.%.:.[ ( ] u.I ] `.x.<.z.5.<. .:.8.M.~.M.D.<.J.s.s.J.E.&X<X{.8.<.5.( [ [ D.^.2XD.d.E.:.z.[ q.J.E.z.J.M.d.W * x  .] :.h :.s.[ H x S <.s.O.5.] x 9 8.Z.M.W V W  .S V V ",
"L.u.<.( L.#X{.<.W <.q.x.:.M.q.W ( [ W S ( H Y :.:.5.]  .d. .<.M.D.E.5.m : h H :.5.( [ O.<.:.s.u.5.5.M.D.<XJ.^.<X^.=X&X{.9X<XiXqX~.u.M.`.d.8.D.`.O.:.d.8.:.%.d.5.:.<.Z.z.8. .: * H m :.8.u.d.J.~.8.s.8.z.s.5.%.W 5.5.:.<.O.O.8.[ I O.] O.8.M.z.z.M.x.[ r 3 . Y s.x.d.Y 8.8.W m . O.5.Z.<.5.`.J.~.[ <.M.:.] :.s. .Y W Y 5.:.9 : j :.^.Z.s.J.L.5.h 9 Y Y m Y W S H S m S V [ O.5.5. . .q.d.<.%.:.O.] Y O.O.%.V I ( x.s.O.Y ] q.x.d.q.L.x.M.#XZ. . .z.`.#X^.d.d.D.<.:.u.%.M.^.~.J.^.M.J.M.( 8.d.q.s.%.( M.8.m x W x x > h O.%.[ %.5.u.%.8.q.8.:.%.. * W q.d.:.. ( ( W Y I ",
"D.%.J.( :.`.H m I :.O.q.D.{.q.] 5.W W :.<.W H W 8.O.I :.u.8.u.s.d.H e 9 ( H  .%.O.[ :.:.u.u.z.u.5.8.z.~.9X2X&X#X^.#XJ.q.<.W I m S  .I W 8.x.8.:.Z.s.z.q.<.8.s.q.:.q.M.u.:.( @ > 3 8.z.s.L.`.D.z.u.E.d.O.H 5.M.D.s.q.5.<. .%.q.:.O.8.J. .%.q.<.u.s.s.:.j 9 j O.M.8.] J.Z.^.J.V e h x.%.5.Y :.d.] 5.E.D.L.8.%.H 8. . .V m 9 i Y s.J.D.:.<.x.<.m . > m S V S x j S S m m m W O.u.z.:.<.q.u.<.O.W V [ ] (  .Y ] 5.Z.E.L.D.z.q.z.M.z.M.z.E.d.^.q.W z.^.z.M.O.%.d.<.^.L.:.s.x.L.Z.Z.O.W ] <.5.z.q.] Y m Y  .V x %.] 9 m j  .q.z.q.Z.J.~.q.L.J.q.] %.* . : h ( Y . H ( :.] H ",
" .x.z.J.:.[ S j m ( ] 5.J.L.%.H 5. .8.u. .( <.q. .8.] :.5.5.8.L.j 9 h S z.5.M.<.:.%.%.:.J.~.D.5.5.s.d.L.Z.^.D.z.5.s. .W Y W  .:.s.u.<.u.%.<.z.u.z.q.q. .[ d.<. .q.Z.J.x.u.%.> r @ O.u.^.~.s. .:.( ( I [ Y :.O.8.5. . .%.8.x.s.%.[ Y %.] x.E.5.O.I ( %.x : H [ 8.x.~.2X~.`.^.5.h . m  .m Y W z.<.L.`.5.M.x.M.Y ] :.H > 3 > O.u.L.L.8.%.M.q.9 . > > 9 h S W Y I ( S [ :.%.I S Y O.d.D.M.5.] Y H S Y ] <.d.O.5.u.z.u.u.z.z.8.u.x.z.x.z.`.:.L.d.:.q.u.( q.<.5.x.5.E.<.8.D.8.( s.<.j ( u.s.5.] :.<.W H i > j (  .x Y H W z.D.#X^.`.x.Z.u.J.{.O.x.s.S j . . h j : x ( H Y ( ",
"z.u.s.oXD.q.I [ %.] <.x.D.M.:.i <.[ 5.%.[ I ] S W H ( 5.] ] ] S e ] 5.q.8.:.8.W %.u.x.d.L.Z.M.x.q.5.5.E.L.{.q.S W O.H Y I ] %.u.d.<.5.<.S W D.:.5.d.M.%.O.`.d.O.d.^.E.E.L.s.9 r . I M.x.H W O.Y Y ] %. .W 8.5.z.( ] <. .(  .W ( 8.:.[ z.L.M.:.O.%. . .x . S %.x.^.2Xz.D.^.&XoX[ r > %.%. .%.W <.M.q.<.s.u.Z.L.s.( @ . S <.~.d.8.x.z.~.s.> . i . 3 e j S Y ( ] ( %.:.[  .H I x m ] q.5.] [ %.:.5.O.O.u.d.q.u.z.8.I ( <.:.I ( s.Z.O.M.~.<.J.x.x.[ S  .O.D.8.5.<Xd.q.~.~.Z.5.:.Y 8.[ ~.E.d.[ :. .i r h x Y O.] r V H 8.{.~.~.x.Z.u.~.5.%.Z.:.~.:.i :.W [  .9 . @ Y %.:.<.",
"^.8.J.E.Z.d.I 8.Z.<.5.z.J.M.[ @ ] I O.W O.m W Y m ] %. .<.( x j <.d.s.Z.d.8.5.:.M.x.z.x.`.D.z.z.~.D.E.#X^.D.<.H I <.%.s.u.q.8.d.u.5.8.d.Z.H [ x.8.Z.E.u.8.&XD.z.M.~.Z.Z.L.u.9 > @ * x.M.I Y O.( ] S [ [ q.q.O.[ 8.5.q. .[ :.%.8.<.:.] u.d.q.<.x.x.q.%.W > j [ M.Z.D.E.{.J.J.M.E.S r m %.5. .8.u.^.x.Z.D.5.:.J.<.> >  .Z.Z.M.d.Z.Z.<Xu.: @ * . : . i H V h V ( [ I Y H ] ( O.] [ ] :.%.%.Z.`.~.D.oX~.J.D.d.q.O.V  .V i j I %.%.I ( q.Z.z.M.q.s.8.] H D.d.O.L.J.d.<.`.Z.Y %.Y H H d.Z.( I S V j x j I 5.O.O.] H Y <.M.L.z.q.5.5.:.q.( 5.8.:.m r V m ] z.Z.[ S > S <.W h ",
"5.z.z.z.8.Y :.<.d.M.s.d.J.z.S : r H <.H ( I 8.5.H h x * > H u.M.x.z.x.D.#XE.M.Z.M.D.^.E.J.q.s.J.#X=X9XoXz.] [ %.O.s.q.z.u.%.O.<.O.J.L.:.z.( x ( x.M.Z.s.u.D.z.L.E.~.M.u.M.:.i > . @ q.:.O.z.q.O.W I u.s.d.I Y %.%. .( W <.d.<.O.( V ] Y q.M.8.d.x.5.:.%.x 3 j %.{.M.~.D.E.Z.:.O.Y e > 9 W [ ^.D.q.M.q.d.u.z.s.H * [ `.^.s.u.E.2XE.[ r * @ . . @ @ i h : @ > e r e j V H m m V I Y ] W W <.x.D.D.J.E.M.=X{.oX<.(  .:.%. .:.u.q.:.:. .s.q.<.x.5.d.%.:.d.s.d.x.:.] <.%.Y ( ( h V I O. .m H W j 9 Y O.I :.:.%.I ] q.d.d.8.8.u.q. .W S x H Y [ i 3 j W W S i i m . @ O.( V ",
"O.<.8.%.:.%.%.] q.^.~.^.L.Z.Y h @ V %.Y H :.<.e . : @ : 5.`.D.D.s.x.~.x.&XE.q.u.E.D.L.J.L.x.x.u.d.E.oXL.M.:.[ W %.q.5.8.q.O.q.M.s.%.%.O.:. .h m J.Z.M.x.D.z.z.^.`.^.E.s.M.[ m r h . h W :.q.8.~.q.s.<.x V Y 8.%.] 8.8.8.u.<.[ W <.5.D.5.q.8.] :.E.q.q.] m > 9 <.J.{.^.s.d.s.s.( %.I r i > 5.8.O.I J.q.q.8.u.W * Y M.D.x.z.{.&X`.[ e > : * 9 > . . : . * S :.8.s.D.<.S h S Y W H V S H H I 5.^.9X~.`.x.=X&X#X:.:.H 8.8.O.q.M.s.5.5.%.8.] W J.s.:.d.u.u.<.8.5.Y W V S m H 9 S I V Y W ] W W m V :.q.d.L.D.D.Z.x.J.%.8.x.x.z.] I  .> S H Y h e > 9 r W W m W W . 9 m ( 8."
};
