/* XPM */
static char *c657c66354ec4fada31c514b515e349bLh8zejg326q0ryJ9[] = {
/* columns rows colors chars-per-pixel */
"800 600 256 2 ",
"   c #000E2A",
".  c #000D24",
"X  c #031325",
"o  c #03142C",
"O  c #05192E",
"+  c #09192E",
"@  c #09162B",
"#  c #031632",
"$  c #051B34",
"%  c #091C35",
"&  c #041E3A",
"*  c #091E3A",
"=  c #011639",
"-  c #000730",
";  c #052036",
":  c #0A2036",
">  c #06213D",
",  c #0A233D",
"<  c #0C283E",
"1  c #11243E",
"2  c #10233A",
"3  c #011E42",
"4  c #051E46",
"5  c #042443",
"6  c #0A2642",
"7  c #062946",
"8  c #0C2945",
"9  c #03264A",
"0  c #0A2649",
"q  c #052A4C",
"w  c #0C2C4B",
"e  c #112642",
"r  c #112B45",
"t  c #112D4B",
"y  c #1A2E4B",
"u  c #152A47",
"i  c #06314D",
"p  c #0E314E",
"a  c #12314E",
"s  c #1A324D",
"d  c #143248",
"f  c #002651",
"g  c #042D52",
"h  c #0B2E52",
"j  c #012E5A",
"k  c #0A2F58",
"l  c #082753",
"z  c #112E51",
"x  c #152F56",
"c  c #053155",
"v  c #0D3254",
"b  c #0D3856",
"n  c #05345B",
"m  c #0C355A",
"M  c #05395D",
"N  c #0D395D",
"B  c #033856",
"V  c #123454",
"C  c #193654",
"Z  c #153956",
"A  c #1A3956",
"S  c #12365A",
"D  c #19365A",
"F  c #143A5D",
"G  c #193C5D",
"H  c #213D5C",
"J  c #223955",
"K  c #21344E",
"L  c #023562",
"P  c #0B3661",
"I  c #053A64",
"U  c #0D3C63",
"Y  c #043D6A",
"T  c #0B3E6A",
"R  c #053769",
"E  c #123761",
"W  c #143D62",
"Q  c #193E62",
"!  c #133E69",
"~  c #193F69",
"^  c #053E71",
"/  c #063467",
"(  c #213E61",
")  c #263E67",
"_  c #14415E",
"`  c #1C415E",
"'  c #1A4057",
"]  c #0E405D",
"[  c #23415E",
"{  c #29445F",
"}  c #0D4165",
"|  c #06416C",
" . c #0D426B",
".. c #0B476B",
"X. c #154165",
"o. c #1B4265",
"O. c #15446B",
"+. c #1B456A",
"@. c #15496D",
"#. c #1C496D",
"$. c #1C4966",
"%. c #054372",
"&. c #0C4572",
"*. c #0D4975",
"=. c #0D4C7B",
"-. c #064778",
";. c #134672",
":. c #1A4671",
">. c #154A73",
",. c #1C4B73",
"<. c #144D7A",
"1. c #1B4E7A",
"2. c #134679",
"3. c #1D5175",
"4. c #15517C",
"5. c #1D527B",
"6. c #195579",
"7. c #0E517B",
"8. c #214465",
"9. c #234967",
"0. c #21466A",
"q. c #224A6D",
"w. c #294C6D",
"e. c #2A4765",
"r. c #28506E",
"t. c #214771",
"y. c #224D73",
"u. c #294E72",
"i. c #224E79",
"p. c #294F79",
"a. c #245175",
"s. c #2A5275",
"d. c #24537B",
"f. c #2A557B",
"g. c #24597D",
"h. c #2B597E",
"j. c #2C5977",
"k. c #315475",
"l. c #31567A",
"z. c #325A7D",
"x. c #385B7C",
"c. c #334E6C",
"v. c #2F617F",
"b. c #41607D",
"n. c #174E81",
"m. c #0E5284",
"M. c #155482",
"N. c #1C5582",
"B. c #1D5985",
"V. c #1B5689",
"C. c #165A8A",
"Z. c #1D5C8A",
"A. c #155887",
"S. c #1C5D91",
"D. c #155A92",
"F. c #0C4E82",
"G. c #225682",
"H. c #2A5681",
"J. c #245A84",
"K. c #2B5B83",
"L. c #245D8A",
"P. c #2A5E8A",
"I. c #245689",
"U. c #325D83",
"Y. c #325F89",
"T. c #385D83",
"R. c #235E91",
"E. c #2A5E92",
"W. c #244E81",
"Q. c #1C618D",
"!. c #1D6293",
"~. c #1C6698",
"^. c #256186",
"/. c #2C6186",
"(. c #25618D",
"). c #2C628C",
"_. c #2C698E",
"`. c #336186",
"'. c #3A6285",
"]. c #33648C",
"[. c #3A658B",
"{. c #34698E",
"}. c #3B698E",
"|. c #256493",
" X c #2B6592",
".X c #256995",
"XX c #2D6995",
"oX c #246599",
"OX c #2B6699",
"+X c #256A9B",
"@X c #2C6C9B",
"#X c #326692",
"$X c #3A6691",
"%X c #346A94",
"&X c #3B6C94",
"*X c #336D9A",
"=X c #3A6E9A",
"-X c #32669A",
";X c #2D719D",
":X c #25709E",
">X c #34719D",
",X c #3B729C",
"<X c #3B7297",
"1X c #3A718F",
"2X c #2C6DA1",
"3X c #276BA3",
"4X c #336DA1",
"5X c #356EA6",
"6X c #2D72A3",
"7X c #2B76A6",
"8X c #3473A3",
"9X c #3B75A2",
"0X c #3479A5",
"qX c #3C79A5",
"wX c #357AAB",
"eX c #3C7BAB",
"rX c #3775AA",
"tX c #3A7DB2",
"yX c #2E7FB6",
"uX c #42698C",
"iX c #426D94",
"pX c #416F99",
"aX c #437195",
"sX c #42749C",
"dX c #48779C",
"fX c #50799D",
"gX c #4276A2",
"hX c #437AA5",
"jX c #4A7CA4",
"kX c #437DAA",
"lX c #4A7EAA",
"zX c #4777A4",
"xX c #427EB1",
"cX c #517EA5",
"vX c #3B82AE",
"bX c #3D82B3",
"nX c #3D84B8",
"mX c #4481AD",
"MX c #4B82AC",
"NX c #4883A8",
"BX c #5484AC",
"VX c #4383B2",
"CX c #4B85B2",
"ZX c #4C89B5",
"AX c #4B8BBB",
"SX c #4588B9",
"DX c #538BB7",
"FX c #5491BB",
"GX c #6295BD",
"HX c #4C92C3",
"JX c #5797C7",
"KX c #4D8FC4",
"LX c #6799C2",
"PX c #6CA6D3",
"IX c #61A7D6",
"UX c #83BCE9",
/* pixels */
"X o o X X o o X X % o o $ $ e * # * * # # $ * * *   * e * u J , < o O $ X X % O $ O o $ % % 1 e # e , % : , $ # o # * : $ o # * # o X X o o $ $ $ $ o o o o o o o o o o o % + o O o o o # $ : : J < $ , < # $ < $ $ % % % % % % % % * * * $ # # : $ # $ & # # # , > & , > # # , $ # # $ % * , e * 8 * # , 6 > r > , 8 r 6 > * > a 6 > t 8 C & 6 V 0 w z w 0 h h h h h 7 5 w C D t 8 5 6 w 8 6 5 t 8 5 8 8 5 > 8 6 t 8 8 8 6 6 a > > 7 8 8 8 8 5 6 d C t 8 8 6 > , , t t 6 5 6 , e.C u a t & & 8 6 6 e 6 , * * * $ * * * # $ * e * $ $ $ $ : : : $ * : < < : : 6 & 5 6 w 5 & 6 V w 6 6 w w 6 6 t t 8 6 5 6 6 8 8 > > 5 > & = = = * * , , , 6 6 6 * * , 6 6 6 , , 5 > & 6 t > & 8 > > a 8 t C 5 > = 6 & # , , # : : $ r 6 t C w t 5 8 8 8 6 5 > 5 6 6 6 > 5 6 5 & > & & , , > * , * * * > > > > > , > > , , * * > * 8 , r 6 a e.8 r d r > & > , , * : < < < : : : , 6 , * $ $ * 6 # * , $ # * * * , * < $ # , : e * * : * * * * * , $ $ * * $ $ * $ $ * * $ * , < * 8 8 C 6 8 > t 8 t & 6 8 5 t 5 7 5 7 5 5 a C 8 8 8 8 6 & , r , r * * , * , e e * * , e e , * , * , 6 , * * 6 e , * * * * * * * $ : $ , < : u u % $ % % % # % * $ $ $ $ $ % * * $ $ $ $ $ * : : * , * # # * * # 6 , * * * * $ $ , * , * * e * , 6 , , , 6 e e e e , * * , 6 * * * * * * $ $ $ $ * * : 1 : $ $ * % * * $ $ * * o * $ : : * : : o # $ $ $ # # $ : $ * * $ $ , e < < $ # $ * * * : # > # # 8 6 & > 5 > > 8 8 6 5 5 3 8 6 & 0 = h S G 5 q q h S v h 0 D x 5 u   * o % % % % % % * % o o o % % % % $ # $ , , * $ , 6 : , , * $ # $ * * $ o o O + % O o o o o o o o o X X X X X X X X o o X X X X X o X X X X X X X X X X X o o o o X o X X o o o o % o o O + o o o o + o o o # # # o ",
"X O % $ O % $ o : : o * * o $ $ * $ #   * u e # # # * *     * * , $ : ; o o O o X X o % * % * * # 1 , % $ $ o $ * * * * $ $ $ * % $ o o o o o o $ $ O O o o O o o + + o + % O o $ $ $ # # $ $ ; < $ $ < r $ # * $ $ $ $ % % % % $ % % % * * $ $ r , > , > & & > > & ; , , > , r * $ $ $ * % * , * 6 > & , 6 , , 6 r r 6 > > 8 u y 8 6 t 6 V 5 t V C G G w 7 S 8.h v h h h V V w t w 6 6 6 6 w a a a 8 8 a 8 5 8 t 8 8 8 5 5 5 > 8 7 5 8 t a 8 6 5 8 t 8 6 6 6 > 8 , 8 t 8 t a t a t t t t 8 5 & , , , , * * * * * * * * $ # * , : : : $ : : : , : : < r < : : 8 5 6 8 w 6 5 6 t t w 6 w w 6 6 8 t 8 6 6 6 6 6 6 $ & > > > > > 5 * * * , , , , , , , , 6 6 6 6 6 5 5 > 6 t 8 > 8 8 > & # & 8 6 6 5 6 5 & 5 * $ * * * r , > t 5 6 8 8 5 & & & 6 t 6 6 6 5 6 8 6 > , * * , 6 > > > > > > > > > > > 6 , , 6 , > > , $ , # & $ * r $ , 8 r 8 6 , > # $ $ $ : : : : : * , 6 6 , , 6 e * 6 , * * , , * * * u , < u , , $ * * * $ $ * * * * * , , * : e e , * * : , , , , 6 > u , r 6 a 5 a > 5 8 8 A 8 w 7 w w 8 8 w 5 8 5 6 8 , 8 t 8 6 * * e , , e e , * , 6 6 , * , * 6 r e * $ * 6 , , * * , , * * $ : # : : $ 1 : $ $ % % % # # % $ $ $ $ $ * * * * * $ $ % * : : * * * * * * * * * * * * * * * * * # , * * e , u * * * * 6 e e e 6 , * * * * * $ * * * * * $ * * * * : 1 : * % * $ * * $ $ * % $ * % : : * : : o $ * $ $ $ # $ $ r u e * $ * * $ , $ o # $ $ $ : * * # # , , , 5 5 > > 6 8 8 6 8 = 8 w 8 D 3 w w h w S h w S S v z D u & u # 1 $ % % % % % % $ $ % % # % % % % $ * , e 6 * $ * , * : : > * * * * * $ O o O + o o o o o o o X o o X X X X X X X X o o X X X X X o X X X X X X X X X X o o o o o X o X X o o X o % o o O O o o o X o o o o o o o o ",
"X O $ O # $ $ o $ X . * , # * e , u u $ # $ * # * * 6 e , # $ u * r r ; * $ o X X X $ : * * * e $ , 1 * * # # 1 u , $ $ * $ $ $ % % $ o o o $ o $ $ $ $ $ $ O O % + + @ + % + X * $ $ $ # $ $ $ # & : < r : * * $ $ o o + # o o # # $ $ $ * * : , * * > > > > , & # & : : $ : r * $ $ * * $ % * * * , 6 , 6 6 $ 6 u t , * 6 t a t 8 6 w > y 5 V 0 z D C 7 3 w G Q S w 5 w V C z 8 w w 8 5 & 5 t 8 t 8 6 a a 6 > a , 5 8 & 5 6 $ a 8 5 5 t a t 6 5 6 6 6 > 6 8 6 t 6 6 8 t a C t > 6 8 8 y a 8 $ , , , , , , * * * , , * * # $ * < , : : : : : , , , , 6 , : : 6 8 8 8 w 8 5 6 w y t 8 8 8 6 5 6 t 8 6 6 6 6 6 6 > > 6 5 > > > , , * , , , , , , * , , , > > , 6 8 8 6 5 8 8 5 8 8 5 8 > > 8 > 6 t 5 6 r 5 * * * * < u , & t 6 6 y t 6 > & 6 t a 5 6 6 , 6 8 8 > 6 , > , 6 , > > , , , , , , , , , > > , > * * , 8 t > , 8 , 8 6 , 8 r r r 8 , & * $ # $ * : : $ # * * , , , * * , , * * , e , $ $ $ < , 1 u * $ $ $ * $ $ $ $ * * * , < : $ , u u e * * , < , : 6 6 & 8 , t 8 a 5 C 8 5 8 C 8.a 5 & 6 t 8 8 w 6 8 & & 8 6 , 6 6 , * 6 u 6 , e 6 e , * , * * * e * e u e * $ * * , , , , 6 6 , * * : # * : $ : # $ $ % 2 % # # % $ % % % * * * % * * * * * * * : $ * * * * * * * * * * * * * * * * * u * * * * u * * * * 6 e e e e , * * * * * $ , , , * * * * * * * * , : * * , $ * * $ $ * * $ : $ * : * : : o : * $ $ $ $ $ # : , , * * * * $ , $ o o # $ $ : r * & & & > 8 5 6 > > 6 8 8 8 8 6 6 3 & C 3 w w w S u.S 9 v h q z C 8 = e # 1 $ % % % % $ O $ $ % % % % % % $ $ # * , , * * , 6 > > : , , : $ $ : * % % + O O o o o o o X X X X X X X X X X X X o o X X X X X X X X o X X X X X X X o o o o o X o X X o o X o % o o O O o o o o X o # o o o # % ",
"O $ $ O o o $ $ u : o : , o # # # * 6 , * * e K # * # 6 K e   * o u r # : : o o o o $ % % % 1 u # % % * : $ $ u e * # $ $ $ # $ % % $ o o O $ $ % % $ $ $ $ o o % + + + % % % o $ $ $ $ $ $ $ $ : , < ; $ $ : : $ $ % % + # + # $ # # $ $ * * , # $ & * > > > , > & $ > ; $ & : * $ * * * $ % * * $ 6 r > 6 r $ & 6 r 6 6 r r , 8 5 5 8 & y 5 t C C z w C C h h Q V 7 3 5 w V z 6 w t V t 6 6 8 5 8 > & 8 a 8 > a & 6 8 & 6 a & t 8 5 8 8 8 8 5 5 5 6 6 6 8 8 8 t 6 8 8 8 t y 8 6 6 8 y C C 8 $ , , , , , , , , * , , , * * $ = , , , , , : : : * * * : : $ * 6 8 6 6 8 w 8 6 8 t 8 8 6 6 5 5 5 8 8 6 5 6 6 5 > 6 6 8 6 5 > > , , , , , , 6 6 6 > 6 6 , * > 6 8 8 a 8 > 6 8 > > 5 8 A t > 5 > 8 V & 5 u , $ * $ $ , u * > a 8 5 8 8 8 8 8 8 t t > 6 5 & > , 5 > 6 , , , , , , , 6 6 6 , , , , , , > > , , * * > > 6 & > t , & r r 6 , > , 6 , , 6 , $ $ * : $ # # $ * , , * * * * * * , 6 e , * 1 $ * # $ e * * $ $ $ $ $ $ $ $ : , < , * $ * , e , * * * : * $ 6 6 & r > r 8 a 8 C a 8 5 w C a 5 = 5 w 8 5 6 8 t & & r 6 > * * , * e u , * 6 6 , * * , , * * , * , 6 6 , , * * * * , , 6 , * $ : < # : < : : o % $ % * % # # % % % % $ % * * * % % $ $ $ $ $ * * * * , * * * * * * * * * * * * , * u , * , $ , * * * * 6 e u e r 6 , * * , * * , 6 , , * * * * * $ $ * * * * , $ * * $ $ * * $ < * * * * 1 < o $ $ # & ; : $ $ # $ $ $ $ * * * , $ # # $ * * : u > > , $ > 8 > 8 5 5 6 8 8 w 8 t 6 = = C 5 h w 9 G l.D 5 V h 3 0 w 6 # 6 # % $ % % % % $ O $ O % % % % $ $ $ $ # $ , * , , 6 r 6 , : > : * # o : * % * % % % % o o o o o X X X X X X X X X X X o o X X X X X X X X o o X X X X X X o o o o o X o X X o o X X o o o o o o o o o o + % % o o % * ",
": : 1 1 * $ $ * u y * : * $ * # e.y , e e #   # * e # * C * . * o r < o $ $ o O X X o o # # * e # # o # * # # 1 * $ $ * $ # # $ o o o o o $ % % % % $ $ $ o o o + + + + % 2 : % $ $ $ $ $ $ $ $ $ < : # X o $ $ * * * * * * % % % % $ $ $ $ * * $ : < < , , , , , , , , * $ $ : * $ $ : : * * * , $ , 8 > 8 u * & > , , 8 u 8 & 8 5 > 8 5 C 3 5 C A w w D S 7 5 7 w h w w w w 0 w w t C A C a V 8 a 6 & 8 a 8 8 a 5 t a & 8 C > 8 8 8 8 8 6 6 6 & > 5 8 8 6 6 8 5 > 8 t 6 6 8 6 t , 5 a C t 5 , , , , , , , , , * > , , , * * * , , 8 8 8 < : : $ & $ > > > : 8 6 5 5 8 t 8 8 8 5 5 5 5 , 5 5 5 8 8 6 6 6 6 5 > > , 6 6 6 6 8 r 6 6 6 6 6 6 6 6 6 r 8 , , 8 t t 6 8 6 > 6 8 5 6 8 8 a 5 & 5 5 a V = & t & $ * $ $ $ 6 * 5 a 5 = & > 6 8 8 8 6 > 6 8 6 > & > > & , , > > , 6 6 6 6 6 6 , , , , , , , 6 r r 6 > , & * & > r , # r 8 , & $ & > > , r < : $ : : * $ , * * , , , * * 6 e e r e 6 , , y , , # $ e * , $ $ * $ $ $ $ * , : * $ $ * * $ $ $ * * * * * * , 8 , d > 6 5 a t 8 8 8 5 5 5 t a > 5 8 5 5 8 8 a > , d r , , , 6 * 6 e * * 6 e * * * 6 e * * * , * * * 6 6 * $ * * * , , , * $ : , # : 1 : < $ * $ # % % + % % $ $ $ $ $ $ $ * * * $ $ $ $ $ $ * * * 6 , * * * * * * * * * * , $ # , , 6 r * , * * * * , 6 e e e 6 , * , , * * , , , * * * * * $ # # $ $ $ * * $ * * $ $ * * $ < $ $ : $ < < # $ $ # $ : : $ # * * * * $ # # # * $ # $ * * * * r & , 8 * 6 t > t 6 5 6 w w w w 6 6 5 u e.t z 0 5 S u.S q D S 0 3 6 u # 6 # # % % % % % $ $ # O $ $ # # # # $ $ * , e , * , , * 6 , * $ $ $ # o $ $ * % % % % % O o o o o o X X X X X X X X X X o o X X X X X X o o o o o X X X X X X o o o o X o X X X o X X o o o o o o o o o o # % % # # % 2 ",
"% : u u 1 * $ $ # 1 $ $ $ * e * u # # e e * e C * u e * u * # K $ 6 6 $ # O o O X X o * : * * * * * # # * # # * # $ * , * # # * o o $ $ o o % % % % $ $ $ $ o o o + + + % 2 : % $ $ $ $ $ $ $ $ # $ : $ $ $ $ O * * * * % % * * % % % $ $ $ $ $ * 6 r 8 , , > $ > > > > $ $ * : * $ $ * * * * , , * , , , 8 r , 6 , & * 6 r 8 , t 8 5 8 6 J 5 5 6 A V 0 z w 3 7 7 h v w w w V C A a 8 w t t t t C C 8 > 8 8 8 8 a 8 a t > 8 a > 5 8 8 8 8 5 5 6 = & 6 8 6 & > 6 & & 8 t 6 6 t 8 8 & & t a 8 , 8 * * * , , , , * * * * > , , , , 6 8 r r r r < , : > , 6 6 , 6 r 6 , 5 8 t 8 6 8 > 5 5 > > 6 6 5 8 6 6 6 6 6 6 5 6 6 6 6 5 5 6 8 6 e 6 6 6 6 6 6 , 6 6 > > 8 r 6 > 8 5 5 t t 8 t 8 > 6 > 8 A 8 5 w & & 5 , * $ $ * * r , 8 t & = 8 6 5 5 6 6 6 6 8 t 8 6 > > 5 > , , > * > 6 6 , 6 6 , , , , > > , > 6 r 8 , > > 6 , r 8 r 8 & r 8 , > , , > : , < , : : < < : : , , * * * * * * e e e e e * * * e : e $ * e $ $ $ $ * * $ $ * : * * $ $ $ : : $ $ $ * : * * : , * 8 6 a > , > t a 5 8 8 w 8 5 C t > 5 8 w a C C 8 > 6 t 6 , < < e * * 6 * * 6 6 * * * 6 e * * * e , * * 6 6 * # * * * * * * * $ $ : o $ : $ < $ , % # % % # % % $ $ $ $ $ $ $ $ * * * * * * * * , * * , , * * * * * * * * * * , * # 6 , 6 r $ * $ # # $ * , , , * * , * , , * * * , * * * * * * $ # # $ * $ $ * $ * * $ $ * * $ , $ : : $ : < # : : ; > ; $ # o , * * * * $ # $ * $ # $ * $ $ $ * $ > 8 6 8 t 8 8 6 5 8 w w w w w 6 3 w 8.w z w V S 0.S h S h 0 3 5 C = , $ o * % + % % % $ $ # o o % % # # $ % $ , 6 * * , , * : * $ # $ $ $ $ o o $ $ O O O % O O o o o o X X X X X X X X X X o o X X X X X X o o o o o o X X X X X o o o o X o X   X X X X o o o o o o o o o o o # # o o + % ",
"o $ : 1 * o o $ * e % * #   # # e , * * $ # * e   * * # * * * y * * 6 < # o $ $ o o o % 1 2 % $ * e , $ * * $ * $ $ * , * $ $ * o $ % % O o $ % % % % $ O o o o o o o o + % % o $ $ $ $ $ $ $ $ $ * : 1 < * $ $ * * * * * * * * $ $ $ * $ $ $ $ * < 8 : $ $ : : $ $ * & $ $ $ * : $ $ * * $ * , , 6 , > 6 8 , > r > & > , * , u t 8 8 8 5 A 6 w w 8.G w S z 0 S V V h 9 5 w D ( [ V 6 6 8 6 5 5 8 8 , > 8 5 > 8 8 8 8 5 5 8 8 > 5 5 6 6 5 5 6 6 > , 8 8 > = & 8 > & 6 8 5 6 8 6 6 & & 6 8 6 6 8 , , , , , , , , , > * * , , , , 8 6 6 6 6 8 8 8 6 6 8 r 8 , , 8 6 6 6 r r 6 6 8 , 6 6 > , 6 8 6 6 6 6 6 8 8 8 6 t t 8 6 > & & & 8 6 6 5 , 5 6 6 > 6 > & > 8 8 > 5 5 > 8 a 8 6 a 8 , 8 8 C A 6 & w 0 > & 6 , $ $ 1 * u r 8 6 & t t 8 6 6 6 8 8 8 8 t t 6 > 5 6 6 6 8 6 > > 6 6 , , , , , > > * * > * * , , * & > 6 $ 8 , $ , & , 8 6 6 8 6 > > , * : : : : : : * * * $ $ * * * * e , * , 6 , * * * $ , $ $ , $ $ $ * * * * * : , $ : : $ * , , * * * $ $ * , , < * 6 , d > 8 5 t a 6 C t 8 C w C w > 5 6 8 A H a > * 6 8 $ $ , : e * * , * * , * * * * , , * * * , , , * * * * * , * * * * * * $ & : o $ * # : $ : % # % % + % % % $ $ $ $ $ $ $ $ * * * * * * * * * * , , * * , * * * * * * * * e * e , * , # * $ $ $ $ * * * * * * * , , , , , * , * * * * * * * $ $ * * * * * * * * * * * * $ * > 6 6 $ > , & ; : : : : $ # # * $ $ * * $ * , e * # $ $ $ $ * $ > > 5 8 8 8 t 8 5 5 8 w w w a t 8 & > V = w V G z D S 0 0 9 w 6 5 x # , * o * o % % % * $ $ $ $ % * % % # $ $ # * , * * 6 6 * $ * * $ $ $ $ * o o % % O o O + O O o o o o o o X X X X X X X o o o o X X X X X o o o o o o X X X X X o o o o X o X X X X X X o + o o X X o o o o o o o o o # + ",
"$ $ O o X . $ 1 $ $ # e 6 # e y e 6 #   # u e o * e , , u u * = * # 8 u $ $ < : $ o . o % * % $ # e e $ $ $ $ * * $ * * * # # $ $ * % * % o $ $ % % % $ $ o o o o o o o o + O X $ % % $ $ $ # O : $ $ : * # o # $ $ $ $ $ $ $ $ # $ $ * * $ $ $ $ , , $ # : 6 r : , , * $ $ * * , * $ * * $ * , > u 6 > r 8 $ * , * * 8 , # & u 5 8 8 8 = C 8 x 5 A w 3 z h 9 V h v v w q w C C C w w t V a t t > > & 5 8 5 > t > 8 & $ 6 a 8 > 5 > & & > > > > 6 8 t 8 & $ , y 8 > > > & > 6 = > 8 8 5 5 8 8 5 8 e 6 6 6 6 6 6 6 , * * * , , , 6 6 > > > , 6 r 8 6 8 r 8 , > , r r r u r 6 , 6 , r 8 , , 8 r 6 6 6 6 8 8 8 8 8 8 8 8 6 > > 6 6 6 5 * * & , 5 6 8 t 6 > 8 C a 5 6 > > 8 a 5 & 8 8 8 C 6 & 5 > 8 w V 6 & t e $ $ * $ r r & & & A 8 6 6 6 8 8 5 & 6 8 8 5 & > 6 6 r t 8 , > 6 6 > , , > > * * * & 6 > * > * & > , r $ u , # 6 8 r 6 > > > & # $ , * : : : * $ $ $ * * * * , 6 , , r * # , u u u e , * e $ $ < : e * * : , : : , , * e u , $ * : : e * # # $ , , , , , & r , r 6 t 8 8 C 6 8 C 8 w V 8 8 6 8 C a & , 6 u 8 & $ , * 6 $ $ , * * * * , * * * * * * 6 $ * , , * * , e 6 , * * * * * $ $ , # $ $ o : $ * $ # % % % # # * * * $ $ $ % * $ $ $ $ $ $ $ $ * $ $ * , * * 6 , * * * * * * * * * e * * , * u * * * * * , , , * * 6 e e 6 6 6 , , , * * * * * , * $ * , , * * * * * * * * * $ & > r 8 * > , & $ $ : : : $ $ $ : $ # $ $ # $ : y , $ $ $ $ * < * r 5 > t 8 > 8 5 > 5 6 8 w w V 8 8 6 t A = 5 w z & 0 z 0 9 0 G t & t   * * o % o o % % * * $ $ % % : * % # $ $ * e e * $ , * # $ : < , * $ $ $ $ % % % % O + % O O o o o o o o X X X X X X X X o o o X X X X X o o o o o o X X X X X o o o o X o X X X X X   o + o o X X o o o % % # # + % + # ",
"$ : . u u   e , * 1 , * * # * y e # * e * e u * # e # e # * c.y H e & e $ y * 1 . o o X # * %   $ * * * % $ $ $ * * * * $ # $ $ % : 2 : * % * % o $ % $ o o # O o o o o o o o o $ $ $ $ $ * $ * $ $ $ $ $ $ $ $ * * $ $ # $ $ $ $ $ $ $ # o # : * * $ $ $ $ $ $ * : , , , * * $ : $ $ # $ $ & # , * & > 8 t r 6 6 6 8 r 8 , , 6 5 5 > > 5 6 w w A C G = D 7 z 9 V S V w 5 7 w z 8 w t w 5 > 8 a 8 8 8 > 8 a 8 > 8 8 6 5 8 8 8 8 6 6 6 > > > 6 8 8 8 6 6 5 5 5 5 8 6 5 5 & & > 6 & & & > & & > 6 * * , 6 6 6 , > , > > 6 6 , , , 6 8 6 > > 6 6 , 6 6 6 , 6 , , , & r s t & # , t 6 & 6 r 5 5 5 = 6 8 8 8 t a y 8 8 > > t u > & 8 8 6 5 > > 5 6 6 8 8 > & > 8 8 5 8 8 8 a a 8 5 6 d a > > e.A C 5 & A 5 8 y * * $ : * * 6 5 > 5 w 6 6 8 8 6 6 8 8 8 6 6 8 8 6 8 t d r 6 , 6 8 6 > & & * * > * & & * * * * * > , , 6 6 6 , , > > > > > > > > > > > $ $ & > < < : $ $ e , $ * * * , * * * * * , 6 e , , 1 , * $ * * , * $ * $ # $ , # * < < * $ * * $ < u < , , * $ * > > 6 8 8 8 6 8 5 A 8 & a 8 a w a 6 & 8 a 8 , 8 < , > : > $ * * * * * * * * , $ * , , * * * * e , * * * * * * * 6 , * * * * * > $ $ $ : : : * * $ # # % % % % $ $ $ $ $ $ $ $ $ $ $ * * * * * * $ * 6 , $ $ 6 & * * * $ $ * * # * , , * * , e , * * * * * * 6 * , 6 6 , * , 6 , 6 6 , * * * * * * * * * * * * * $ * , $ * , * > 6 t 8 , > , , > > $ $ $ $ $ $ $ $ $ $ $ $ $ $ : $ $ * $ * e * r , > 6 6 & 6 C 6 C 8 V D 5 z a w w 6 & A 6 & 5 t x H G z w z 3 6 & # $ $ $ $ * % % % % $ # $ * o % % # # % * $ o * 6 , * , , & $ * $ $ $ * $ # * $ % % + % % % % O o X o + @ X X X X X X X X X o o o o X X X X o o o o o o X X o o o o o o o o + o o o X X X X o o o o o o o o + o o % % # # % ",
"1 s * u ,   * X o $ $ * e * * e e e K C #   # # # * e J e * C # = = 6 J y J * # $ $ o o % 2 1 2 $ $ * * $ $ $ $ # * , $ $ , , $ * % : % % $ % % o o o o o o o o o o o o o o o o O O $ $ $ : : : $ $ $ $ $ $ $ $ * % $ $ # $ $ $ : * : , , : , 6 * * * $ $ $ * * * * : , : * $ $ * $ $ $ * : $ # , > & > , , > * 6 6 6 r 8 , 6 8 > > > 5 6 8 w w 6 = w 0 w.0 h S 7 w w w 5 5 w z 5 8 w 8 5 > 5 6 8 6 5 5 8 a t 6 > > > > 6 8 8 5 8 8 6 6 6 6 6 , , & > > * 5 5 5 6 5 6 8 6 > > 6 & & & & > > 6 6 > , , , * $ $ $ 6 , , 6 8 6 , 6 8 t r 8 8 r t 8 6 6 6 6 6 6 6 6 8 6 > 6 8 t 6 > s 8 e r 5 6 8 & t 8 6 > 6 t 8 , 8 5 5 8 8 5 5 r , 6 8 8 8 6 6 5 > 5 5 > 6 8 8 5 a 8 8 8 8 6 5 8 8 A a 6 A > 8 8 0 A t a C , e * * : 6 u t 6 3 5 > > 5 5 > , 6 8 8 8 t t 8 6 8 t r 6 , , 6 8 6 , * * > > > > & & > > * * * > > , & * > 6 6 6 6 6 > > > > > > > > * * $ $ : : * $ $ e 6 * , , * 6 $ $ $ $ $ * * , : , , , * * * , $ $ * , , $ # $ $ * , , * * * * $ , , * * : , : , , > > 6 8 8 8 8 6 H C 6 8 5 5 t C 8 & 6 r 6 > < , , > : : * $ $ * * 6 6 , * $ $ * , 6 , * * , , , , , * * * * * * * * * * , * > $ $ $ : : : * * * % % % % % % % $ $ $ $ $ $ $ $ $ $ % * * * * * * * , , * * , , , , , * * > , * * , , * * , 6 e , , * * * * * * * , * * * * , * , , , * * * * * * * * & & * > * $ , , * , 6 6 8 8 8 8 5 > , 8 > > $ $ $ $ $ $ $ $ $ * * * * * < * , < : < e , 8 5 8 y y 8 w V w V > w V 0 z z & = = = C & = 5 w t A D 0 8 u 8 6 & $ * * $ O $ o o o $ $ $ $ $ % % % % # % $ # $ 6 r , * * * $ $ * $ $ $ $ $ # $ $ % $ O O % % % % O o o + o X X X X X X X X X X X o o X X X o o o X o o o X X o o o o o o o o o o X X X X X X o o o o o o o o o o o # # o o # ",
"X 1 o * , , s * 6 , * * e e e y *     # # 6 e * e $ e J e * , # y 4 & =   e * : * o X o % % * 2 # $ $ * $ $ $ % # , , # # e 1 o % * % % $ o O % o o X o $ $ # o o o o o o o O O o O $ $ * : : : $ % % % $ $ # # $ $ $ # # $ $ $ * & & : , , , < * $ $ $ $ * * * * * * * * $ $ $ : : , < < < , > 6 6 , , , , , > , , , 6 6 , 6 r 8 8 8 8 t y t w z 6 C w 8.3 3 7 V h V V w 5 5 w 5 6 8 w 6 5 > & d 8 5 8 8 8 > > > > > > 5 8 6 > 8 6 > 6 8 r 6 * & & * & * * 6 6 , , 8 t 8 6 , 6 t t 8 6 6 6 6 5 * > , , > > , 6 6 , , 8 6 , , 6 6 8 8 6 8 8 8 8 8 8 8 8 6 6 6 6 > 5 8 8 8 8 8 6 C 8 8 8 6 w y w C a 8 > 6 t 8 > 6 6 6 6 6 8 8 8 & 5 8 t 8 6 6 6 > 5 6 6 8 w 8 5 a 8 8 8 t d t a 8 A C 6 8 # 6 8 & 5 & r 6 * e $ $ * 6 r t 8 6 6 > > > > > > 6 8 8 8 t t 8 > > 8 6 , > > , 6 6 , > > > , > > > > , > > > * * > > * , 6 8 8 6 , > , , > > > > > > : * $ $ * * $ $ $ e 6 * e 6 * , , 6 6 , , , e e * , , : * * * , : : < e e * * * , , , : * * * * $ * * $ $ : < 6 * > , 8 r t 8 8 8 6 C 8 > w w a t C 8 & > 6 , : , , : : : : : : $ * , 6 6 , * $ * * , , , , * * * , e e * * * , * * * $ * , , $ > $ $ $ : : : * * * * * * * % # * % * % % % $ $ $ $ $ % % * * * * , , * , 6 , * , 6 6 , > * , , * , , , , , , , $ * * * * , 6 6 * * * * $ $ * * , 6 6 6 * * * * * * * * & & , , & = , 6 * 6 y t t 8 8 5 5 5 6 8 , > $ $ $ $ $ $ $ $ * * * * * * , $ * , * * , $ t 8 8 t t 6 6 t 5 w 3 w C w w 0 6 & 5 6 H 8 6 8 8 5 u C 6 3 8 t 5 & * * * $ o o % % $ % $ * * * % % * % # % $ # * e e , $ * & $ * > * # # $ $ # $ $ $ $ o o o O % % O o o + @ X X X X X X X X X . X X X X o o % o o X o o o X X o o o o o o o o X X X X X X X X o o o o o o o o + o o + + o o o ",
"* 1 $ * * # , o $ * # # * # # * * e u u * * y J e * u e # * * 6 4 = 3 & = y e : * X X % * o o # $ $ * * * * * * , u 1 $ * e : X # % * % o o o $ % o X o % * % o o o o o + + O + $ $ $ * * * : : % * % % % $ $ # $ $ # # # $ $ $ & # # > , , * * $ $ $ $ $ $ $ $ $ * * * $ $ $ $ , , , < , , , : > , 6 6 , , 6 8 , , , , , > , 8 t t 8 8 t t w 5 0 t C 3 z 0 V V G S S G v 5 3 w w w w 8 8 8 6 5 a 8 > 6 8 > & > 8 8 8 5 > 6 5 > 5 > & > 6 8 5 & & & & * 5 6 e 8 & > 6 t 8 6 , 6 t t y 8 6 6 8 6 > > > > , 6 8 8 , , , 6 6 > > , > > > > > 6 8 8 6 6 6 6 6 6 6 6 & 8 V a w 5 w 8 t 8 w w 5 8 V t C y 8 5 8 t 8 > > 8 8 5 6 t t 8 5 6 6 5 & & 6 w 6 8 8 8 8 5 5 5 8 8 8 a C a 8 8 C a 8 > t & 8 5 6 3 8 y 8 6 y * * * , , 5 5 6 6 6 6 6 6 6 8 t t 8 t y y 8 & & 6 < , * * > , , , > > > > > > > * > > > > > > > > , , 6 6 6 6 , > , , > > > & * * : * $ $ $ $ * * $ 6 6 * 6 , * * * * * * $ $ * * * * , : * * , < r e e , * * , < , : * * : , , : * * * $ % : < 6 , , , 6 6 8 8 8 8 6 8 6 > 8 A A t a 8 & > 6 , 8 > : : : ; ; : : * * * * * * * * * * , , , * * * * * , , * * * , * * * * , 6 , # > $ $ $ : : : * * * % * * % % # * * * * * * $ $ $ $ $ % % * * * * , , * , r 6 * , , , , * * * , * * * , 6 6 6 , # $ * * , 6 e 6 * * * * * * * * e e e e , , * * * * * * , 5 5 5 5 & 5 6 * 6 y t a w 5 5 5 6 6 6 < , : : * $ $ $ $ $ $ $ $ * * * , $ $ * $ $ * $ C y 8 6 5 > 6 t w w 5 0 z w 7 w 8 > 8 > V 6 6 & 6 & 8 x 4 = 4 t 5 > > * $ $ o o % % + # * * * # o $ # # # % $ $ $ , 6 * $ * * * * , > $ # $ $ $ $ $ $ $ o o o o $ $ O o O % + o X X X X X X X X . X X X X o o + o o X X o o o X o o o o o o o o o o X X X X o o o o o o X X X X + o + % % # o # ",
"e : $ , * o # # * u y y C u * *   * e e *     #   * K e $ * * * 0 3 z u u y * o 1 o o 2 1 % # % $ * * : * * * : s u 1 e u , * $ o $ % % o o o $ % $ o o * % % o o O O O + + O O $ $ * * $ $ $ * * % % % % % $ $ $ $ # # # $ $ $ > & & , 8 , * * * * $ $ $ $ # o % % $ $ $ $ $ $ < , > & & & > > & * , > * > , 8 8 6 , 6 , > , 8 e 8 5 6 6 6 5 & 0 z V 3 w w C Z S h h S w 5 5 C V w w w 8 8 w 8 8 > & 5 8 8 8 a t t 8 > > 5 8 6 6 6 6 > & & 5 5 5 5 5 5 6 6 e 6 > > 5 6 6 > 5 8 $ 6 8 6 & > 6 8 8 > & & > , > & , , , 6 , * > , 6 > > > > 6 8 t 6 6 6 6 6 6 6 6 w w w w C V w 7 w w C V 5 5 w w 8 6 > > 8 t 8 > * 8 t 6 8 t t 5 5 6 5 5 > > 6 w 8 8 8 8 8 5 5 8 8 8 8 8 8 8 > $ C t 8 6 a 5 a > V 5 t y 5 6 e # e e 6 , & & & & 8 r t r 8 r t a t y a C t 5 > 8 6 , > > > > > > > > > * * * * * * * > > > , , , * * > > , 6 r r , , > > > * * * $ * $ $ $ * : : $ e 6 * 6 , * * * * * * $ $ $ * $ * : * * * : < , , , * $ * * : , * $ % : 1 1 , * * * : , , , , s 8 & # $ > 8 t t 8 w C V a a 5 t a 8 & , 6 , r $ : : : * * : : : * * * * * , , , , , , 6 , , , * * * * * , * * * * * * , 6 * # > $ $ $ : : : * * * % $ % % % % * * * * * * $ $ $ $ * * % * * * * , , * , r 8 > , , , > * & * * , * * * , , * * , 6 6 * * * * $ * * * , , * $ # e e e e 6 , , * 5 5 5 5 5 5 6 6 6 > 6 6 & 5 t 8 8 q 5 5 6 6 5 * < , : $ $ $ $ $ $ $ $ $ $ $ * * u * * , $ $ , , C y t 8 6 6 w z C C w 3 3 3 9 D 8 8 t & 6 6 t $ 5 = u y 5 # 3 6 5 , > & $ $ % % o # # # # * * # # $ % % % % $ $ # $ * * $ * , , * , : $ # # $ $ % $ % $ O O O O O O O o O % % + X X X X X X X X X X o o X X o o o o X X o o o o o o o o o o o + o o o o o o o o X X o o o X o X o o o % % % + % ",
"#   o , 1 $ * y o * * # = = = 4 e e $ * u u e 6 o y J u , e e * ) 0 0 = = * * : e $ X % * * * u * * , , : * : , u * * e e * $ * o % % % o o o % % $ o o $ $ o o o O + + + + + + * * $ $ $ $ $ $ * % % % % % % % $ $ $ $ $ $ $ $ , > > , 6 : * * , * * * * * % # % % $ $ $ $ $ $ r 6 , > $ > , 8 , , , , > > , 6 r 8 8 8 6 , , 8 5 5 8 8 6 8 6 6 V w w z D 7 9 S G S S V w 5 0 V a w 8 6 8 w t t t 8 5 6 8 8 t a 8 8 8 > > 6 8 8 y t t 6 & & , 5 5 5 * * * * * * 5 > > 6 5 > 5 8 & 8 t 6 & & > > 6 > & & , 6 , > 6 6 8 8 6 > > 6 6 > > 5 5 6 8 t 6 6 6 6 8 8 8 8 w v S V V h h v 7 w S C q q V C > 5 6 6 t u t 6 & 8 t 8 r t 8 > 5 6 8 t t w 8 6 8 6 5 8 8 8 8 8 8 8 8 5 5 8 8 8 t 8 a t 8 & a 5 6 = 5 5 * r * $ # : 6 r 8 w 8 5 8 8 t t 8 8 r t t t t t 8 5 > 6 6 6 , , > > > , , > > * * * * * & * > , , , , , , , > > > , 6 8 , , > > > > > > $ * $ $ $ * : < * u e , e 6 * , 6 e e e 6 6 6 e $ * : * $ $ * , $ , e 1 , , * $ : * $ * : , , , , * : < e , * : 6 , > > , , 5 > t 8 5 V V t C 6 a a 6 * , , > , $ : : : $ $ : : * * , 6 6 , * * e 6 , 6 6 6 6 6 6 * * * , , , * , , , * * , * $ > $ $ $ : : : : : * $ # % % % % * * * * $ $ $ $ % * % % % * * $ , , , , 6 8 8 6 , 6 6 , > > , , , , , , * * * * , e 6 * * * * $ * * * * , * $ # , , e 6 , * * * 6 5 6 6 6 6 6 6 8 , 5 6 * & 6 5 w q 7 7 w 6 > & > > $ $ $ # O $ $ $ $ $ $ $ $ * y * * , * $ , 6 8 8 8 8 t w w 6 0 w C w w 7 3 z a 8 d & 6 8 C & 5 & u y 6 = 3 & 5 6 : $ o $ % % o % * % * * * * * % * % * # $ $ $ $ * * $ $ * , $ > , $ # # $ $ $ $ $ $ O O + % o O O o o + % + X X X X X X X X X o o o X X X o % o X X o o o o o o o o o o + + o o o X X X X X X X X o X X X o o X X o + # # % ",
"* $ * * $ # $ e * 6 #   # 4 u C * y e $ #   # u , J e e e # e 4 0 - 3 = 6 * r y * o . X # % * 1 * : , , : * * : * $ $ * % $ # $ o % * % $ o % * % % $ $ o o o o + + + + + + % % $ $ $ $ $ $ $ $ % % + + # # $ % $ * $ $ ; $ $ & > > , , , * $ : , * % * 1 1 * $ % % % % $ $ $ $ 6 6 6 , , , 8 r 8 8 6 , , , , 6 6 , 6 8 6 , , 6 6 8 8 8 5 6 w w 3 & 3 z Q C h Q D G G S w 5 5 5 w w 6 6 6 6 8 t 8 8 8 6 6 8 8 5 5 8 8 6 5 6 8 8 y t 8 8 6 5 5 5 * * * * * * * * 5 > , 6 6 > 5 8 8 y y 6 > 6 > $ * > > , 6 8 r r 6 6 8 8 6 * > 6 5 > > 6 8 5 5 8 8 8 8 8 8 w w w q v D S h w v D q 7 h V h h S V 5 8 t 8 r t t 8 5 8 8 t t r 8 5 8 8 8 t y y w 6 w 5 5 8 w w w w 5 8 8 8 8 t C C 8 8 t 8 6 $ a > 6 5 8 5 u C , u X $ 6 6 t y t 8 6 8 8 t 8 8 6 6 8 5 > 6 6 > & & 6 6 , , , , , 6 , , > > * * * > * > , , , , , , 6 6 , > > * * * > > > > > > > > * : : : * * : : * u e , 6 6 * , * * * * * * * : * * : * $ $ * , $ , u e e e < * , * * * * * * * , * * , < , * : $ * 6 r t 8 5 & 8 8 > 8 w 6 A V y r > & , , $ : $ : : : $ $ * : * * , 6 , , * * e 6 * * , 6 , * , , , 6 6 6 * * * * * * * * , * > $ $ $ : : : : : * % % % % % # % $ $ $ $ $ $ $ % % % % * * * $ , > , 8 8 6 6 r 6 6 6 6 , , , 6 * , 6 , * * * * * , , $ $ 6 e * , * * * * * * $ * , 6 , , * * , 6 8 8 8 8 8 8 8 6 , 8 8 & & 6 > w q q w w 5 > & > $ $ # # # O $ * * $ $ $ $ * * u $ $ , $ $ * , * 5 5 6 8 8 5 3 3 5 D C S z & w 8 # > & > $ 6 = 8 5 t t 6 4 4 = & , , $ $ % % * o 2 e 1 * 4 6 * * % % % * # # $ $ * , , * * * , # * , * $ $ $ $ o o o o O O % % o O O o o O + o X X X X X X X X X X o o X X X o % o X X X o o o o o o o o + + + % % o o o o X X o o o o o o o o # o X o o o # % ",
"# * e $ o # # * # * * * u y e * # , * 6 J y * * = u   , e   * # e.4 t 4 e # * e $ o o o % * % $ * : , , * * * * $ , , % $ * * # o % * % $ $ % % % % % % O o o o + + % + + % % % o o # # $ $ $ $ % # o o o # $ $ * * $ $ > ; $ & : : , 8 , * : 6 $ $ $ * , 6 * * $ $ $ $ $ $ $ $ $ * : , > , , 8 6 , > * & > 5 , & & > 6 6 > > 6 5 6 8 5 & = 3 6 6 V w 0 h C w 7 9 h V w 7 5 5 5 5 6 6 6 6 6 8 t & 5 6 > 5 8 8 & 5 8 t 8 8 8 8 5 8 6 > 6 r t 8 * * & * * * * 6 5 6 5 6 8 8 5 5 6 & 5 > & 6 t t & & , 8 6 * & > 6 , , 6 8 , & & 6 5 > 6 t t 8 6 6 w w w w 8 8 8 w C w 7 w S G S h S h h h 9 q q 5 5 8 8 8 5 6 6 6 8 8 8 8 8 8 6 8 t 8 3 5 8 t w w w 5 5 w V w 6 5 5 a A a 8 8 6 6 t > , > 6 & C & w 8 8 = r u   * * , < , & 5 6 5 6 8 r r 8 6 6 5 8 > * , 6 6 > > 5 5 5 , , 6 6 r 6 6 , > * > : > > > , , , , , > * * * , , , , > > > > > > > : , : , < : : $ : : : r 6 * , : * , * , 6 , , , , < * * : * $ $ * , * , , * * , e < , , : : * * $ $ , $ $ * , , * , 6 , & & * 6 t a > 8 8 A a & w > 8 , $ # < < * : $ : : : $ # $ : 6 , & $ $ * , e , : * $ * * * * , 6 u r e , * , $ * * $ $ * , , > $ $ $ : : : : * * % % % % % o $ $ $ $ $ $ $ $ * % % * * * * $ , > , r 8 , 6 u , , 6 , , , 6 6 $ * 6 6 * , e r , r 6 $ # , , $ r 6 * * * , , , * , 6 6 , , , 6 6 8 8 8 8 8 8 8 5 & 8 8 & > 6 > w w w w 7 5 5 > > > $ # # $ $ $ * * $ $ $ * * : e $ $ , * $ * * u t 6 5 5 5 5 3 z 7 w 3 0 h 5 A A # > t a = 6 6 8 8 t u 6 8 u = = , , * $ * * %   * e * # * * * $ o o $ % o # $ $ $ , 6 , , , e o $ , : $ $ $ # o o o o o O % % O % % o X o o o X X X X o o X X X X o o X X o o % o X X X o o o o o o o + + + % % % % % + o o o o o o o o o o o % # o o o o + % ",
"A 5 = 6 r * $ * % % $ $ # * , 6 6 6 u   e H * C 6 C s * $ * $ $ # H # # 5 # , $ $ $ # o o * : : o $ : < : * $ # * $ $ * * $ $ $ : % # o o % % % % O O o o o @ O X o o % % % % % $ $ $ $ $ $ $ $ * % % # % + $ $ * , , $ $ $ , , $ $ $ & $ * * * * * * $ * * * * * , > , r 8 , 6 6 & # $ > 6 * # & a 8 & 5 t 8 & 5 > 5 5 > > 6 t y 5 5 8 5 5 t t 8 A V 8 w w 7 5 h h 0 7 0 0 5 & 5 w t 8 6 > > 5 t 6 6 8 w 6 > > 5 6 8 t 8 6 5 > 5 8 t t y y t 6 5 5 5 5 6 8 6 5 w 6 & > 8 6 > 8 , 8 6 & * , 6 & 8 6 > > 6 t 6 $ 8 > & 5 5 & & 5 & , t a a a w 6 8 8 w w 5 5 w 5 w 6 0 t w 8 w t w Z G Z V p w q t w w t C C t 6 A w 6 8 t 6 5 6 8 w w 8 w 8 8 5 8 & 8 8 a a > 5 V w V A C a t 6 A > 8 > > 6 & C > > 5 , , , : : $ $ * : < 6 < , < , , < 8 8 , > t 6 > > 5 6 6 6 5 5 4 * * * e e * * * : * $ $ $ * * , 6 e 6 , * * * * , , , * * , , * * , , , , r 6 , , 6 8 8 , , , , ; : < , & * , : $ $ < , $ $ r u : * : < : o $ : * $ $ < u , > , 6 6 * & * r * * , * 6 e * 6 , , 6 r r r 6 r > 6 a y 8 t 8 > < 8 ; ; , < , , < , $ $ , < , ; : : : : > > ; $ & ; ; : ; > > 8 6 , , 6 6 , & , , , > , , , > > > * * : : * $ * * % % * * * $ o $ * $ $ $ $ $ * * $ $ * : , , , 6 6 > & > 6 8 > t 8 * > > * , & * * & $ & , r r 6 * & , 6 < > , * * , 6 , , > , > , * 6 6 $ , t 8 8 8 8 6 8 a > 5 8 8 5 & 8 A a G w V & & > > & & * $ $ $ $ $ $ $ o $ $ * $ $ * * * * % % * : * t 6 t w 5 v q w 5 w V w 5 w C C 5 t 6 w 3 8 & 5 t y y t 6 & = , : $ # * r e * * * $ $ $ $ $ $ o O * : , : $ # * * * e y , # * $ : * $ # $ $ o * * % % O + % % % % o o o o o o X X X X X X X X . X o X @ + + o o o o o o o o o X o o o o o O % O o o O o X X X X + @ X X + @ . X + o X + o o % ",
"3 C H t = $ * : K 1 : u <     * $ C C * 6 5 = t 4 u 6 * * r u s 6 e.* $ 6 $ * # * * # o o $ % $ : : * $ $ $ * : * # # $ * * $ $ % % % $ # # % % % O O O @ @ @ O o o o % % % * * $ $ $ $ $ $ ; $ * % % # # + $ $ $ : 6 * * * , : : : , : $ # $ * , * * * * * 4 * * > & $ , , & , > 6 8 6 > > > 6 6 6 6 t A t 6 t 5 5 5 5 > & 5 8 t * 5 8 & & 5 5 6 V 8 > 7 8 p V h h 0 9 0 x C V t t t w 6 > > 5 V w 6 5 > > 8 a 8 8 6 6 8 w 8 6 8 t t t t y t 5 5 5 * 5 6 8 6 5 6 8 5 5 8 6 5 a 6 , , , , , < < > 5 5 5 6 6 , & 5 5 6 6 8 8 8 5 , > > > > > 6 6 w 8 a V V C C w t 8 t y t w 8 a 8 w p a V V p 8 H A t w w 8 8 5 t 5 > w a t 8 t t t w 6 w t t 8 C 8 V 6 = & 5 H G z w z 8 V A A 8 & 8 8 t C t J , , 6 6 6 , , , * $ $ : , < : : : : , < 8 8 6 , 6 6 6 6 6 6 6 6 5 6 4 * * * 6 6 * * : : : * * $ * * , 6 e 6 , * * * , , , * * * * * * * * , , , 8 6 , , 6 6 6 , > , , & ; , > $ ; , , , > > ; $ : < : * * : : $ 1 1 < * $ o o # , 6 8 r 6 * > 6 6 * * , * , 6 * , , , 6 6 6 , , u > 6 a t 8 r r > , , > , < < , > , , ; ; , , ; & ; ; > > ; ; ; , , , , , , > , 8 6 , , , , , * , , > > , , , > > > * * : : * $ * $ % % % % % $ $ * * * * * * * * * * * * * : : > , , , 6 8 8 6 > u t 6 6 , > , 6 6 8 6 * & > , u 6 * , , * & & , > > , , > > , > , r , 8 r * u 8 8 8 8 6 & > 6 y 6 > 6 r y y t & 8 5 A 8 8 5 = > > > > > > > * : * $ $ $ * * $ * * * * % % * : : r > w w 5 w 5 S h h V w 5 V C 8 = 5 = & # 5 # 5 8 t t 8 5 5 & * , : $ * , : $ $ $ $ $ $ $ $ $ < : : : * * * * * * * , e * # * * , * # o * : * $ $ O o o O o + % % # o o o o o X o o # o o o X . X @ X @ @ + o o o o o o o o o o o o o o o O + % o o O O o X o X o o X X + o . X + X X o o o % ",
"= 5 6 #   $ * X y % $ * , o * u # s * * y e 8 5 3 & * * 8 e 6 6 > A $ # < $ : # $ * $ # o $ $ o : : $ # o # $ : * # # $ * * * * # % % * $ # $ % + % O @ o o @ O o o # % % % % $ $ $ $ $ $ $ $ $ * % % + # # $ $ # * 6 6 , , , * : : < e * o # * * * * * * * * & > , & $ > > & , $ > 6 , & # & > & 5 6 t A t 5 w 5 5 6 6 5 & > 6 e * 8 t 8 6 8 6 5 t w > 7 8 8 V h z h 0 0 z V x w w 5 5 6 8 8 t & > 6 8 6 > 5 8 6 > & > w V V V 5 8 8 8 t y y t 5 5 5 5 8 8 8 6 t V a t t 8 8 C 6 & * 6 r , , u = & 5 6 5 & > 5 & 5 6 & > 8 8 > a a t 8 8 8 V A 8 6 w w w Z A 8 w t t y t w 8 t a 8 5 8 p 8 5 5 8 6 > > 6 t a t t 5 > 8 t 8 6 w 6 6 6 5 6 w w 6 a 6 w 6 8 t 8 V z 0 w w 5 8 w 5 6 5 t 8 8 t 6 t 6 6 6 6 6 6 , , * $ $ $ : , : : , : , , < 6 6 6 > 6 8 8 8 6 6 6 8 e 6 6 * * * , , , : , : : : * * * * , 6 6 , * , , , , , * * * * * * * * * , , 8 6 6 6 6 6 , > , , , > ; > > > > > , < , > > , e * $ * , , * * $ $ $ $ : , , : , 6 t t 6 & > 8 6 * * , * , 6 & * , 6 6 6 , > > u > , r 8 6 8 8 , > > , 8 < , > , 8 < , , , , > & > > > > > > > , , > > > > > > 6 , > > , , > > , > > > , , > > : > > > : : $ $ * $ $ % % % $ $ $ $ $ $ $ $ $ $ * * * * * * * * > > > , 8 t 8 > > r r 6 8 6 > , & > , 6 > * * > , & & , , * * 6 , > , 6 , > > , * 6 u 6 6 r > a 5 > 6 8 6 , 5 8 > 6 6 > & > 8 t w a & t 6 8 , & , , : : > > * * < : * $ * * * * * * * * % * * : , 8 > w w 7 h 9 h q v V w 7 0 3 y 6 y 6 8 > y 6 & , 5 5 5 & & & * , e , * $ $ $ * * $ $ $ $ $ # < : * $ # # $ $ $ * * * , $ # 6 * * $ # # $ * * $ o o o o o O O # # # o o o o o o o o + # o o X . @ @ X X @ + o o o o o o o o o % O o o o + + % % O O % % o o o X @ o X X + o . X + o X o o X + ",
"D w & & 6 u e * X o * o , , s u # * # $ u y 8 & C 4 = * & $ # o & r # # , * : $ $ $ $ o o * % $ $ $ * * $ # # # * $ * * * * , e % % * % % + % % % + O o @ @ @ O o # # $ # $ $ # $ $ $ $ $ $ $ $ * % % # # + $ $ # * 6 , , , , * * $ : e , $ $ , * * * * * * & & 5 6 > & 6 6 > 6 8 6 6 8 8 8 6 > # 8 w 5 w t 5 = 6 6 8 w 6 5 5 8 8 & 8 u 8 t y t & w w 6 w 8 5 5 5 h z h w 0 0 5 w 5 & & 6 8 t 8 $ & 6 8 w 6 > & A a w 6 6 5 5 > > 5 5 5 8 y y t 8 5 5 5 8 8 8 8 6 t 8 5 6 & & 6 , * * 6 6 , , 8 & & > 5 > & > 8 5 5 > $ $ > 5 > 6 8 t t 8 8 8 a C w 5 5 5 w V 8 w w w t 8 6 8 8 a 8 7 a a 5 > 5 t w 6 6 8 8 5 > 8 6 5 8 w 8 6 w & 5 6 6 6 8 5 & w > 8 8 C A 5 & z w C C a V V 6 w w 8 & & 6 5 5 6 , , , , , , , * $ $ $ : : : : < < , , , , 6 6 > 6 8 8 8 8 8 6 8 e e 6 6 6 , e * , : : : : : : * * * , , , * * , , , , , * * * * * * * * * , , 6 6 6 6 6 6 , > 8 8 8 , > > , < > $ & , , > , r < * $ e r , , e e , , , , , * $ > , 6 6 > & > , 6 * * , * , 6 * , , , 6 8 6 , > r > > 6 , , 6 6 d , ; < 8 > & > , < < , , , > > > > , , , , , < , , > & & > , > 6 , > > > > , , > > > > , , , > : > > > ; : $ $ * * % * % % % $ $ $ $ $ $ $ $ $ * * , , : * * * * > , , 6 8 6 > & 6 6 , 6 , > 6 $ * > > > * * > & > , > * , 6 8 6 > * , 6 , > > > 6 u , , 6 & 8 5 > 6 8 t 8 8 8 > t C 8 & > t C A A & 8 > 6 6 > , , > > $ $ $ & 1 : * $ $ * * * * * * * % * * : : , > 6 w w h w h v S S w w z 5 5 & t 5 5 = r > 5 5 5 8 6 > & * * , , * $ $ $ $ * * * * $ $ $ $ $ $ $ $ $ $ $ # # * * , 6 * * r $ : < < : * $ o $ $ $ O O O % % # o o o o o o o o o o o o o o o . @ @ X X @ @ o o o o o o o o o % O o o O % % % % O O % % o o o o + + o o + + o X + o X o o X + ",
"w t x 6 # X o $ o % s : u * *   $ $ d & = 6 # 6 c.8 = = $ & , > 6 r > * , * : $ , : $ o o * * * # $ : : : $ # # $ * 6 6 * $ * u , % # # % % % $ % + O O O O O O O $ $ % % $ $ $ $ $ $ $ $ $ $ $ % % % # # $ $ $ $ * , * > , , : , $ $ < 6 : * * * * = # # = & & > 6 , , t r 6 8 8 6 6 6 8 8 6 > & w w 5 8 w 6 5 6 5 6 8 8 6 6 8 8 & > 6 5 5 w w > 8 8 8 8 8 > 5 3 0 w w w w w 0 t w 5 5 6 8 5 & t w 6 6 6 w w w w t t w 6 5 5 6 u y w 6 6 8 8 6 6 6 6 6 6 8 8 t w a w 5 6 5 & 5 & 6 8 , > , 6 , 8 5 > 5 5 6 8 t 8 5 > 8 8 5 5 8 > 6 8 8 6 5 5 6 C V V w 5 w V w 6 8 w 8 6 6 6 6 8 5 8 A A w 7 a a t w w w w 6 5 6 5 6 w t a V C w w w 6 6 w 6 5 t w C 6 & > & 6 z w w w 5 V A A 6 w 8 6 6 8 y t 6 6 6 6 6 6 < 6 > * $ $ : : : : r r < , : : , 6 8 8 8 6 8 t w 5 5 6 6 6 5 5 6 6 > * * * * : : : , , * , , , , * , , , , , , , * * * * * * * > , , 6 6 6 6 , , > 8 8 8 8 , > , 8 < & O ; , , , r : * , r r : * < < 6 6 < , * * * , > > > > > > * 6 * , 6 * , e * , > * , 8 r 6 > r > , 6 , , r 6 s , ; , , > ; > , > > > > & & > > > , , , , 8 8 , , , > > 8 8 8 , , , , > > , , > > > > , , , > , > $ $ * > $ $ : : : : : : * * : $ $ * , * $ * $ * , , : * * : > , 6 , > , 6 6 > 6 > > , > & 6 8 8 6 , > * & & 6 a t & # > 6 > 8 * $ > 6 6 > $ , 6 8 & , r & , 8 6 8 t t 8 6 6 8 6 > & > 8 8 5 8 C 6 C 8 8 8 6 , , : > $ $ $ $ : : * $ $ $ $ * $ * * * $ * * : * & & > 0 w w w h w w 5 & 5 t w = $ r & * $ 6 # e 8 e y u 6 * , , * $ $ $ $ * * : : * * * * $ $ $ $ * * : : * * o * , 6 e * $ 6 , 6 r r r , $ $ $ $ $ $ $ $ O O # o o o o o o o # o o X X X o o X @ @ X X @ @ X o o o o o o o o * $ o o $ % : % * $ $ % $ o X o o % % + + + % + o % o o + o o % ",
"& A e.a & : 1 * 1 o , $ e . $ $ r o t $ = t # 5 C = = 8 6 r d , 6 6 , , , , , , e < * o o $ * $ : : : : * * * * # $ 6 6 * # * e 1 % o o % * * o % % + O O O O O $ $ % $ % $ $ $ $ $ $ $ $ $ $ $ % % % # $ $ $ $ % * * * * , , > 6 : * : < < * $ , * & * * & * 5 * , > , r r 6 8 $ > 6 > $ # & > 5 > & 8 t > & a 5 > > 5 6 5 5 6 8 & 5 6 & > 6 6 8 t 8 5 8 8 8 V x C z 0 0 w w w t w 6 0 w w 6 > t w w w w t w 5 & 5 w w 6 6 w z t y u 8 w u w 6 5 5 5 5 3 5 8 w 8 V w 6 t t 8 8 > t y , > 6 6 > y 8 6 5 8 a a t > & > a C 8 5 8 a C C a 8 6 w t w w C C w w v q 6 w 8 w 8 8 w 8 5 5 8 C a 7 5 w 6 5 > > 6 w t V 6 6 6 6 8 8 w 8 C a 8 > > 6 w w 8 6 8 & > w 5 8 0 0 w w 5 w t 5 5 w 6 t a 8 y 8 8 8 8 6 8 8 8 r : > $ $ : : : : r r 6 , : : , 6 t r 6 > 6 t 8 5 , * 5 5 5 * , , * * * * * * : : , , , , , , , * , , , , , , , , * * * * * , , , , , 6 6 , , , 6 , , , < , > > , 8 , ; > > > > , * : 6 r < $ $ * $ * , , : : , 6 , , > * , 6 , * , * , 6 * , e * , * & > 6 6 6 , r , , 6 , 8 u 8 r , ; ; > , , 8 8 , , , , > > , > > > > > , , , ; , , > > 8 r < , 6 6 6 , > > , > > > > > , , , , > $ $ * > $ $ : : : : : : : * : $ $ , < * $ * $ : , , * * * , , 6 6 > & > 6 8 t t 6 , 6 > $ , 6 6 , * * * > > , d t & $ 6 8 , 6 & $ > 8 8 , * * , 6 $ 6 d > 6 > * > 8 t 8 8 8 5 > & & * & > 8 a A 8 C > > 6 8 , , , : : $ $ * * * * * $ $ $ $ $ $ * * $ * * : e , r 6 6 t w h 3 3 w w 5 > 5 > 5 , y 6 8 5 u * 8 * 6 t t * = $ , $ # # $ $ * * * * * * * * * * : * $ # # $ * : # , 6 6 e * # $ , * * : : $ * : $ $ O $ $ o o o o o o o o o o o # o o X X o o o X @ @ X X @ o X o o o o o o o o % $ o o % * % % * $ $ % % o X o o o + o o o o + o % o o + o o % ",
"= 3 5 $ = , * X 1   $ . :   u C r o $ & 8 C 8 3 8 = > y 8 r r X * & , , $ * : , , , * # # $ * $ : : * $ $ $ * : $ $ , 6 * $ $ * : * $ $ * * % o * $ $ $ $ $ $ $ $ $ * * * * * * $ $ $ $ $ $ $ $ % % % # # $ $ $ $ * * $ & > > & , < , * : 6 6 $ , , 6 6 5 5 5 5 & 6 & & 8 6 > 6 8 8 8 8 5 > 6 t 5 > & 8 8 & = t 6 5 > 5 5 > > 5 t 5 8 t 6 5 6 6 8 8 6 5 8 8 w A G D z 0 0 w w 6 6 6 5 6 w t w w 5 w w w w w 5 = V C V t 6 5 & & 6 6 8 6 w z t w 5 5 5 5 5 5 8 u & 6 5 & 5 5 & > 5 8 t 8 5 5 , , 8 t 8 > 6 a a 6 & & > 8 8 8 6 > 8 t t w 5 5 w w p w V V w v v 5 5 w t 8 w 8 8 8 8 8 w 8 8 5 5 > a t 8 5 5 > > 5 8 w 8 6 5 5 5 > t t 6 & > 6 8 6 8 & 5 5 a [ 8 > w C ( H C C z 3 6 w & t t & 6 , 8 8 6 6 6 6 8 8 , : $ $ : : : : < < < < : : 6 8 8 t 8 > 5 8 8 > 5 6 6 6 , * , , , > * * , : , , 6 6 , , 6 6 , , * * , , , , , , , , , * & , , , > , 6 , , , 6 8 , > > 8 8 6 , , 6 r r 6 > > > > * , 6 , , , , * u r 6 , * * $ # , 6 , > > 6 6 > , * , 6 * * 6 * * , , , > > , 6 6 > , 6 , r u 8 6 6 , > * , 8 6 8 , , 8 8 , , 6 > > > > > > > , & , , * > 8 8 > 5 8 8 8 8 5 > > > > > > 5 5 5 5 , > & & $ > > > : : : : : : : * : $ # , e * $ $ $ * , , * * , 6 , 6 , > > 8 t t u u 8 8 r , & , * & & & * > , , > > , , 6 6 6 r , > > 6 8 6 6 8 & , r & , t > 6 & = & 6 8 8 8 t t t a C 8 & 8 [ A [ t a $ $ , 8 : : : : $ * * * $ * * * $ $ $ $ $ $ * * $ * * : u , d 8 6 V 7 V 5 7 A 8.D w w t 6 * r $ * * r $ , $ $ , , $ # $ * $ $ * $ # $ : $ $ $ $ * * * * : * $ o o o # $ $ , , , e , $ * , & & * $ # $ * $ $ $ $ $ o o o o o o o o o o o o o # # o o o X X @ @ o o @ o X o o o o o o # # % % $ $ $ $ $ % * $ $ % $ o o o X o o o X X o % o % o X o o X % ",
"H 6 & 5 6 $ $ : % * K o y , J r $ * > t 8 6 x 8 e.t 8 5 o & < X 8 , r 6 # # # $ $ $ $ # $ * * $ o $ $ $ $ $ $ $ * $ * 6 e , * $ % * * * * * $ o * % $ $ $ $ $ $ $ $ $ * * * * * $ $ $ $ $ $ $ $ % % % # $ # $ $ $ * * * * * * # # < 6 $ $ r r , & , 6 e e 6 4 & 5 6 & & 6 5 & 6 y 6 & & 6 8 6 > > t 8 5 6 5 & > 8 6 5 5 5 > > 5 6 > 8 y 8 6 8 6 5 8 6 6 w 6 5 t w w 0 0 w V w 5 w w 6 5 6 6 6 5 w V a 8 5 w w w 6 6 8 w w w t t 6 w 6 6 6 w 6 5 6 6 8 6 6 6 u V 5 V V 6 6 5 5 6 6 > 6 t 8 = * 8 & 8 8 > > t 8 & 5 8 6 & > 8 8 > 5 8 a V t 8 V C 8.C v w q v S w 5 w 8 w 8 8 t 8 8 8 5 5 8 a a w 6 8 8 a a a t 8 8 w w 8 8 w w w 6 8 8 8 8 w 6 > t t A w 8 a 6 6 0 w C V w C A V t w $ 8 8 $ r u , , > > > > , , , : $ $ : : : : $ : < < , , 8 r 6 t a 6 > 8 6 > r r r r 6 , , , , , , , , , 6 6 6 6 6 6 6 6 , , * * , , , 6 6 6 , , , , , , , , > , , , , , 8 r 6 > > r u 8 6 6 & r C t > > , 6 > , * $ , r u 6 6 , $ * 6 u r 6 & 6 6 > & > , , * * , 6 * * , * , 8 t 8 * & , u , & > , > 8 t 6 , 8 8 > & , , > > & > 8 6 > & > 6 , , > > > , , > 8 8 , , r 8 > 5 8 8 8 8 5 > > > > > > 5 5 5 5 6 > & & * > > > : : : : : : : $ , $ $ r u , $ * $ * , : * * , r , , > > 8 d s t 8 8 6 8 t 6 & 6 6 , , , , > > * 6 $ & u t & $ 6 > , 8 r 8 , 8 d $ 6 u & & 6 & , t 8 5 8 8 5 & & a > & 8 t > 6 C 6 C t A 8 6 , > $ $ $ $ $ $ $ $ o $ * : * $ $ * $ $ * $ $ * * : * # r > > w 5 h h 7 w V 5 = 6 C u 6 u $ , 6 y * 6 $ # * , * $ , $ $ * , $ o # * $ $ $ $ $ $ * * $ $ * : : * $ $ $ : * * r u e e 6 , 6 r r * $ $ * * * * * $ o o o o o o o o o o o o % % % # o . X @ @ o o @ o X o o o o o # # # % * * * O o o o * % % * * $ o $ o o o o o o + % X % o X o X X + ",
"& & 6 6 & , e $ % % # * 1 # s * J , & A C > & = t & [ t 5 r . 8 # & , > $ # $ * # # # # $ $ * : $ $ $ $ * * $ $ * $ # $ * * * $ * * * $ # # # # * $ $ : $ o $ e * $ # e , $ , # $ $ $ # # $ $ * * % % % % % $ $ $ $ $ * , , * $ * & * : > > , 8 8 8 , , 6 * * r 5 5 5 5 5 6 6 6 a 6 & 6 8 & & 8 6 > > 6 8 6 5 6 & 5 6 8 6 6 5 5 w t V C t 6 5 6 & 8 5 6 6 5 t 8 5 6 t 5 6 w & 6 w 6 5 0 V D z 5 z 5 C A & 5 S 5 V V w w w C z w z w 0 q 0 q 0 7 7 w h 7 0 V C w S w h V 5 5 w = 5 > & 8 a 6 & 6 t 6 t > > a 5 8 8 & t A > > C C 6 6 w a V p w w A C 3 S Z q G 5 7 8 [ A 8 a 8 8 & t V 8 8 V t & 5 8 & & V A w 8 8 5 5 6 8 5 5 8 8 5 5 6 t t 8 6 8 6 8 8 5 8 V 8 5 z C D & 6 w t V a 8 a 5 6 * 6 8 , > & > > > $ $ $ $ $ : < : : $ $ $ * , , 6 6 , 6 8 8 8 6 8 8 6 6 , , > > , , , , , & , u r , 8 8 , , r r , , * * * > > , , , r 8 6 , , > > > 6 6 6 6 6 6 , , 6 6 * * r u r d 6 > 8 * > u 6 6 , * , 8 6 8 r , > > , * * * > , r 8 6 , > > > > , * , 6 6 * * 6 s 6 & > , * * > , , , , 6 8 r r & > 6 r r 8 , * * 6 t 8 & # & , r > & 6 r 8 8 a > 8 r 6 , 6 8 8 8 a a 8 6 8 8 6 5 & > 8 6 8 8 8 6 6 6 6 > > > : # : < $ # & : : : * $ : , : * : , , : , , , , : , 6 6 6 6 6 8 r , 6 6 6 , > > , 6 6 , , > * * * # > 6 > * > , * , > , 6 r r 6 , 6 * 8 > , 8 > , > y 5 6 a y a 8 5 > > 5 > & > 8 6 r t r , > > : : < : * # # * : $ * * $ o o $ : $ * * * $ $ * * $ $ 6 r > > 0 5 w V 0 5 w a t t 6 * , * # * * # * , 6 , * * , 6 , : $ $ $ * * * * * : : * * $ $ s 1 $ * < : $ $ # , e * * e , # 5 5 5 6 6 , $ $ $ # # # $ * $ o # o o o o o o o % o X # % X X + X o + % + o o o o o o # # $ $ $ $ O o # $ $ $ $ : $ # $ * $ # $ % % % % o o # % + % + o o # # o ",
"w = = & * * * $ : * * : u $ s * J , $ , > # 3 w A & 8 5 t C , s 6 * & * 6 6 , $ $ $ $ $ # $ $ * $ $ $ $ * * $ $ , * * * , * * * * * $ $ $ # # # O o # $ # # $ , * $ o * $ o * o $ $ $ $ $ $ $ * % % % % % % $ $ * * * * , , * $ > $ > : > > , 8 6 6 , , 8 5 6 C 6 5 6 5 6 6 6 6 6 & & 8 t 8 8 t V t 8 t 8 > & > 6 6 8 8 w w w 8 8 8 6 6 > > 8 t t w & 8 t > t t 5 w t 5 6 t 5 w 5 w C C z z w 0 w 5 z C 5 0 C w w 5 3 z C 0 w V w w V G G V w q V C V w h C V w w 5 7 w & 5 w 5 6 A a = & 8 t t 6 > a a C A & & 8 > 8 t > > 8 8 5 t a 8 7 V A A 8.A w S v 9 q & p w A a 5 a 8 8 8 8 5 5 5 8 t a t a 6 & > 6 6 w t w w t t 8 6 w 6 6 8 w w 8 8 w w w t t 8 t C t 5 0 0 C 5 V t w t a 6 a 8 a 8 r , 6 8 r 8 6 : * * * $ ; : : : : $ $ * : , , 6 6 6 6 8 8 6 6 6 8 6 , , , > > > > * * * * , 6 6 & 6 6 , > 8 6 * , > , , , , , 6 6 > , , 6 6 , , > , 6 6 6 6 , , , 6 8 , > r r 6 r 8 , r , 6 a 6 6 6 * , 6 , , 6 & , , , , 6 r u s 8 6 6 > > > > > 6 , , 6 e 6 6 6 , , , > 6 8 6 * $ * > , > , 6 r 8 8 8 6 6 6 6 6 a u 8 6 , 6 8 r a 6 > 8 u 8 8 r > 6 6 , , 8 8 , 8 t a 8 6 8 8 8 8 > 8 8 6 5 8 6 t t 8 8 , , 6 r $ , < $ # $ : * * $ * , < , * * , : : , , , : * 8 6 > , 6 8 8 8 6 6 8 8 6 , 6 6 6 6 , , > > > > & , 6 > > 6 6 , 6 , , , , , * $ 6 * 8 , , r * , > y > > t 8 t 6 a r 6 8 8 8 8 8 , 8 r 8 , : : : : : : * $ $ : : $ * * * $ o $ $ $ $ $ $ $ $ * * * * r r 5 6 w w h C V w V C y y , * 6 6 * * , # * * $ $ $ $ $ * * * * , , , * $ # $ * * * $ $ $ u : # * : : * $ # : , * * e 6 * , & * = & * * : * $ $ # $ $ $ o $ o o o o o o o % o X + % X X % X X o o o o o # o o o o # # $ $ $ $ $ $ $ $ $ $ * # # $ * $ $ * # + + o o o o o o o o o o o # o ",
"G & # 6 8 : * $ % % * * u $ r & r & & 6 t 8 & # V 5 & > > # # 8 , * $ > r r , # * * $ $ o o $ $ $ $ $ $ $ * $ $ e : * , , * * * $ $ $ $ $ $ $ $ # $ $ $ * , 6 , 6 > $ , & # , $ $ $ & & * * * $ % % % % % % $ $ $ * * * , * * * > ; > : : * , 6 6 8 5 , 8 6 8 C 6 6 6 5 5 6 6 6 6 8 8 t t w 6 5 w w 8 8 6 5 5 6 6 6 5 5 6 8 8 8 w 8 8 5 > 5 w V t 6 = t y & 5 6 & 6 w & 5 6 & w 5 w C C x z h 0 0 7 w w w h V V 7 3 5 v V 7 w C w 5 5 v V q 5 w 7 w q q V o.o.Z V h h w 5 5 6 5 w w 6 6 t 8 6 t A 8 8 8 8 t 5 8 a t 8 8 8 8 t 8 & a V 5 5 V G Z V 5 h v S D S S C 8 a 8 5 p w 8 a 5 6 a t > & 8 5 6 a t 5 5 8 6 w 8 w t t 8 6 8 > 6 t 8 6 5 8 t 8 8 a t 6 w a w 5 5 5 z 5 A V w & 6 > 6 & y 6 & , 8 t t 8 , : : : * $ ; : : : : > $ * : , < 6 6 6 8 8 8 6 6 6 6 , : : : > > > > , , 6 r r 8 6 6 , r , , 6 , * > , , , , , , , , & * > 6 6 , , > , , , , , , , , & 8 6 5 8 8 6 t 8 6 t 6 8 a 6 6 r , 5 6 & > 5 = t r 8 6 5 5 8 t 8 6 6 , > , , , 6 , , 6 e 6 6 6 * 6 , * , r 8 & $ * , > * * , r t 8 6 5 > > 5 6 a t 8 6 6 6 8 t t > * 8 t 8 5 6 6 6 > > 8 t 8 5 6 w 8 8 5 5 8 8 8 8 8 a 8 5 8 8 5 5 > & $ $ * , , , , * $ : : : * $ * , e , * * : * * : , , : * u 6 & > 8 u r , , 6 8 8 6 , 6 6 , , , , > > > > > > * $ & , , , t 8 6 , 6 , , * , * r 6 6 r * , 6 a & > 8 6 8 6 s 8 5 6 8 8 5 > > 6 8 r < , : : * : : : * $ : : % * * * * $ $ o $ $ $ $ $ $ $ * * * r u 8 w x t 5 z 8 5 8 8 5 6 * $ : , $ $ * o , , , : * * , , $ $ * * , * $ # $ * 6 , * $ * : 1 : $ * : * * * $ $ * , , 6 6 6 > > > > > , 6 6 , : * $ $ $ o o % o o o o + + o % o o + + o o + X X X X X o o % # # $ $ $ $ $ $ $ $ $ * * $ $ $ $ # # * * * $ * # o o o o o o o o o o # # # # # ",
"t = # > 5 $ #   # % * # e $ , * , 8 d > = = 5 A 5 5 = a t # 8 d $ * 6 r 6 , * $ * * * $ o o o $ $ $ $ $ $ * $ $ : * * * * $ $ $ $ $ $ $ $ $ $ $ $ : , * , u r , r 6 & 6 , & 8 * $ $ & * * * * $ % % % % % % $ $ # $ * * * * * , > $ > : > $ * 6 6 r 8 5 8 5 5 t 8 8 6 6 6 6 6 6 6 t t w 8 w 6 & > 6 w 8 8 6 w V 6 5 5 5 5 6 6 5 5 8 8 8 6 8 6 8 5 6 > y y & > & > 6 t & & 5 & w 0 0 0 w D D z 3 5 7 5 5 V h 7 v w V V w 7 v V h o.v w V V w w Z Z Z S v v V V w 8.G V h w q 5 5 t 5 $ w H V 6 t a 8 C H H a 6 8 t C t 6 8 C C C & w V w w C V w Q 7 Q v h Q q v V 7 a 8 5 p 8 8 8 5 6 C V > = 5 > 5 C A 6 8 a 6 5 5 5 6 8 8 8 w & 6 t 8 5 5 8 t 6 8 t w 5 6 t 8 w w 5 z 5 C t 6 > a t t & a 6 & 8 r t 8 > * , r , : * ; : : : : : : : , , < 6 8 6 8 8 8 6 6 6 6 , : , : > > > > r 6 8 y y 8 r a 5 r r , 6 6 > , , , , , > > > > > > , , , , , > , , , , , , * , $ 5 5 > 6 6 8 C t 6 8 6 6 t > 6 t 6 6 8 , 5 6 & t t 8 5 & = & * 8 8 6 6 6 6 6 6 , , , , * * * , 6 6 > & * , , > , , 6 , > > , 6 6 6 6 6 6 5 > > > 8 t r 6 & > 8 6 > > 6 6 6 6 t 8 6 6 6 8 t t 8 6 8 w 8 5 5 8 8 a 8 8 a 8 8 V a 8 8 6 5 > > , 6 , : > $ ; : : : , $ * , , * * * * * * * , , * * r 6 > 6 t a r , , , 6 6 , > > , , , , , , , , , > * $ $ * , , > r 6 , , 6 8 8 6 , > r 6 6 8 * , 8 a > 6 t 8 t 8 t 6 & > 6 > & & * , 8 r < , : $ $ * : : * * : : $ $ $ * * * $ o $ $ $ $ $ $ $ * * * e u 8 t V V w C a w w 6 6 r * $ , * # $ * o $ * : * $ $ $ * , * $ # # $ $ $ * , , , : * * : 1 : : : * $ $ $ * $ * , , * , r = > 6 8 8 8 , , < , * $ $ $ # # % o o o + + + # % o o % % o o + o o o o o o o $ % % $ $ $ * * $ $ * : : * $ $ $ $ $ $ * , * $ $ # o o o o # # # o o o % % % % % ",
"z 6 6 6 , 6 e $ % % 1 o r * * , r < , # 8 C 5 w A t # a A , 8 ; $ > r u r , * $ $ $ $ $ $ o O $ $ $ $ $ $ * * $ $ $ * * * $ $ * $ $ $ $ $ $ $ * $ * * $ * 5 5 = 6 > & 6 > & 6 $ * * & * * * * $ % % % % % % $ $ $ $ * * $ $ $ * > ; & > > & & , 6 t t 8 8 6 & 6 8 8 6 6 6 6 8 8 & 6 8 6 6 t t 8 6 8 a t w 8 w t w w 8 8 8 w 6 5 & 5 8 7 5 6 5 & & y t t 8 5 t 5 8 a C 6 5 8 5 V z w 0 0 z D z 3 5 w 5 7 G h 5 w V G G w 7 V S V V q w Z D v h V Q o.o.Z V v v v S h 7 7 w v w 5 w C 6 # 6 A A t > > 6 a 8 $ & 6 5 a a 5 6 8 t C w w v C G G V w o.q o.v q D 5 9 V 8 Z p 5 w 8 8 8 8 5 5 6 8 t V A t a w = 5 V 8 w w 8 6 8 8 a a 5 w 8 6 6 8 w w 8 w t w > 6 t w w w w C 5 C t w = a t t $ 8 > * 8 t u 8 , > < r , : $ $ * : : * : : , , , 6 6 6 8 8 8 6 5 , 5 5 , , , , , , , , r 6 6 8 8 6 8 a > t r 6 8 6 > , , , , > > > > > 6 , , > > , , 6 , , , , * * * * = 6 5 & 5 , 8 C a 6 8 6 8 u 6 8 t 5 6 8 5 6 8 5 > 6 8 8 8 6 6 8 6 6 6 6 6 6 6 6 6 6 , * * * * * 6 * * 8 r > * 6 6 , > , 6 8 8 6 8 8 8 8 8 8 8 8 6 8 8 r 8 6 6 5 8 8 r 8 6 5 r C 6 8 8 8 8 8 8 t 8 8 8 8 8 w 8 a C 8 8 a a a C a 6 8 w 8 6 5 , > > & & $ > : , , , * $ $ * $ * * * * * * , , : * 6 6 8 t u t 8 6 , , 6 6 , > > , , , , , , , , 6 , > * , 6 6 6 , 6 , * * , 6 6 6 , > r 6 6 8 > 6 6 u > 8 a 8 t 8 6 5 5 6 6 > > 6 , , < 6 : : $ $ $ * * * : % % % % $ $ $ * * * * $ $ % $ $ $ * % * $ , r 6 t V t 8 V w 6 6 > , t e 1 1 : $ % : # o * u e * $ $ * , * $ $ $ $ * * : * $ $ $ $ $ o < < < : * * $ $ * $ $ , * $ * r & > 6 8 6 > * * , > > * $ $ $ $ % o o o + % % + % # o + % # o o o o % % $ o o o $ $ $ $ $ $ $ $ * > , , * $ $ $ , , , , , , * $ $ o o o # % % $ # o o % % % % * ",
"D V V 8 & r K u * * e X e $ # , , # & & A e.= & A A > t t & 8 , > * > , r 6 $ o $ $ $ $ $ $ $ $ * $ # # $ $ * * $ $ * , , * * * $ $ $ $ $ $ $ * $ * * $ = & & & , > & 6 , & 6 & , * & * * , * $ % % % % % % $ $ , , , , * $ $ # * & & > > & * , > r t 8 t t 8 t 8 6 6 6 8 8 8 8 8 8 8 6 6 6 6 8 5 8 w 8 6 6 6 6 w t a a t w 6 6 5 7 7 5 5 8 t 8 & C t & # & C t 8 t C 8 6 8 5 t z C D z w w h 0 w v w h G h 5 h S h h v h w h Z q 5 5 q w w h v v V V S S Z G G v v 7 7 V V w 0 5 V t 5 6 6 6 t A A a C t 5 C [ 5 8 a 8 > > 8 a a w 7 p Z Z Z V V 3 D h h q.S W Z w Z V 7 7 5 8 8 8 w 5 6 t t 8 t w w 6 > 8 a 8 a a t 8 8 8 t t 8 a t 8 8 t t 8 w 6 8 6 > 6 8 6 0 w w C 5 C V t & w 8 t & 8 5 6 > , 8 8 6 , > & , : $ $ * : : : : : : , , , 6 6 6 8 8 6 5 5 5 5 , , , < < , , , 8 6 > 6 6 8 t a > r 8 > 8 8 , > 6 6 6 6 , , > > , , > > > 6 8 r 6 , , * * * * * > 8 6 > 5 > 5 y C 6 t 8 t a 6 t 8 > 6 8 6 8 r 5 > 5 6 8 8 8 8 8 , , , , , , , , r r 6 , * * * * , $ > C C 6 * r , & $ * 6 r r 6 t 8 6 5 6 8 t u C 8 & & 8 u 8 & 8 t t 8 > & 6 u 6 6 8 8 6 > 6 t 5 6 w 8 8 8 8 a C 8 8 a t a C a 5 6 8 6 5 > & & & & $ > : > : , , * $ * * $ $ * * * * * , , , : > 6 t u r 8 6 6 , 6 8 8 6 , 6 6 , 6 , , , , , 6 , > > , 6 , , 6 r 6 , > , 6 6 , , , t 6 , 6 > 8 > 8 & 8 a 8 8 6 > > 6 8 6 > > 6 , , , , : $ $ & * * * * % % % % $ $ $ $ $ $ * * $ * * % $ $ * * * $ : < 5 8 y w 6 w 5 & > & $ , u , , * # $ , $ $ 1 y y e * , e , : : , , , * * , * * * * $ $ $ : : : * : : , * * $ * , * $ * 6 8 8 8 5 & & , 6 * * > * $ $ $ $ $ # o o % % % % % + + % % % # o o o % % % # o o o o # # # # # # $ : , , * $ $ $ , < , : : , * # * $ o # % % % # % o o % % % % 1 ",
"w 5 5 , # $ : * # % 1 . e : # t # > a $ = 5 & x.5 V a a t t { c.8 6 , , , , : $ $ $ $ $ $ $ $ $ * $ # # $ $ * * $ $ * 6 , * * * $ $ $ $ $ $ $ $ * * & * & = * 8 6 , & 6 , > r , 6 > & & * , * $ % % % % % % $ $ , , , , : * $ # > & ; > > > > 6 * r 8 5 8 t t y 6 6 6 6 8 w t t x u t u 8 & & 6 > 6 6 5 5 8 8 6 6 w t t 6 5 6 w 8 p w 5 5 a V t > t 5 & = = y t 6 8 a 5 8 t 5 t w V S C z z h h V h w v S w 7 h v w q h v h h v Z S v q h S G G o.Z v v V V h q S Q S v G V 5 w w 5 5 C A 5 = w # 5 5 a a > 6 $ 8 5 C A 5 5 a a w w w 5 w V S v Q q S g h o.S v Z 7 p p 7 w 5 8 8 a V t t t 6 & & w t t a a w w w t t w 8 w w 6 t V t 6 6 t t 6 6 > 5 6 5 8 8 & 5 w 0 C 5 C V t a C t A y A C C 6 , > 6 8 6 > # , : $ $ * : : : : : : , , , 6 , 6 6 6 6 5 5 5 6 , , , , < , , , 6 6 6 > 8 t x t > r 8 > r u 6 > 6 6 6 6 6 6 6 , , > > > > , 6 8 6 6 , * * * * , , 8 8 6 8 6 5 8 t > w t y a 6 8 w 5 8 t 8 8 t 5 8 8 6 5 > > 5 6 6 6 6 , , , , , 6 r 6 , * 6 6 , , * , d d 6 , 8 , > * > 6 8 8 6 t 8 6 6 5 6 8 w a w 5 5 8 8 6 > 6 6 8 6 5 5 5 5 t 8 6 8 6 5 6 w 5 5 w t w w w a a w V C w w C A C C C a 8 8 6 8 > > , 6 , $ $ , , * * , , * * * * * * : , , , , > 6 8 8 6 , , 6 , 6 8 8 6 , , 6 6 6 , , , , , , , * > , , > , 8 u r 6 6 8 8 6 6 6 , u 6 > 6 > r 6 8 $ 5 t > 5 5 > & & 5 6 > > > , > > * $ $ * * : * % % % % % $ $ * * * $ $ $ $ $ % * $ $ $ * * : $ : < , 6 t 6 w t w w a 8 , r * $ * $ o $ * # $ * * * * $ $ * , , : , , , : * $ , e , * * : 1 * : : $ * , : $ $ $ * , * * , r t 8 w 6 & & 6 t $ * , , * $ # # $ + o + % % % % % % % % % % + o X o # % # o # # o o # # # # # # $ > , : $ $ $ * : , , $ * : * $ * $ o # $ * $ # * o o $ * $ % 1 ",
"w & 6 C r * $ $ o $ 1 . u u > J > # & # C [ & e.V V t 8 6 t 8 6 a C A u , * r C $ $ * $ $ o o O : $ # # $ $ * * * * , 6 * $ $ $ * $ $ $ $ $ $ $ * $ * , & $ * y 8 , $ 6 > & t 6 6 > $ & * , * $ % % % % % % $ $ $ $ # $ * : * & > ; > , , > , 8 > 8 6 & 5 8 8 y 6 6 6 6 8 w u t u 6 8 V t 5 5 t t a t w w t w 5 5 8 t w 6 5 w V 8 p w 5 6 8 8 5 6 w 5 t t , e 8 6 8 a 8 t A w V 0 0 6 w S D z 9 C w w w w q w V 5 V V 7 w S V 5 h Z G S S D v 5 Q v q h Q o.D h v o.Q S G h 5 V A D 6 5 C 8.A 8 8 C 6 a C a A 8 6 $ t A 6 6 A C 6 C C w q V C q S 9 q 5 9 F b q V > 7 7 7 p 8 t V t w 6 8 8 t y w A V 6 8 8 6 a 6 t a t t a t 6 8 a t 5 > 6 8 5 6 5 6 8 8 a t & 6 8 5 V 5 A V w t 8 & t 8 C 8 t C r , , r d r , , : $ $ * : : : $ > : : , , , , 6 6 6 6 5 5 5 6 > > , , , , , > > 6 > > 8 V a 6 5 t 8 , u C r , , , , , , > , > , , , , > > > * 6 6 , , * , , , = 6 8 8 t 8 5 8 6 = 8 t y u & 5 t 8 t a t t t 6 w 8 6 > & > 6 8 8 8 8 8 8 < 6 , , 8 6 * , 6 r < r 6 , * & * , 6 8 8 8 6 6 , 6 6 t t t t t t 8 6 5 t A C 8 & 5 8 5 5 6 8 t t 8 & V 8 6 8 w 8 8 8 6 w V A C p V C 5 7 V C q q Z 8.C V a 8 6 5 5 6 > , 8 r < & & : , : , r r , * $ * * * , , < , , , , , > > > , , : , 6 6 , , , , 6 6 , , , , , , 8 6 , 6 , > 6 s 8 6 , , 6 6 6 , 6 , t , > , , t 8 t $ > 8 & , , 8 > * , 8 6 , * : * $ $ * : : : : : * % % % $ $ o * 1 : * o o o $ $ $ $ $ $ $ * , * : < > 6 8 5 6 6 5 w a 8 & > $ $ * * $ * , $ 1 : * * : 1 : : e , * $ $ * : , o * e < $ # : u : : * $ $ , $ o # $ , , * , e r 5 6 8 6 > & > 6 $ * , , * # # o % $ # $ % % % * % % % % % % % o X X o o o # % % $ $ $ $ # $ $ $ $ : , * $ # $ : * : * $ $ : : $ * $ o o $ * $ o : o o $ $ o $ < ",
"y > t u 8 8 # # e , 1 # : O : * * & > 8 6 > t [ t > > w 8 & > t 8 & y J y u r # # # $ * $ o o * : $ # % * $ $ $ % * * * : , , , * * * $ % $ $ $ $ $ * , * * , 6 * * * 6 e 6 , 6 * * * * * , , , * * : * * * * $ * * * * : : * * , * , r 8 * & , 6 6 6 6 6 6 8 8 8 5 6 t t & & 5 6 8 8 5 6 8 a t 5 5 6 w V V w 5 C t 0 6 0 w t V 8 8 w w 8 w t w 5 a C y 8 > 5 C 6 w 8 6 > 6 V A 8 6 0 t V t 8 w 6 5 5 5 5 w w w 5 V V 7 w A Z q G S G 9 q h Q h 9 8.S 9 h z h Q m F h S D q v D Z v q 7 w V 8 5 w.= V A 5 8 w 8 & 8 C t 5 & w A w 8 C V w 5 w Z q w 9 q V q 5 Z v w G Z 5 6 C 6 6 t t 6 > > 8 a w C A w 5 w t t t V t 8 6 8 t w 8 6 8 a 5 > 6 6 8 6 > > > 6 8 8 & 6 8 6 8 a t > 6 8 6 > 6 a t > 8 d s d < , : < : < : # o * < < > > > , , , , > 6 6 8 8 6 6 6 6 6 , , 6 6 , > > 8 6 , 6 8 8 6 > 6 d a r 8 r 6 $ 6 , > 6 r r 6 > , 6 6 , > > > > & > , , , , , > 6 C t & 5 , , a 6 6 6 6 8 6 6 6 8 6 8 6 > & 6 s 8 6 6 , 6 , 6 , ; , 8 r 8 , , < > > : : , , , , , : * * : , 6 8 u > 5 & & 8 8 V > 6 8 a A t > > 6 a a 8 6 8 8 * 5 , 5 , 5 , 5 , 5 , 5 , 5 6 t t 8 5 w S C q q V w h V 9 Q s.V S C V A 8 w V 8 8 & & > , , , 6 6 6 * $ * , , , > , , , , , , , , , , , , : , < r $ : 6 r , * : < r 6 , > > > , 8 , , , , , , , , r , * > , > > , * 8 6 8 > u , * 8 , , 6 6 , 6 8 * * * > : > $ $ , : * $ $ $ * * # $ * * * * * * , * * $ $ * * * $ $ $ * $ $ $ $ $ $ * * > 6 u C t 8 8 8 8 5 5 a < : u : $ : # $ : * * * * * : < * 8 6 $ # $ * # $ * * * * * * * , < , $ $ * * $ $ * * * $ * 6 r 8 5 , 6 5 > , 6 , > : > * * $ $ o X # $ % $ % : $ $ $ $ % $ % % # o # # # # # # # # # # # # # $ 6 u 6 $ # * , * * 6 e 6 * $ * * * $ o o o o O O * o X o $ : * $ ",
"A & * 6 r u , 8 $ $ < $ 1 $ < $ > & > 8 8 & $ = t 8 8 w t y y y 8 = & 6 = & 6 $ , * $ * * $ $ $ 1 * $ * * $ # $ $ % * * * * * * * * * * % % $ $ $ * * * * * : , * * * , 6 , * , , * * * * , 6 e * * * * * * $ $ * $ $ $ $ * * * , * , r 8 > * 6 6 , , , , 6 6 6 & 6 8 8 8 8 8 8 t t 8 6 5 8 8 5 w w 6 6 6 6 w w w w 6 6 w w w w w w 0 0 w w w w w w 5 6 a t 8 8 5 w t w 6 6 8 6 6 6 w t t t t a 6 6 5 5 5 5 5 5 w V V v v C Z C h h G h S G 8.h Q u.( h Q Q x S D q.W D Z v S Z G G A V p V w 5 a # 8 V 5 5 5 = 5 t C w 5 5 5 6 p 8 a C C 8 q q q V v 9 w v w w v S V w 8 t t t 6 6 6 t a C d 5 a t t t t 8 t V 8 8 t 8 w V C V w 6 8 8 5 8 8 6 8 8 6 6 6 , , , 8 t t 6 6 t 8 > 6 6 8 t t 8 6 > , 8 r < , : : < : < : $ $ : < , > > > > , , , , 6 6 6 , , , 6 8 , 6 6 6 6 , > > 6 6 , 6 8 r 8 6 , r t 6 6 8 6 * 6 , , 6 r r 8 , 6 6 6 , > > > , * > , 6 6 , , > > a t , 8 6 > 6 6 6 6 6 6 6 , , r 8 8 t t r t C 8 6 6 6 6 6 6 6 ; ; > , , , , , > > > > > , , , : : * * > : > > > > 8 8 8 8 5 8 V V 8 8 8 6 > 8 8 a a r 6 6 , * , , , , , , , , 8 8 8 6 6 6 r u C w h C V w v o.S v S h h v q o.V t A 8 w V 8 8 8 8 8 6 , , , , , * & > > * & & > > , , , , , : , : : : : : : < : : : < , : , u , , , 6 , , , : , , > , , , , , 8 > $ & > > 6 8 & , * 8 > r > > 6 , , 6 6 , , < * * : : : * $ $ : : * * $ $ $ * $ * * * * * $ $ * $ $ $ $ * * * $ $ $ * * $ $ $ $ : , , , 6 r u > , > 8 t 6 & > $ $ : # o * # $ $ $ * : * $ $ * 8 5 5 6 6 , * * 6 6 , * % $ $ * * * * $ * , , * * * , , * * * , & & 6 r 8 , * > , , * * $ $ # # $ # # $ $ $ $ * $ $ $ $ $ $ $ $ # # # # # # # % % % % % $ $ $ $ * * , 6 6 * * * * , 6 , * * * : % O O O O O $ $ $ O o $ , < > & ",
"a t d > & 8 $ X , $ < $ 1 $ : $ , & & 6 8 8 t C 8 8 6 > 6 8 6 # t & * * # & 6 , e * $ $ * $ o o , * $ * * $ $ $ $ $ % * * * * * * * * * % % * $ $ * * * * * * * 6 * * * , * * , 6 , * * * * 6 e * * * * * * $ $ * * % $ $ * : < , * , r 8 , > 6 , , , , , , , 6 * e t 5 5 t t 6 t a t 8 6 6 5 > w t w w 5 5 w t 6 6 6 w w w w 6 z w 0 0 w w w w 8 5 # & t t 5 8 6 w t w w w 6 > > w t 8 6 w t t 8 8 8 8 w 8 6 5 t t V C V v V G Z C 8.V G S S 3 z 8.D 9 v S h S S q.W v v v Z V q V A v w V V w C C w w w w V w w C a 5 5 8 w & 8 p V Z a 8 w w p G o.v q D G 5 q G w > a 8 & t C t 6 8 t a 8 5 C 8 6 a V w 8 t w t t w w t t 8 w 8 8 w 5 t a 6 8 8 8 6 6 , , > 6 8 6 & 5 t y 8 t 6 8 a t > & 6 , , , , , , , 6 : < < : * * : : > > > > , , , , 6 6 , > > , 6 r , , 6 6 6 , , , 6 , > , 8 r t r , 8 8 6 6 r r 6 , , , 6 8 r 8 6 6 6 6 , > > > , > > , 6 6 6 6 6 > r 8 6 r 8 > , , 6 6 6 6 6 , , 8 6 6 r u u t u 6 6 , , , 6 , , , > ; ; ; > > > > > > > > > , , : : : , : : * & $ & a t 8 8 5 8 w w 6 5 8 5 6 a 8 8 8 t 8 6 , 6 , , , , , , , , 8 8 8 6 6 6 8 r V w w V w 5 v o.Q 9 v G v g v s.C V A t w t > , & , , , , , , 6 6 , , 6 6 > * > * * > > > > > > ; : , : : , , 6 r * $ , , * , r , , , , , , > > , , , , , , , , t , & & > 6 8 t > , > u 6 r , 8 8 6 6 8 8 , , , : : : : : * * $ * * * * $ $ $ * * * * * * * % $ $ $ $ * * * * * * * * * * $ $ $ $ $ : , , , 6 6 r r 8 t A a 6 6 6 : r * * e , e $ * : : * * $ $ t > , y s 6 * * * * * $ $ $ * * , * * * * 6 * # * , e e 6 * * , 5 5 6 r t 6 , , , , : * $ # o o $ # # $ $ $ $ * $ $ $ $ $ $ $ $ % % # # # # % % % % * % % # # $ , * * r e $ # * * * , , * * * , $ O O $ $ * $ $ o o # : 8 8 : # ",
"# & r > & > > s 6 $ $ X * O : : 6 > & # o o & t a a t t t t 6 & 8 8 8 6 5 6 6 , , * $ $ $ $ o X * $ $ $ * * * * $ * * * * * * * * * * * * % * * * * * * % $ * * 6 * * , 6 , * , , , * * * * , 6 % * * * * % $ $ * * $ % * * : , , > , 8 8 , , 8 > > > > > > , , 5 t 8 5 & 6 6 5 w 8 8 w 8 8 6 5 w t V V w w w t 5 6 8 w w w w 6 V w w w t w w w > 6 5 5 6 & > a 8 w 8 6 w a a w 6 a a 6 > 8 w 5 5 6 6 8 w 8 8 w V V p w w w w h w 0 V 7 S G 8.h w Q Q h h S D Q h Q h g v v S v & w V q 5 V Z V w G 5 5 w 5 V w V C 8 > 5 V V 5 V a p p a V Z A v G 8.Z 9 Z o.q i F p 7 w 8 & 6 C y 8 6 5 > 5 8 a w w t t 6 5 6 8 t t w 8 8 6 5 6 w 8 8 5 C C 5 > , , , , 6 6 8 , 5 , & 6 t a t a t 8 8 6 & 6 u 8 , > , < 6 6 8 , , , * $ $ * : , > > > > , , , 6 6 6 , , , 6 8 , , , , , , , , 6 , > > 6 8 r 8 6 8 r 8 8 t t 8 > > > , 8 8 6 6 6 6 6 , > > , , > > , 6 6 6 6 6 r r 6 , 6 8 6 6 , , 6 6 6 6 , , , , , 6 8 8 8 8 6 , , , , , , , r 8 , > > > > & > > > > > > > , < < , , , , , > > > t 6 > 8 6 a 5 w 8 w t 8 6 a t 6 6 t r > * 8 , , , , , , , , , , , , , , , 6 5 5 w C v 5 q V Q 5 h 0.o.S D o.C t A a t t > 5 = & * > * , , 6 , , 6 8 6 , > , & & * * * * > > : : < < 6 6 8 r C , & 6 8 & & 6 8 8 , & & > 6 6 , , , , , , , , u 6 > > , , 6 8 , , > s 8 8 > 8 r 8 8 r 8 6 , < , , : : : * $ $ * * * * $ $ $ * * * * * * * * % $ * * , , , , : * * * * $ $ $ $ $ $ * : : : , , 8 8 > > 8 8 > 6 * * < $ $ , $ $ $ * , , : , , , 5 > 6 u u 6 * * * * * $ $ * * : 6 , * * , e * # $ * e e e , , , t t 8 6 8 8 r r 6 6 , * $ $ # # $ # # $ $ * * : $ $ $ $ $ $ % % % % # # # % % % # $ % % # # # $ e , * , * $ * e * * , , * * * * $ $ $ $ * * $ O o # $ : 6 8 , # ",
"r $ & 6 6 # & c.< # $ o < $ 1 r C y t t 8 6 6 8 8 5 6 y y 8 6 t 5 t 8 , , , * $ * , < < : * $ $ $ $ $ $ $ * * * * * * * : * * * * * * * * * * * * * * $ $ $ % * * $ * , 6 , * * * * * * * * * * $ $ * * * $ $ $ $ $ $ $ * * * * * > , 6 6 , , 8 > > > * > , , , t 8 6 8 6 & > 6 8 8 8 w w 8 8 8 w w t z t t t t 6 w w w w w w w z w w V V w w w 6 8 t t 8 & , A 8 8 6 6 8 V a 8 w a t 5 6 t t > > * & > 5 8 8 8 8 a w 5 w V w 5 t 0 z 7 V C 8.V V Q Q h h S S S S S 9 h G v S S v V V w w V V w = A w 8 A w w 5 w t 8 5 5 t V 8 ` C w 8 A 8.G C w v o.G 9 q F v v v G o.w w V t & > 8 y a 8 5 8 6 a V w 6 6 6 6 8 8 8 w w w w w w w 8 8 5 V C > > > , , , 6 r d 8 8 6 5 6 8 6 > 8 y t 5 & 5 t t r , & > , , , < r 6 , * $ $ : 6 , , > > > , 6 6 6 8 8 8 6 , , , , , , , , , 6 6 8 , * > , 6 6 6 6 8 r r 8 r 8 6 > > > > , 6 6 , 6 6 6 , > > , 6 , > , 6 6 6 6 6 d 8 6 6 6 8 r 6 , , , 6 6 6 6 , 8 8 8 6 , 6 8 8 6 6 6 , 6 6 6 6 8 < , , < , > & , , > > > > > , < : > > : , 6 6 6 > 8 & > t 8 t w a t t t 5 & 6 C 8 8 u 8 $ # , , , , , , , , , * * > > > > , 6 5 w V Z V w w v D w v o.D v S w w w V t t V 8 t 5 6 6 , * * * * & & > , , * * > * * & & * * > > : < 6 r 8 8 8 r A 8 6 t a 8 5 8 8 r 6 * & , 8 6 , , , , , 6 6 6 8 > & > , , > , > , * d , , $ , r 8 8 r 8 6 , < , , : : * : * * * * * * * $ * * * * $ * * , : * * * : , , : * * * * * * $ $ $ # $ $ * > : , 6 8 6 t 8 5 8 8 5 8 * $ 6 * * < $ $ & : , * * , 6 6 = 8 u r 5 5 , * e e u u 1 : * * * * * * 6 u e * * , 6 6 , * , 6 y t 8 6 8 t r r , , : * $ $ $ $ * $ $ $ $ * * * $ $ % % % * * % % % % % $ % % % # # $ % $ $ % * # , 6 * * , e e , , , , * * * * * % $ $ $ $ O o # $ > : 8 r 6 * ",
"r u t > u d # > r * < : u $ * $ s 5 # # , 8 5 = 5 $ * r 8 $ = 8 > t 5 # = * $ * # * e , * * $ $ * : : $ $ $ $ $ * * * : : : * * * * * * * * * * * * * $ $ $ * * # # # * , * $ $ $ * * , * * * * $ $ * * * * $ $ * * , , , , , : * > , , , , , 6 > > > > > , , , t 5 5 t 8 > 5 t 8 8 8 w w 8 8 8 z w w 0 w t t z 0 w w w 6 6 8 w w 0 0 h t 8 5 6 t 8 , 8 t , * t 6 8 w t t t 8 > w 8 w 6 w V a 8 6 , > > 5 6 6 6 8 8 8 5 w C V 5 A x G z C w V 5 S S h g S o.W q D S 5 v Q v h v Z V h w w V w 5 6 G C V A V t t > w w w w 8 5 5 7 V G Z w q w V v v G Q g 9 v o.v 9 G 8.w 8 A x t 5 > t C a 8 6 5 a C w 6 t a t a t 8 t t w w 8 w w 8 w 5 8 a , 8 8 8 6 , 6 r s 5 6 6 6 8 8 6 > & t a 6 > 8 8 6 r > & > , > > , u 8 < , : : < u , , > > > , 6 6 6 8 r r 8 6 , > 6 6 , , , , , 6 8 , > > > , , > , 6 8 8 8 6 , > > > > > , , , , , 6 6 6 , , , 6 , , 6 6 6 6 6 6 r > 6 t 8 8 8 > , 6 6 6 6 6 6 6 8 r r 6 > , 6 8 8 8 8 8 8 8 8 r > > , , 8 8 , , , , , > > > , , : > $ $ > , 6 8 , > 8 > 5 a 6 6 w V w 8 w 5 > 8 t 6 6 r 8 & * 6 6 6 , , , , > > * > , , > , , 6 8 8 w p w w v Z h S Z G v h W Z C w C t t t & 6 > > , > * * * * * & * , 6 , > , > > * & * > , , , , 6 6 6 8 8 8 t 8 8 p V p w 7 > 8 r 6 6 8 6 > , , , , , 6 6 6 6 > > 6 r 8 8 8 , 8 6 a > 6 & , 8 , , , , > > , , , : : * : : : * * : : * * * , : * $ $ : , , : $ $ * * $ $ $ $ * * * * * $ $ $ # # # # $ : 6 6 8 C C a C a 8 t , * r , 6 u , , $ : : $ $ , 6 6 = u C 8 & 5 6 , * , e r e 1 : * , , , & 6 r 6 * , 6 6 , * * , 5 6 6 6 6 8 t 6 > , * $ $ # # # # : : * $ * * % # % % $ % * % % * % % % $ $ $ % % # $ % % % * * , # e y 6 * , * # 6 , , * * * * * : % $ $ # # o o $ , 8 , 8 r r , ",
"o t t $ C e., o u : < , u $ # o e.J r , , 6 > & u 8 6 r 8 , > 5 & t 6 $ & 5 * , * , : $ $ $ $ # $ , , $ $ $ * $ * * * * * * * * * * * * * * * * * * * $ $ % * : * # $ * * * $ $ * * * * * * * * * * * * * * * * 6 6 6 , , , 6 5 * , , > > > , , , , , , , , , 6 5 5 6 8 8 8 w t 8 8 6 w 8 6 8 8 w t t w 6 6 w t w t t u w 8 w w z 0 5 w w 5 5 w t 6 & 8 u 5 = 8 8 t t t 8 w 6 & 5 6 6 8 w w 8 8 8 8 8 8 8 8 6 5 6 5 5 8 w p w 5 5 3 C u C w G h S G Q W W q.q.F v D g v S q w q w q 5 w V w w 5 a t w & 5 8 5 C 5 6 8 t w 5 5 w & V 8.Z 5 & q V Z G G D F v b $.v v V Z z w y C J u 6 8 t w 8 8 8 t t w w 8 a V C t t t t 8 8 t w w 8 8 5 5 8 5 8 8 r 8 , , 8 t 6 5 6 8 8 t r 8 > 6 r 8 6 6 6 6 8 > & , 6 * > 6 r 6 , 6 , , 6 u 6 , > > > , 6 6 , 6 8 8 6 6 6 6 6 6 , , > > , , 6 , > > , 6 , > , , , 6 6 , > > 6 6 6 , , , , 6 , 6 6 6 , , 6 6 6 6 6 , , , , , 8 & 6 t 6 , 8 > 6 6 8 8 8 8 6 6 6 6 6 , , 8 6 > 8 8 8 6 8 8 8 8 , , 6 , , , , 8 6 6 , , , , , , : $ * * , , 6 6 , 6 a 5 5 a 8 6 t w 6 5 8 8 5 8 6 5 , 6 6 > , r 6 6 , , , , > > > , , , , , , 6 t w 8 8 w w V A w G v S D v Q o.A t V t 8 6 $ & = & * * * * , , 6 > > 6 8 6 6 6 , > > > > , , 6 5 5 6 6 6 8 w t w w w w v v i 7 & 8 r 6 6 r 6 & , , , , , , 6 , r 6 , 8 r t t u , t t s , t 6 8 6 > * > > & > , , , : : * : : : * : , , , * , , < * $ $ : , , * $ $ $ $ $ $ $ $ * * : : : * * * # # # $ * : , > , t 8 6 8 8 6 6 * $ , $ $ 6 * * $ , 6 * $ , 6 * , 8 t t 6 , , > # $ * : , , : , 6 8 6 & & * & # 5 6 8 6 * * 5 6 5 6 6 5 6 t 6 * , , $ $ # # o o * * * $ * , * # $ $ $ % * * * * $ $ $ $ $ $ $ $ # $ % % * * * : * e u u , * $ # , , * * * * * * : : $ # # # # # $ , 8 , 6 r 8 * ",
"[ a 6 6 C , X A , o # # r $ : : # 6 s a 6 > > 6 , * $ # * 6 , & # t 8 & 8 8 * , 6 6 * $ $ , : $ # * : $ $ * , : * * * * * * $ $ * * * * * * * * * * * $ $ % * , 6 * * * * * $ * , * * * * * * , * * * * * * * * , * * $ $ $ * * * , , > * > > > , , , , , 6 6 6 = 8 8 > > w w 6 w 6 5 8 8 8 8 a 6 z A A t 6 6 w t V V V t w w w C w 5 w w 5 6 t 8 w 8 a C 6 > C a V t 8 6 w w 8 & > 5 8 5 & & 5 6 6 6 8 8 8 5 > 6 > 5 w a 5 > 5 8 6 C 8 8 5 V w h Q u.o.g v F m q o.S v v h v q w 5 w C C w 5 5 w 5 V 8 5 8 & t V w 6 w w 5 w A A C w 7 p A Z v Z o.F v F S v o.o.o.V w D w 5 A 5 6 a A V 6 6 a V 8 5 w t 8 8 a w 6 6 w t w a A t w 8 a 5 > 6 5 > 6 8 6 , > 6 8 a t 8 8 8 8 6 6 t 6 , 8 6 & > t 8 > > 6 8 > > r 6 > > 6 , * * 6 6 , > > > , 6 6 > , , , , 6 8 8 8 6 6 , > > > , 6 , > , 6 6 , > 6 , , , , , 6 8 8 8 8 6 , , 6 6 , 6 6 6 , , 6 6 6 6 6 , , > , , u & > 6 $ & r 8 6 8 8 8 8 8 8 6 6 6 , , r a 8 * , , , , , 6 6 6 r r 8 6 > > , 8 8 8 6 , , , , , , : , < 8 8 6 6 8 r C 5 > 8 w a C V 8 w a 6 & & a t r 6 > & & * 6 6 , , , , > > , , 6 , > > * > a 8 8 8 V C C A C G 5 V 0.v h w w 5 w 6 6 8 & 8 8 8 8 6 , , , , 8 > & > 6 6 > > 6 , > > > , 6 6 6 8 8 8 8 8 t a V G G v v F F w > 8 8 > * 6 6 > > > , , , , , , r , > > , 6 6 8 & t t d > u 8 6 6 > & * * * : 8 , : : $ : : : : * , , , , : , , e , * * : , : * $ $ $ $ $ * * , : : , , , , , , ; ; : < 8 r 6 , d s 6 & 8 a 8 t t 6 6 $ * r * , * e r , * 6 , $ 6 5 6 t t & $ * * * * * * * * * * , * * * * * * & 5 8 8 6 6 e r t 8 > & > 8 r 6 r 6 : $ # # o o # $ $ $ , u 1 $ $ $ $ % * * * * $ $ $ # # # # # # $ % $ $ $ $ * * $ * e 6 * , y , * * * * , , , : : $ # $ & $ $ # , 8 , , 8 , $ ",
"& 6 > $ > a 8   # 6 s # # s : X < , * , * $ , r u , $ * 6 r , $ 6 5 5 6 8 6 , > > & * : $ * : # $ $ * : $ $ & > # & , , * $ $ $ * , , * $ $ * * % , , * % : , : * * * * * * * * * * , * * , 6 e $ * , 6 , * $ $ , * $ * 6 r , # > 6 , & & , , * 6 6 6 6 , * & > t 6 5 5 5 5 5 6 t w 8 8 a a a 8 V 6 6 V A t w w t w 6 6 w w w w 5 5 7 7 w t z t 5 6 8 t 8 8 5 5 6 6 8 t a a t 8 t w 8 8 8 8 8 6 r , , < 8 s A a a t w 8 5 > > 6 t 8 t w 6 6 V h w v S G F v m m b 9 g D D V v h q v w w w 7 w & V w 5 5 a H C 5 w 5 w V G 8.a w 5 G G G G q 5 S q b +.v F b o.F q v 7 & 0 V w 3 x u 8 0 6 6 8 a t 6 6 w 5 5 w 8 5 6 t a a 8 6 5 > 5 8 8 6 5 5 5 6 8 6 6 , > , 6 8 5 & , 6 8 8 6 5 6 8 8 8 6 5 > , 6 8 8 6 , > > 6 6 6 , > > > , , , > > > , , , 6 6 6 6 6 , , , 6 6 , , , , , , 8 > & , 8 8 , , , , , 6 6 6 6 6 6 6 , 6 6 6 , > r r r 6 > * > , 6 6 8 6 , , 6 r 8 > & , , * > 8 8 8 6 , * * 6 r 6 6 > * & > 6 r , , 6 8 r r 8 6 8 t d 8 , , 6 6 > > , , , , > & , : : r r r 6 , 6 8 8 8 8 8 t 8 w 8 8 8 8 8 8 8 > 5 6 6 6 , > & , > > 6 6 > > , > > > > > > , > 6 8 6 8 a 8 w C Z C V v v v w 5 w w w 6 5 5 > = & 6 8 , * * , 6 > > , , > > * > , , 6 , > > , 6 > & * t y t w w C = Z 7 V o.m v > r , , , > r , 8 6 , , , , , > 6 > > 6 6 > 6 r 8 t u 8 6 , , & 6 6 6 6 , , : > < * # : < < * $ * * > , , , : > * > , : : : , 6 * * * * * * * * $ $ $ $ $ $ $ * : $ & $ , 6 6 6 6 8 8 8 6 6 8 t 8 > * , $ 8 # > & 6 6 > 6 6 * > 8 > a 6 > t & 6 , , * * > > $ $ * * * & 5 5 & = * 5 & t t , 8 6 8 6 6 6 > & > r , * # # $ $ $ # $ $ $ $ $ * * * * * * % * , , * # # $ * $ # $ , $ $ $ $ * , * $ * , , , 6 e 6 6 , * * , * * $ * : : $ $ # $ $ & , , , , 5 6 8 t ",
"> o & a t # # d u $ $ $ * : O : * * * , * $ * 6 * $ $ * , , , , $ = & > 6 6 r r 6 > , < * : : # * : < , * $ * , # $ , , : $ $ * $ * * % $ * * * % : : * % * , * * * * * * * * * * * , , * , , e $ $ * * * , * * * * * * , , * * , 6 , > * > , > > > , 6 , * * , 5 5 6 t y t 8 w w w 8 w 8 8 8 8 V w 6 w w w w t 6 w u w 0 w w z 5 0 w w w w w 6 t w 8 6 6 6 8 t 8 6 6 6 8 6 5 & t w 8 8 8 8 6 6 > $ : : & , 6 & t 8 6 6 8 w w w 6 5 8 t 6 w S C v v V F F W o.q.9 9 F +.D V G 8.v v w Z A w V w w w w 8 w 8 5 6 w 8 C t w w 8 A C 7 v w Z o.h G q v W G s.q.q.F D G V w z w 6 u 0 8 w u 8 w w 8 t 5 5 8 5 5 6 5 5 6 8 w w 6 5 5 6 w 8 w 8 6 8 8 5 6 6 6 6 6 8 r 8 5 > , 6 8 6 5 6 6 8 8 8 6 6 5 6 6 8 8 8 6 8 t 6 6 6 6 , , , 6 6 6 6 6 , , , , 6 6 , , , , , , > , 6 6 6 6 6 6 r , > 6 t r 8 6 , , , 6 6 6 6 6 6 6 6 6 8 8 6 , , , 6 6 6 6 8 r , 6 6 , , , 6 8 6 , , 6 6 , > , 6 , , , , , , 6 , 6 8 r 8 6 , > r 8 6 , , 6 8 r 6 8 8 6 > 6 8 8 , > > > , 6 6 6 6 < , < , : 6 r 8 r 8 6 > 5 6 5 a w w 8 8 8 8 t 8 8 6 > & > 6 r , > > , , > > , > > > > , , , , a a w 6 8 8 8 A A A Z Z Z Z h 5 8 t w 5 5 6 6 > 5 5 , , , , , , , , , , , > , , * > > > * * > , 8 5 5 8 8 6 5 5 8.5 o.q F o.v V & 8 , 6 , > r , 6 6 , , , , , > t 6 , 6 , > , 8 6 r r 6 > , > & 6 6 6 6 , , : : < * # : < : * * * * > , : : : : * * > * $ $ * : $ $ $ $ * * $ * , , : : * * * * : : : * * $ * > , , 5 6 8 8 6 5 a 8 , 8 & 8 # > & r r 6 6 , , 8 8 5 y 6 5 8 & , * * * * * > : 6 , , , 5 8 8 8 6 & u 8 8 r r s 6 8 6 6 8 6 6 6 r , * $ # $ $ $ $ : * * $ % * * * * * * $ % , , * $ # $ * * $ $ * * $ $ $ * * $ $ * * , , , , , , , * * 6 e , , , $ $ : $ # # # # , , 6 6 6 6 8 w ",
"& & 8 A d # o , s # o $ < : o 1 # $ , , * # $ , # $ : : * * < r 6 6 8 6 6 8 8 r 6 > , 8 : : : # $ : < , * * > < $ * : : : : : , * * * $ * , , * * : , * * * , , * * * * * * * * * * * * * , , e 6 , & & 5 5 * & & , 5 5 & * * 6 6 , , , , > > , & * , 6 6 , , 6 5 5 8 t y t 8 t w 8 8 8 8 8 8 8 w w w 6 6 w w 8 w w w w w w w t 0 w w w w w 0 5 t w 8 5 > 6 8 8 a t 8 8 8 6 5 & w w 8 8 8 8 6 6 , < u r , , 6 * 8 6 > 5 w t t 8 8 5 8 8 5 6 w w v v v v V F Q o.F S +.q.D h v S Z v 7 A G w p V V w V G A w w C A w V C C A C 8.o.q 8.v 7 V 5 F D v b m +.W +.o.Q b w h S h 0 C u z y u w 0 w w a 5 5 8 6 6 6 > w w w 8 8 8 8 6 8 w 8 8 5 5 8 8 > 5 , , > , 6 6 8 6 > 5 6 8 6 5 5 6 6 8 8 8 6 6 6 5 6 5 5 5 8 8 6 6 8 6 5 5 6 8 8 8 6 6 6 , , , 6 6 , , , 6 6 8 > , 6 8 r 8 8 6 8 , > , 8 8 6 , , , , 6 6 6 6 6 6 6 6 8 8 8 8 6 > , 6 6 6 , , 6 , > > > , 6 6 6 , 6 8 6 6 6 6 > 6 , > , 6 8 6 > > 6 8 t r 6 , > 8 8 6 > * > 6 8 6 6 6 > > 6 6 6 6 6 > , 6 6 8 6 6 < 6 6 : * , r , 6 8 5 5 8 t t a w w 8 8 8 8 t 6 8 t r 6 , , 6 6 , > , , * > , > > > , , , , , t t 8 6 8 5 6 V V w p C G A v q 8 w 8 5 5 6 6 6 6 5 > , 6 6 , , 6 , , , , , 6 6 , > > > , , , , 8 5 , 6 8 6 w w G 5 o.q v V v V & 8 , 6 6 , r , 6 , , , 6 6 , , 8 , > > , 6 8 d 6 8 8 6 , , , > 6 6 , , > > , , < * $ : : : : : * * : : : : : : > > : * $ $ $ $ $ $ $ $ $ $ $ $ , , , , * * $ $ $ : < , $ $ & > > > > 6 8 8 6 > t , & 6 * u * 8 = t t 6 5 , , t 8 5 t 8 6 8 & , $ * : > * * < r 8 8 5 5 5 8 6 5 = t 6 * 5 t C 5 6 5 5 8 t 8 8 r , * $ $ $ * $ $ * * * * * $ $ * * * $ $ $ : , * * $ $ * * * * * : * $ $ $ * * $ * * * * * * , , , * * , e 6 , , & $ $ $ # # # & , 6 8 8 6 6 6 6 ",
"A 6 # o # $ * , , * < $ : u * $ $ : < < * $ * 6 $ , < , $ $ : 6 5 5 > > > > * $ 6 & > , * * : $ $ > > $ * : : * * * * : : : , < * * * $ * , , * * , , : * : , , * * * * * * * * * , , * * , , 6 8 5 * 5 8 t 8 6 * 5 5 * * = * 6 6 * * 6 6 * * 6 * * , 8 8 6 , 8 t 8 6 8 5 , 6 w 8 w w w 8 8 8 8 3 w V t t z t 6 V t 0 w t t w 5 0 w w w w t t 0 6 6 6 6 6 5 > > C t 8 8 t t w 8 8 8 6 6 8 8 6 6 > * < 6 > , 6 & 8 6 > > 6 w 8 5 8 5 8 8 5 6 w 5 q w v v V V V v b q v Q o.o.Q v o.Z w V V w v w w 5 5 w V w w w 8 & 6 w V 8 5 w q & G Z q V v G b g N v N 9 F q.+.b 5 q D S 0 w x x u 8 5 w V C A 6 5 w 8 w w 5 8 w w w w w w 8 5 w 8 8 5 5 6 8 8 8 6 6 > > , , 8 6 5 5 6 6 6 5 5 6 6 6 8 8 6 6 6 6 6 5 5 5 5 6 6 8 8 6 5 5 6 8 6 6 6 , , , > > 8 6 6 6 6 8 8 r > , 6 8 8 8 8 6 6 > > , 6 8 6 , 6 6 6 6 6 6 6 , 6 6 6 6 8 8 8 8 6 8 r r 8 6 , > , > * > 6 6 6 , , 8 r , , 8 6 & 8 8 6 , 6 8 6 > > > , , , 6 8 r & , 6 6 > & > 6 8 8 8 6 6 8 6 & 8 6 6 8 8 8 > & : : 6 u r , , 6 * , 5 > 5 8 a a w w 8 t 8 8 8 6 5 6 8 t r 8 > & 6 , > , > * > , , , , , , 6 6 6 & 6 6 8 t 8 5 8 V w w V Z V w 5 8 6 6 5 5 6 6 6 6 5 , 6 6 , , , 6 , > > , , 6 6 6 , > > , 6 , , 8 6 5 8 6 6 6 w V > S q w w v p > r , 6 6 * 8 , , , , , 6 6 6 , 6 , > > 6 8 r u 8 8 r 8 6 6 6 6 8 6 , > > > , , < : $ : : * : < * : : : , , : : , , : : * * * * $ $ $ $ $ $ $ $ $ * * , : * $ $ $ > < < , , , 6 , , 5 8 8 t w 8 t > & 6 & a > t & 8 8 & , , , 8 w 8 8 8 8 6 , 8 > > : > : * : : u t 8 5 5 & & & # 5 & 5 8 8 y 5 & 5 6 8 8 8 6 8 , * $ $ * * * $ $ $ $ * * $ * * * * $ $ * : , , * $ $ $ * : * $ : * $ $ * * , , * * * * * * , , , * * * , , * $ , $ # o # $ > , > , 6 8 6 6 6 6 ",
"6 # , e.c.J : $ # : u # # r * O $ : , * $ $ : e * * * $ $ $ $ * > > > 5 8 C t , t > > , * $ : $ > > & $ > 8 , # , > > * > > > : , , * * * 1 : % * * * : * * : , * * * * * , * * * , , , , , , 6 & & * 6 t a y t 6 5 & * * & > 5 , & & , , & & , > > , 8 6 , , 6 t 8 6 6 5 & > 8 w w 8 8 8 6 6 6 5 t A C C A A t t t w w w w w 0 w w w w w a t w 6 6 5 6 6 6 , & a 8 8 8 8 t 8 w 6 6 6 6 8 8 6 6 < * : : > 8 r > , 8 8 5 > 6 6 > 5 5 w p w 8 V w 5 w v v S G D V v 9 9 F o.q.o.h G o.w w w V A w w 8 8 5 6 t w 6 V V e.8.C w 5 G v v q Z S v +.g q q W X.+.g N +.0.o.V h S S 0 5 5 8 w 6 5 t A A A 8 5 8 8 w t 6 5 6 8 w w 8 6 6 8 8 t t w 8 8 8 8 8 r 8 6 , 6 6 8 6 6 5 6 6 6 6 > 5 5 6 6 6 6 6 8 w 8 8 d 8 8 8 6 6 8 6 6 6 6 8 > > , 6 6 6 6 , 6 6 6 6 6 6 8 8 6 6 , , , 6 6 6 8 6 6 6 8 r r 6 6 6 6 6 6 6 6 , 6 , , , 6 8 8 6 6 8 t d a a t r > > * > 6 8 6 > 6 r 8 > * 6 6 > 6 r 8 > & > , > , , > > > , r u & > 6 , > > , 8 8 t y t t t 8 > t 8 6 6 8 8 6 > , : < r u r 6 6 , 6 6 > > 6 8 8 w 8 8 a t w 6 5 a 8 > > 6 8 6 , 6 , > , , * > , , , , , 6 6 6 6 > 8 8 t a 8 5 8 A A V C C w 5 5 6 6 w w w 8 6 6 5 5 6 r , * * 6 6 , * * > , , , 6 , * * > > > & 8 6 6 6 8 > > 5 8 > C w w w V t 8 u , 6 , & 6 , , , , , 6 6 6 6 r 8 6 6 6 6 > * 8 8 8 8 8 6 6 8 6 6 , > > , , < 6 , : : : : : 1 > > : , , , , : > > > > > > : : * * * * * * * * * : , , , , : * $ $ * , 6 8 6 , , 6 8 8 8 8 t a C 8 5 8 > t $ 5 > 8 5 & 6 8 6 6 w 8 5 8 6 > 6 r , > * : , , $ # y y t 8 5 5 5 5 & > & t V 6 w 6 & 8 t t 8 6 6 8 , * $ $ * * * $ * * * , * $ * , * * % * * : , , * & $ $ * : * $ $ $ & $ $ * , < , , , * * , , , * * * * * * * # , $ o & , , , 6 $ & 5 6 6 6 6 6 ",
"> & $ # $ > > & * # : # o $ o : $ * * $ # $ * , * * * * * * * , 8 8 8 8 a A C r C 8 < r : $ > $ : : $ & , r 8 & , > > > > > > * , 1 , * * , : * * % * * * $ * , * * * * , , * * , , 6 6 , , , 6 * & & 5 8 r 6 , 8 5 = * & 5 > & * & * > , * * > , > , 6 , > > 6 5 6 8 t w 6 5 8 8 8 8 8 5 5 5 5 w t t w w V C V 5 w C t 6 5 t A C V w 0 w w t w t 8 > > 5 6 8 8 a t 8 8 w 8 w 6 6 6 6 6 8 8 6 5 d < : : : r u , > 8 8 6 > 8 8 6 5 > 7 w 5 7 w 5 w V V w h S S v S h b D Z Z Z w v Z w 5 w C A 5 8 A A w 5 w a w 8 6 V w w w 8 C o.s.V G v 5 Q q o.b F N X.g v m v Q G h h 0 0 z 3 u C u w w w 8 C 6 5 8 6 8 8 8 5 6 w t t 8 8 6 5 w 8 8 8 5 5 6 5 6 6 , , , , 6 6 6 6 6 6 6 6 8 6 6 6 6 6 6 6 6 8 8 8 a a a a 8 8 8 8 6 6 5 6 6 > , 6 8 8 8 8 8 , , , , 6 , , 6 8 8 6 , > , 6 8 6 6 6 , 6 8 8 6 6 6 6 8 6 6 6 , 8 6 , , 6 8 8 6 8 8 r t t t 8 6 > > > , 6 6 , > 6 8 6 > > , 6 , > 8 8 * $ & > > 6 8 8 8 8 6 6 8 6 6 , > * , r a & 6 8 t t t 8 5 a r > > 8 t a a u < : , 8 r r r , 8 8 8 8 8 t t a w w 8 8 8 8 8 a 8 6 8 r r 6 * , > > , , > > , , , , , , 6 6 6 8 8 6 6 8 6 5 a V t v C V 7 5 7 w w 8 V V t 8 8 5 5 r r 6 $ * 6 6 , > > , , , > 6 , , > > > > > , , 6 8 t 8 t a w 5 V w t 6 V 6 8 t , 8 6 $ 6 , , , , , 6 6 6 , 8 8 6 6 6 6 , & 6 6 8 r 8 , , 6 6 6 , , > , , , 6 , : , < : : : : > : , , , , , > > $ $ * > > > * * * * * * * * : , , : * * $ $ : $ $ * , < , * > , 6 5 > 5 w a y 5 & 6 & t $ & 6 8 5 > t t 8 6 6 6 & 8 6 $ , 6 , & & > 8 r : # 8 8 8 6 5 5 6 6 6 > = V C & & & 8 t a u 8 8 r 8 > * $ $ * * * $ e , 1 u , $ $ , , * * : , : * : $ $ & $ $ * * $ # $ $ $ $ $ : , 6 , , * * , , 6 $ * * * * * * * $ # & r d r , > $ & > 6 6 6 6 6 ",
"8 J A 6 , C d & , o $ : * $ X : $ * * $ $ : : $ : : : : : : < 6 > 6 5 & & 5 , & a , 8 d 8 > : ; $ , : $ > 8 8 > : > > > , , , : : , 1 * * , , , * $ * * * $ * , * * * * , , * * , 6 6 , , , , 6 8 8 5 5 5 * & & 8 5 & & * 5 & & & > > > > , , * 6 , , 6 6 , 6 r & 5 8 t t 6 6 8 6 8 w 8 5 5 5 8 t w 5 6 w w w w 5 w V w 6 6 z H z z w 0 w w w w 8 6 > > 6 8 r 8 a t w w t t w 6 5 5 6 6 8 8 6 > , # # # o $ , # > 6 6 > 5 8 8 5 7 5 7 7 > > 5 & V C C w h C z 7 5 5 h S V D o.G q v 5 w V V C 5 8 w w 6 5 > 5 6 A w w 5 C e.A C 5 o.G D h 5 W +.u.X.W c m 9 g g q h h h S z z D z H ( D w w w 5 t 5 6 t w w 8 8 5 6 w a a a t 8 5 6 8 8 5 > > 5 > 5 , > > > , , > 5 6 6 6 6 8 8 8 8 6 6 6 8 8 8 5 5 5 7 8 8 8 8 w w t 8 6 6 6 6 , 6 6 8 8 8 8 6 , 6 6 8 6 6 , , 8 6 6 , 6 6 8 8 > 6 , > , 6 6 > 6 8 8 8 6 6 6 6 r 8 6 6 6 8 8 6 8 8 6 8 8 6 , * > , 6 6 , , > > 8 6 , 6 6 , , 6 > 6 6 * & , , & 6 8 r r 8 6 6 6 r 8 , * * , 8 u $ > 6 5 > 5 6 5 t 8 > 5 w a a t r < , < , , , 8 > 8 8 8 t a C C w w 8 8 8 8 8 8 > 8 t a d 8 > $ > * > , 6 , , 6 , , , , , , , , , 6 , > 8 5 5 a 5 5 w C V 5 5 w w w w V a w 8 t 8 5 6 r r * * 6 r 6 , , 6 6 , * , , 6 , , , , 6 > > , 8 t t a A t 6 t 6 t > t > 6 8 , t r * 6 , 6 , , , , 6 6 , > , > * , r 8 > 6 6 8 u r , > , , , , , , , , , r : > < r 1 : : : : , , , , : , < : > > > : > $ * * * * * * * * * * * * * $ $ $ : : : : > : , > > > > > > 5 6 w 6 & = 6 5 C & 6 > 8 8 5 t t 8 8 8 8 > 8 8 $ > > 6 > $ > 6 r < , , 6 8 8 5 5 5 6 6 6 & u x 5 6 & t y t r t y r , * & $ $ * * $ $ 1 , 1 u , $ $ , : * * , , * $ $ $ > : & $ * * $ $ * * * $ $ * : , , * * * * * , # * , * * * * * $ $ , u d 6 > , & > 6 8 6 6 8 w ",
"r & # > 8 , & $ * # : < r r O $ $ * : * : < : # * : : : $ $ : , 6 8 8 & $ > 8 8 6 $ > d r , , > # , 6 * & , < : : > > , 6 8 8 , $ , 1 : * , 1 e , * * , , * , e * * * : , , * $ , , 6 , * : , 6 & > & > , 6 t u 6 5 * & & & & & $ : , * > 6 , * r 6 6 8 8 6 r a 8 6 6 8 6 5 8 a 8 w 8 8 8 6 8 w V w 6 t V w 6 6 V w 6 5 w t V V 5 6 0 8 w t t w 5 > > 6 t t 6 > w 8 6 8 w 8 8 6 5 5 5 6 8 8 6 > > $ : : # : 8 , > 6 > & > 8 8 $ 7 > 8 w 5 8 p w 5 p C C A Q D w v q h v h V V q v v w A 8.C V 5 A w 5 w C a w w w 8 V 5 5 V w 5 5 D D v V v 9 v v F u.X.W q m S o.h 3 S w.Q z D C ( ) D z C D A w 5 8 C a t t 8 > 5 6 w t t 8 t w w 8 8 5 5 6 8 8 t t 8 6 , , 6 > > 5 6 6 6 8 t t r 8 8 8 8 8 8 8 7 5 5 6 8 8 8 t t t w 8 6 6 6 , , 6 6 6 6 , > 6 8 r t r 8 6 , 6 6 8 6 8 8 8 8 6 8 8 6 6 8 8 6 8 8 8 8 8 6 6 6 t r 8 6 8 8 8 8 6 , 6 8 t d u r > 6 8 8 , > > , 8 > , r t 6 , 8 * 6 6 > 6 u 8 & , 6 6 6 , 6 6 8 6 , > > , , , > > 8 8 6 & > 6 6 > > 5 8 a y 6 & , , r r 6 & & * > 6 8 8 8 8 8 6 8 w w a t 8 5 > 6 8 t 8 > & > 6 * & * 6 6 , , 6 , , , , , , , , & , 6 8 a t w C 8 a A [ C 5 > 8 w 6 6 8 w 6 8 r 8 , , r r , * , r 6 , 6 6 6 , & & * > > > > , 6 6 < , , > > , 8 y 6 8 6 t 5 C 6 * 6 , a d > 6 , 6 , , , 6 , , , 8 6 > & > 6 6 & 8 8 r s u 6 > , , , , 6 6 6 , , r : * < r r , $ > : , , , , , : r 8 , : , , : * * * * * * * * * * * * * : , < < : , < , > > 6 r , > > > 8 8 8 5 V 8 6 y t A 5 6 = 8 8 6 8 6 6 6 8 a 5 C a $ > & 8 6 , : , , 8 8 8 t u t 8 6 6 8 5 w 5 w y t V 5 t t 6 6 t s t * $ $ # $ * * $ # * % * e , # $ , * % * , , * $ $ $ , , * $ * : * : , 6 , : * * , , , * * * * * , # * e * # # $ $ : > < r 6 $ > t 5 6 6 8 8 8 8 w ",
"8 8 5 8 C t > > > > , : < # J $ : # $ * $ : < $ * $ : , & > r r 8 > & t A t > 6 a & & 8 8 > > , 8 & = * 6 , * * , : : $ $ ; : : , , : : , , , , e , * : < < , : : < $ # r : # : $ # * : : $ : r 8 8 t 8 8 r 8 , 6 , & * = * * , * : : : : , < < > 6 8 6 > > , 8 6 6 8 w 8 8 t t t 8 6 6 8 t t t 8 6 6 8 t t w 6 8 8 6 6 8 t t t 8 t V t w 8 8 w 8 6 6 6 8 6 > & 8 8 w 8 6 6 8 w 6 5 5 6 w w 6 > & $ < < , * & > r , > 6 6 > 5 8 6 8 8 7 8 a a w a C w V V C w.A q G V v 8.S 5 v V V C z h z S D A 5 a w 8 V w 8.V G w V C v Q V & G Z Z h v q.o.S D o.o.F W W m o.v V Q S q h z 0 h h G Q V Z V w.G w 8 5 5 w V w 0 w w 8 6 8 t w w w w 0 6 6 t 5 5 6 8 8 6 6 5 6 6 6 6 6 6 6 6 8 6 6 w t 8 8 t > a A t 5 8 t t 8 8 8 8 8 8 8 t , 6 6 6 6 6 , , 6 , 6 6 6 8 6 6 > 8 a 8 5 8 8 8 5 6 5 5 8 t 8 > 5 5 5 5 5 6 8 r 8 6 5 6 8 t t r t t r r 8 8 8 6 , , , , 6 6 6 6 6 8 8 8 8 8 8 6 5 5 5 6 6 6 5 5 & > 6 8 6 , 6 8 , 6 6 6 6 6 6 , * , 8 6 5 > 6 r & , 8 r t r 8 8 6 8 8 6 > > 6 8 > 5 6 8 5 > 5 8 5 w w 8 6 w w 6 6 8 8 8 t 6 & & & > > > > > 6 8 6 6 , , , , , , 6 8 & > a 8 5 V a a V A C t 8 8 A w V w & w V 6 6 6 5 , 5 , 5 5 , > > , 6 8 6 6 * * * > > > > * > > 5 8 8 8 8 t 5 5 5 6 8 8 6 & r 6 , 6 8 8 6 6 6 > > 6 6 > > 8 r 8 6 * * , , > 8 , , 8 t 8 6 6 > > > 5 6 6 6 > 8 6 , , 6 6 , , > > , 6 6 , , , * * > , * , , , * * $ $ * * * $ , 6 6 , , , , * * > 6 6 > > , 6 , & & , 6 > > 6 y u 8 > > 6 6 5 w w w w w w 6 5 w 5 6 a t > & > 5 > , , > & * 6 t 6 & > , , , , , , 6 = 5 t 5 w A w t u t u 6 $ $ o # : * # # , $ * * * $ * , : * : e u e $ # * * * $ $ * * * * 6 $ # * * * * , * * & & , , : $ * : : $ $ * % % : : < : $ > w 8 t w 8 u 6 & 5 y ",
"8 8 > $ > > * > , # $ # $ # u o $ O : : $ * < : 6 : , , & > 6 > 8 a 8 & $ & 6 A C > > 8 5 > 5 > t 5 * 5 6 * * * : : : $ $ ; ; > r 8 < , , : * $ r 6 < , , : > > , $ # $ < , $ : : $ $ : : : : 8 6 6 6 , , 6 6 , 6 6 > > * , , < , : : : < 6 8 8 , , 6 , 5 > 6 8 6 6 8 w w 8 8 8 w 8 6 6 w 8 8 8 8 8 w t t t w 6 t w 8 w t a a t w t t t t t t t w 6 5 5 6 6 5 5 w 8 t w 8 8 w w 8 8 8 t t t 8 6 8 : : , : $ > 8 , > , 6 6 > > 5 , < 6 , 7 8 d 8 C A w a w w C 3 S o.S v 8.G w V G V w w z C h 0 V 5 t 5 5 8 5 V v G Z q.q.D Z 9 q G v v h h o.S h v Q o.F F W F S h h h h S Q D h h 7 v S q h 5 w w V G A V 8 5 w 5 3 0 u u w 8 0 w w w 8 8 u u 5 5 6 8 8 6 6 5 6 6 6 6 6 6 6 6 8 5 6 8 w 8 8 t 6 8 6 > 8 C a 5 8 8 8 8 8 8 8 t 6 6 6 6 6 6 6 6 6 6 , 6 6 6 6 6 5 8 w 7 5 8 8 8 6 6 5 > 6 t 8 > * & , , 5 5 6 6 6 5 5 6 8 8 8 6 6 8 8 8 8 6 6 6 6 , , 5 6 8 8 6 6 8 8 8 8 8 6 5 5 5 5 5 6 6 6 6 , 6 8 r r 8 8 r 6 6 6 6 6 6 6 , 6 6 8 6 , > > 6 > 6 8 r r r r 8 8 8 8 8 8 8 8 8 5 5 8 8 6 5 8 a w z V h 8 w w 6 w a t 8 t 8 , 6 * > > > > > 6 8 6 6 6 6 6 6 6 6 5 8 5 6 C t 6 a t t t t w 6 6 6 C w C V 5 w A w 6 6 6 6 6 6 6 6 6 , , , 6 8 8 6 6 > > > , 6 > & 8 5 5 6 6 6 t A t 8 5 > > 5 > > 8 , , 6 8 6 , , 8 , , , , > > , 8 8 6 > , 6 6 > 6 > , 8 r 6 , 6 5 > > 5 6 6 6 > 6 5 5 6 6 6 , & , , 6 6 6 , , * 6 6 , * * * , 6 * * * * , , , > > , 6 > , , > & > > , , , , , , 6 > > 6 6 , , 6 8 8 8 5 6 8 6 5 6 6 6 w 0 5 3 & 8 5 5 w w 5 > 6 , > > > > > 6 u y 8 , , , : * * * : 5 = 6 V 7 w w 5 w u t u u : * $ * < , $ * 6 $ * * $ $ * : * * * : , * # # * * * * * * * * * , * $ * * , , 6 * = $ = , 6 , : # * * # o O % % : # , r > & 8 8 w 0 w u 8 & 5 y ",
"8 5 5 a C 6 > s C * 8 , r r r : # $ : 1 # # : : , $ & , > 6 8 > > t t 8 8 6 8 [ a 6 5 5 & 5 8 > t 8 6 8 6 , * , , , : * $ : : > , , , , 6 6 6 , 6 6 6 , > > > , 6 $ # : , < 6 : 6 , : , < , , < 6 6 6 > > 6 8 6 6 6 , > * , , < : : : , < 6 8 r 6 , 6 5 5 6 8 8 6 6 6 8 w w w w w 8 8 8 w w w 8 6 8 t t t w 8 6 8 w w t t a t t t t t t a a a t t w 6 5 6 8 w 8 t a a t t w w w 6 6 8 w w 8 5 , d : $ < < * > 8 6 8 8 6 5 6 6 > , 5 5 , 5 8 a a V a w V z w V & 7 h 5 3 S S 7 h G V h V D G D z w w V 6 5 8 5 w 5 w 5 v S V Z v Z Z w v S V D v o.Q 0.q.F g v h S S D D D o.Q h S S 9 h S v S w 5 5 7 w w w w 8 V w 0 w t w 6 5 0 w w 6 8 t y 8 5 6 8 8 8 6 6 5 6 6 6 6 6 6 6 6 6 5 5 6 8 6 w t t 8 6 6 a A a 5 8 8 8 8 8 8 8 t 6 6 6 6 6 6 6 6 6 6 6 6 6 6 6 6 8 8 8 w w 7 8 8 w 8 5 > 5 8 8 6 > , 6 8 r 8 8 8 5 6 8 8 8 6 6 6 6 6 6 6 6 6 6 6 5 , , , 6 6 6 6 8 8 8 6 6 6 5 5 6 6 6 6 6 6 6 6 6 6 6 8 8 r 8 6 8 8 8 6 6 6 6 , 8 6 6 6 , > > > , 6 8 8 8 8 r t 8 8 8 t C a 8 5 8 5 6 8 6 5 8 C t C C z t w w 6 8 t 8 5 8 6 & 5 > > > > > > 6 8 6 6 6 , , , , , > 6 5 8 V t 6 t t t t 8 5 > 5 8 w w C V w w A V 8 6 8 8 6 6 6 6 6 6 , > , 6 6 6 r 6 , , 6 6 , & 6 5 6 6 5 6 a A t 8 8 5 > > > > 6 , , 8 8 , > > 8 r 8 6 6 8 8 6 6 6 , > , 6 6 > , , , 8 6 , , 6 6 6 5 6 6 6 6 > 5 5 6 6 6 6 > & 6 6 6 6 6 , > * 6 6 , , * * * , * * * * , , , , * , 6 , , , > & , > > , 6 6 , , 6 > > , 6 6 , 6 & 5 6 6 8 t 8 5 5 6 w w w 0 5 5 t 6 5 8 w 6 8 t 6 5 , > > > r s a 8 5 6 6 : * * , : 6 & w C 7 w 5 6 t t 5 6 e # * * * < < * > 6 $ : : $ $ * * * * * * * $ # $ * , * * * * , * * * * * * * 6 e , 5 & $ * 6 r 6 , # $ * $ o o % * 1 # , s t 5 w V w 0 0 u 8 3 6 y ",
"$ > 8 8 y 6 & 6 r o $ # # $ X # : * < < # # : $ * # * , > 8 r , 8 5 5 C [ a 6 t 8 6 6 5 & 8 t > t 8 8 8 6 , , e 6 , , , : : : , > > > , 6 8 6 6 * > , , > > , 6 u $ $ < : 6 u : 8 , : , < < < , , 6 6 > , 6 8 6 , , > * * * , , * > : : < < 6 6 8 6 5 6 6 8 8 8 6 6 6 8 8 w w 8 w w w w w 8 8 6 6 8 8 w 6 5 6 6 6 8 w 8 t 8 w 8 V a t t t a t w w 8 6 5 5 6 8 w a V V a t w 8 w 5 6 6 6 6 6 5 6 r $ $ r r > $ > 6 r 8 & & 6 8 5 > , 5 , 5 7 8 8 t w w V C C C 5 w v 7 9 V S h h q w z h 0 0 h C w a V 6 6 a V w G Z w q q h S Z Z v q V Q Z S V v v W +.F b W o.D v v b S D S 9 S S q S Q Q 0.Q V w 5 & & 5 a A w t z V t 8 6 w w z w 5 6 t t 5 8 8 8 8 e 8 6 6 6 6 6 6 6 6 6 8 8 6 6 6 6 6 8 w 8 a a t 8 8 8 8 8 8 8 8 8 8 8 t 8 6 6 6 8 8 r r 6 8 8 6 6 6 6 8 8 5 5 w 8 7 5 8 8 8 6 6 8 t t w 6 8 t t 8 8 8 t 6 8 t t 8 6 6 8 6 6 6 6 6 6 6 6 , > > , , 5 , , 8 6 6 6 6 6 8 8 8 6 6 6 6 6 6 6 , , , , 6 8 6 > 8 8 6 6 , , 6 6 6 6 , , 6 6 , , 6 6 6 6 6 8 r t 8 8 8 d a 8 6 > 8 5 5 5 5 5 8 C t V z w w 8 w 6 6 w 6 > 6 > * , > > > & > > 6 8 , , > > > > > > & > 5 6 w w 8 w w a a 8 > 5 8 t 0 w z w w w t t 6 6 8 8 8 6 6 6 6 , > > > , , , 8 8 6 6 6 6 , , & > 6 8 6 6 8 a 6 8 8 8 8 6 5 > > > , 8 8 6 , , , 8 8 , 6 t t 8 > > > > > 6 , & , , 8 8 6 , , 6 8 6 6 6 8 8 6 5 8 8 8 8 6 6 6 6 6 8 8 6 6 6 , > $ * * , 6 , * * * * * * * * > > * , 6 6 6 6 , & , > > , 6 6 6 > , > > > , , > > & 5 8 8 8 t 8 5 & 6 w w w w w w V w 6 w 8 8 8 a 8 8 6 6 , > 6 t y 8 5 , 6 , * * 6 , 6 > t A 7 h w w t 8 , 8 e o * $ * : , $ * 6 * , , * $ * * * * : , , * $ * , , * * * * * * * * 6 , $ $ , * $ 8 5 & , 8 t 6 * * * $ $ o $ * * u : r C y w z V 0 0 w u 8 4 8 y ",
"> A a # # 8 8 = u > r < , 8 # u < * : : $ : < > , > 6 8 > > 6 > t 8 > & 8 t > & 5 6 8 6 > 8 t > 8 6 5 8 5 5 6 r 6 6 < < < < < < 6 6 6 6 6 , > & > , 6 , > > 6 8 s * > 8 , 6 r > 8 , : > , < , > > , 6 , 6 6 6 > , , > > * * , > * : , , , < 6 6 8 8 8 8 8 8 8 8 6 6 6 8 8 8 8 8 8 w w w 8 8 6 6 w w w 6 5 5 6 w 5 6 8 w w 8 6 6 a t w w 8 t 8 8 6 6 6 6 5 5 5 5 t a a a t 8 8 8 w w 8 6 8 8 t y r : > r r : & > > 8 6 > & 6 5 > > 5 5 8 8 5 5 6 C 6 w w w z w 5 V Z S h h h w 7 h h z w 5 3 0 h 5 a 8 5 5 a Z V w w w w v V v v V w v Z G S h V h h F Q b b W o.0.g 9 h b F Q Q v F v F W F o.D v v V v w h V V w 0 w z C z t z w w w 5 6 t w 5 8 8 8 8 8 8 6 6 6 6 6 6 8 8 8 8 w w 8 6 6 6 8 6 > 8 a 8 > > 5 8 8 8 8 8 8 8 8 t r r 8 6 8 r r r 8 8 8 6 6 , 6 8 w 5 5 q w 5 5 5 6 6 6 w t t t 8 8 8 8 6 , > 6 8 6 8 t t 8 6 6 6 6 6 6 6 6 6 , , , , > , , 5 , , 6 6 6 6 8 8 8 8 8 8 8 6 6 6 6 6 6 6 6 , 6 r 8 , 6 6 , , , , , , 6 6 , 6 6 6 6 , , 6 6 , , 6 8 r 8 8 8 8 8 8 8 8 8 5 5 5 5 8 8 C V z w 5 6 8 w w 6 t 8 8 u 8 , 5 > > * * > > , 6 , , > > > > > > 5 5 5 6 5 6 w w 6 t a w 5 6 8 t 0 w w w w w 6 w 6 6 8 8 6 6 5 5 8 6 , , , 6 6 , > 6 8 8 6 , 6 8 & > 6 8 6 8 8 d 8 8 8 t 8 8 6 5 * * , 8 r 6 6 8 & , , & & 6 8 , * > > > , 6 , & , 8 8 8 , , 6 8 6 6 6 6 8 8 6 6 8 8 8 6 6 6 8 8 , 6 6 , , 6 6 , > > * , , , , * * * * * * * * * > 6 8 6 6 6 , & 6 > > , 6 8 6 > , > > > > , > > 6 8 8 8 8 t 8 5 & 5 w w w 0 0 w V 8 8 8 t 8 8 8 8 8 8 8 6 * > 6 8 5 & , 6 , : : 6 , 6 > w V 5 w w w 8 8 8 s s , $ $ * : , * & , , < < * $ * * * * , e < , * : , * * * * * * * * * 6 6 * $ * * $ 6 > > 6 8 r , $ < * # O $ $ $ $ e r a t 8 t C w 9 0 w u 8 5 8 y ",
"t 8 5 5 8 8 6 t , 6 , : $ * X < : $ $ : $ < r , , : 8 8 > > 8 6 $ t 8 # & t 8 & 6 8 t 8 5 8 8 > e 5 5 5 5 5 6 r 8 r 8 6 < 6 6 6 6 6 6 6 8 6 6 , 8 8 8 8 6 6 6 8 u , , 8 < , , > , 6 , > : < , > & , , , , 6 , * 6 , , , , , , , , , , 8 8 8 8 8 8 8 8 8 w w 8 8 6 6 8 8 w w 8 8 8 w w 8 6 6 6 8 t t w 8 6 8 8 t 6 8 w 8 w 8 8 8 w 8 6 6 w 8 t t 6 w t t w 6 6 6 t t a t 8 8 6 6 t w 6 6 8 a V V d r , , , , 8 r > 8 t t t t 8 5 8 8 8 a C a w 8 C 5 w w w w 0 7 w v V h w h v w h w 9 7 w h z w 5 V 8 5 5 8 A V 5 3 w w h S w h V v G o.G S h Z o.o.+.Q b b W b Q q g o.+.Q W W S Q F F b g v 9 9 v Z A S C V w D w 5 w C A w 5 0 0 0 0 w w t u t t e 8 8 8 8 6 8 6 8 8 8 8 8 8 w t t 8 8 w 8 6 5 5 5 6 8 8 8 8 8 8 8 8 8 8 8 t r r 8 8 6 r r r 6 8 8 6 , , 8 p p w w w w w w w 6 5 w t t t w t t t t 8 > > 8 t 6 8 8 8 6 6 6 6 6 6 6 6 , , > > 6 6 , 5 6 6 6 , 6 6 8 8 8 8 8 8 8 8 8 8 6 6 6 6 , 6 6 > > 8 8 > 6 , > > > , , 6 8 8 8 8 6 , , , , , , , , , 6 8 6 8 8 8 8 8 a a t 8 6 8 8 8 a A C C w 0 w t z w 6 t t t y t 5 6 > > > > > , , , 6 6 6 6 , , , 6 8 6 w 8 5 8 a w 5 8 t 8 5 8 w 8 w z w w V w 5 w 6 6 8 8 8 6 5 5 8 6 6 6 8 8 8 6 > 6 8 8 6 , 6 8 5 6 6 , 5 8 d a C a 8 6 8 8 8 6 * * , 8 8 6 6 r > , , > > , , > > 6 6 , 6 8 6 > 6 8 8 6 6 6 8 6 8 6 6 8 8 8 8 8 8 8 8 6 5 5 6 8 > 6 6 > > 8 8 , a r , * * , 6 6 , , , * * * > , , 6 6 6 , 6 6 > , , , 6 6 6 , , 6 6 , > , 6 6 > 8 r 8 6 6 8 8 5 6 w w w w 0 5 5 w w 6 8 8 8 8 > > 5 6 8 6 > , 6 8 > & , 6 , : : < > 5 & 8 w 5 h V 5 6 w 8 u r * $ * : , , , 5 6 , < < * $ * * * $ , e , * * * * * * * * * * * * * * , , * , e 6 $ $ & * , , : $ < $ o o # $ $ $ : 8 u 6 > t C 5 9 0 w w 6 5 8 u ",
"a & # 8 A 6 & 8 y { r d 8 r , r ; $ : < : , 8 > , * 6 8 > 8 a 8 & 8 8 5 8 t 8 8 8 6 8 8 6 6 8 5 y 8 , 5 6 6 5 6 8 8 8 6 6 6 6 6 8 8 8 8 t t 8 8 t 8 8 8 8 8 6 6 , 6 , 6 8 , & , , 8 8 , , 6 8 6 > , 6 > > , , > , , , , , , , , , , 6 8 8 8 8 8 5 8 t 8 8 8 8 8 8 6 8 w w w w w 8 w w 6 6 6 8 w t 8 w w t t t 8 6 8 t 8 8 8 8 8 8 8 8 6 6 w t a w t a V t t 8 t t t a a t w 8 6 t 6 5 6 t a t 8 r r 8 : > 8 t t 8 8 t V V a t a C 8 w V A C V p V 5 C V w V w V v v V h v Q 8.Z 5 3 3 5 0 w 0 5 6 C 8 8 8 w A V 0.A o.v h S q v V v o.Z V G v G D W Q S b +.u.W v 9 v o.W F g 5 F o.b b b v b 9 w V C v w h V h G V w z C z w 6 w 7 0 z t w t A t t r 8 8 8 8 8 8 8 8 8 8 8 w 8 8 8 t 8 8 a 8 8 8 5 5 8 t a 8 8 8 8 8 8 8 8 8 t r 8 8 8 8 r t u 5 6 8 8 5 5 8 p p V Z V p p V p w 7 w w w w w 8 8 8 t 8 6 5 8 a 8 6 6 6 8 8 6 5 6 6 6 6 6 , , , 6 6 5 6 6 6 6 , 6 8 8 8 8 8 6 6 8 8 8 8 6 6 6 6 * 6 6 > * 6 6 > , , > > > , 6 8 8 r r 8 6 , 6 8 , , 6 6 , , 6 8 8 8 8 8 a a t 8 a 8 8 8 8 8 a C A C z w 8 V t w 5 w 8 6 t 8 & 5 6 > > 6 8 8 6 > 8 6 6 6 6 6 6 6 8 6 t t 5 8 a 6 6 t t 6 5 8 8 6 z C 0 w C t 5 t 6 6 8 8 8 6 6 5 , , 6 6 8 8 6 6 8 6 6 6 8 8 6 , 6 8 6 > 6 8 t 8 C 8 5 5 8 8 8 , > > , 8 6 > , 8 8 6 6 6 6 , 6 8 6 6 6 , 6 8 6 > 6 8 6 , , 8 8 , 6 6 6 8 t t t r 6 8 8 8 6 6 6 6 > 6 6 > * 6 6 > s r , > , 6 6 , * * , * * * , 6 , 6 6 > > , , > > , 6 6 6 , 6 6 6 6 6 > , 6 6 > 5 6 6 6 6 8 6 > w w w w w w 0 5 8 w 6 8 8 a 8 5 > > 6 8 6 , 6 r 8 5 > 6 6 , : : , > 6 > 8 w 9 G V 5 8 a t , * # * : < , , , 6 6 * , , * $ * * * * < e * $ * * * , * * * , * * * * * , 6 , * , e $ & & & & $ : : * # # # # o $ < * > 8 w 6 z z 5 5 w w w 8 6 8 t ",
"8.w.C $ 6 [ A > 8 e.& 6 , , $ # * : u u , $ > & d 6 6 6 5 8 8 5 8.8 $ t A & $ C 8 > 8 8 6 6 t 8 C t 5 5 6 6 5 5 8 6 6 5 5 , 5 6 a a a a a 8 8 5 w 7 5 5 8 8 6 6 $ , > > r > # 6 , 8 r 6 , 6 r 8 6 8 6 > > 6 6 , , , > > , * * * * > , 6 8 8 8 6 > 8 t 8 8 5 5 8 8 8 w w w w w w 8 8 8 6 5 6 8 t 8 8 8 8 a a 8 6 6 8 w w 6 6 6 8 w 8 8 8 6 6 w t 6 8 t t w w 8 t 8 t V V t w 8 8 t 6 5 8 V C w > & r r , , 8 t 8 C 8 5 6 8 5 t A V 7 5 w V V p p C 5 G A h V q v S h w 9 9 V S 7 V Q 8.( C 0 0 w > 8 5 t a 8 A V w 5 v w S 8.S o.q 5 V q 7 S h G Q o.W g q E o.g o.G F b b o.+.W h b 9 g F D o.v V A A v w w V V w h D D z w D 8.z 0 w C V 6 w A t t r 8 8 8 8 8 8 8 8 8 8 w w w 5 8 t 8 a C a w 5 6 8 8 8 6 8 8 8 8 8 8 8 8 8 8 8 8 8 6 8 8 t u 5 6 8 8 5 7 8 a w V Z w 7 w w w w w 8 w 6 5 5 w > 6 8 8 5 5 8 t 8 8 6 6 8 8 8 8 6 6 6 6 6 6 6 6 6 5 , , 6 6 , , 8 8 8 8 8 6 > > 8 8 8 8 8 6 6 6 > r t , > 8 r 6 , , > > , 6 8 8 , 8 r r 6 6 8 u , 6 6 6 6 6 6 8 t 8 6 8 a a 8 & a 8 6 8 8 8 8 a C C V w a V w 5 6 w 6 5 8 6 , 8 6 6 6 8 8 8 6 > 6 6 6 6 6 5 5 5 6 5 a a > 6 t > t V t 5 5 8 w 5 z V 5 5 A t 5 t 6 8 8 t r 8 6 6 & * > 6 6 6 , > d 8 , 6 r t 6 & & > 5 6 8 t 8 & 8 5 > 6 a a 8 > , , , 6 , & > 6 6 * > 6 8 6 6 t 6 6 6 > , 6 6 > 6 8 6 > , 8 6 > 6 6 6 8 t t t t 6 8 u y t 8 6 6 , 8 6 > & 6 , & , , , 6 r r , * $ * * * * * , 6 , , > & & > > > > , 8 6 6 , 6 8 > 6 , * > 6 , & * , 5 5 6 8 6 & 3 3 5 5 w w 0 5 w w 8 8 a C a 8 6 5 6 6 , > 6 u 8 6 5 6 8 , : > < , 8 5 8 p h 0.w 5 w G A 8 , , $ : , : , , 6 6 * * * $ $ $ * $ , e e * $ $ : * , , * , , , * * * * * 6 , $ * e , , > & # $ : < # $ $ * # o : s * $ 6 V V z v w 5 w w w 6 6 8 t ",
"C V Z V A 8.w $ 8 C t 6 a 8 $ > $ < r 6 , , > & > 5 5 > 5 6 t C 8 8 8 8 5 > > 6 8 8 8 8 8 8 t 8 6 6 5 6 8 8 6 > 6 > w t & 6 V 8 a J & 8.8.5 8.` w w 7 w w 5 5 & & 6 > > 8 8 6 8 r t r 6 6 8 8 , 5 6 6 6 , , > > 6 6 6 , , , * * , & * , > & 5 8 6 6 6 8 w w w t w t t 8 6 6 6 > t 8 w 8 a a w 6 w w w w w 8 6 5 5 w 8 6 5 8 w 8 w 5 6 8 t 6 6 t w w t t t t w 8 t t 8 w 8 8 w w a w w C C t t a u 6 , 6 8 8 5 5 6 t t 8 t V V w V h 7 w G G V w w w p V p w w v G q w h 7 v Z w w w z S D C w 7 > & 8 8 w t V 5 V 5 5 V G V w h 5 V G Z 8.l.q.q h 9 q m v o.v F v W o.W g q.b F b F o.v g W F b w q.G w 0.0.h V Q Q S w h D G V D C C S V w w V 6 w a t 6 6 t C 8 8 8 8 8 8 8 w 8 8 8 8 8 V a 8 8 8 8 6 > , 8 a 8 8 8 8 8 8 t t 6 8 8 8 6 6 8 8 t 8 5 8 8 w a A p o.o.5 o.G G v w C h w w 3 & a 8 8 t a 8 8 C C 8 8 8 8 8 8 8 8 8 6 6 , , , 6 6 5 5 5 6 6 6 6 6 5 5 5 > > 6 8 8 6 6 8 8 8 8 8 8 8 6 6 6 6 6 8 8 6 t d r , > 6 d r , > 6 6 > > , 8 , > 6 8 6 , 6 8 8 8 8 8 8 t a 8 t t t 8 t 8 5 C V w 0 5 8 t V w t u y t 8 5 5 & > 6 6 6 6 6 6 6 8 8 6 6 8 6 & 6 6 8 w 6 & > 6 a w w w w 8 8 t z z w w V w 6 V w t t r 5 & , 6 , , , , 6 6 8 8 , 6 6 8 6 , , 8 6 6 8 8 t 8 8 8 & a A A C 8 & 5 > > > > , , , , 6 6 6 6 6 6 6 6 8 6 , , 6 6 6 > , > , 8 t t d C 6 8 8 t t t 8 8 8 8 8 t a y 8 5 > , 6 6 6 , , , r 6 , 8 6 , , 6 $ * * * * * * , > , , , > > > > 6 r r 6 6 8 6 > , , , > > > , , 6 5 5 8 t u t w 5 w V t w w w w w a a a 8 8 8 8 > 6 8 6 , , 6 r 8 8 5 > , > > $ $ 8 8 5 5 w v v V 5 w V > 5 r , $ , , * 6 t 8 $ , * $ $ : , * * * * , , , , * * * * , , * * * # * * * * * , , , : , < : & # & > o > 8 , , , < , u 8 C A 5 C 3 q V S C w 8 t t t ",
"A V C 7 8 C 8 5 5 a t 8 t 6 & 6 & , 6 , : , > & t a t 8 6 5 5 8 C 8 8 8 5 > > 5 8 6 5 > & > > 5 8 6 5 5 6 6 5 > 5 5 8 6 & 5 w 6 & w A C v Z b b V w q V V 5 6 y 5 8 6 > 8 6 > , 6 8 6 , > 6 6 , 8 6 6 6 6 , , , , , > > * , , , 8 6 8 r 8 5 5 8 8 8 8 8 w w w w w t t 8 6 8 6 5 t w 8 8 8 t 8 5 w 8 6 6 6 6 6 6 6 w t 8 6 w t 8 8 6 6 8 8 6 6 w 8 8 8 8 8 8 w w 8 w 8 6 6 8 8 w w 6 5 8 t t w 8 t , > > 6 5 5 5 w 8 8 6 7 w w w w Z S w w 5 w G w w w w p w w p 9 q V S h w w w w h h h z h w 5 V 8 8 8 > 5 V Z 5 V G V w h v w V Q o.C w w V G 0.F m W F u.F W b o.q.+.b q.F F o.W W g v o.F S v o.v 9 V S v G S V h w z C V h w w w w 8 8 w V 8 w t 8 8 8 t a 8 8 8 8 8 8 8 w 8 8 8 8 w a a 8 8 8 6 6 6 6 8 8 8 8 8 8 8 8 8 8 8 8 t 8 8 8 6 6 t 8 8 8 8 7 7 7 p v V w 8.w 5 w h G h 5 C G w & w 6 8 t 6 6 8 6 8 8 8 8 8 8 6 6 8 6 6 , , , 6 6 , 5 5 5 6 6 6 6 8 8 8 8 8 8 8 8 6 6 8 8 8 8 8 8 8 6 6 > > > > , , 8 t 8 , > 6 r , > * 6 8 6 8 r 8 6 6 r t 8 6 6 6 8 8 6 6 6 8 t 6 8 8 8 8 t w 6 5 0 w w w w t t w t a a t 8 6 6 > 5 6 6 6 6 6 6 5 8 8 > > 6 8 6 6 6 w w 8 5 6 t w 6 6 w w 6 8 w w G C 3 5 w w 0 > 5 8 6 5 5 8 t 6 , , , 6 6 8 8 6 , 8 8 8 , , 8 6 6 6 8 8 8 8 5 > t a t 8 5 > 6 , , 6 6 6 6 6 6 6 , , , , , 6 6 8 6 , , 6 6 6 > 8 6 , 6 6 > > 6 6 8 8 8 t 8 8 8 t 8 8 t t y 8 6 , 5 6 6 5 5 , , 8 , , 6 6 > > 6 * * * * , , * * > , , , > > > > , 8 8 6 , 6 8 , , , , , , , , , 5 , , 5 8 t w 8 5 0 8 w 0 0 w z w w a a 8 8 8 8 6 8 8 8 , , 6 r 6 5 5 6 8 r r r & 8 t 8 5 w v h S 9 5 8 w t u * * : , , 6 8 6 & , * * * * * * $ * * , , , , * * * * , , , * * * * * * * * * * * ; : < : & # # & & < r 8 < 8 8 8 8 = 5 t 5 D 0 h h V z w w t t 8 ",
"V w V > = 5 5 5 > w 8 6 8 > > 8 , 8 r 8 6 8 8 8 8 8 8 8 8 5 > > A a 8 8 8 6 6 8 t t 8 8 8 6 8 8 8 , > > 5 5 5 5 = 5 5 5 6 w w z & 5 G G ` 8.q 5 i v V G A V w 6 5 8 6 5 8 5 & 6 > 5 5 > > 6 8 6 8 8 6 6 , , , , , , > * * , 6 8 6 6 8 t 8 6 5 6 8 8 w w w w w w 8 8 8 8 8 8 8 5 t w 6 6 8 8 6 5 8 w 6 5 5 6 w 8 6 w w 8 8 w t t 6 8 8 6 6 6 6 5 8 6 5 5 5 6 8 8 8 6 6 5 6 6 8 w t w 8 8 t V a 8 8 , > > > > 5 w 8 8 w 5 5 w v v S G S w h h h G w v v p p w w w 5 v S Z Z v w h w h h 7 0 h h 7 V w C A 8 5 w C 7 v V w v D V 5 V w w V h w Z w.W h q b b +.g g 9 g g 5 & W o.u.q.W Q F D W q 9 q v V v v h h V h w w h V h w w w q 7 w w 5 w a 8 6 6 8 r t t 8 8 8 w w w w 8 8 w p 8 8 7 w p a 8 8 6 6 8 8 8 5 8 8 8 8 8 8 8 8 8 8 8 8 8 6 5 > 8 8 8 p p w w w p F 8.G o.q w G 8.w.S & 5 w V V 8 5 8 8 5 6 8 & 6 6 8 8 8 8 8 8 6 6 6 , , , 6 6 , , , 5 6 6 6 6 6 6 8 8 8 6 5 5 6 6 8 8 8 8 8 8 r 8 8 6 6 , 6 6 > 6 8 6 , , 6 6 r 6 , 6 8 6 , 6 6 , 6 t u r 6 6 6 6 6 6 6 6 8 t , 6 8 8 8 t t 6 5 0 w w w w w w w t a a t 8 8 8 5 6 6 6 6 5 5 6 > 6 6 > > 6 w t 6 6 8 w w 6 w V 6 6 6 8 w 8 8 8 0 D C 3 5 w w 6 6 8 8 8 6 5 6 8 6 6 , , 6 6 8 8 6 6 6 8 8 , 6 8 8 6 5 6 8 8 8 5 8 a 8 6 8 8 8 a 6 6 6 6 6 6 , , , > > > > > > , 8 6 > , 6 6 , , 8 , , 6 6 , , 8 6 6 8 8 8 8 8 8 8 8 6 6 t t 8 6 6 6 5 , , 7 6 6 8 6 , 6 , > > , , * * , 6 6 , * > , , , > > > , , 6 6 , , 6 8 6 , 6 6 6 , , > > , , , 5 8 8 8 8 5 5 5 6 5 0 w V w w a a t 8 8 8 6 8 8 6 , , 6 8 6 5 5 6 6 8 , : > 8 t 8 w w v w h h C C 0 6 t 6 * * * , 6 6 5 6 , : * * * * $ $ * * : , , : * * $ * 6 6 * * , e * * * * , * * * $ : : : & # # & & , , > > 6 6 6 V 6 6 C w Q h h h h h w w w 8 5 ",
"5 7 V 5 5 w 5 8 6 6 6 6 6 > > 6 6 r r r 8 r t u & > 5 8 8 8 8 8 d 8 6 8 8 8 8 8 8 6 6 8 8 8 5 & > > > 5 5 6 6 6 & t 6 5 t z w C e.A = v G i o.b F _ o.v V ( V 5 5 8 6 5 8 5 > 8 6 6 6 5 5 6 6 6 8 6 , > > > > , , , , , , 6 6 r > , 6 8 8 8 8 8 w w w w w w w w w w 8 w 8 w w 6 w 8 6 6 6 8 8 8 w w 8 6 6 8 8 t 5 6 6 8 8 w w w 6 8 w 5 5 8 8 5 8 6 5 5 5 6 w t 6 6 5 5 5 6 w 8 t C V w w V C t 8 6 6 8 6 5 8 t 8 8 w 5 w w C Z S S V V Q Q S G v V V V p p w w V G V h G S w V w h z 0 0 z V w w 5 V A a 5 w w V q q Z 8.Q S v w 5 w G o.G D o.b g v Q W q.h v S W +.D v D q 9 F q h v D o.m D v q D o.v w v v V q w V V h 0 w w w w w w w w 8 6 6 8 8 t t 8 8 8 w w 8 w w w w 8 w p w 8 8 8 p 8 8 6 8 8 8 8 8 8 8 8 8 8 6 6 6 6 6 8 8 6 6 6 8 a 8 8 8 p a C G > F q.V q q Z 8.V C G Q Z 5 5 w 8 5 6 8 5 8 8 5 8 8 8 8 8 8 8 8 6 6 6 6 , , 6 6 , , , 5 6 6 6 , 6 5 6 8 8 5 5 5 6 8 8 8 8 8 8 8 8 8 8 6 8 8 r r > > 6 6 6 6 6 6 t 8 6 6 6 6 , , , > , 8 r 6 6 6 6 6 8 8 6 8 8 t > 6 6 6 8 t t 8 w w 0 0 8 t V V 8 8 t t t 8 8 8 6 6 8 8 6 5 6 6 > 6 6 6 5 6 8 t 6 6 w t t w t V t 8 8 w w 8 w t 0 w w z V 5 5 V w 8 t 8 6 5 5 6 6 6 , , , 6 6 8 6 , 6 8 8 , , 6 8 6 5 8 t a 8 8 a C 8 5 8 8 8 a 6 6 6 6 , , , > , > > > > > > > 8 , > , 6 6 6 , 6 , , 6 6 6 6 r 6 6 8 8 8 8 8 8 6 5 5 5 6 8 6 5 6 6 7 7 7 7 6 6 8 8 6 6 , > > > 6 * * * , 6 , * > , , , , > , , , 6 6 , > , 6 8 6 6 6 6 6 , , > 5 5 6 8 8 r w t 5 5 5 8 0 0 w z w V V C V t 8 8 5 6 6 6 , , 6 8 6 5 5 , , > & # > , 8 5 5 w v h h S Q Z w 6 8 8 * $ & 6 8 > 6 a , : * * * * $ $ * * * : , : * * * , e 6 * * , u , , , , , , , * # $ $ $ & $ & $ $ & > > > , 5 6 C w w ( S Q S m S V V w w 8 6 > ",
"q 5 v w w C w V C 8 5 8 8 6 6 > 6 6 6 6 6 6 8 t 6 6 8 8 w t V a , > > 8 8 6 5 6 A t 6 8 a a 8 & > > , 5 5 > > > w A t 6 z z 0 z 0 D C 8.F 5 F $.s.X.F 9 w Q C A 8 8 6 6 8 6 , t 8 8 8 8 6 5 5 5 8 6 , > > , , 6 , , 6 6 6 6 , , 8 8 8 8 8 8 8 8 w 8 w w w w w w w 8 8 w w 8 w 8 8 6 6 6 8 w 8 8 6 6 8 w 8 8 w 8 6 6 6 w w w 8 8 6 t 8 6 5 8 8 > 6 6 6 6 6 8 w w 8 6 5 5 6 8 w t 6 a a 8 6 8 a t 8 8 8 8 w 6 8 8 8 w w w w v V D q S D S S S S o.w V V p w p p w V Q S h V h w S h S S z z C V w V 5 6 8 5 5 w w h V G 8.8.G Q 0.w C o.G V h w w b v S o.W q.b W q q D S o.q.W S 0.h h q h S v o.o.v F W 9 q D D D h h S S h h h w w v v V p w w 6 w t t 8 8 8 t 8 w w w 8 8 p p 7 w p p 8 8 8 w 8 8 8 8 8 8 a C 8 8 8 8 8 8 6 6 6 w 8 w 6 6 8 a C a p a a p p V Z v q q D w.0.v v 7 w Q 8.S w w 8 8 8 8 5 d a 8 8 8 8 8 8 8 8 8 6 6 6 6 6 6 6 6 , 6 6 6 6 6 , , 8 6 6 8 8 8 8 a 6 8 8 8 8 8 8 8 , , 6 6 6 6 6 6 > , 6 6 8 6 6 6 , , > , 6 8 8 8 6 , , 6 6 6 6 r 6 8 8 8 8 8 8 t 6 8 8 6 8 t t 6 6 5 5 0 w V C C 6 w t t 8 8 8 8 6 8 8 8 6 6 6 8 5 6 8 8 8 6 8 w w w t A C t t t V t 8 8 6 6 w a w w w z V 6 5 A 6 6 8 6 6 6 6 8 6 6 6 6 6 6 6 8 6 > , 6 6 , > , 6 5 , 6 t a a 8 a a 8 5 8 6 > 8 6 6 6 6 6 , , , 6 , , > > > > > 8 6 > , 6 8 6 , 8 6 , 6 , > > , 6 6 6 8 8 8 8 8 6 6 6 6 8 8 8 6 6 7 7 6 8 8 6 , 8 8 8 8 6 , > > 6 * $ $ , 6 6 , > , , 6 , , , 6 6 6 8 6 > > > 6 6 6 6 6 6 , , > 6 8 8 8 8 8 w t 5 5 w a z w w w V V a V a 8 8 6 5 5 6 6 6 8 r r 5 5 5 6 8 8 < , ; , 6 5 5 w v v D V q q A A t = 6 & * 8 8 > 5 a * * * * * * * * * * * * : : : : * 6 e 6 * * * e * * * * * * * * # # $ $ & ; , < > , 6 8 8 6 8 8 6 5 4 Q z S Q 8.S V h w w w 8 8 ",
"v q w 5 w C t C A 8 5 t 8 8 8 > 6 6 6 8 8 6 8 t A V t w w w w 7 5 5 8 8 8 6 5 6 e.A 8 8 a C t 8 > , 5 5 > > & & 6 w w 6 t V z z D 3 V w q.iXN 5 $.9 v S Z D 5 A V a 8 8 a 8 5 t t 8 8 8 6 > > > 8 8 6 6 6 6 8 8 , , 6 8 6 6 , * 8 8 8 6 6 w 8 5 w w w w w w w w w t t w w t 8 8 6 6 6 8 w w t t & 5 8 w 6 6 6 6 w 6 8 8 t w 8 8 8 w w 6 6 8 6 5 6 6 6 8 8 8 8 8 w 8 6 5 6 8 8 t 5 w t 8 8 8 a V 8 6 8 8 8 8 5 8 V C C Z C V C G h S h q h h h D q v V w w v a w q G 8.G h 7 w Q S S G D C z w w w 5 8 8 8 w w w w G o.C S 8.o.v w V w 5 7 S S h F v v F g W v Q 8.S S 3 q h q q 0.S Q D S S 7 h W v S S q h D v G S v V S V h h 7 w w w V V a w 8 8 t t 8 8 8 t 8 8 w p p a V C 7 8 8 V p 8 7 8 8 8 8 8 8 8 a C 8 8 8 8 8 8 8 8 6 8 w 8 6 5 8 8 8 8 p Z Z a 8 i w v q.x.D h S u.o.G Z h 7 V Q C t 8 d 8 5 d a 8 8 8 8 5 5 5 8 8 8 8 6 6 6 6 6 6 6 6 6 6 6 6 , , 8 5 > 8 8 6 8 a 8 8 8 8 8 8 8 8 8 8 8 8 6 6 , , 6 6 6 6 6 6 6 6 6 6 , > , 8 8 , 8 6 6 6 6 6 8 u 5 6 6 6 6 6 6 8 8 8 8 6 8 t 8 6 6 5 0 w a t 0 5 8 w t 8 8 6 8 6 8 8 8 8 6 6 8 w w 8 8 t t 8 6 8 8 6 w a a w 6 6 V t 8 8 6 6 8 t V A z 5 8 t t V 8 8 6 6 5 > , , 8 6 6 6 6 6 6 6 6 > > 6 6 , , , > > > 6 8 8 t t t a 8 8 t 8 > 5 8 8 r 8 8 6 6 6 6 6 , , > > > > 6 , > > 6 8 6 , 6 , , 6 6 , 6 8 8 8 8 8 8 8 8 8 6 8 8 r t t 8 8 6 < 7 6 8 8 6 > 6 8 8 8 6 6 , > 6 * * * , , 6 6 > , , 6 , , 6 6 6 6 r r 6 * > 6 8 8 6 6 6 , , , 5 5 6 6 5 6 6 w w w w A D z w z w w 8 8 8 8 6 5 8 8 6 8 8 r u u 8 8 8 8 8 8 8 , > , 8 8 q w v D h h 5 5 V A w & r , > 8 8 & & 8 * * * * * * * : * * * * * * : : * 6 e 6 * * * * $ $ $ * $ $ $ $ # # $ $ ; , < < 8 8 8 8 6 , 5 8 0 8 3 D q h Q u.S h w w w t t t ",
"Z w w 5 5 w 5 w C > 5 a 8 8 8 5 8 6 8 r t 8 8 t V 8 8 5 5 5 5 > 5 6 8 t 8 5 8 a C 8 5 > 5 6 5 > 6 6 6 6 5 6 8 8 6 5 0 w 0 C D z w h k.7 & X.N j.c 5 o.G S D 3 x A a 6 w A t 8 V V t w w 8 5 > 6 6 6 6 8 8 8 8 r 6 6 8 8 6 6 6 , 6 8 8 6 8 w 8 > q w w w w w w w 8 t t w w t 8 8 6 8 8 w 8 8 8 w > 6 w w 6 6 6 8 8 8 8 t t w 6 6 w 6 6 8 6 5 5 6 5 5 6 6 6 6 6 6 w 8 6 5 6 6 w t t w w t a a t t 8 8 6 8 8 8 5 5 C C A G Z V Z o.S S h g S S h v w V S p i V V i q v Q Q h w S G S h V S C 0 7 w 6 8 C a w a V 7 v S v q V 0.Q 9 w q & & v 0.0.Z o.F S W b o.b o.7 9 Q V Q Q S S h 7 V S Q 0.S v v v m b v D S 9 v v h h V S V h q w w q w V p w 8 w 8 8 8 8 8 8 8 w w w p p p a w 7 w p p w 7 7 8 8 8 8 8 8 8 t 8 8 8 8 8 8 8 8 6 6 6 w w t 8 8 5 5 w V Z v w w 8.5 & o.o.9.v 3 G Q q.8.V V S w 8 8 C a 8 a C 8 8 8 8 5 5 5 5 6 8 8 8 8 8 8 6 6 8 6 6 6 6 6 6 6 8 > > 8 8 5 5 8 8 8 8 8 8 8 8 8 r r r r 8 8 6 6 6 6 8 6 , , , 6 r r 8 , , 6 6 > 8 6 8 8 8 , 6 t 5 6 6 6 5 5 5 6 8 8 6 5 6 8 8 5 w w w w w w 6 & w w t t 8 6 5 6 6 8 8 8 6 8 8 u x 8 6 w u t 8 w 8 6 6 8 w 6 6 8 t 8 w 8 w w w t V A w 5 w V t w t t 8 8 6 5 , & 6 6 6 6 6 6 6 6 8 , , 6 8 6 6 6 > 5 6 8 6 8 8 t 8 a a t a w 5 8 8 8 8 8 8 8 6 6 6 6 , > > > > > 6 , > > 6 8 6 6 6 > , 8 8 8 r u 8 8 8 8 8 8 r 8 5 6 8 t t t 8 8 6 7 , 7 8 8 6 , , 8 8 6 , 6 6 > 6 6 , , , , , , > , , 6 , , 6 6 , 6 r t 8 > > 8 t r 6 6 , , 6 6 > 5 5 > > > 6 8 w 6 w C C z w z w 8 5 6 8 8 6 6 8 8 8 8 8 8 r 8 8 8 8 6 6 6 , , ; 6 a a w q h S 9 D V 5 w t 8 t 8 , & 6 6 5 > > * * : * * $ * * $ $ * * * * : , * * , , * * $ $ # $ $ $ $ $ $ $ # $ ; , < < < < , < 6 6 > & 7 C z D 0 0.h q S 8.S h w w t 8 8 8 ",
"G V G v w w 5 w 8 $ > t 5 > 8 > 6 > 6 8 8 5 5 8 5 > > 5 8 8 w 8 & > 5 5 > & 8 C > 5 8 8 8 8 8 8 8 8 8 8 8 t A [ C w t t 5 w V 5 0 7 9 S Q F v 9 v X.z.h 3 ( C G A t 5 8 A A a A C a t a t 8 6 w 5 6 6 8 8 8 r r r r r r t t t t > 8 8 8 t V t 5 6 q w w w w w w 8 t t 8 w t w 8 6 8 w w 8 6 6 6 6 w t t 8 6 w 8 8 6 6 8 t 8 5 5 8 5 5 8 8 > > 6 5 5 5 > > > 5 5 w 8 6 5 5 6 w t A 8 6 t C t 6 5 V w 5 8 8 w 8 5 w w v V v w V Q q Q 0.o.D h v G V G ` V p S V w V 5 9 w w S Q v h 7 7 V h 5 7 V C A A w & w G A w v S S S V D Q q v Z G G G D D S h v W F +.g v S V q.h S h V G u.G h 9 w S w q D b g 5 g Q Q h 7 w h q h S V w V v w 5 5 w w w t 8 5 5 8 8 8 8 w w 8 8 8 w w w a 8 7 w p w 7 8 8 8 6 8 8 8 8 , 8 8 8 8 8 8 8 8 w 8 w V H 8.A w V p p p w 7 5 7 v v F 9.q G Z v l.w 5 A G G Q C > w A Z a A A p a p w 7 6 7 8 8 8 8 r 8 r 8 8 6 8 8 8 6 8 6 8 6 8 6 8 a a 6 5 8 8 8 8 8 8 8 8 8 , 6 6 6 8 8 6 6 6 8 8 , > > , 8 6 8 6 , 6 t t 8 6 , 8 8 6 > , 8 5 6 8 8 6 5 5 6 5 6 5 > 5 8 8 5 6 5 5 5 w V C V t t t t 8 8 6 6 6 8 8 8 6 8 t t C 8 5 8 t t u u a 8 8 w 8 8 t V t w t C V V t V w 5 5 C 8.V 5 w w w 8 8 t t u t 6 6 6 6 6 6 6 6 r 6 6 8 r 8 6 6 6 8 8 8 6 6 8 t 5 8 8 w t 8 5 8 8 6 8 8 8 6 6 6 6 , , > > > > > 6 , > > 6 8 6 6 8 6 , 6 , > > , 8 8 8 8 r 8 r t * , 8 8 8 8 6 6 8 6 , , 8 8 8 , > 6 8 , 5 6 6 * 6 6 r r 6 , * * > , , 6 6 , 6 6 > 6 r a 8 > 5 8 a 8 8 5 > 5 6 8 , 5 5 > & > 6 8 w 5 5 t V w w a w 6 5 5 8 w w w 8 8 6 6 6 6 , , 5 , , 6 8 t d d $ 6 a C w 5 5 h Z o.V 5 C A 8 6 > & = & 6 6 5 > > , , : $ $ $ * $ $ $ * * * : : $ * * * * $ $ # # $ $ $ * * * * $ $ , 1 r < , ; > > , > & & 8 [ 0 x w u.S h S S Q v h h t 8 & * ",
"8.A w.V > A w & 5 6 5 5 t 6 , t H 6 t V V t & C 8 5 , 8 r 8 t a 6 6 6 > > , , * 8 8 6 5 6 w C S 5 8 5 > 8 a a 5 c.Z V 5 w 5 A C Q h S o.G Q Q w G A o.8.G t z A C V G w A A 8.V V p a V t 7 5 6 5 , , , , , 6 r r r r r 8 8 w w 5 6 6 6 6 6 8 w 6 6 6 5 5 5 8 8 8 8 t 8 8 6 8 8 8 6 6 8 6 6 8 V 5 6 6 5 5 5 w a 8 w t t t 8 8 8 8 8 8 6 5 > 5 8 6 6 5 5 6 6 5 > 6 6 5 6 6 t a C t w t A C w t A w w w w V C C V w h V Q G S v V w w A w 7 V q V i w v V v F v 5 G D S v v o.0.S Q S G S q V Q v V w 7 5 w A A v 7 v h v 0.u.+.D Q G Z h h G 0.Q W Q f.o.+.h E W g v 9 S S h Q S h h Q 0.G 0 5 h F q c g v Q v v 9 v D V w w V V C V p w 8 8 w 8 5 7 7 7 8 a a 8 V V t 6 w V t w V t t w w w t t 6 6 6 w 8 , > 6 8 6 8 d C C a w w q w w w w A 8.A a 8 C A A C A Z F G 9.b 9 G V o.8.o.V V G G Z Z p w Z 8.A V Z w p w 7 7 w w 5 6 6 8 8 r 8 5 > r 8 8 8 6 8 8 8 8 8 6 8 8 8 6 , 6 8 8 6 6 8 8 8 8 8 8 6 6 6 6 8 6 8 > > 8 8 5 6 > > 5 6 6 6 8 8 6 6 8 8 8 6 6 6 6 6 6 6 6 6 6 6 > > > 6 6 > 6 8 w t t w w t t t A V t t t t w 6 6 t 8 8 t w 8 a w 8 t w 6 6 6 w 5 5 6 w t t 8 w V w 5 5 w h h A G 5 w h w 5 5 A 8 6 8 a C t 6 > 5 5 6 8 8 6 8 8 8 5 8 8 8 8 t 5 > 6 8 8 8 8 8 a w 8 w w w w 8 6 a 8 > > 6 8 , & 6 : > , , ; $ $ 6 6 8 6 5 5 6 8 8 6 5 5 6 6 > & , : 6 8 e , , 6 > 6 8 6 5 5 5 5 6 6 8 8 t t y t 6 6 8 8 6 6 6 6 , 6 , , , , , * 6 6 6 6 6 6 , 6 5 6 w t 8 7 7 w w V Z p 8 8 8 6 > 6 8 8 8 8 8 a a 6 > 6 V A a 6 5 8 t 8 t w w w x y t 6 5 6 8 d > d d , , a y > 8 t 8 w w 5 0 G D q S h w D 8 6 3 & & 8 $ > A = > > > > * * $ $ # $ $ $ O : % $ $ $ $ $ $ # $ * * * * * * * * * * $ $ : < : : : $ u s 8 , > > 8 C 5 6 C S S +.f.+.k h 0 & r 6 6 ",
"G 5 C 8.A w 8 a 8 w 6 5 6 , 6 C w 3 C V 8 5 = V y t e e 8 5 * 6 8 t u 8 8 8 r 6 * , 6 6 0 w v V = w A C 5 & 5 w 7 7 Z p p 7 p > h h S V 7 9 7 5 S V C D V 8 w C 8.V 8.8.C = w G A V w w w w w C 6 , , , , < 1 r r r t w 8 0 w w 0 6 6 6 8 w w w 8 w 8 w 8 6 6 8 w w 8 w 6 6 6 8 t w 8 w w 6 w V 8 8 w 8 8 8 8 a w 8 t t 8 8 8 8 8 8 8 6 6 5 8 8 8 6 5 6 8 6 5 > , , , , 6 8 t y t w w V V w V G h h h v V S S S V v V D S v V Z p 8 A a w V 7 p Z v i v v o.9.o.v D D D Q Q S 9 S v v v h S D h h h w h V S v 7 S 0.Q h h v h v 9 h 0.u.Q V v v 0.F W S y.E W b v o.q.v 9 h S S 8.Q S S A A a w o.b F v v G F S v V Z V p v V v V a p 8 8 w 8 8 8 8 8 7 w a a 8 V V t 6 8 x C x y t t w 8 w u u u 0 w t w 6 5 6 8 6 , 6 8 p p w S v w 7 w p w 6 5 8 8 t a C a 8 Z v v F q 9 G V p V V w 8 Z G Z Z 9.G 5 5 V C p 7 w w w w w w w 6 6 5 6 8 8 8 8 8 8 8 8 6 8 8 8 5 5 , 5 6 6 6 6 6 8 8 6 6 8 8 8 8 8 8 8 6 6 8 8 8 8 5 > 8 8 6 8 6 6 8 6 5 5 6 8 6 6 6 6 8 8 8 8 8 8 8 8 8 8 8 8 8 6 8 8 8 5 6 8 6 8 8 6 8 t t 8 C V t w z z h w 6 t t 8 t w 6 8 V w 5 6 t t 8 > C a w 8 w t V C 0 w v S Q S 7 7 v 5 w h p V 5 w 8 8 8 t 8 8 6 8 8 8 8 8 8 8 8 a 8 > 5 8 6 8 8 > > 8 8 t 8 8 8 a t t w w w w w 8 a 8 8 8 8 r 8 6 r , , < < : ; > , 6 6 6 5 5 6 8 8 6 6 8 8 8 6 , , : , 6 6 , , 6 & 5 8 8 8 w 8 8 6 8 8 t t y y t 8 8 8 8 8 6 6 6 5 6 , , , 6 6 , , , , 6 6 , , 5 6 6 w w w 7 7 w 7 w w q w 8 w w 5 6 6 5 5 5 8 t C 8 5 5 6 6 6 6 8 8 t t t t w w 8 u t t w 8 6 6 r 6 8 d a 8 6 w > 8 t t V u t D q 5 v 7 0 V 4 5 6 6 5 t & 6 H > > > > > > > $ $ $ * % O + : % + * > * $ $ # $ $ * * % % % % % % : * * : < : : : $ r r , , > & > s y C C h v m 9 E f h h 6 t * # ",
"w 5 5 Z V w a 5 6 t 8 8 8 > 6 A 5 5 C V u 8 5 x t 8 8 e 8 5 , 5 6 t a t 8 8 r r , 8 t w 0 5 9 7 Z h w V G o.G Z 9.5 = $ p V Z 7 7 S S h h h h V V h z C C w w t V 5 5 5 C Z 8.w V w w V V w 7 5 8 6 , : : , < e r r t t 8 0 w w w 8 6 8 8 t 8 w w t V a w 6 8 w w w 8 8 8 8 6 5 w w w 8 w 6 8 8 w 8 8 8 w w 8 t 8 8 t 8 8 8 8 w 8 8 8 8 6 6 8 8 8 6 6 6 8 8 5 > 5 5 5 5 6 8 8 8 V t w w 8 w z A V v v V V S S S w h V S V w h V p a A V p V q w v w V V F Q o.F v o.S h S S h h q v h h S S h q V V C C S S V w h Q D h g v b W S h G 8.S q S 0.o.b S S W g m W D 9 v 5 D T.~ S o.Q S w V A a 5 +.b o.v 9 F G F V V V v w p w q 8 8 8 p p 8 8 w w 8 8 7 8 p p 8 V V t w w V V t t w w w w w w t x z z x t 8 6 6 a 8 8 8 8 8 7 5 Z G G Z A o.G p 5 V A t w a t 5 V h 9 v w q Z v V Z C p 8 V a 8 7 p V G 8.G V Z p p V V w 7 7 8 6 6 > > 6 8 t t 8 8 8 8 8 8 8 8 5 6 6 6 6 8 8 t 6 8 8 6 6 8 8 8 6 8 8 8 8 8 8 8 8 t 6 > 8 8 5 8 8 8 8 6 5 > 5 6 5 5 6 6 8 8 8 8 8 8 8 8 8 8 8 8 8 8 8 8 8 5 5 8 , 6 6 6 8 t t t t t 8 8 w z z t 5 8 8 8 a 8 6 w t 6 5 6 t V a w C a 8 6 6 w t V z V w h S v q h q 5 V w w C 6 5 8 8 8 8 6 5 6 t 8 8 8 8 6 6 8 a 8 5 5 8 6 8 8 > 5 8 8 8 8 8 w 8 V V t w w w w 0 8 8 8 8 8 8 8 6 t 8 , < < , : , , 5 6 5 5 5 6 8 > > 5 6 8 8 8 , 6 < 6 r 6 , 5 8 > 5 6 w 8 w w w 6 8 w w t t 8 8 8 8 8 8 8 8 6 6 5 6 6 , , 6 6 , , , , 6 6 , , 5 6 6 8 w w 7 7 w w w 7 5 5 w t t 6 6 5 > > 5 8 8 a 8 8 t 8 > 6 a 8 8 8 8 t t w 0 0 w t t w 8 6 , t 5 6 a a > & 8 5 a V t V t w w w v S h C A w z 6 5 5 8 & 6 A > > > > > > > $ $ : : % % % % % O : : : > $ $ # # * * * * % % % % : * * : < : $ : , r 6 > 6 6 & & 6 y C z v o.Q 9 E q h 5 & 6 4 * ",
"w V 5 5 5 5 C & > 8 t a y 6 > w w 0 w w x A t 6 5 5 5 6 6 5 , , & w V t 8 6 r r r t C V w 5 9 q q q v D S v Z 8.o.w v ` S 5 w F 9 S 7 3 V D h w V w V A A C w 8 C A q.V V C 8.C w w w V C p 5 5 w 8 6 , , , , < e r r 8 8 0 w w w 8 6 8 t t 8 8 6 t V a w 6 8 w w 8 6 6 w t 8 6 8 w w w 8 6 6 6 8 w 8 8 8 8 8 8 w w w 8 8 8 t t 8 8 8 8 8 6 6 6 8 6 6 6 8 8 6 5 5 5 6 8 8 8 8 8 A t w w 8 w w V v v v v V V S V 5 h D Q S h w w w a Z a 8 p w w q q V Z v S N g v Q h 5 D D h S h D S h S v 9 q h v v h v S S D 9 v v v Q o.W W S h S o.Q Q Q D o.S S W E g m o.D v Q o.0.o.S ~ h S Q S V 8 8 5 G v X.v 5 F o.D Z Z V v p w w w 8 w w 8 w w 8 7 8 p 8 8 8 w 8 7 t V V V V t w 6 w w w w w w t t C z u x t w 8 8 d 8 8 p p w w 7 5 v o.D S G Q G V G G V w p C C q h w S V w V w Z G A V a a 8 8 w.Z 7 v G V w C V v V C p 7 5 w 6 5 > > 5 8 t t 8 8 8 8 8 8 8 8 5 8 8 8 8 8 8 t 8 8 8 8 8 8 t 8 5 8 8 8 8 8 8 8 8 t 6 > 6 6 > 8 8 8 8 6 > > 5 6 5 5 6 8 8 8 8 8 8 8 8 8 8 8 8 8 8 8 8 8 8 > , 6 5 8 8 6 8 t t t t w w w w w w w 5 w w w a t 8 t 8 t t t w 8 t V 6 6 6 6 6 w w 6 C V 7 5 w w h Q w w V q 5 w 5 8 8 8 8 8 6 5 8 t 8 8 6 6 5 > 5 8 8 8 8 8 6 6 8 5 5 6 8 8 8 6 8 8 t t w w w w w 0 8 8 8 8 8 8 8 8 u 8 , , < : : < > 5 6 6 6 6 8 8 > > > 5 6 6 8 6 r 6 r r r 6 5 8 8 6 6 8 8 6 6 8 8 8 8 w w w w w w w w w w 8 8 8 5 6 8 , , 6 6 , , 6 6 6 6 6 6 6 8 6 6 w w w w v V v w 5 6 8 w 6 w 8 8 6 5 6 8 8 6 > 8 A C 6 6 a 8 6 5 6 t V w 0 w w w 0 6 6 8 6 8 a t 8 8 8 8 5 8 C t 6 w t w w w v h q C C 0 8 6 3 5 6 & 6 t > > > > > > > $ $ : : * % % % % O * > > : : $ # # $ $ % $ O O O O * $ $ * > $ # # > , > & 6 , & * 8 y V w V y.u.P E 9 h 5 3 t e u ",
"G G 5 V C 5 w 5 > 8 8 t C t 8 t w w 5 5 w t u & 8 8 8 8 5 , & & > t A V t r u a r t y V w 7 h S h v D +.o.F v F o.v v ` v b v S v Q h q D D w 7 v w w z V V 8 w w & w V V = 5 w V 7 5 5 w w C A t 8 8 , , , , < 6 e e 8 8 0 w w w 8 6 8 t t w 6 5 8 t t 8 6 6 w w 6 5 6 t a t 8 6 w t 8 w 8 6 6 8 8 8 8 8 w 8 6 6 6 8 6 6 8 t y t 8 8 8 6 5 > > 8 6 6 6 8 8 6 5 5 6 8 8 t 8 8 6 V t t V V z v V h v h h h v v V 7 v G Q D V v v w a p w w w v p v q w v q v G G q D h h 0.o.h h v o.D S S h 9 v w w w w h h V D v W D D o.W m v D D Q Q S o.0.D 0.m f S o.o.E F Q o.W u.q.S o.0.h v Q 8.G w 7 V F v o.b q G o.G Z G G Z V v V Z w w w w w w 7 5 w w V w w w w q t t t t t w 6 6 w t t t t t t t C z w z V t a a 8 8 8 w p V C S 9 F o.W F Q Q D V V V Z V p S 8.7 S V S V q v w w w t 8 t a a t C ` V 5 w Z p 5 w w p V V p V Z 6 5 , , 6 6 6 6 6 6 6 8 8 8 8 8 > 6 8 8 8 6 6 6 8 8 8 6 6 8 8 8 , 8 8 8 8 8 8 t 8 d 8 5 8 6 > 8 6 8 6 5 > > 5 6 5 6 8 8 8 8 8 t 6 6 6 6 6 6 8 6 8 8 8 8 8 5 5 8 6 8 8 6 8 t 8 w t t w w w w w w w t 6 6 8 w 6 t t V V t 5 > 5 6 5 8 w w 8 t w 5 w z w h S h w S w 5 V V w w 5 A 8 8 8 8 8 8 6 6 8 6 8 8 8 > > 6 8 8 a t > > 8 8 6 8 8 8 8 8 8 8 w w 0 0 w w w w 8 8 8 8 t t t t t 8 , , , , , , 6 6 8 8 8 8 8 t 8 8 8 6 5 6 8 t r 6 r r 8 , 6 8 t 6 > 5 6 6 w w 8 8 8 8 w w w 8 w w w w w w 8 8 8 r t 6 , 6 6 , > , , 6 6 6 , 6 8 6 6 w w p b S V v w 7 8 w 6 > 6 8 8 8 8 8 6 6 8 > 5 C C 5 & 6 8 5 > 6 t V z 8 w w w w w 8 8 8 a C a 8 6 t a w 5 z w 6 w V z z Z F h w V V u 6 6 5 8 6 5 w 8 5 5 , : : > > $ $ : * $ * * % $ $ $ * $ * : > $ $ $ $ $ $ $ $ O O $ # # $ $ # # # # * & & > & & 6 5 & & 3 3 q h 9 h 9 S D x C e * ",
"V o.V v C V w 5 8 8 6 8 C a a A 6 z w w 5 & w 8 8 8 8 8 8 8 e 6 5 t C a 8 r t s a t t a w 9 q S u.W m F +.q.+.o.u.o.5 9 v z.u.q S Q Q Q G V v S C h 0 7 8 8 w t C 5 p V 8.A ` V C a w w w w V C V a w 6 5 , 6 < 6 6 8 8 8 0 w w w w 6 w t t w 6 5 6 8 8 8 6 6 8 w 6 5 6 t a t w 8 t a t 8 t t w w w 8 8 t 8 w 8 6 6 8 8 8 8 t y t 8 8 8 6 6 > > 8 8 6 8 8 8 6 5 6 8 8 t t t w w t w t V C D C V h h h h w h v V h v v h h V V V w a 7 w 8 w C p V q w v v v v v D Q v v o.o.v S S Q D D S h h D h w V C S V v V h D W S m m S o.Q 0.q.Z 7 v o.Q m h 9 S S o.E F D 0.g S ~ o.s.Q Q v v Q Q v w Z o.G o.F G o.F W Z Z Z Z V p V Z w p V V p w w q w w V V p V V V V w w w 6 6 w V w t t t t t t t C z w z V V C C V p 8 5 7 w S Q W W E E +.u.+.F W S Z 8.8.C v S h o.S v w 5 v C 6 w w w t t a a & p Z Z G V p p p V V v V Z Z V 6 6 6 6 6 6 5 > 5 5 6 8 8 8 8 8 6 8 t t 8 8 6 5 5 8 6 5 5 8 8 6 , 8 8 8 8 6 8 t 8 a 8 8 8 8 6 8 5 6 8 6 5 5 5 6 6 6 8 8 8 8 8 8 6 6 6 6 6 6 6 6 8 8 8 t 8 8 8 8 6 8 8 6 6 8 8 6 t z V a w w w w V V 8 5 w 8 5 8 8 8 5 5 6 8 6 5 w t w 6 6 8 8 5 w C V V S V w V q 5 V A C w 5 A w 8 t 8 8 8 6 > 8 8 8 8 8 6 5 8 6 6 t 8 & & 8 8 8 8 8 t t 8 w w w w w w t z t w 8 8 8 w 8 t t 8 r 6 , , , : : , 8 8 8 8 8 8 8 t 8 8 8 5 , 5 8 t 8 6 6 6 6 , 5 8 t 5 & 6 w w t C 8 8 8 8 w w 8 t w w 8 8 w w 8 8 8 u d r 6 6 8 6 > > > , , , , 6 w 6 8 w V V V S w i w q w w 6 > 5 5 5 6 8 6 5 > 8 > > 8 t 8 6 t 8 6 5 6 t C V u w w w z a t 6 > C t 8 8 w 6 8 a 6 V V t C z 0 0 0.o.V S z V A 6 5 & 6 5 6 w 5 6 6 6 , , , : : : : * $ : : * * * > * & > , , : $ * * $ $ $ $ $ $ : $ $ : : : * > & , 6 6 6 * > t a w C Q Q o.o.Q S h Q G x y 8 5 ",
"9 G G 5 w A 7 5 w w 8 8 t w 8 A 8 C 0 z w & t w > 6 6 5 6 t u r 5 w t 8 5 6 8 t a t w V V w h F g W O.m 9 q W s.q F o.u.F 9.+.Q h q h S h q h V V v w w w 8 w t 5 C w.w > & C w V V A G C w w w Z V 8 8 6 , 6 6 6 6 8 8 8 8 w w w w 8 t t t w 8 w 8 6 6 8 w 8 6 w 8 6 8 w 8 w 8 w a V t 8 a a t w 8 w 8 8 t w 8 6 6 8 8 8 8 8 w 8 8 6 8 8 8 6 > 8 8 6 6 8 8 6 5 6 8 8 t w w w w a a z V C S S V w h h w w w v V w h w q w V S v w C 7 w 8 8 Z w Z w w V v v q 5 0.o.S v m S D o.D v S Q F S D S S V V S S V V S q v v h S W o.u.w V 0.0.S h h q g F m W g E E o.b q.u.o.h f E Q ~ S v V Z V p v 9.o.b v 9.o.q G Z v v v p w w p w w p p p w w w w V V w w p C C t w w w w w w C w w w w w w 8 8 C w w t a a a a A Z a w w h V S E c f g E o.W b +.o.Q +.q.o.S w h 8.V w w 0 z C t t t t t t w w 8.Z w V Z w 7 G Z G Z w p Z Z w 8 8 6 6 8 8 6 5 5 6 6 6 8 8 8 8 t t 8 8 t 8 8 8 6 8 8 5 6 8 8 8 5 8 8 8 5 5 8 t 6 a t 8 d 8 6 t 6 8 8 8 8 6 6 6 5 6 6 6 8 8 8 8 8 8 8 8 8 8 8 8 8 6 8 t 8 8 6 8 5 8 8 6 6 8 8 8 w t V t w w w w t a 8 6 w 8 5 6 6 5 5 6 w t t t 8 t w 5 5 8 w 6 V C w w h w h Q w 5 V V V C w w 8 t a 8 8 8 6 5 8 8 8 8 8 5 6 8 8 5 8 8 > 5 8 6 8 8 8 8 t t 8 w 6 w w w z t w 6 w 6 5 8 w 8 8 > t 6 , 6 6 , > : 8 8 8 8 8 8 8 8 6 8 8 6 > , 5 8 8 6 6 8 8 6 8 t w > & w t w w V 8 6 6 8 w 8 t t 8 8 8 8 8 w 8 8 6 r t 8 6 6 8 8 > , , 6 6 6 6 6 w w w v V V v v w p v w w w w 8 5 5 > 5 6 8 5 > 8 5 5 8 8 t a C 8 8 5 8 w V z h w w w a V t 8 5 8 8 w 8 8 8 w w w V C C A w 0 h D v v D 3 3 D = 3 = 6 & 6 t & 8 8 6 < < , , , , : $ $ : < : : : < , > > , < , > : : : : * * * $ : : : : 8 , , , 6 r t t 8 5 5 a 5 > w C V S W S Q h S h 5 u t y ",
"S 7 w q V w # G 5 v a a 8 > & 8 V z & w V 6 t 5 8 r 8 > & 5 5 > 5 w w 6 5 6 8 8 6 > 5 V Q Q o.u.g ! ,.+.N N m c o.m c $.g g F T.u.h h Q V h V w q w z z w 8 8 5 w & w w V w ` 8.w w a V w w V G A C w 8 6 6 6 6 6 6 8 8 8 8 w w w t a a t t 8 w a 8 6 6 w 8 8 6 w 8 8 8 8 8 6 6 8 t a w w t a t 8 8 6 8 8 8 8 6 6 w t w 8 6 8 8 8 6 6 8 8 8 8 6 8 8 8 8 8 8 6 5 6 6 8 8 w w w w A A V V V V v w w h h w w w v S h v v V Z Q G v w Z 8 a a 8 C 7 8.w 5 q q v G G D D o.o.S b Q Q Q h v Q D D D h Q V w w h h v D Q D h h Q o.W D Q w q h q q v S +.y.E Q m u.o.W F 9 W 0.u.y.E y.S Q Q D V V V w o.W q 9 9.o.3 F G v w w p w w w w w w w w w w w V V p 5 5 7 w V w w V A C w 6 w w w w w w w w w V w 5 w w w 8 8 8 p V A G Q Q W +.! m m m m S W W W S b o.u.0.S q Q h w C w w w w w 8 t 8 8 8 w w w 5 7 8.s.G 5 V G V 7 p o.` 8 8 8 6 6 8 8 8 8 > 5 6 6 8 8 8 8 a 8 6 6 8 8 8 8 8 8 8 8 8 8 t 8 5 8 8 8 , > 8 t , 8 8 8 t 8 5 8 8 8 t t 8 8 6 5 5 5 6 6 6 6 6 6 8 8 8 8 8 8 8 8 6 6 8 8 8 5 > 6 6 8 8 8 8 t a t 5 0 w w w 0 5 5 6 8 6 6 t t 6 w w V A a 8 5 8 a 5 t 8 8 w C V w 5 w 7 7 h w h G Z V V 5 7 A 8 5 5 a C 8 > > 6 8 8 6 5 5 5 > 5 8 t 5 5 8 6 8 t 6 5 5 6 8 8 8 8 8 6 6 0 w w w 6 3 t w 6 8 t a 8 5 t 6 6 8 8 , : > 8 8 8 8 6 6 8 8 5 8 8 8 8 8 8 8 r r r t t 8 t a 8 & & w t w 5 8 6 6 6 6 8 8 t a w w 8 8 8 w 8 8 & 6 8 6 > , 8 8 6 6 8 8 r r r t t w w V V p w w V Z Z v 8 w t t 8 6 > 5 6 8 8 8 5 8 8 8 8 6 5 > 8 8 6 8 w w w w C z w w 8 8 8 8 5 A A 6 6 A A 5 5 w w z C z S w.Z v G 0.3 & ( & 6 & 8 5 w V > a 8 8 8 6 < , , , < : : < r < < 8 t 8 > > 6 8 , > < < < : : : * : < : : < 8 < < 8 8 r 8 8 8 > & 8 A A ` Z q q h 9 h 9 S z 8 y w 8 ",
"q 5 h v 5 5 uXA V 5 w w.C w 5 C 0 w 7 V w A w w 6 6 6 6 6 8 6 5 5 Z C A 6 6 > a $ A 5 5 w h 8.q.W O.! N a.d.X.,.W W q m o.g q v G Q Q h Q o.7 w 5 w w 5 5 5 8 V w w 5 7 V G A V 5 w p p p V v w w v V V 8 6 6 8 , , 6 8 t u w 8 t t a t w 8 8 w w w 8 6 8 t w 5 5 5 5 6 8 8 8 6 5 6 8 8 8 t V V 5 8 8 8 8 8 6 8 6 8 w 8 6 8 8 r 6 6 8 8 8 8 8 8 8 5 8 8 t 8 6 6 5 t V 8 6 w w w C V S G S h h v q S D v w v S v S Q V h S h w Z w & p A 7 w G Z q Z G p v o.o.v S v v D Q S S q.v D v v Q D q v h h V V V h v V v v q h 9 g W v 7 h v h V Q Q S Q v o.y.m m o.m g o.~ o.+.~ Q f m S 8.Q G 8.V v F W G F D v g F V Z V V V C V q w V 5 w 0.G q w V 8.w 7 A w 5 w V 8 8 V C 8 5 5 w w w C 8 > 6 A C V w w 8 8 8 8 Z > 5 Z F F Q S ! N #.f.O.O.o.c f F W g q S Q Q S V G Q z w t z 0 & 6 w 5 t C 5 p w V ` G Z V w C w 7 V Z v w p A t 6 > 5 5 5 > 8 6 8 8 6 > 6 a t 8 8 6 8 8 8 8 8 8 8 t t 6 > 5 5 8 8 6 6 6 6 > 8 6 5 6 6 8 6 5 8 8 8 6 6 8 8 8 8 8 6 6 8 8 8 6 6 8 8 8 8 t 8 8 8 8 8 8 8 8 8 8 , 5 6 8 8 8 w 8 t w 6 5 0 0 w w V 8 w w 6 w A A 8 w 8 6 6 6 6 5 8 J t & w 8 & 8 V V V v h h h w w 5 V v w V V C 5 8 a 8 5 6 8 8 8 6 8 t 8 > 5 t 8 a a 8 6 t a 8 5 8 a a 8 8 8 a t 6 5 w w 0 6 w 5 5 v w w t 5 8 8 6 6 , , 6 , * 6 8 8 8 6 6 8 8 6 8 8 8 8 t 8 > 8 6 8 t w 6 8 t & 5 t 5 w C w 5 6 w 8 8 8 8 8 a C A a 8 5 8 a d t 6 , , , 6 , > 6 6 , 6 8 8 6 5 a w w Z A p 7 7 q G 5 w w & C 5 6 t a 8 > 5 6 6 > 5 6 8 8 t 8 8 5 5 w w z z z h S z w w a a 8 5 8 C C 8 5 C w.V G V G w z 0 G S v h G Q w w D V C & 5 8 V A w a t : # $ > * * > 8 , r 8 u d , a a 8 > 8 r 6 , , > , : : : < : : > , 8 < , : , 8 a # > 8 6 = = A 8.w = G h 3 q.Q 0.q w G G t 8 w ",
"V v Z w V S s.8.7 w 5 w > 8 6 8 V V 5 w 5 A C G & & & > 8 a a t 5 q = 6 w A > > t w w V S h 9 m #.U ].jXd.n N +.N X.g W j.q.F g v S S q S Q V Q 5 w V C A V 6 w > 5 w V C C w 5 V V w w w C C V V v v v w 5 5 8 8 r t t t w w w w t t t w 8 8 w w 8 w 6 8 t w 6 6 6 5 6 8 w 8 6 t t t w 8 t t 8 8 8 t t 8 w w t 8 w 8 8 8 8 8 t 6 6 8 8 8 8 8 8 8 6 6 8 8 8 6 6 6 t V t w w a a G C V V h w v Z V V V V v h v V v V v v S v h V w 5 p V 5 5 w 7 5 V G V q v D D o.Q S S D v h D Q o.D S o.Q v S Q G G G G Z S Z h h 5 g b v S h 0.G V G G h q h S g Q 0.m E y.W W o.S W W m W m ~ W W h S 8.V h h F b v v v g F v v v w v Z C p C w w V S C V w 5 S q w V w w V V 8 8 V C t w w w w V A V w 8 C w 8 a V p 8 p a w p v q q D 0.o.`.Y.i.O.! ! X.y.b o.q.q.o.b g q G V V D z z V z V A H C 6 > 6 5 7 w Z G p q v V w p A ` Z w V 8.A t 6 > 5 6 6 5 6 5 6 8 5 > 8 a 8 8 8 8 8 8 t t 8 5 5 8 8 8 5 6 5 8 8 6 6 8 6 > 8 8 8 8 8 8 8 6 t 8 8 8 8 8 8 8 8 8 6 6 8 8 8 6 6 8 8 8 8 t 8 8 8 8 8 8 8 8 8 6 6 8 8 8 8 8 8 w t w 6 6 w w w w w 6 8 t 6 8 t 8 w 8 w 6 6 8 8 6 5 V t 5 w w 5 t 5 5 7 w w V S Z v 5 V h 7 V V C 8 a a 8 8 8 t 8 8 6 8 8 8 > 5 8 & 6 8 > 5 8 a 8 8 6 5 8 8 8 8 5 w 0 w w t w w V 8 5 V w 8 w 5 w 8 8 6 6 6 6 , > 6 8 8 8 6 6 8 8 6 8 6 6 8 t 8 5 8 6 8 8 8 5 6 t w w V 5 5 C h v 5 8 8 8 6 8 8 C 8 a V a t a t 8 8 8 6 6 6 6 , , 8 6 6 6 8 r 8 6 w 6 w p V V p p w G 5 p 8 5 A 8 5 8 t 8 5 5 5 > 5 5 6 6 8 8 8 8 8 8 w w w w h h z z h w t a 8 8 6 8 8 a 6 w H t z w S z S h D h V h S G w z H A C & 5 5 w t > 8 r < : < < , : , 8 , 8 , 8 r > a t 8 6 6 8 8 8 8 , 6 < : : < < : r , & > 8 r 8 , a & $ $ & 6 5 Z Z V q o.v w s.G u.S h h 0 w V V ",
"q v S q 8.D 5 w Z 8.A Z V 8.A A C V 5 w 5 w 6 w t t 8 8 t a t 6 0 V 0 V V A w t t = h C D o.g S f P a.O.n d.iXK.g q.+.S q & 9 q o.0.8.v v V w S V w 5 w C t 6 w 5 w w w w w w w V p w V A G C q W F V v 7 5 6 t 8 r t r 6 6 5 6 w w t t w 8 8 w w t t 8 6 w 8 w 6 6 6 8 w w w 8 V a t w 8 a t 8 8 8 a a 8 8 8 t 8 8 w 8 8 8 8 w 6 6 8 8 8 8 8 8 8 5 5 8 8 6 6 8 8 t V t w t z h G S V v h h v D G V v S S h h D V h V D V v V v 8 8 8 a a 8 w w v v v v v F v v W D h h D D S D S D v h S S h h V V v w h h w q h Q h S Q h g v Q V h S Q S S W b g E Q m m o.E q.+.m +.:.E ! O.W E Q h S o.V v h W F g v v v v v v w w p V Z V A 5 V A q h G w h A C A A V o.Q w w w p V p w p w w V C V p w w 8 V Z C p 7 7 8 5 Z G v h S S E o.,.n g y.u.W o.F v g v v b o.s.8.V h S V C C w 5 a V 8 8 6 6 8 w w C Z w 7 V Z w V G ` V 7 w A C a 8 5 5 6 6 5 8 5 5 5 5 > 8 a 8 8 8 8 8 t a a 8 6 , 6 8 8 8 8 5 8 8 6 6 8 8 6 8 8 8 8 8 8 8 8 8 8 8 8 8 8 6 5 8 8 6 6 8 8 8 6 6 8 8 8 8 8 8 8 8 8 8 8 8 8 6 6 e r r 8 8 8 8 w w w w w w w z t w 6 t t 6 6 8 5 w t t 8 6 w w 6 6 t a 8 w w w a z w w w h V S Z v 7 V h 5 p t V 8 V C t 8 8 8 8 8 6 6 8 8 > 5 8 8 t t 6 5 8 8 6 8 6 6 8 t t 8 6 8 w w t z w z D z w C w w w 5 8 w 8 6 8 8 8 6 , 6 8 8 8 6 6 8 8 8 8 8 8 8 a 8 6 t 8 8 w 6 6 6 w t w C w w Z V V w w w 7 7 7 p V w p a a p p 8 8 8 8 8 8 6 , 6 8 8 6 6 8 t t r 8 6 w w 7 w V V V b G q p t 6 A 8 > 8 t 8 6 5 > > 5 5 5 6 8 8 8 8 8 8 w w w w h h z z h V p w 8 8 w 5 5 A V 5 V v V w V h Q S S h D v V h 0 w C x C 5 6 6 6 8 > 8 8 < < r 8 , , , r 6 6 & 5 8 & a 6 8 8 5 > 6 8 8 , 8 6 , : < < : r , & * 6 r t 8 > & 6 & 5 V 8 7 p v v q.D v q.S D S S h 5 w V w ",
"W Q S S u.Q 7 v q V w C p w & w V h 5 w 5 w & 5 V A C t t a y 8 w V w C w t 5 t w & v w w 0.o.m g P 9 g ,.+.! $.g b q g v S o.o.S D Q S V G h S Z w 3 5 V w 6 C w w w 5 5 w V V w 8 w V G o.C w Q F S v w 5 8 t 6 r t r 6 5 5 0 8 8 w w w w 8 8 8 t a t 6 6 w t 8 8 8 8 8 8 w 8 t t w 8 t V V w 8 8 8 w 8 8 w w 8 w w 8 8 8 8 w 8 8 8 8 8 8 8 8 8 6 6 8 8 6 8 8 w w w w w t w w S S S S S v h v S V V S V h v G G h S Q v v V w w p 8 V G Z p V G V v V D F v v S S g 9 D 0.o.Q v S v b D D S S V V V V V Z S V 5 q.o.Q o.v h D w V V h V 8.q.o.v h S E m E o.W F N m o.+.m P k k m 0.Q D o.V v v o.W c v v v q V v v w w V V V V w S Z w w C V V V w C w w G V w w w w w w p V w V V V V C V w a C Z V 8 8 7 7 q V S D Q h f ~ f o.,.+.+.E h F F v v v v m S D o.v h V V V V 5 & w > > V C 8 w C q w V p V A Z G A G ` ` A Z Z C a 8 6 6 8 8 6 8 8 8 5 > > 5 8 8 8 8 8 8 8 t a a 8 6 8 8 d t 8 6 8 8 8 8 8 8 8 8 8 6 8 8 8 8 8 8 8 8 8 8 8 6 5 8 8 6 6 8 8 8 6 6 8 8 8 8 8 8 8 8 8 8 8 8 8 8 8 8 r r 8 8 8 w t t w w w w w w w V w 8 w > 5 w 8 w t w 6 6 w w 6 t t C C w 8 t 8 C V h w h h v V v q V V w V w w 8 a a 8 8 6 6 8 8 6 6 8 8 5 5 8 t a a 8 6 8 8 5 > 8 a a 8 6 8 t 6 8 w w w w z C h w C w 8 V 6 8 8 8 6 8 8 8 6 6 6 8 8 8 6 6 8 8 8 8 8 8 a C a 8 t t t t 8 w u t 6 w S V V A h V V V p 8 8 8 w p V V a 8 w 8 8 8 8 8 r 8 , , 6 8 8 6 6 8 t u t r 6 t 8 5 7 v V w V G w v a w V 5 5 8 8 8 6 5 > > 8 5 > 6 8 8 8 8 a p w w h V S S S S S S V w w p p w w A C 5 w w G V v 5 S h S h D v h h 0 w z u t 3 8 8 8 t 5 t 8 < : : < < , : r 6 6 & 5 6 & t > 8 8 5 & > , , , < < : : < < : * , 6 6 , , 8 u $ > C 8 8 a 8 w w q v w.o.q S v v h V S h v V w ",
"u.+.9 Q Q v 0.S 5 w w Z q 5 = 5 Z v 5 w 5 V V A > t C t 8 a A A Z S 5 w t C 6 w C A V S w v +.f a.].y.#.y.c c W u.+.F 8.o.h h q v h S h h S h w h w w C A t w A 7 w 7 w p C p 5 A C p w w V A Z F b b V v w 6 t 8 t y y t 8 t V w w w w w w 8 8 t t a t 8 6 w a w w w w 8 t w 8 w 8 6 6 8 V V w 8 8 8 w a 8 8 w w w t 8 8 8 8 w 8 8 8 8 8 8 8 8 8 8 8 8 8 5 8 a w w w t z h w w V V S V v v v h 7 v S h q w V V G w V Z h h V w a a 8 a A V q w w Z o.o.v 9 v o.Q Q v q S o.D S h h v S S S S v 5 q q 5 w h h w & q.o.S o.o.Q W S Q Q V h D Q Q g h m S m o.0.o.m E m O.O.W W k k k o.W Q 0.v q g X.W c v v q 9 V V v v p v V Z w G D V S h w S S V q h w w S w V V V w w w p p C C V V V A Z V w w 8 w p V V a V V w h E m W U.o.m m b v W o.v Q o.Q v v D S q V q q v v v w 5 V A 8 7 C C 5 5 V 7 w v v V G A C p w V G G C p C a 8 8 8 8 8 8 8 8 8 5 , 5 8 8 8 8 8 8 8 8 8 t C t 8 8 8 t 8 8 8 8 8 6 8 8 8 8 6 5 5 6 8 t t w 8 8 8 8 8 8 8 8 8 8 6 6 8 8 8 6 6 8 8 6 8 8 8 8 8 8 8 8 8 8 8 8 8 e 8 8 8 r t a t t 8 w w w w 6 t 8 w 8 > 5 8 w 8 w w 6 6 8 w 6 8 8 a V 8 6 w w 5 5 7 w h h v V v q C C w C w w t 8 t 8 8 6 6 6 8 6 6 8 8 6 5 6 6 8 8 8 6 8 8 8 > 8 a a 8 5 6 8 6 w t w 0 0 w V w w Z v w V 8 w 8 5 5 8 8 6 5 8 6 8 8 8 6 6 8 8 8 8 8 8 a C a 8 w w w w t t V V 5 5 C v v Z v V a a a p w 8 8 8 a a p 8 w 8 7 8 6 8 8 6 , , 6 8 6 , , 6 r t r 8 6 t t w 7 p p 7 q b p v V 8 w > 8 8 6 5 5 , 5 6 8 5 5 8 8 8 8 8 a p V V V V S S Q S S S V w w w 5 V w w h w v w G S h 3 S h h h S F V v C C C C 5 & 8 8 8 w 5 8 r < $ $ , 8 6 > 8 6 8 , 8 w & 8 & 6 t w 6 6 6 8 , 6 < , , 8 r 6 $ > 6 6 6 , 8 8 V 6 8 5 5 8 7 A 5 q v Q Z v V w G w w V V V Z G ",
"S v 5 q.S h q.q V G G G 5 C C w C v 5 V w C w A 5 C A 8 5 8 8 8 V S q V t V 8 A t C h q.0.v y.+.+.a.#.X.5 9 +.5 F v v o.h 5 G 0.Q v S h 9 v w q v V z V C w w G v w 5 5 w V w 5 Z A A V w p V V v g v v v w 5 6 8 t t t t t x C t 8 w w 8 w 8 6 t t a a w 6 6 t w w 8 w 8 t w 8 8 8 6 6 8 t t 8 a a a a a a t t w t t w 8 8 8 w 8 8 8 8 8 8 8 8 8 8 8 8 8 6 8 a w w V C C h w v D S V h h v v v q S G v w V S V V q w h h h h w w 8 w a C V v p q v G G v q v o.D Q S h S D S S h q v S h h h 9 V A G V V S Z S g 0.m h o.+.W q G V S G D v D 0.m F E m m W W S E O.m ! O.O.:.P +.m m h Q q.v 5 h G F v F F v h v v V V V V V Z 7 Q S h Q S 7 V G G w v S V G C V C C V w V V p p w w w w p V V w p 8 8 w V C p V o.D h S +.p.p.u.h q q 9 o.u.b b D V q v 0.0.Z v q h S v v V v w C C p p p p V 5 7 V Z w w C G v v v p w w q 7 a a 8 8 8 8 8 8 5 8 8 5 6 8 d d 8 8 8 8 8 6 8 8 t t 8 6 6 8 8 6 8 8 8 6 5 8 8 6 6 6 6 8 w t t t 8 8 t d a a a a 8 8 6 6 8 8 8 6 5 8 8 6 6 8 8 6 8 8 8 8 8 6 6 5 8 8 8 8 8 r t V V t w 8 w w w 6 5 5 w t 6 6 8 5 8 w w 6 6 8 w 6 6 6 8 w w 6 6 w 5 0 w w v V V V v q C C V C w w a 8 t d 8 8 8 8 8 8 6 6 8 8 6 6 8 8 8 8 8 8 8 8 8 8 8 t a a 8 5 t V V t w w t w 7 w A v w C w 8 8 5 5 8 8 5 5 8 6 8 8 8 6 6 8 8 8 8 8 8 8 a t 8 6 6 6 6 w t V w w 0 V w w V v G w w 8 p 8 w 8 7 7 7 8 a V 8 8 8 6 6 6 6 6 6 6 8 6 , , 6 8 r 8 8 5 w w w w w i w 5 w v v a t w 6 w 8 5 5 5 , 6 8 8 5 5 8 8 8 8 8 p p V V V h h h Q S S S V w 5 w 5 Z w 7 h V A V V S h 9 8.S h v Z Q S V D C w u 8 5 t 8 8 t 5 8 r < $ # : 8 8 , 8 6 8 6 8 8 > w 5 6 8 a a 8 t s 8 8 r < < r r r , * & , t d 8 > A & & 5 w w 5 p & N G q q G G w V 5 5 C S V V V ",
"9 h h s.D W 0.v h 5 q G 3 V C 5 v w 5 Z p p 5 5 t A C 8 > 8 6 & & q 7 V 5 5 & A 5 8 h Q q.o.o.a.[.#.X.dX[.N o.g '.o.7 w w w 8.V S q G S w D G Z V S z 0 w w w A V p 7 5 5 w V p w V A A C C p w v g g v v w 5 6 8 8 8 8 8 t u y a t 8 8 t 8 8 6 t 8 t a t 6 6 w w w 8 w 8 8 w 8 6 8 8 6 8 8 8 8 a a w a a a t 8 t t t w 8 8 8 r 8 8 8 8 8 8 8 8 6 8 8 8 8 6 8 a w t C D V w w v D D S h v S S v S S S S S S V h h h q h S v q w V 5 p A a Z ` Z v v v b v F F v v D S h v v v W Q v D Q v v D v w V S w 7 w h w S D g v F S S q v 7 7 V D S W 0.S o.Q m E W m m m m f m ! P W E y.W E g F q.S q S G b v Z F v F v v V Z C p w V h S S V S A V h w G w h G h v V v V C v w p p w w 7 7 p p w w v w C C 8 w p p 7 v Z o.Q E +.t.~ W j.'.u.g q D 0.h v V A 8.8.C 5 Q v v S b v Z V 7 q p p 8 p Z Z 7 w Z ` p w V V G ` ` A V p V V a d 8 8 5 5 8 8 5 8 8 6 8 a a p 8 8 t 8 8 6 8 8 8 8 8 6 5 8 8 8 8 8 8 6 5 8 8 5 8 8 6 8 8 8 8 8 t t 8 8 8 t t t 8 8 6 6 8 8 8 6 5 8 8 5 5 8 8 6 6 8 8 8 8 6 5 5 8 8 8 8 6 8 8 a V t w w w z w w 6 5 w t 6 6 6 > w w w 6 6 w 8 8 8 t 6 6 V w 5 w C C V V V V V V V 5 V V w C w 8 V 8 8 a a 8 8 t 8 8 6 6 8 8 8 5 a a a t 8 6 6 8 t 8 t a C a w 6 t V V w w z V w w v G v w S w w 8 5 5 8 t 8 6 8 6 8 8 8 6 6 8 8 8 8 8 6 8 8 8 6 6 8 6 6 w a z w V w S h w v h G w 8 w w p p w w 7 5 7 p a w 8 8 8 8 6 6 8 8 8 8 6 , , 6 8 r 8 6 8 w 8 w w w w b 7 p Z V w w w 8 8 6 5 6 8 5 6 8 8 > , 8 t 6 5 8 w w w w w h h v Q S h S S h w w 5 G v w V V Z S h Z S q q.S h h S o.Z v D z 6 w x 8 t 6 6 t 5 8 , < < : > , 6 6 8 6 8 8 a a 5 v a 8 8 V a 8 t A 8 r 8 , , < 6 , 8 , > 6 t a 8 > w & 5 8 p w > w v F v 9 q V V C 5 5 h Z V v h 7 ",
"5 9 9 h 5 F V o.q.3 w '.8.8.0.V Z w & w 5 w 7 C > 8 8 5 8 A A t w h 5 C D A 0 V w C G 5 h Q 9 v a.`.m o.j.W o.o.v v v v & 5 8.Q Q S w.o.w h w 5 w C S V D V 0 5 5 w V C C C V w 5 w v w v V C V b m v v v w 8 8 t t 8 8 t t t t V a t t t 8 8 5 8 w t V t 8 5 8 8 w 8 w 8 8 w 8 5 8 8 8 8 8 t 8 w 8 8 8 a a 8 w t t 8 w 6 6 8 r 8 6 8 8 8 8 8 8 5 6 8 8 8 5 8 a w w C D v 7 7 h V Z G D G Q S q Q h w S G V q 7 v S h v Q V 5 w G 7 V A w p G v w Z o.Z h v v S h D S v v q q D D h v S 9 h Q V h G 8.C h V S S q 9 9 W m 9 W o.V V w 9 h D S 9 m o.o.W +.u.0.+.+.P g y.f.O.+.:.o.o.y.D F o.D G D F v h v v q S V V Z G C w q w Z w V S h Z Q 7 h w.Q Q w.S V G q p V w w w w w p q w Z Z w w Z 5 V A V w v V w Z q m Q m m t.p.b q.W m 0.0.S S o.v 9 q S G Q o.0.v w w w w v w 8.V p p 7 p a & V w C ` G S b q i w q q v V Z S p p w 8 5 5 5 8 6 w 8 8 8 a a 8 8 8 a t 8 8 8 t 6 t a 8 6 8 t t w t w 6 5 6 6 5 8 6 6 6 6 8 6 6 t t w 8 8 8 8 8 8 8 6 6 8 8 6 6 5 8 6 5 5 8 8 6 8 8 8 8 8 8 8 6 t 8 8 6 6 6 w t a t w w V V t w t 8 t w 5 6 w 8 w t 8 8 8 8 t w V A w 6 A a 5 V V V h w w v V Z V 5 v w q V h w V w 8 a t 8 8 t 8 8 8 6 8 8 8 5 6 6 6 8 6 6 8 8 > 8 C C 8 5 6 8 t V t w w V V w V V o.v w C w w a 6 6 t a 8 8 8 6 8 8 8 6 6 8 8 t t 8 6 8 t 8 6 w 8 w 6 w V V w v h Q Z V V w V Z V p p p p p p a 8 7 w w 7 8 t 8 8 6 6 r r 8 8 8 6 , 6 8 r 8 6 t w w a w 7 w V V Z o.V w w w t w 6 6 8 8 6 6 8 8 > > 8 t 6 5 6 w w q q w h S D Q S h G Q S v V 5 A w w C w w h h S v 3 Q h 5 w w D V v G D V ( t 5 6 & > 8 5 8 $ < r < & * , 6 8 6 8 6 t t 5 V A w 6 a t > 5 C 8 8 6 > $ * * $ 6 8 r 8 8 6 8 d 5 5 C 8 & & 5 8.q.v 9 h v 5 5 8.h V A v 9 v G V ",
"V 5 v 9.G q 5 V 5 o.Q G w.S 3 S Z V w 8 w 5 5 Z 6 w 5 t > w t A = 5 w h V C S V 7 0.G V V h Q h g 9.g q q.o.v v F v F q o.u.h u.k.Z h 7 v G h w w w 3 5 S v 7 V Z w V V w C 8.G q 5 8.w F v 9 9 b F b S Z w 5 a 6 8 8 w w t h t A 6 5 t 8 V C 5 8 8 8 8 w p a 5 w 5 5 8 p 8 8 a p a a 8 7 w 8 8 8 8 8 p a p 8 w 8 8 a 8 8 8 8 6 8 8 8 6 6 6 , , 8 8 6 5 8 a a 8 5 w v V h h w w V S S V S G S w h V V v h v h w V S S z h h z w z D w C C w C h V G Z v v S v q q.q 9 Q D q q S v m D S v W o.D V w w w w h C G Z 5 h S S D b S v o.G V o.W q 9 q g h m Q y.+.m m y.u.O.o.+.W m F 0.0.G Z V v V S S o.G G 8.Z D v v V S G G V q v Q S w h V v V S Q 8.D h h V V V w w w p V w w w w w w V C V 5 q v V v S V v G V h q S S o.h 0.q h o.+.v v D v h S o.G Q w.u.Z Z p w p V w q 7 5 w p w w V C V C p p o.s.` 9 5 Z q q F 9 q o.7 G V w 7 5 8 8 8 8 8 8 8 8 p p w 8 w 8 8 w 8 6 6 y 5 t y & & e 8 w w 6 6 8 t x V w 8 8 8 6 5 8 u t t r r t t r 8 6 6 6 6 5 6 5 5 8 8 8 6 6 6 5 5 6 6 6 6 6 6 6 6 8 7 7 5 7 7 w p p C C p 8 7 8 8 a 8 8 8 t 8 6 6 6 6 6 8 8 8 8 8 6 d a 8 8 8 8 5 a w w w p w v Z v v h v v v h g h h v V 8 5 6 8 6 6 6 6 8 8 6 6 y t t t t 8 6 8 8 8 a 8 5 7 q q w 5 w V G q o.Z q S F V v 7 6 C w 5 6 8 5 5 8 6 t t 8 8 8 6 8 y a 8 5 6 w t 6 > t 8 8 w 8 a w 8 z C C 0 w S G V w w w p w V V 5 t C C 8 8 8 8 5 8 8 6 6 8 8 8 8 5 5 8 a 8 t a 8 t 8 8 w 8 8 w w w V V 7 5 5 w w 8 t u 5 5 6 , * * , 6 6 8 t t w V G o.v q h V v S S Q q 0 8.G S w 5 q S S w w D S S Q S h q h S D 5 w 8.o.V V C > w 5 & t 8 > 6 t t 8 * * 6 8 8 > > , 8 8 6 8 u C 8 > 8 C A C 8 8 > & * : * , u * 5 8 8 8 6 8 t t 5 w 5 5 z 0 w V 5 w w V G q w q o.Z q v Z V V ",
"G b b v 5 5 w V h G v V l.x.G 7 q p G G w > 5 8 a t 5 8 = 6 8 A 8.V w G S 7 7 Q S u.u.k.0.w V Q V o.v h D S v 5 q v G 5 q o.q Q 9 h 0.G 5 3 9 o.G Q S V Q V 7 V w 7 w w v C V q o.o.o.q b v F g F o.o.Z V w 5 5 8 8 w 8 w 8 w w A 8 t y w a A w 8 8 V a 5 7 w 5 w 8 8 w w 8 7 w w w 8 7 w 8 w 5 w 8 p p p 8 8 w 8 8 8 8 w w w 5 6 6 < < 6 , , , 5 6 5 5 8 a a w q h V V V h h h V S S S S A S V Z G Z v v S S V w h V z z S D C z S w C S h G V S G S w w F Q D v Q q.Q q h D Q Q D D D S Q o.V V C C C v q q w o.h S V v W F D w.G q 9 g q h Q +.W E E W m c g k P O.u.p.W g F v F v v Z G Z G V v G V V D h v D S v w h S S v V V h h S S v S v V G Q Z h w V Q A p w w p V C 8 w q w v C C w S D S v V S Z o.s.k.8.V q Q q h S q b F g g b v F q g S S b v q 8.V 5 5 7 V 8.k.p C Z V w w V v w 7 i F S q S s.o.v b b m B m o.G F v i w 7 6 8 8 6 8 8 8 8 w w > 5 8 8 8 8 t t A 6 5 8 = & t e w w 0 0 8 8 t u 8 5 5 6 6 5 6 t t 8 8 8 8 e 8 6 8 8 6 6 6 6 6 6 8 6 6 6 6 6 6 6 6 6 6 6 6 6 6 5 8 7 7 7 7 8 p p p a Z p p p p 8 a 8 8 8 8 8 6 8 6 6 6 8 8 8 8 8 6 8 d d 8 a 8 w a p p V V w 7 7 v V v q h D F g S v S C V 8 8 C 6 6 6 6 8 8 6 6 t 8 8 t t 8 8 8 6 8 8 w w 8 p w w v w 5 G q V F b F F v V w w V t 5 6 t 6 6 8 8 t t 8 t 8 8 t C 8 6 6 8 t a C V t 8 w 8 w t w w 3 0 w h z C z 0 V w w w w t a 8 6 w t 8 6 8 8 6 8 8 8 8 8 8 8 8 8 6 8 t 6 8 t 8 w t w w 8 8 w w z C V w w V V w 8 u t 6 5 8 6 > 6 6 6 6 t x z 0 w V Z Z D 8.0.8.S q h 3 9 S 0 h w w V V V v V S S S D S h g h h V 5 h Q A V V V a V t 8 C V 8 8 w u 8 & * , 6 < , 6 8 r t y t u C t 5 6 a C C a a 8 , 6 e e e u & > 5 8 t t t t 6 6 C w 5 w w G v w Z v v S 5 5 v Z v w Z S v Z ",
"5 v v D D 0.uXz.# v A w w V v 5 5 5 Z Z 5 5 8 & a t 5 8 5 t t A z h w w w 7 9 5 w Q G Q S 5 w G o.9.G G Q o.0.F v v 9.v q o.F 0.G 7 q w S o.h w q h w w V w 5 7 Z Z v v o.8.Z v o.9.v v o.b q.g v W Q V V C t 5 8 8 8 w 8 w w w w 8 y a 8 8 C a 8 w a p 5 7 8 8 8 p p w 8 w w 7 8 7 7 7 8 V 8 5 8 8 p p w 8 w 8 w p p w w w w 6 6 , 6 6 6 6 6 6 > 6 6 6 8 t t 8 h V V S V V v v v S Z S V S S S D D S h h V S S V V z h z C C w h V w V S S Q S V D Z h h S o.o.Q S Q 0.D v D o.Q m v v h S b 9 w V A A V w w V o.S o.S v W D F D v v Z S S F b b g g S W N W +.,.! N ! o.m S s.o.Q v g G o.Z V Z V Q v v Z w h S V h 9 9 h v V G V w Z 0.G h V V w h G D w q V G C w w w w V C w w w w w V C V 7 w q 5 q q q v V Q S v h q.D 8.o.v v D S m b v +.m v W Q Q D v w V A G C 7 & & w V C p w w Z G Z i 8.k.F q ` s.G v N m F m 5 u.N F Z V w 5 5 5 8 6 6 6 8 w w w > 5 8 8 8 w w w V 6 6 t 8 8 t 5 8 w 0 0 8 8 8 8 t 8 6 8 t e e u 8 8 6 6 8 8 8 8 8 8 8 8 8 8 8 6 6 6 6 6 5 6 8 8 6 6 6 6 6 6 6 5 8 8 7 7 8 8 p p 8 p p p a V p 8 a 8 8 8 8 8 8 8 6 6 6 8 8 8 8 8 8 8 8 a a 8 p V 8 w p Z A C v v v G S q h o.o.v v q q w 8 5 6 8 6 6 6 6 8 8 6 5 w 6 8 w w 6 6 8 8 w w w 8 V V p w G w 5 Z w v S N F v v C V w t t 6 8 t 8 6 8 8 t w w 8 w 8 t V t t 8 t 8 t a V 8 8 8 8 t t w w w w w w w z V C A w w p w w t 8 5 8 8 8 8 8 8 8 8 8 8 8 8 8 8 8 8 6 8 8 5 6 8 8 8 8 w 8 8 8 w 8 z C V V S G S w 8 u 8 6 5 6 6 > 8 6 5 6 u C t 5 G Q G V v V h 7 Q h S S Q Q V S h Z G V h v V h S S S S S h h q v w S G C V Z C w 5 5 8 8 8 6 & 8 w 8 > * > , , , 8 6 6 8 a y 8 y 8 > 6 w w 8 8 8 5 * > , * * : 5 & & 5 t a t 6 & 5 C 8 5 0 w G q w Z v w V v v Z v 7 v G V w G ",
"9 G q v w h z.o.V Z A w 5 w v & p > 7 7 > a A & w w 5 V t C 8 t 3 w h w V o.Q V w S w 3 h Q 8.Q v o.v v G F G F b 5 b G v h q o.8.h w w V G h h w w w h V V h w C Z q 5 Z G v V o.o.v v o.o.q.v F v v v V Z C 6 8 8 8 w w w q w 6 8 t t 8 w w 8 w 8 p p 5 7 8 w w a a 8 8 p 8 7 8 p 8 8 a V a 7 7 8 p p 8 7 w p a a a p p p 8 8 6 , 6 , , , 6 6 6 8 8 w w w 8 5 V V V S V v h V h V S V h z S G Z S v h w h v V V h w 0 w z z 0 h h w h V S G S h S D V v v b b o.h v o.Q S D W o.D D D S D W v w w p V v v C o.V V 8.G b Q S v v V S w 9 o.u.b +.W S E W N m E ! O.O.o.:.Q m F u.q.F v o.o.V w D S G v v Z h v w v v h w h v v Z V w S q.8.V v G h w v v w h S w w w w V V p w w p p w w w w w 7 v v V D F v v 9 9 q D D 8.v q.Q D D Q o.Q S g v v m v v +.0.V w w V V V v v V 5 w V w w p A 8.p 5 G w.S b o.F v v N X.o.N c W v v Z S w 5 , 5 8 6 6 5 8 8 w w 8 8 8 w w 8 8 w t 8 6 8 8 8 8 6 0 0 w w 8 8 8 8 y t 8 t u u e r 8 8 8 8 8 t t 8 8 8 8 8 8 8 8 8 6 6 6 6 6 8 8 8 8 8 8 8 8 8 8 8 8 8 8 8 8 8 w w 8 8 8 8 p a p 7 a t 8 8 8 8 8 8 6 6 6 8 8 8 8 8 8 6 8 a a 8 w V 8 w w p V Z V V v Z F v v Q Q b D v v w w 8 8 8 6 6 6 6 8 8 6 6 w 6 8 w w 6 6 8 8 8 8 w p V V w v A b v V V o.m v N v q V V w t t 6 w t w 8 8 w t w w 8 w 8 w a a t t t t w 8 6 w 8 8 t a a w w A C h w w w V G A w w V w w 8 8 8 8 8 8 8 8 8 8 8 8 6 6 8 8 8 8 8 > 8 8 6 6 t 8 6 8 8 8 w w w w w z V V S G v 7 0 8 8 8 6 5 , > 8 8 6 8 y A x w Z G G S V Z Z S h h S Q Q Q S v v Z G V w w h h S S S S S S v h h v D S v V S V p 5 8 a w t C 8 6 8 8 6 & * > , , < 6 > 8 V y 5 8 6 6 w 8 8 6 8 t 8 8 r r e , , e , & > 8 8 5 & 5 & w 5 0 z w V w V V q q Z o.o.Z w w V Z v v G ",
"W +.q v h v uXT.o.V A A w 8 C w Z 5 7 7 & V 8.5 w w 5 t 6 w & & C 7 5 h S S Q k.G S w 3 V 0.8.Q D T.8.Z u.o.S Q F 9 v D V h q v V h G V 5 5 5 S G V w w v V h 5 w V 7 > v V q v z.9.G v b u.o.o.j.b h S C V t 5 8 8 w w w w q q w w w w w w w w V w p V w q w 5 6 w t 8 w a z w V C V t t a t w w w p w w 7 w p V V v v w w w 8 8 6 6 , , , 6 6 6 8 8 8 w w 7 7 V w w V V w w w w v V V w w V G D D S S S V V V w 7 9 9 w C C h h h v w h S V v h S D S v v v v q D o.S h D o.S Q D Q Q S v D S C p w V V V V V h h o.Z v W S h h h v q 9 W +.q b m m E +.f.a.+.P ! W W +.Q m b o.o.F v G o.V v v h S w w V w v q v S S V S Z Z w v w h 8.q.G h S S h w w h v h w w w v Z Z v q q w V w w w w w w V S D 8.o.Z D w w h G G o.h 8.v G G S Z D V q h v V v w Z o.V C w 5 > 7 V G 8.w w V V w w w V v 7 p p 5 G s.9.F G F s.$.X.j.g g m S V w 5 5 5 6 6 8 6 8 7 q w 6 8 0 6 6 w t V w w 5 & & & 5 w 5 5 0 w w w w w y t 8 r t 8 5 5 8 8 8 8 8 t t 8 8 8 8 8 8 8 8 8 5 5 5 5 6 8 8 8 8 8 8 8 8 8 8 8 8 8 8 8 8 8 8 8 p w 8 7 8 p p 8 a t 8 8 6 8 8 8 6 6 6 8 8 8 8 8 8 8 8 a 8 6 7 p V w w w v v w q w v S D F b b W W F V w 8 8 8 8 8 6 6 6 8 8 6 6 8 w w 8 8 6 5 5 8 8 w 8 w V p w V v S o.v G s.q v X.F v v v w w t 6 w V w w 8 w t w w w w 6 w t w w w t A A t 0 w 8 a a t w 8 8 w w z C z w 0 w C q w V w w w w 8 8 t 8 8 6 6 6 8 8 8 8 8 8 8 6 6 > 8 a 8 6 8 8 6 8 8 w w w 8 w w z V C S V w 7 w w w 8 8 6 6 6 6 r t t x A D C w v V v h V G o.q S S S m m S h V v V C V h v D S S S S S G S S h v Z V w v V w C 5 8 A a V A t 8 w 8 8 > * > 8 8 8 8 6 t C x 6 V t w t t 8 t a 8 8 r r r e e * e 6 6 5 5 5 > & w 5 w w w V w v Q Q v q w V D v v V Z S v V D D ",
"u.q.S F 9 & v h q 5 w A p w Z a w 7 v p 5 5 V w w 6 & w 5 t 6 t h h w w 7 w h V Q V S S S w 5 S 9 0.v q Q V q v G 8.o.S D o.Z 7 V w C V V V 7 h A w 5 5 5 w w & 7 V V V C C v v q.G o.v b j.W +.T.b h Q Z w t 6 8 8 w w w w w w w t 0 6 t t 8 w p 7 w V v V V w 5 0 w w w t t w t V V t w w w 8 8 w p w w w w p p w w w w w w 8 8 8 6 6 , , 6 6 6 6 w t t 8 w w h w w V V w w w w w V V w w h Z Z S Z D S V v v h h w 0 w V z h h h S w w S w w V V S v v v F G D v S D S D Q S F S Q Q h q h w V w w C A C w w S w S v g F S S D w h G F v h g +.+.Q E X.#.W f y.W n W y.W E u.F o.G F G G V V h w V q w S h v v Z D S V D o.o.h S h q S Q V 7 h V S v v V h 9 V h w w h V w q 5 w h w w h w w w v h h S S V Z w Z S h q 8.S o.v Q S w v V v V 0.S Z o.S q v S C V w w w w 7 & w w p V w w w w ` G ` V 5 V q.9.o.o.v a.X.F }.q v v V v w 7 6 5 6 6 8 8 8 7 q w w w w 6 6 8 w t 5 V V w t w 5 5 5 5 0 w w w u t y t r t t 8 5 5 8 6 6 6 8 8 8 6 8 8 8 8 t 8 8 8 6 6 5 5 6 6 8 8 8 8 8 8 8 8 8 8 6 8 7 7 8 8 8 8 a a w 7 7 8 p 8 8 a d 8 6 8 8 8 6 6 6 8 8 8 8 8 8 8 8 8 8 5 7 8 w w p V Z A V q w w v Q W v v W b S V w 8 8 6 > 8 6 6 8 8 8 8 6 8 w w 8 w 6 5 8 7 8 8 8 w V V p V w v q.v Q u.v _ q.q.G S v w w w 6 w V 8 8 8 8 w w w w w 6 w w w w 0 t A A V w w 8 a a 8 8 8 w 0 w w w w w z V h w v V w w w 7 8 8 8 8 8 6 6 w a 8 8 8 8 8 8 8 8 5 8 C 8 5 6 6 6 8 w w 8 w 8 w w V V V V h w w V t t t t 8 8 8 > 6 8 8 t x V V w V V w 9 5 q h D 0.W S v m Q S V w v Z D S Z 8.S S S S S Q Q Q S S G G V S Z v V 5 5 w 8 8 8 8 w u u w 5 & , r 8 6 6 8 t t t 8 A y 6 6 8 8 V A 6 8 8 , 6 6 * $ 8 8 8 8 6 8 8 w 6 6 C 8 5 0 5 V Q G h V Z v v 5 q S o.V 9 v Q v ",
"m E +.u.o.Q o.Z G 7 & 5 G w.` > 5 7 V V w 5 5 w w w 5 t 6 V a A 5 G 8.V w G G w G S w.q.8.h 3 G h S v S V D 0.V h 0.F 5 v G v 5 w w ( D w w 0 D A w w w w D G w 5 5 p p w v v q 9 v v G F u.W W u.v S 8.V p A w 8 8 w 8 8 w w w w V 6 5 t w 6 p w 5 p A C V Z C 8 5 6 w w w w t w t t w w t w 6 a w w w w w w w w w w w w w w a t r 8 6 5 5 6 6 6 6 w V p w w V h q w V S h w w w w v V w w w C S V V S S h w h V V V w w h h w w v Q h w S q w v v v b S F F G u.9 9 o.0.S S Q o.D o.q.Q S S V w w w C S V v w G q v v h F S F s.G q w v q v q.g g h m o.y.#.o.! ! O.f.T.u.W o.F o.D v V V v v v h Z v v D v V S Z Z V V D G G Q Q V w v h q w w h V S V h w w V V v w q q w v w w w w h v v h S D v v D D S D G 0.Q v 5 S 5 h S S h v D v w Q G q h D v 9 q v Z C p w w C A A w w w V V w w w Z V Z V w 5 5 9 F o.q o.W b u.g W G V i w 7 6 6 6 6 8 8 8 7 7 w u u u t 0 6 0 0 5 A A C G V 5 5 5 5 0 0 0 w w w t t t y t 8 8 t 8 6 6 6 8 8 6 5 8 8 8 8 8 8 8 8 8 8 6 5 6 6 6 6 8 8 8 8 8 8 8 8 8 8 8 8 8 8 8 8 8 d p 8 8 8 8 8 8 a a 8 6 8 8 8 6 6 6 8 8 8 8 8 w t t 8 8 8 w w w w w v Z o.D v v w v V F S b b F o.Q C V a a t 8 8 8 8 w w 8 6 w 8 8 8 8 8 8 8 5 w w w w p v v v Z 9 o.W o.W G o.s.s.o.G S h w w 5 w V w w w 5 w w w w w w w V a w 8 w V V w 8 w 8 a t 8 w w t w V h 5 3 h D Q w h V v q v V 7 w 7 w a t 8 w t a t 8 8 8 8 8 8 t 5 8 a 8 5 8 8 8 8 t t t 8 w w C z h h V V v h V t w a t 8 6 8 > , 5 5 w t w 0 w v V Z S S D Q D Q g S D v W v V V V V S Q G D v S S S S D W Q Q S Q o.Q G G V V h 7 w C w w V V t t 8 6 > 6 d 6 > , 8 8 6 0 w A w 5 5 8 8 a C t a y t u y u 6 6 8 8 8 8 t t y w 6 V 6 5 0 0 V G Z q G o.V S w w v G v 5 v D q ",
"m m +.Q h S h 9 v Z V & $ 7 8 5 8 w w V G V w p V V 8 A w w 5 7 7 q h V h h Q w.5 h 8.S S G 7 V G 9 v G 3 h w.5 q o.q 5 V V h V G w w 5 w z 5 w C w z z 0 C A q w 7 w v q V G v 9 o.9 D g F o.F W v o.8.w w C 5 8 8 w 8 w w w w 5 t 6 5 8 w 5 V C V G 8.V w w w w 5 5 w w 6 6 t w w w w V C t 5 V p w w w w w w p w w w w w w C a t 8 8 6 5 6 5 8 w w V p w w V h q w S A V w w V h v V V w w V Z V V S S h w h w h h w 7 h h h w v 0.V w S q h w v v G Q D v v D S Q Q v h D o.D v D 0.Q D D v Z C V p w q w v Q q V Z F D v b S D v v Q F h F o.F F o.+.W W +.:.f.+.E +.j.y.o.g b q 9 w v w v v v Z v v Z v v v V S v v S v h Q D h V S h v 8.v q q V V 7 w S v Z G Z v w V A V V v w w v v w V Z S S Q Z v v D S S Q V S 5 G V q 5 S q.h 5 Q w q h v v Q o.V q w w 5 5 8 V V C p w V C p w w V 5 > V o.V q Z q F v X.q.N v b 9.o.S w w 7 8 8 , 8 t d 8 8 7 7 & 6 8 u t w t w A G w > w p 7 w 7 0 0 0 6 6 6 6 5 6 8 t 8 5 6 t 8 8 8 8 8 8 6 6 8 8 8 8 8 8 8 8 8 8 8 6 5 6 6 6 8 8 8 8 8 8 8 8 8 8 8 8 8 8 8 8 5 8 8 8 8 8 8 8 8 a a 8 8 8 8 6 6 6 6 8 8 8 8 8 8 a a 8 5 8 w w V w q 5 w V v q V V h w b Q F g h F D V 8 8 t t 8 8 8 8 w w 8 6 8 5 8 8 8 8 8 p w p V p w w p v v q.5 S q.o.g #.X.a.a.o.o.o.S V w 5 w a w 8 w 5 6 6 w w t w a C w w w w w w w w 8 w a 8 8 8 w a 5 z C w 0 z V h w v V w 5 v Z w p w t C a w 8 a t 8 8 8 8 8 8 6 t , 8 a 8 6 8 a 8 t t t t 8 w w D w 7 w V S S V z w w 8 8 6 , 6 t 8 8 8 t V t 5 q w v C D S V v D b q y.l.o.o.S F G Z w v G D q h V S S S S S S S h S o.Q D D V w w 5 5 C w 6 A C V V t 6 > 8 a t 6 6 V V 6 w A z 6 5 8 V V p p 8 8 8 6 6 r e , 8 6 6 6 8 t t t A w w 5 z G z h 0.Q q Q o.v D S v w V v 5 w S 9 ",
"W m 9 E o.v h 5 5 w.Z 5 p a Z A V w q w V 5 5 C w.8.q w o.G w h 0.w.l.G 7 8.o.q w w G G 7 w V 5 5 h V w w S v 5 Q G S V V S V h A A V w 8 w V V V C A H A a 6 5 p 7 V v w w 5 v v G G v q v b c o.9 z.aXV w e.w > 6 8 8 w 7 w w w w z C C w w h Z w q 8.G G v o.G C w 0 w V z w 0 w z C C z w w z w w w h h w w w w w w w w V C 8 t 8 8 8 8 8 8 8 V V V w w v Z A V w w V w w w C C V V V C C h h w V G V h V h w V 7 7 h S G q v V S G D v v v F v v v F b v N D v h Q D D 0.v v S D Q Q o.Q Z C G Z V C V w q V Q Z o.v F v F Q o.w v b h o.F b o.y.u.g +.u.+.n O.O.iXu.+.j.v F +.D v G Z v V S S V Z D h q G w S D v q h v w V D Z h h V G G S h w v S S S G h D Z q q D o.D v q o.V w D D 0.q.Z h v Q Q v 5 Z Q v q V v h D v V w q v w w Z w V Z V w v C Z w w 5 5 Z w 5 w C G G V w w w v Z A q 5 V V w V o.V q 9 h S b v z.s.Q Z A p 6 8 6 6 5 5 8 8 w w 8 ( D 3 8 C w w w 8.8.A w o.Z q V 5 5 w 8 w w 5 t t t t 8 8 r t 8 8 8 8 8 8 8 6 > 5 8 t a a 8 8 8 8 8 8 8 8 6 6 8 8 8 6 8 a t 6 8 8 8 8 8 8 8 8 8 8 8 8 8 8 t t 8 8 8 8 8 8 6 6 5 5 6 6 5 5 8 8 8 8 6 w V C p w q w 7 7 w S v w 5 V G Z S D W b F Q Q Z V a a t a w 5 5 6 w 8 w 5 8 6 8 5 C 8 > w 7 V i q w v 8.o.D S F W j.G q.N `.W W q.S S 7 9 z z G C 5 w C 0 w h w w z V w 0 w w w w w z V 5 8 a a t 8 w V 0 5 z V w S 8.S w q V v v v w v V w 7 w t 8 8 8 d 8 5 6 8 d d 8 8 > 8 8 6 6 8 6 t 8 6 t t 8 8 w w w w w h V V V w w w a w 5 > 6 8 > 8 a w w V z Z v w v v v D 0.Q q F o.F o.W b o.` v v o.o.F v 9 q g m v W o.3 S q S W 0.q.D Q V v q q V w w C w w w 6 5 6 8 8 8 5 5 w t t u z w D 5 0 A w w V 7 w 8 t r 8 r t r 8 6 5 > 6 8 a w w w w 0 5 5 w G Q S h S 8.W 9 q v h D v 9 D q ",
"o.W h Q q.q.x.'.V V & w A 5 > Z 5 w w 5 w 5 & & 5 V V w w 5 5 G w h w C l.0.3 v G G 8.0.Z w w w V S G S V S G 8.D V v S S h q w w t w w w t V t & & 5 w V w w t 5 q G Z w 5 5 w 5 h v v m F W F v 5 v G w w A w 6 8 w w w 7 q q w w w V C V V V v V q Z v G V C C D D V w 5 5 0 z w w 0 6 0 w z V v h v V V v w V V V V h w w w 8 8 8 8 8 8 8 8 w w p p w w w v V w w w V w w w V V p w w V V w h w V S V h V h h h 7 h V h V h v v S G D S S D v v v v v i q q v v q S S S o.S 0.o.o.Q D D S V 5 w w w C Z V Z v S h V q F v h q.q.V G o.W 0.D m F E o.c y.i.W :.y.W K.m m 0.h q b v q Z Z v V D Z v D o.D S o.v D Q S v S D S q V G Q o.o.D h h q 7 w h h h v V v v h v v v v v 9 S v h D v V 5 G s.0.q & v q.8.o.S w w q 9 w V G Z V G o.Z V v V C v w w v v w V w w A V 5 w 5 p C w 8 7 q w G Z w 5 q w w v q w v F W W b v m v q q V 8 > 5 6 6 6 8 8 w w w & D D w V C w w w Z V G w Z v V v 5 5 5 & > 6 5 8 8 8 8 8 8 8 8 > > 5 6 8 8 8 8 t 8 8 6 5 6 8 8 8 8 8 8 8 8 6 6 6 8 8 6 8 8 8 6 8 8 8 8 8 8 8 8 8 8 8 8 8 8 8 8 8 8 8 8 8 8 8 8 8 8 8 6 6 6 8 8 5 8 C a w 5 w V V V h q w v v w q V S h g b W F g v V w w 8 8 8 8 8 5 5 6 8 8 8 6 a 8 C 8 C 8 w w q Z v w w w W o.F b 9.F W v #.X.h.m N q.v h 5 z S w C p 5 w w w z z w w C D C w w w w w w w 8 8 8 t t 8 w w w w 5 z V w S ( V S v V Z D V v V V w w V t 8 8 8 t 8 8 8 8 8 8 8 8 > 6 8 6 6 8 8 8 8 8 w 8 t w 8 V z h v V S S S w w t a w 5 , 6 8 , 8 a w w z V V v V G D V S o.W q b b q m N W v V v v G G v F o.F v W F W y.b W S o.+.0.o.v V S S w v Z V w C 0 0 w w 6 5 6 6 8 8 6 w w 8 z C w D 5 6 V w w V w 8 t 8 6 , 6 r 5 6 8 r 8 8 w w w w t t w 5 0 w Q Q S h D 0.o.h h v q v q q Q W ",
"q.o.v v q 3 h v v q.G A A 7 8 G 6 A S w V o.Z w 5 V V q 5 5 5 w h & V 0.S 3 5 w.S h w v V 5 3 h h h V V w 5 h 8.h 7 w S V 7 5 w w t t t t V V t t w w w w 5 5 5 p V 8.Z v V q v q v v F F F F F F o.S h Z C t V 8 8 w 8 t w w q V w 7 w C S V V w G v v q o.F v C A G Z z 7 5 7 5 q w w w w w q V V V V V V V V V V V C V V w w t t 8 8 w 8 w w w w w v v w w w V w w p V w w w w w w w w p V w z w z C w 0 h w h h 7 S S q v V h w v V V v v F F o.o.G b N b v h D g v D v D S D D S S v h q q G 8.A V V V w w v D h v q o.S v G Z q v F S F q W +.o.+.m +.+.E i.i.P i.m F u.W S Q F v G G V V V h 5 w D V w v V G o.D Z Q o.Q V V v V S G Z v G S V V S S S S G h w G Q v w v D q h w h Z v w V v h v S G D S v q w w q v D Z w V w 7 V C w 5 V V v w w w h w V V w w C V w w 5 w V w w w w w G V V p w w V v V S D D F S b S F F v v C p 6 8 6 8 8 8 8 8 w w 5 V C z C V w V v v w o.V V v o.o.G G V 5 5 w 5 6 6 6 6 6 8 8 8 a a a a a a a a C a 8 8 8 8 8 t 8 8 8 8 8 8 8 8 6 8 8 6 6 8 8 8 8 8 8 8 8 8 8 8 8 8 8 8 8 8 8 8 8 8 8 8 8 8 8 8 8 8 8 8 8 8 8 8 5 w C V w 5 w V S S v w w h v v q v v q q v F F q v h w w 8 8 8 8 8 8 8 7 7 8 w 7 p 8 A w a 8 a w q S b w v q G 0.o.F s.X.+.#.+.#.f.m W u.S v q S Z w w w w v 5 w w w w w V C S v v v v h w w w 8 8 8 8 8 8 w w w 0 w z z S D h D v v D D S V Z w v V C p 7 6 w t 8 8 8 8 8 8 8 t 5 6 8 5 6 8 8 6 t w 6 w a t 8 V z h V S Z G Z z h a a 8 6 , 6 6 , 8 a w 6 V C v V Z G D v S o.h q o.y.#.+.c q q v V S G F v G o.v 9 S S b o.W W F o.o.o.o.S D w w 5 q v w q w w h z t 8 8 6 6 8 8 w w 6 5 w S h G w 0 h h C V 7 w t w 6 > 5 6 6 8 r t 8 8 w w t t V V z w w v S S h h S o.Q h h S h h g q Q o.",
"0.q.o.q.Q h h w 5 w.8.V w 7 V V w D h 3 w Q G V w Z V 9 q v i 5 u.7 V V 5 h Q 8.Q S 7 7 S h w Q h V Q Q V w h S 7 7 w V h 7 w V w t z t t V t w w 6 6 w t t t V 8.G G w v o.Z V G F F F F b b b v q.+.v C w > 8 8 8 w a C C V v C z w w V V V V v G v v q o.Z p G Z Z Z G Z V w 5 q w v V v w w V V v V V V V V h h v V C C V h t 8 8 8 8 8 w w V p v v V V h w C V w p w w w w w w w w w V V w C h V S 0 7 w w w V h G D h S S v v v V v h v S v F F v c N N v S 0.S S o.S v S v S W o.Q S v h Z ` A V S Z V A V o.V V g +.Q F D S h v S F D b q W +.y.m +.y.f.i.y.P i.o.y.f.+.v S v v v v w w G Z v V o.Q V Z S D G Z Z G Q Q o.D h 7 q h V S V V v V V V V V S w v Q o.v v Z 8.v w h v Z Z v Z v q h D 8.o.S V q v S q w S h G G V w V h w h v w w q w h v h w w w w V w w w V V v w w w C A Z w C G V Z G w Q G Z Z S b S D o.o.v q w 8 > 8 8 t a C a p p v V v w w z w h C V w w o.V V v 8.Z A G C w w w & 6 5 6 6 6 8 8 8 a a t 8 8 8 8 6 8 8 a a a a 8 8 8 8 8 8 8 8 8 8 8 8 8 8 6 8 8 t 8 8 8 8 8 8 8 8 8 8 8 8 8 8 8 8 6 6 6 6 6 8 8 8 8 8 8 8 8 t 8 8 8 8 5 w V C V w V V V v h S S Z 7 v V v v v v g v v V w w 8 8 8 w 8 p 8 8 7 7 w 7 w 7 A 8 p 7 p 5 5 v v w v v o.G o.v o.m f.`.c #.y.N #.s.D v v h S w w w V Z q 7 w w w w w V V V V V V V V h w V a t t a t 8 w z w w z C S V w v S h v D Q o.S w w V V V w w t w 8 t 8 8 8 8 8 d 6 6 8 5 6 8 8 6 t t 6 6 V V 5 w w w h V S S S C V V a 8 8 6 6 6 , t a 6 5 z C V V V V h w F q.$.b W +.q.y.N c v Z F v F v v F F b h Q 0.o.q.Q o.b W S F Q S Q h v h v Z Z v V z z z z w w 8 6 > 8 w w 5 5 w S w Q V w w h Z w 5 5 8 t t w 5 & t r 8 6 6 8 8 a w w t C C z z V h h h h m Q D h h D D S S h h S ",
"q v v G D h v q Z Z 5 w C p V w C D h 5 h v w w 5 v V 9 5 S G v V G V 7 G Q V u.8.0.V q S S h S w S G G S S V h 7 V S h q w V h 6 8 8 6 6 w w 8 8 6 6 w t t t t C V Z q q Z V V b v v v v b F F q b Q S w w 8 5 8 8 w a C C V v V V V h h v V V v v q v q F v v G D Z G Q Q G S G V w 9 7 w v S V h h h v V V V h h h V V V V V a 8 w 8 w w w w Z V w w v V V V C p w w w 7 8 8 8 p a a a V a w C z C D w w v V 7 S S Z Z S o.Z Z S F Z F v F G N F b q v X.X.v F q.D Q 0.S S S S S D Q D v q w w V V w V C V G v Q S S q Q W W Z V V v v F D o.q o.o.o.c E W y.H.i.P :.O.u.+.F q g h v v V Z v q w q q v h q v Z D D S S S Z Z S S Z S V v v V v V V V V V S S h v b b v v v S o.b v F S S W b V Z Z S Z o.o.G v w S G h h v q o.Z V C Z w w G V w 7 w w w w w w w w w w w w w V p w w w w V C G w V Z V G G w v w h Z Q W S b b F w 5 w 7 6 8 8 t a C a p p V Z w q h h h h h w h w S w V h Z V V Z C V A A 8 5 5 5 5 5 6 8 8 5 5 5 8 8 8 8 8 5 8 8 a a 8 8 5 8 8 8 8 8 8 8 8 8 8 8 8 8 6 8 8 8 8 8 8 6 6 6 8 8 8 8 8 8 8 8 8 5 5 5 5 5 6 8 8 8 8 8 8 8 t a a V w 5 6 C A C w h h V S S S D D h V S V v v v g v v h 7 6 8 8 5 8 8 p p 8 w 8 p w 7 > C 8 a 5 w q 5 v w q v v Q W +.m X.m j.}.N N W N q.y.m h h w S h v V V G w w h V V v h h V V z h V S V v w V a a w t 8 8 w z w w w S C h w v +.b v S 0.u.V V v w v V w w 8 8 8 8 8 8 8 8 8 t 5 6 8 5 6 8 8 6 t t 6 6 V a 5 w w w w V V V V C C V t 8 8 8 6 6 5 t a w 5 z C A Z Z V w q F u.o.F X.X.+.+.c c F G v v v v i v g F b W +.+.q.E +.F W b W o.v h v S v v G Z v v h h w 0 6 6 6 6 & 5 w w 0 0 h S w D z h w w V 5 w w 8 w a y 8 > t r 8 6 6 6 w t 0 6 w V C V C Z h m S m S Q S h g D Q D D v q m ",
"o.o.v v v q v q v Z w h V C G w S S V S Q S w h h q q 9 h o.9.v h w G S h 7 w u.w V h w S G h 5 5 w w 7 w V V w h G Q h 7 h V w 6 6 6 6 6 w t t V 8 w t a t 8 8 5 w ` V q w q V v F S q q v N F W v S S w C A 5 w w w 8 t w v w h V V V h V S S S v 9 Z v S q v v G o.G v v S o.8.G v q q q h q h w w w h h h v V V V V v h v V V w 8 t t w w w C V w w v V S V w 8 7 8 8 7 w a w a C V a V a w w 0 z x 0 0 v V 7 G S S V Z 8.S S V S Z F F F o.$.o.F N G $.o.G D o.S W o.D D S h g h v h 9 q v V A C w w w q w v D V D g D S W h q v q q v v W F +.S E m O.m F f.i.m ! W y.W F b v S F V Z G V h Z Z Z G D G q.G D Z S V V S V w h S D S h h V v S S S V S S D h F W v q v b S D b b +.o.b F h Z v w w D 8.D q q w S D V v V v w w w C C 5 5 A C w w w w w w w w w p p w w V w w w p V V w w w 8.V w w w V Z V G w 5 h D D b m v F v w V p 8 8 6 8 t a a p p v v q h S V V V q w S h V 7 C h V 8.G A Z V G 8.G 6 6 6 5 5 5 5 5 8 8 8 8 8 a a a C a t 8 8 8 8 8 8 8 8 8 8 8 8 8 8 6 8 8 8 5 5 8 8 8 6 6 5 5 5 5 6 6 6 6 6 6 5 , 6 5 5 5 5 6 8 8 8 8 8 8 8 8 a a V V V t z z v h h h v S D S S S Z Z S v v v v v h v w 5 8 8 8 6 5 7 w p p p a V p 8 5 C p Z 7 q v q v w q v g D o.o.F y.N +.s.y.m m X.#.+.m h h h S V Z C w V q w h V V v w w V h w w h V V v w w w w 8 w 8 w w z z w w D C w V h q.S v S Q s.v G V w v V w w w w 8 8 8 8 w 8 8 t 5 8 8 6 6 8 8 8 t t 8 w a t 8 w w w w v V V V C C V 8 8 d 8 6 8 5 8 a w 6 z V G G G G V w v o.q m $.+.+.N 9 m X.o.b v F F N G g o.v v W W o.b W b W W 0.u.b q v D v h V V q 7 V h w 0 8 w 8 8 & 6 w w w h z h V S v S v V G 5 G V 8 5 8 t t 8 5 8 r t w 8 6 6 6 6 w w V C C G h m S S S D S h h S W h W D g Q ",
"v b 5 9 q 9 v w = h V V 9 9 S 5 5 w w z S h 7 w Q h q v N 9.+.9 u.& 5 V w h V h w 7 h A G Q G h h w w V C S S S V S G V h v V w w t t w t a a y 8 6 5 t C C A A w w G Z v v q V v o.o.v 9 v F m W v h h w q 6 5 8 8 8 8 8 w v V V S S S S Z S v S v q G v G v F q F Q G v v v G o.G G G G N q 5 h w w w w h h h V S G Z V h h v V 8 8 a p w w v v v h h v v S V 7 7 w p p w w a 8 V V p 8 p a a 6 5 h z 7 5 w h h S v S S v G S V V b F F v b F G F m m F F N v o.Q v D D S Q v D S S D S v D 8.q V V w h v v Z v V h G v F v D D v D v b Q S o.q F g S o.f.+.u.O.#.E O.W y.E o.v q v v q v V 7 5 v v h v v v D Q D S V V V V V v w w h h w h S q h v w w h h w m D D b h v F D Q D v +.o.v F g 9 v S v w h v w S Q G Z V q 5 q w C C V Z C V Z C p w V V w w w w w V V 7 V Z w w w p C C p w w C A t w w w v Z w.S q q S S S F g v v 7 w 5 > > 8 8 8 8 a V V V v h D G h v V 7 h S z D 0 C h C G V v v w w C A t 8 8 8 6 6 5 5 5 > , 5 5 8 8 8 [ A C 8 8 8 8 8 8 8 8 8 8 8 8 8 8 8 8 t d 8 6 6 8 8 8 8 6 6 6 6 6 6 6 6 6 6 , > 8 6 6 6 6 8 8 8 8 t a t 8 8 8 a V C D C w w h S V h h S S S v V S V v v v v v v b v h q w 8 8 6 7 7 7 8 w p p p w V w C 8 Z 7 q p q v v h v q b m v b X.c F m #.X.U +.#.o.W v h V S v G S w h q w w v v w q h S h w w h S V h w 8 8 a 8 8 8 w w w V w w D z w G q o.g F W S u.D D V V V V w w w a 8 8 8 8 8 8 8 8 5 8 t 8 8 8 8 t t 8 8 t t w w z w w w h h h v V V a 8 8 a d 6 8 7 8 a w w z z V C A ` S h v o.o.X.N g m N m a._ o.F v G F F _ G 9.F W u.o.o.+.S m W W +.u.F h F Q Z V G G V v V z h w t V 8 8 w 8 w 8 z S V w D z w G S Z 8.w G V w 6 8 8 t t , 6 r t 8 8 6 5 w 6 5 w z z C G v S S S S S S S h m S h Q 8.h 0.",
"5 v h S V h V w S 3 5 w.q.9 w V w C V w h w 7 q q q F G q v W v 7 h V h S V 5 S S 3 7 S V w V h h 7 w G G h w S h h V S S V v V w t t w w w w 6 A t w w t w w w [ w w w V Z q v q o.9.v g D o.D h W D D A 5 5 A w 8 t t w v S G G G G S Q Q S q h v q S v G v v v v v F D F F N 9.o.G F D G F m h w q q h h h h h S Q Q S h h v v w w V V w w V w v v v V V S Z w w V Z C p w w p V V w 5 w w V z h S D w 7 w h S V q S D q v v G D G G F v v F F v F _ o.F N N y.Q v F v v o.h Q W Q o.D w h S w C V w w w w V V w 5 Z v V q v G v G v S o.v F b q.W o.W o.b +.m W W o.E W g F v q v Z v Z o.V h S V h v h q v G S v v V v v V S h h V S V h h v Z G V v V S v v h v v v v S D u.o.g W D g W h w v V v v Z v 9 9 S v h S v h G v G S 5 w C C w v w v C C w w p w 7 V V 5 p G w w w w p V w w V 5 C C V S h w G Q v v G 0.o.Q Q v Z v 5 8 8 8 a d p 8 a C Z Z Z G G o.G 5 q S h w h w D 0 w 7 V w q V G V V 8.w.Z C a t 8 8 8 8 > 5 5 8 t C A A A A C 8 8 8 8 8 w 8 w 8 w 8 w 8 t 8 8 a C a 8 8 a t 8 8 8 8 8 8 8 8 8 8 8 6 5 5 8 8 6 6 8 w 8 t w a C a 8 5 8 V V V V V V V C S S w q v S S V S q w v F Z v g q Z S w 7 7 8 5 > p w 7 7 8 w 8 7 7 Z V C 5 p 8 7 w 5 v v v v q b F o.o.F N h.W +.,.W o.o.W Q v w S S w S D w h 7 v v v V h w S 8.V v h V Z S v w 8 a a a w w w V w V w w S V w Q q F q +.q.F s.u.v v S Z V w w w C d 8 6 8 8 8 6 8 5 8 d 8 8 8 8 a w w t a w w w z w w w h h h w v V w w 8 a a 8 8 5 8 a w w z w w w v V v h F o.o.N c g #.a.W #.m F N m b m g b v F g o.s.E b o.o.W o.b S Q v h g b h q V Z v h h h h h z a 8 8 A C w w V G S q C 5 3 V V V 8.w w h V V w 8 8 w 8 8 8 5 5 5 6 8 t 8 6 w w z C Z W W F F S W Q Q g S D h 0.q.h o.",
"h G 8.h V Z h 8.w.7 u.S h V v w G 5 V G 5 5 F v 9 g u.g q v q v 5 S v S 5 Z S Q V 5 q v w 5 5 5 q s.V h Q w V 0.w V C S V h w q h C D V w w w w G w w G ( z z Q w 5 w h q h v h V V V v v V Q q.v w v Z C w w z w V v 5 9 S o.+.9 0.l.0.W D Q S h v v q g v v h v i w v G G S v S Q Q F Q q.8.b S b v v g g h v b Q V v o.o.V D w w w v v h h V v V S S V S S G w w V Z V v w v v v V v w w v V V C C w q h S D o.h q D o.b m W h F F 9.v v v 9.v F v N F m v G v v h h S Q Q S D S V S V w w w C 8 8 8 p w 5 5 & 5 C w 7 p w V h w V S V Q 8.w V v Q S b W W q.+.f.+.o.W m S q S q Q S w C w V D v G v o.S G V S Z o.D w h D D o.v w Z Q S V D Q D v b o.W v h b o.q g Q h q S F S h v b h q v F q q v S G F 9 h h h w w w S o.w V S v V G D v S v h v h q h G S h h w h h V C 7 G Q w 7 C Z 7 w v h w w 5 7 S h v v v G 8.G q w A A 8 5 p a 8 5 w 7 V w.' q G o.q.g +.Q v v V q q w w q w w 7 p V Z Z v w w p G V V G G a w V w S w 5 V S h S S 9 8.k.v w S 5 5 5 6 8 V a w 8 C a w 8 t a V a w w 8 8 8 8 8 8 8 8 8 8 8 8 8 8 t 6 6 w w 8 8 a w v V h h S S V D Z Z v w w.v w v w w V S V w w w w p V V p p V V v w 7 > > 5 w 8 8 8 7 8 7 8 8 V w 8 V a 5 5 V 5 w V o.V q v 5 o.v F G F 9.s.[.o.o.o.F Q q S h v S V w w V w 5 w 5 q G F q v 0.D G w h S S D q w V V w w w w w w V v Q S h Q v q h S S m h S Q h h S D v h h 7 V 8 8 w w 8 6 8 8 6 6 8 8 6 6 6 8 t 8 6 8 a A V w C C w 7 h V h w w p V w w 8 5 8 w > 5 Z p w A q h G D 9 Q v s.b +.o.X.m c O.+.F F v F D v m 0.F b h W y.W S s.z.F v o.Q D S 5 v S z.v q V = 8.D Q 9 v v C 5 A C 8 C G w 7 v h v h V h 7 w V V 5 A [ V 6 t V w 5 6 w 8 > 5 8 > C C C t t V V h Q F v F o.m g W h E S S Q Q E W ",
"o.V h 7 v D q h D 7 w w V 7 D 5 = = A A q G s.W W W F q S 9 V Z g S v W V o.G Q q.A S S p V C V v Q w w Q Q S S G S h h h h h w 7 q q 7 7 w h w w w V S Z S V v S v V V w h V h V S D S V h v V Z v p Z S h w w 7 h v h v F o.X.S g m b S S m W v b b v h h h g V V V S Z G F v o.0.o.Q ~ y.0.W E W +.#.+.X.G F F o.v q v v q v v h h V S v v v Z Z S S S S S S w w v S S v v V F D D D D Z Z D w v v h h h v S F h h W W b v F S D F 0.v v h Q F G F v b g q v S S S m m S S S Q G G G A C V V C 8 w p V p w w p p A a p A a V h V V h w h h 5 G S Q Z F o.G o.W o.b b b b Q b D v G V V Z w V v q v q F w v q w v G Q v S G S V v w v V V V v v b g h F b g g g Q v W s.o.W o.o.o.F S Q W S o.q.W F v v Q o.V w h h h w w h S S D G D G G S v v v V V h 7 7 w h w h h h w w v h V S V v V V h v V v v V h h G w S G V V S D V p a a 8 7 7 8 8 p Z p Z 9.G w v q o.b W v F h 5 q 5 q w w V G C w v V V v V Z G ` Z Z G ` Z V C Q 0.D V Q G h h ( z h 0 7 h S h A C t 8 5 6 w t V t 8 w w w t w 8 8 w w w 8 8 p p p a p p w w 8 t t t 8 0 z z w w V V v v S S v D S v v w 9.w w v w 7 w V w w t 8 w p a a w w p p a V p w 8 7 7 8 8 8 8 8 8 8 8 8 8 a a 8 8 8 w w w w v w 5 v 9 o.v W o.W o.o.u.v g v v q.o.0.S V V v h V C z q v q q v v q g F F Z w V V h V q v C C V w h v v v S v Z v h o.D D o.o.W W Q Q W D S Q Q S S S h a w 8 8 t 8 6 6 w 8 8 8 8 8 6 w 6 8 8 8 8 t V p V C V w h S V w h w w w w 7 5 5 5 w 7 p A V 5 V v V v S v 0.F D F W m W o.W X.m g b v h v g g b v b m W 0.F h o.v q Z 8.G v h h 8.v v S 5 v s.G v q.S h w G a V C 8 C G V V D v h q q w V S V z V V V A V 6 6 t 7 w V t 5 8 t 6 > r C a 8 w V Z F W W W W b m E W y.+.E W W E E ",
"Q w V w 7 w q h 7 S & h D & o.q 8 8 A G 5 9 b 5 v o.F +.z.h V v q.z.'.z.S 9 9 S V w 7 5 & 5 w 5 v w w q S 8.V h C h 7 7 w h h w h h w 7 w h w 7 5 V G V h G G h D V S V w h V v h v S S V h h v G b w V C h w 0 5 7 q q h v b N v h 0.q.Q o.m q.F D W W F h g h v v v V V V v v q.o.Q D Q Q Q W F F F N m m F W v D F v v w q V h q w V S S v h D S S V V V V V v h h v V v v v S S F D G D Z S V h v V S h h V b b S F F b m W D F v o.F G v F v G F v F F v D Q W D S S m S S Q G S G A C V V V p w p V V a a A a C 8 a G p w 5 h h q h V V S D v S v v G v F o.+.b b b m W v V S V q V Z 5 V V v D S o.Z G S v v Z D v Z G S w v v w v S V q h b v v F b g v W q.m m Q v h F +.o.F F Q Q W 0.q.o.G v q D o.v w h h h h h h w S V V D D V v h 7 h V v h h h h w w h h h 7 q h S w h S G h h V v V h h S v h S h S S h w V S C a 8 8 p 8 > 5 w > 5 7 i V v b v o.+.+.o.q o.G F k.o.v q & 5 w w w w p w w V G 8.` G G Z Z V w w S Q S S Q Q z h S Q h 9 S S h h w a V V 8 w w w a w w w w w 8 w 8 8 w w w w 8 8 a a p a a p 8 w w A C 6 5 V V w h V V V V S S V 0.Q D Q S 0.h V V w w w p V V C p 8 8 a a 8 w p a a a a a p 8 5 5 5 8 8 8 8 8 8 5 8 a 8 8 a w 7 V w 5 w q q V q F q F W F W o.q.0.W Q m Q S S h S v w v V V w w G m q q q v v v F S w S S 7 h w h C C V w V V V h v v Z v h o.W S W S h h Q W g W S Q Q S S S h w w w t t 8 6 6 w 8 8 8 8 8 8 w 6 6 w a a w w w h V v w v Z V w V V w w w w 8 w w w w p C w 7 V V Q v D W q.o.h q.+.m o.+.W ! c b o.o.F W Q F F q.q.W m F F o.s.Q o.G S v 5 5 v q.Z Z 0.S G s.w v 0.G v w A a a a t V V S o.+.v v D S V Q S w h A V V A C w w w w w C V 5 6 8 6 t r 8 8 V A V w v o.+.F F F m S m o.Q k m W W Q ",
"S 7 S h 5 v V h h Q = V Q 5 Q w A > p ` v q W W N o.F v 9.q Z w.b q 9 F o.0.G D Z Z G Z V A G V w 3 G h 5 V h V h h w h V h w 5 V V h h h h h 7 w G G w 7 V G V V h V V w h S S h v v h h h v V Z p w w h w 0 w S V h v v b G X.9 v y.Q h 0.v W W W Q o.F h g v w p v v v p v V 0.D S D W S S W o.W N v v N G o.v S D G Z V v Z w 9 7 h Z Z V h V v h h V V V V D v h v v v w w V v v V Z D S v o.V V G G v h S W W F m v F W o.b F v o.G o.F G v G F v D o.G W Q S S S S S S Q G V V V C V h h V p 8 p a a a V A p a 7 w Z w w V Q V w V V q v S w v q q v q v o.q.W o.W v v q v G h 9 A G q V 9 9 w v V v v v o.Z S v w V G V v v v v V S V h g S S b F F m b S o.m b Q F o.q.W Q S b W Q W o.D G G v q V Z 9 h v h h V V h q v w w V S v v S h V V w q V S V w w h V w 7 w h G w 7 V S h h S V S h h S v w h S V w q h S V w p w 8 p 8 5 5 i V b Z S v b v q u.v F o.q o.v G Z v v V v w q > w w w w w w V G 5 w w p V G G G 7 h V z S S S S 9 Q ( S S S h 7 5 w a V a 8 w w t w w w w 8 w w w w 8 8 8 8 8 8 8 w 8 8 p p w 7 w A A w w V V w w h v v V V S S F v q S v Z q h v v w p V V C Z a p 8 a V a p a V p 8 8 w 8 8 7 5 5 8 8 8 w 8 a 6 8 8 8 8 a a w w w w V v q V 5 G q v v g G o.s.+.W q.v m h Q q.V w q v V v w h b v v q v v F F D v q D G 7 w w w V V p w h v v w h S G S v F m S W D S D o.Q S S v S Q S S S h a w 8 8 t 8 6 6 8 6 6 w w 6 6 w w 6 8 A A a w w q w v w v S v w V V p w p p V V w w w w w 7 w Z w 0.S G D D 0.v b o.E E P W f.a.D W b b Q Q F F v W +.+.o.o.W D o.Q q q D D S 8.S Q s.o.8.0.5 v v b S D V w w A 8 V C v S 0.+.b g +.Q S G h 5 V h A A w w p a 7 v V A C 8 5 8 6 s t 6 8 C G Z w b o.W b m F m W h m k f m W W +.",
"S 5 w 7 w 8.G & Z V = w A h w 5 8 # > Z Z F +.q.F m F 5 v S V o.s.W v b D h 5 3 w w v h q w w 5 h 5 Q C 3 h V S G G Q G S h 7 5 5 w w h h V h w h V V w 7 w h h V v S S h V G G S V V v h w h w v p w w w w w z S S V v v b F F Q S g q q s.W W D F D D S v v b v v V V v v Z G o.S S Q Q D D o.o.W F W o.W b c G v S Z V v v v v w w V D Z v h v h h h v V V V G V v v v v h h D S v V S D Z Z 8.C V Z G V S Q D D S v b W W F v N b +.F o.W +.b W F v b b v m W m g v D Q Q Q G V V S S C V V V w w p p w w w C V C w w C p V V G h 7 V V 7 w S v F w 9 v v o.b Q F o.W h b v S 8.h q o.G v V v S Z G D G D D o.D S v w v Z v V w w Z D v v S 9 b b v b b h v 9 F S o.q.o.o.S F W F F Q o.W o.b F G v w V S q v v h w h V V w S h w V Z S D o.Z G D h w h v w V V V V h w h V S h w w h h h V V S h h S S h v V v h h v S v w q p V w q i p v v v S F b G o.b F g F +.o.q.q v Z w w v w w V v w w w w w p p V w V V V C G G A h V G V h h S S w S Q h 5 V G w D V w 6 6 w w w w 8 w 8 w w w 8 w w w w w w w w w w 7 w w w w w 8 w V C S C V V h v V V v h h v Q W v q.0.u.0.w.w w v v p V V V V w w a V V V V V w 5 5 w w w 5 5 5 8 8 8 8 8 t a 8 6 a a 8 8 C 5 w p Z p 5 v 5 o.v b v q F o.u.W F s.b b b o.l.v w w v V v w v g v v m v F G F o.V 9 D Q w h w w w V w w w v w v v G Q b b b v S S W o.o.Q Q u.S v W o.Q Q Q h V 8 8 8 8 6 6 w 6 6 6 w w 8 6 w 8 8 8 A A a w w 5 w V V h h v v w w w w p V V V w w w w 5 w V Z q Q v v b v 0.b m u.+.m c E u.+.y.F q b o.W v W v W 0.q.0.q.0.Q b S g v q.q.D Q v F o.h v D g +.g g S D V q p Z 7 A G w v Q o.S 9 F h q W S w Q 5 V Z w 5 q w w V V G G t 8 t t & 8 t 8 w V G q.W D m m F b m o.o.S k n ! E m o.",
"h w V w w Q V 5 w 7 w C 5 5 5 C 8 6 8 w w v v 5 $.g W q o.9.v 5 v D q.F h & h Q Z w h v 5 5 w w S w G V 7 V Z V S S S S V h V V 7 h h h h v h w w h S S V w w w V v S S w w V V w h V S S V h w v v v p w w V C w S G V v b F m 0.Q g y.Q q.o.s.W Q Q W W W W F v v V V v v S D D S S Q Q D D Q W N m m b b c q o.v v V w v Z G G S V S G S h w V V S V v v V V Z v v V S v v V D F V v V S Z Z A v v V V V D 0.b S F F W W F b b W F +.F o.W +.F F b b W F m F m m v v S Q o.Q S V V S S V V S V p p V a w w w V v A w w C V Z h h 7 7 V S V S S v Z h q v v o.W o.F W W v W W V 8.v h G Z V q v S v S w v q h Z V D F v S Z w Z w w Z D h h D 9 S S v b F v v m W b W Q F W g b W D S o.o.W D D v v h 9 h V h h v h q w V V h G V v V S S D Q v S S S V V h q S V C C h w h S V V h 7 7 h V h h V w q V S v V w V D S h w v S q b V i w b F S v c q m F X.W F b +.o.W o.'.o.G s.o.A Z w 5 w w w w w p p v p V Z Z F Z V V V V V V G V 7 w S S S h V h w 8.0.w C a 8 w t V t w 8 w w w w t t w V V p w w w w w w w w w w w w w w w 8 A G C V C S S S S S h h v S F q o.D W Z D w v V v V V C V V w w w V V V V w w w w V a w 5 5 8 8 8 8 8 8 8 C 5 5 t a 8 8 A 5 w w v 5 > v q V q S v v o.o.q.#.W j.W o.o.b Q v v V Z S V V F c v F N v v V V 8.S 9 S Q v V v w V C V p v v v o.S o.D v S S D S h S Q D h S 0.S v W o.o.o.Q h C t 6 6 6 6 8 w w 6 8 t t w w t w 8 8 a C a w w q v Z Z V h V Z w w w p V V V V 7 5 w V w w V w S S v q D F +.F q.z.y.W W o.#.c T.o.v W q.W m +.q.Q W D b o.s.u.S D S v S S F Q W F q o.g g T.b q v 0.S h V ` p 5 G Q h v F D W F F q q +.q.G G v h Z o.V 5 7 A w q V C 8 w t t > 8 8 8 w V G o.D S g v E m S o.+.W n E +.W m ~ ",
"w w C V V w 5 C w 0 C 8.3 5 w 8.8 a V V V S F F `.b F v S S 8.V b g v 5 h q h 5 V 5 w V w 5 w V h h h V v V G h h w w w h V G G S S V h V S V h w V S S S S V w v h S S q 7 h w q w h V V V v v v v p p V V C C v 8.w.Q D +.q.+.q +.v T.F g b 0.Q +.+.Q o.y.0.F v v V v v v v v v v S S S S S F +.o.G b v b F G o.v V G p p G 8.G S V S S V h h h V S S v h V D S V S S S v V Z S S S V v v v V V V v v h V D o.F F W W W F E W F o.G o.b o.W o.o.F b W +.W F +.m W o.S b W Q S v v S S V v V A V v V Z V p w w p p Z w w V w V Q S V V h h h q v h S h q v v G +.o.b W o.F Q F v G h V Z V A 5 Q o.D o.v G S G v v Z D v S D h A V V V V h v Z g W W b W W b v W D h S Q q.l.q.S Q D b W Q F F Q v q q 9 q v v w V V w w V V h V S V v v V V h w w v S G S V V V V V S V h h v V V V h w h h h h V h 7 w h w h w v S V w q h S v v v v v v v G s.y.W X.y.X.c N g s.v 9 v 9.G o.v v 8.z.w.C 7 > w w w w p p p p 5 5 7 V Z C G 9.S h C V 7 h G V C G V h Q 0.G w 0 w a C C V w w w w w 8 t V a t V V V p w w p p p v w w w w w w t w w w C G Z V D S Z D D v v S Q q.v 0.W D Q V v Z Z V v V Z Z C w w w V p w w w w p V C V w w 8 w w 8 6 5 8 8 8 8 5 w 8 8 8 w 8 w 8 p 7 5 v 7 q 5 v v v o.o.9.N c j.X.+.+.N o.m G o.G v v F Z v m v N F F F V o.Z q S G v S V w V Z V v v p w Q v o.F v F b W S S Q Q W m S 0.D S S Q W Q D h V 8 8 8 8 6 6 w 8 6 8 t t w w t 8 w 8 8 t C V w w V Z Z V v S Z C V V V V V V V w 5 p C w V C q D h D h D b D o.W o.b W #.u.f.y.u.Q v S W m m +.v q m Q F F S q h g v v g F u.j.D W v u.W v z.g v b q.S v V 8.w w o.G V D D F o.y.o.N F +.9.W v G S G 9.o.w w G w 5 w V 8 w 8 6 t 8 > 5 V G Z w v D b v F W W o.m o.o.W +.+.W W ",
"G 0 5 z 8.C & A 8.w & 8.w C A w a 5 7 V V 7 b s.+.g W j.o.3 8.v Q o.q.h V q v 9 w 5 w 8.G p C G & V w S v 7 Z h S v w h V S V V S V w w V G G V q h h w w S S w v V G G h w v h S V h w w w w w v p w w V C V w q Q 8.h q W q.$.v z.h u.q q W b S o.o.W o.u.+.h D D D Z S V m v v S S v v S D F v F o.o.F m v v G v ` q.V 7 v V V h h V V v v V 7 h S V h h S Q S S Z D F v v S V Z D D S v v v V Z Z v w v Z D +.o.Q W F b o.s.W o.F o.b o.o.o.q.W b o.+.b g W b q.u.W v S D v v V S G V v C G V V C G Z V p p V v Z w w Z w v v 7 V S w h S V V w V v v F v v F m q W q.o.Q v h D V Q G G w.v v Z h Z q S v D S V Z S h v D V A G A V v S Z S h W W b W Q m h D S h S W o.0.h Q 0.Q S W o.W W o.v q v h q h h h S S V h S S h h S S v V Z V w G V v S D V S G V h V S S h w w V V V S V w w v Z Q S w h h w h h w 7 q w h h h F v v G F q v o.N N q m f.q.N #.q j.q m o.v 9 o.8.G o.8.V w p Z v p w w w w w w V w w Z V w p G 8.S S S w V G 7 h w.S 5 G V 5 G C C V w 5 5 6 w 6 6 8 w t V V a V V p w w w w w V V V w 5 5 w w a V w 5 h o.G h S V S G Q D Q o.v o.g o.F W o.D v S V w w v C Z G C w a V V w w C V w 8 w V V V 8 8 8 8 6 5 5 6 5 8 8 5 8 a 8 5 w w 8 V p w V 5 v 5 V h q F G X.F N [.+.F m g $.c G o.F v b F F G m v F o.o.G G G D w V S h D Z w V Z V v w w w V q o.G v D v b h S W S S S Q Q o.S S Q S W W h V w 8 w w 8 6 6 6 6 6 w 8 8 8 8 t a 8 5 8 A A V V V V V V V V V Z C w w w w w w Z w p V w V A w w 5 8.v h 5 q 0.u.o.h W W m o.y.W o.W S F S W u.q.m F +.W W W v D v W o.F o.0.W q D W b W W F +.o.g o.W D q A V p 8.Q V Q Q D +.X.X.$.+.N b F F v G o.G F S v q D h V A C t 8 6 > 5 8 w C G Q Z 5 Q Q m m o.o.Q m f.f.+.o.:.o.P ",
"t w 5 6 t w w A w w 8 8 5 V C 6 a 6 7 V V 9 q b X.c v F v q v V v v g 9 q V v q v v h w w w w 7 V h 7 w h V h w S 5 S V h Q S w w S h w V w 5 w w V S h V V h 5 v v V V V V v h D v w w v V v w 5 v C w 7 w h w h h G v h v q b b +.W W o.0.y.m o.y.o.g g Q +.F D D S D Q D v h Q S S Q G V v F v F b v v G G V v v v V V v w w w w Q v V 8.V V 7 v V w 7 h V S D V S o.Q V v D v F o.o.Z h v o.Z C C C V h V D D o.F v b b F o.W +.m c o.F g o.X.X.N b X.X.N N o.j.o.g F o.D +.h o.q G V G o.w V Z Z v V Z V q v q Z b w Z v w w 7 v V V V 9 w D h q v F v v G F b W E o.y.D S V v 5 G 8.v v G o.S V Z S w h Z v D Q Q Q v q F Z v w v v h v V h g F o.F v b m v F W m v S F b W W Q m g W o.v o.v q v q w S Z h h w w w w h h 7 w V Z S v v S V V S D V w h S S 3 S 3 5 Q 5 v w h h w h V V w D V v v h w v Z q h v h w q w w S v 9 9 q h g q W N W c g N c m o.q.W u.q.q F o.o.5 V q o.G w q V Z Z V V V w & w G A w p V p V C w w S G V w V w h V V h w w v C V C A C 8 5 t 8 w w w V C A C w V C v v S V w V S C w w h V v V p w w p Z G o.V v h V F F S F F v b F b F S h S S G q 9 S S G 5 C w w G V 5 A w h v V S C V w a 8 w w w 8 5 > 8 8 8 6 6 8 8 w 8 a V 8 w 8 p w 7 w V i q V G v +.N +.#.+.F g F v N o.v i F V Z o.v 9.v g o.v b h k.q 5 v 7 D C v V Z p w w v V S o.0.X.b v b b m S S S Q W S Q 0.S S Q o.Q S S w w w 8 6 6 6 6 6 5 6 w 8 8 6 w 6 a C 8 8 8 C A w w Z G h 7 h v w w V w 7 5 w A p A 5 5 8.w V V h D w.w 3 v 9 q g +.f E o.c +.y.h o.h F f E W S W u.D W W h F v F q q.v b s.m u.v b g g F F b b W v W o.v h S v V v S S h b +.u.X.X.W W +.m F `.W N v N S v v v D V q q V a 6 8 > 6 C p 5 V Q q v q.o.S o.0.E S ~ u.,.E N K.m N ",
"w w t t w w > # 8 w C t 5 w V 8 8 8 a Z G G S g N q g +.Q 5 w k.v h q q V D Z h o.V w w C G C 8 Q G S V V h h w S 7 S h 7 S V w q G S V V V S w.G S w 5 5 w V V h h h v V V v h S V h h V V V v v V V V v V C C h h G v h W F X.+.u.Q F b v m 9 F W Q o.o.W Q o.0.0.q.q.q.8.D S D v v S S h w v v N S v v G G V Z V V v p p p w V h S q h Q V V w v V h w v S S G S Z Q Q S v D Z Z D Q D S D o.V v V C S V S Q o.+.Q D o.W W +.W a.+.F #.+.N X.b W m b #.+.m b q.X.W W W F W W v o.v D v G Z v G o.G V V Z V q q 5 v v q v w w S S 0.8.Z S V 8.Z h w V F v v F F v F F o.y.D b D D w Z G w w v D S S S v h v D S D G G Q v h V C v w v V h h v S h m F b v F F S W o.+.+.o.S g b W Q S v Q 0.D g 9 v G Z V V v v v V S Z G Q 8.S V h w 7 5 q h Z V S D S V V S G h Q v V 0.C G h h h w w h h w h w h v h h v S D G G S V v h v S v h v b F b v b q g f m y.f.}.W o.q v v 9 v G V q Z w G Z 8.w.w.q.8.Z p w Z 8.7 C V q w w w w V w w C Z V V Z v v v h w w V V 8 8 w V a 6 6 t 8 w w 8 V C A A h w w w h w w w V V V V C Z V w w w w w w w w w Z V v V v v v F W W +.+.b v S S h S 8.S h D V S G G w w w.q.V A h w w w h v h w V a 8 8 8 w 8 5 8 8 6 8 8 8 8 8 8 a V 8 w w w w 5 w V V v F D h F N y.j.s.+.N o.q v o.S v G V G o.5 F v v 9.F 9.q.x.G V S h S v q p V V b v w q v F X.X.F b b F m W S S W S S Q y.D S Q 0.Q S h w w 8 6 6 6 8 8 w 6 5 8 w 8 w t 8 t 8 8 8 C A A S V G o.S v V v w w V C V w w C p A 5 5 9.w w w q w S S o.z.z.T.W q.m Q +.c o.W W q 5 h o.[.o.b 0.q.h g S v F b W b v v v b o.f.o.o.F b F b g v m f F o.S v S w A V S D v F +.+.N m m X.y.W N a.v v v v S v i v q h w v C V 8 w w w V V w v S v h S S Q q.W m Q E m E o.E i.N O.",
"6 5 6 6 5 V A 5 w w V t w t V 8 8 a V Z A o.q.s.m c 9 q G v 5 v D v g v Z D v h V V V v w w V C h V S V h w V S S h G V q V V V 7 h h w w w h G V h h h h h h h h h h h V V h h v v v V V V V V Z V p v V C C A h v S w v +.o.+.h b g v b v Q Q h m W o.o.D D Q Q Q Q Q W D S v Z v w v v w q w v F S v V G G V G Z V p p p a V Z v V 7 h G V h w h h h h V S S G Z Z Q G V v S Z v v Z Q G S v q w w v v h v Z F W b v F b v b m y.+.m W W m m N +.E m y.+.m X.a.c N y.W v W F v G G Z w G V Z G ` G V V Z V q V q G o.Z Z V G v h Q S h h w G V h w V S v v S F v F b W q.F v V D w V Z v V V G o.o.Z v S D Q D Z F D Z V v v V v w V V v h v S h m F b F W F F b S W o.o.W F h S Q S h F o.F b v v F v h v h w h h h w w h h G S V V v v S Q V h h h V v v v w h V h h V h w v V V h w w w w h h h V V h V S S V V v V S Z G v v v V D G S v S v o.q.+.E 9 5 v F q v G v v h G G G V V 5 Z A G V V Z V 7 w Z 5 V p 5 q w w w V w w V V V V G V V w w w h V V w 5 5 w w w 8 8 8 w w w a C A A C w 7 w w 5 7 V w V Z C V V w w 5 w p v v V V Z v v v h q 9 g F g m W W v g b m v S 0.D V D v S w V w 7 C w 5 V V v w w w v V V V 8 8 8 w w 8 8 8 6 5 8 8 8 8 5 8 a a 8 8 8 w w 5 w C Z v Z Z v g c $.y.o.b q S q v 8.Z v G G 9.s.q v N F o.F 9.S V w q h h V v w p V Z S v i q v v F o.X.N N W b Q W S W S v S o.S h Q q.0.S h w w w 8 8 w 8 t t 6 5 6 8 8 w t a 8 8 8 a A G Z C h V G S V V w v w V V V w w V w V 5 7 w.C V w S S v D o.Q 0.0.F +.W u.X.m y.+.Q D T.u.m W 3 D o.0.v h b m W o.W +.g +.o.f y.u.E W S S o.+.o.q.W m W o.Q S V w Q v v D b F ! E +.P m o.y.X.v F g v S W G F F F q v V V A V 8 t 8 8 5 w V v h S S S h S Q S S y.o.k n O.! i.! N ",
"V 5 w w = w A 5 w 5 5 6 w A A 8 A 8 > 7 w q q b X.+.v q 9.9.w 5 b g q v S v v S 5 w S C w 5 5 V 7 w v h w h V G h w V v h V S S S V h V Q G h 7 w q h G Q V w w v v h v v v h w q h v V v h v V Z i w V S V C A v V D w v +.o.F v b h F F h Q +.h W Q v v W Q b Q Q W S S D Q o.G v h v v v w w v S S v S Z Z V G Z v w p p a V v v V v V Z V w w w w w h S S V D V S D D S V S S v V D o.Q v 9 w w v V v w h v 0.0.W S W W b F W y.X.m W +.W E W a.X.m +.W m u.+.m W q.F g b F F v G v w o.v G Z Z V v V Z S v v 5 V G v w w G S w V h V S w V v h h V v v v v F b W F E o.S b v Q h h Z V A Z G q.q.G V Z D S D V S D v h v v V v v V S V v h v g b W W W W b F v v D Q D W o.v F o.W g v F v W v v v h v v w V V V h w 7 w w w q w v V V v V S S S S S S S S h G V D V q V w V S S V h h h V V v V V v w w v h w q w v V V V v v v S D D S h v 9 m W +.+.E q.g F b b o.o.S q w V w V Z w Z w V w p G 8.G v w q V p 7 w w w p h w v C V w V A V v w w h V V h V w 5 w w w 8 w w w w 8 t V V V C w w w w w w V w S Q Z w 5 w v w w p w p Z 8.w.o.Q G Q W W o.q.E P O.+.W W o.E F S Q v h Z V D h S V w w 5 5 V V V h h h V V C w w 8 8 8 8 8 8 8 5 5 5 8 t w 5 8 8 d 8 8 8 p p v p V V w V G V F N q.+.F m v 0.v v Q v w G o.w.s.F G F v G v G q.V V v h v h w Z V V V V V v b X.N F o.+.F m F S Q Q S W S h S Q S v S Q Q m h V t 8 w w 8 t a 8 6 5 6 8 w w w 8 8 6 8 a A Z V v w v V v v V w V w w w w w w V w w w 7 8.Z V w h Q V o.Q b 0.o.v o.y.j.N g u.y.W b u.y.W W 5 S g W W W S h F q.y.s.m y.y.m y.W o.o.E E 0.+.E W W E W o.D S S Z G w h S F F N m f.O.m W +.W b W v b W o.o.G W Q S W S v C C t a 8 8 5 q Z S h Q h S S h S Q Q W W E y.,.m ,.d.N ",
"w $ 8 A 8 6 t > 6 > 5 6 6 t C 8 [ C 8 G k.z.0.v b N g W s.F 5 G g 9 q v v h S o.Z v w v V p w w S S S V h h h h 7 w 7 w h h h w S h h S Q Q S w S h w V V h h S S V V v v v h w 7 w v V h h v V v i v Z S v V A V V G h S +.F m F W S o.W h W o.W o.Q m b o.o.S Q Q W W Q Q o.o.G S v v v v p v v v V V V Z Z V V v p 8 p p a p w V V S V V S V h w q w V V V V V v v S Z F V V Z D G Q Q G S v v V Z G Z V v Z y.q.W S W o.W +.X.W N W #.#.X.W N ,.X.m W N N f.b +.o.F N c c o.D q F 9 w G h V G G F v S F F v v 5 v v 9 9 9 D Z w V V S G h V V v V F F v v F F F +.E S W v S V o.V v V V Z C v o.8.Z v F S w D v D G h q v v V V V V S S v h h g m F F W W b S D +.u.q.S m S S W 0.Q v v F v g 9 q F D Q Z q h v v h w h S G v h h S V h 7 9 h V S V h w h v V 8.V G S 7 G V V V S V V h V S S V v h w 7 q h V v h h v h w 7 Z V V V Z Z V v s.Z S v v v h o.b X.F g v G F F w G w G G V Z 7 G G V p Z ` G V p C p w w w w p w w V V p w w w p w w w V V w w A t w w w w w w 8 w w w w 8 w w w V V w w h h h w V G G V h w w Z C v w q w Z 8.v q q v b b v v X.O.y.,.E N S b Q v v q v Q Z G Q V q w S S h h h h h h h h h v 8 8 8 w 8 8 8 8 a 8 5 5 8 8 8 8 8 8 8 8 8 8 p V Z a V V w V Z V D F 0.o.S S D s.w w S w h o.G o.o.G o.N v G G F s.G D S v S V V G Z V S V v v b o.F N o.+.N v b D Q Q D W S v S 0.Q Q W S h h h C a t w 8 w w t 8 6 5 6 w 8 8 5 w w 8 a a a v v C V Z C h v Z V V w w V V p w w C w V 5 A p w 5 5 G V G o.Q u.W m W 0.y.N c #.W Q b S o.0.D S m 9 v F S b g g o.j.a.E c m W +.W o.E n P #.+.m g f c m F F v v G Z q q F W E P N y.W E Q Q W o.q.b S D D S D Z Z W Q V h C Z t w 6 C w 5 Z G b D h h S S D Q E g g W U.d.n N K.d.",
"t & 6 A t w C C > 6 t t & > t a & t V 8 V q.q.b g c q g W b 5 w b v b m v w v D o.V w w p w w V Q D V V v h w q w V 7 h S w q 7 h w h h 7 w V V G V w w h h V S S S V v v v h w w h V V v v V V w w p V v w w C v h S V D o.F N h b m o.Q b o.+.W b S o.o.W F o.S S E Q Q Q S h D Z V V v v p p v v v V V V V v w w w 8 p p p w h Z v V h q G Q V h w v S S V V V v h v V S V v S D D V v Z Q o.v V Z G G S S G D D h q m m F +.m c m +.y.#.W N c W O.X.X.W X.y.g u.+.c m m c o.o.b D h Z Z S v +.o.G D D F v v o.v G G v v v o.h w G S v v q S Z D D D F F F G F E +.E b D v S v Q v v Z V G G h D G S V Z S h D v Q o.w q Z S v V V V V S v h v h v v v F o.F S W 0.q.o.F F Q S F o.Q v b F m S h h v V D D q q w h w w w V G Q S S S V h h V q v V h 7 7 q w w V 7 V v 7 S C h h h V V v V C S V V V h w h V h h h v v h w q C V V v V V v h 7 5 D Q Q D g b b W o.b F G v F Z 8.Z G p v V v v ` ` p 7 p V V V Z p w p w q p w w p V p w w w 8 w w w p w w w V 8 8 w w t w w w w w w 8 w w w 7 v v q q V h 7 h w h G 0.8.V q V V V p w v V Z o.F v F o.o.G F g N #.#.g q v b D v b v D o.Z D v w 7 w h h h V h v V V V V V V w t a a 8 8 8 8 a w 5 5 8 8 8 8 8 8 8 8 8 8 p Z V p V Z V V V w D b o.D m h 9 S w w Z V Z 8.Z V v G o.N q F Q v o.G h w h v S C S b V F S i q q F v b X.X.N m N W Q W S Q Q S Q Q Q Q W S S S D V a 8 8 6 6 6 8 8 6 6 6 w t 8 5 8 8 a C a 8 w V G A G Z w h V v w w V A G C w w p 5 V > w w w w S o.S S W Q D 5 W b m b P O.o.m W u.s.y.D 3 v F W v v h F W h W y.o.o.g c q.W N o.N g E u.#.N m g N E W Q v q h D w v o.o.W ! ! o.E o.0.W m W Q D F S v v S S S v S v h Z G v 6 w V v q v S v h 0.w q S S h m S o.N o.i.,.N i.,.",
"e.A w 6 8 8 t w 6 6 a C 8 6 t t [ e.8.Z w w S W W o.b 9 v +.G 5 D W D b v v h q Z v h C V w p Z V V h w h h w w V Q h V G w h V S h S C 7 7 S V V V V V V V V h V V v h h h h h h h v v h v V V w w w w w h z w V w V V S F v N S Q S Q W h F b b m W 0.o.S F 0.o.Q Q o.0.0.Q v Z G G Z V v v V v v v V V V v p p w w w 8 8 8 w V D w v h 7 D S V h h V S V v V S V v v V S v h h S S v h V G o.v V C Z Z V V D F W b h b F E +.E W +.y.y.y.y.+.W N X.#.! X.#.X.m o.o.m m N F F o.G G F o.S 8.G 0.o.o.G G F v q F q D S h b m V S V Q G S S v Q Z D D Z v S F G E m W b S Q v v q S w V Z v G o.V S S v V D Z v D q D o.w w D v v V V v v V v w S b S b v F o.W b W W S b D o.q.b m W D m b D m o.G F v q v S h V D Q G V V V Z v h w w q q v G S G G S V S S S h z w S S V G G h w h V S V h V V v V S V v v S 7 q w h h h v V w w w w w w w w V V o.D S Z S Q c b o.G Q o.q v V V v V w 9.G 8.p ` w.8.G V Z G Z Z p w p w 7 w w w w w w w w w w w w w w w w w w w 8 8 8 w w w w 8 w 8 w w w V 7 w w w w h h w V w w S 8.Q S w v p v V V V F F F h q c b b b b m P #.y.X.W +.o.b c F b S W S D v V G G h w S Q V V S S S C S S w a C C a 8 8 8 8 8 8 8 8 8 8 8 8 8 8 d 8 8 8 C a w v Z V C Z v o.D o.W S S 9 q h h G V C ( C V F F F b q v F q o.k.S h V q v w V p b S V q q b v F F F W F F F Q Q S S Q Q Q o.S S S D W Q Q Q V t t w 8 8 8 8 t w 6 6 w a t 5 8 8 8 a a 8 V Z C V Z V h v V q w w V Z A V V V w > Z 5 w V C V S S o.Q Q +.Q +.W b g f ! y.o.X.Q Q s.W W m F F q.b v v o.q.S +.Q W #.W W #.E N f.#.! O.,.W c m O.#.W W 0.D q v G v D q.o.E X.#.+.W t.y.S h S S Q Q S V S Q G v g S v w Z G C w w w v V h h v h u.z h S h 9 S o.y.E m O.K.X.#.n ",
"8 8 & $ t A t & t 5 6 V A A C 6 c.7 & ` s.G v o.W v v v 9 9 v G v b v v Z o.S q G q 5 A w.8.C w V V V w w w w w h 8.h V G 5 h G h 5 q v w V S 5 S A C w w V S v v w h w h v v v h w w w w w h v C V w 7 w Z C w C 7 h v v v 9 b v W m S S b Q F v +.u.o.S W +.y.8.D v m Q o.o.D D o.8.o.Z V V S v h v V S V v p V p w w w 8 8 w v Z q V V q S w v h h V V h h v G Z v v S S v w h S Q D S Z D S D Z G G Z v v Z S W S v v v m W m W +.N c X.y.+.y.m N W n W #.n W m W X.c F +.v v F S S 0.v q.o.o.G G G W F v q v w G Z v Q S v Q w h w V G h V V F S v h v V F D v m v S o.b v v D h S S q h S Z V h w v v v h S 5 v G q h Z q w v V w w V v q V F o.o.D o.+.W m W o.W W o.Q F W F W W S W Q S h v o.o.v v V q h S Q Q S V v V S V S S V v Z 8.h V h h h S V h h 7 w h V h h V V h h S G S v h w w h v h q q w v V V v h v V S w w a V V V v w 5 w S w 9 v v G b g b q v F 9 G s.G v V C z.V w Z b C o.o.Z Z o.G G V w V i q v p w w w w V V w w 8 w 8 5 6 w a w w w w w w 8 w 8 w w w w w V A h 7 7 h h q w V S V v V h w h A V p w w v V V S v q q g v b F o.+.m m ! 0.y.o.g b v W v h v h Q G h h V v h V w v V S V V V C S w a C C a 8 8 8 w 8 8 8 w 8 8 8 a 8 8 d 8 8 8 a C w w p w V G Z S q v h v S h h h h C 5 5 t w C V w 9 b v h F v & q.5 5 S q Z v Z p p V p q b o.F _ o._ W W W W Q Q b m o.+.o.+.D W F F W W F S V a a a t t t 8 V a 8 6 w V a 8 V 8 w t a a C G V w V V V G D q v w w w w w V A A w 8.w w v V p 9 9 q.o.b v S '.o.q.o.v W o.W y.o.W T.b S F g b W g F F +.y.E u.#.+.X.W N m E +.! P m E +.! P +.y.+.m m 0.0.Q 0.W m Q q.Q m ! #.O.E +.y.m m W W Q Q S v D Q D h b o.S q v Z G G Z q V 0.D v F Q S S 0.u.S S W m 9 ~ #.! d.! i.! ",
"> r t 8 6 t t 8 6 8 = C A w & p = w.V 5 o.v 9 G v v h h h h v V h h h v h w h S w w h v V v h w G w 0 w V w 5 6 A w 5 w C 8 w V w w w w w V V w C V V V V V h w G V w 7 w w h w v 5 q V V V V w w w p w w w w a v V G G w w Z G W v v F W F v b F F F F F W W D S S v F 0.o.Z D 0.q.o.Q D D D D F v v b Q G S w v w w w p p i 5 V V V v v w w i q v S v h v S b W F b v h v F o.F S g b Q W Q h b h Q o.v b W b W S v D Q W S v F X.m X.F N ,.N N #.X.I #.O.N U m W W m m W W E g W W b F F F Q h D S D Q Q D Q w S Q D V v h w S D 9 w h 7 S w S w V G V h V V S v b F S v b Q b h v F S G D h v h h q h h h h S v h h S S V h A V w V A Z V V w G Z v v Q q o.S S S W Q Q D S S F F S b b S F g F W g q v v q w q v V w w V v w V S h w h V V h h h h V S V w w 7 h G G h h G h V V V v h h V w V V 7 5 w v w q w V 8 w w v V w w w w 5 w V C A V w w C o.G w v W b q h S v v F v S D S F D v h v Q F V G G q.o.q D G D F 9 D q q w v p w w 8 8 t a 8 8 6 8 a 8 8 8 8 p a p p C w w p v v v v h q 7 q v V V h h S Q G v w h V v V p A 5 5 8.w F q g q F c N F m m m m W o.o.E m W o.W m q k o.o.V h V S v h v v q V S S D w w C V w w V C a 8 6 8 t 8 8 8 t 8 8 8 8 8 8 a w 5 5 A V w w v o.Z S S g v v Z o.q v v V V V a V a w 8 p p v h w h q g D v w V w C V w A 8.p p G V V q D v F 9.F D F u.q.W b +.s.v o.o.F v F o.W c o.q w Z w 5 8 t t 8 6 6 8 8 8 a a a C C V V V V w V V w v G o.A G h w V S V v V V V w w Z S w p q G 0.o.D Z Q +.+.F b F +.+.o.f.S Q o.h y.S m h m E +.o.b m W N +.X.a.g n W X.X.m ,.N #.m d.X.y.l.m W S m o.W S W v S o.Q m m y.d.o.+.W W o.v v D D o.G V Z G v W m m F F D D h q V Z V h v S D w.S h Q 0.+.Q Q S W ! ! :.,.:.i.",
"> 8 8 , 6 8 8 6 8 C w w = w w q h Q w 5 w h G o.w w w h h h h h v V S S V V S Z h h v V S S Z A G t w t V w w 8 w 5 5 w V C C C V V w w w w w w w w w w w w V Z w w w V V v w w G a V G G G G C w w w V V V p w V p C C w p A Z F g q v b b F o.F W +.q.u.u.q.$.G Z V S o.G v v Q D W Q Q D D Q F F b b S S C V V v w 7 7 p b Z w w p p V V Z F v Z Z v h v S F g h S W W W F F W W v W o.o.+.D D F W W b v S v v b S S o.u.u.q.b N W +.+.+.#.n O.O.X.O.,.,.:.,.E W Q W E E m m W W m m W E S W Q Q h h S S S S 8.G h w C G D w V D w v V h S h V h V D v v S V D D F b b S b v D v b S v S D v v h h h h v v v S S v v S S S v A V w V C V w w v V S D v v 5 q.D D W o.o.Q D F F F F S b b b S S W W b v b v g Z V Z Z V C G G h V S v w h V V h V V h V S V V Q S S S h 7 7 h h h V v h v V C w V p w w V C w w C G A C V w w V V V w w w w w Z Z C V V C V q 5 b b v F W b h Q D o.0.o.Q W v b b o.S v b v o.S o.0.v v o.F v v w w v w w 8 V 6 8 t d d t 8 8 8 8 8 8 p a V V V w q w v w w v V V V V V V S S v S Q Q Q G G G C V C V V p w G F S o.o.q.N G F m Q +.o.S h m S S W W Q o.W m W S Z G Z h 9 v Q v q Z Z S Z h S v w w w 8 8 8 8 6 w 8 8 8 r t 8 w 8 8 8 8 a w w 5 C v v h h D v v F v F v v Z 5 w w 8 8 w 8 8 8 5 8 8 a V V D D F h F S S V w A w 6 A A w V C C Z q S S G o.S o.o.X.N N c b #.W o.F m N W X.W W Q q q w w 8 8 6 t r 8 6 8 8 8 8 a a 8 a V Z V V V Z G V v V Z D S S S S S S v w Z Z V b Z S i w w v S V v v W q.S g g g m S E +.y.E W W u.m m E m N X.W m W O.W W +.Y.X.O.O.! W W +.g O.m X.q m o.g S S S W f 9 E S m m m S E W d.#.#.N m W F o.W F Q G v F F g o.F F F b S F h w v h w w V V V G h w D o.Q b m o.+.O.O.i.H.i.i.",
"8 y t 8 8 t 8 8 8 a w C w ` w # D V S Q v D w.w 7 q w h h h h w w v V h w V S V w v S V v h w w A w w t V t w t w a V 8 8 V t 8 C w w V V w w w w p p w 5 5 w V w w V V V p w w V w w V w w V w w w w p C C V w V w w V V C A V F v v F F F W +.F G G F b b F o.o.o.Z Z 8.G v V Q S W q.q.W D +.D W D S v v C G v p i w q i Z ' V V v p v v V V v S v h q g b b h m S S F W Q Q F W m W Q W o.W W Q F S D S v b W q.q.W D +.o.b +.F X.W W #.+.W #.N N O.#.,.,.,.X.o.+.0.o.W E E 0.o.m E y.y.Q o.0.Q h q S S v S v V V V V V h w V S h S S V Z v v v S V h V D V v S S v S o.Q m W m m v g v S b S v h h h V S S S S v V S S S V C w w V V p v v V V v Z v D 9 o.S D Q Q W F S b F F F b b v m b b b b b F F S S V v V v q w V V h V S V h h V V h V S V h v V V h h h w h v S G h h h w w w h V w w w w w Z Z V w V A Z V p w 5 V V V V V V w w w V C C V V V v q S F S Q o.F m S m D o.W Q Q S S b o.S h v g F b s.q.F b o.q.v S v w w w w w C 6 8 8 a a a 8 6 a p w w p a V V p w q w h w q h h S D S h h V Z h v S G Q Q G Z v w V w ` Z & q.v S +.G o.b F m W S S Q o.S m m E E m Q u.y.W b Q Q Z V V D D S v v Q D V V h D w h V w w 5 8 8 8 8 8 8 6 8 t 8 t t t 8 t V V w 7 v w V V h V w q S F G V V o.w w w w w w 8 8 8 6 8 8 p h v v v Q g v b S v 7 Z p 5 G C w C v C Q h V G Q D b +.+.N c W F m $.q.o.m g m F b N X.W S q 5 p a 8 6 d d 8 8 8 w w 8 a w 7 w p V V w v Z G G v q v G v G Q V v S S h v v p V Z Z V V S v v S D S W 0.q.o.Q o.E W +.o.F 9 m o.y.m m f +.W ! W N O.#.O.N P #.9 q c X.y.Y.h.W y.X.+.g N u.W W E Q W m o.S W E h S y.y.E m W y.X.F X.F W o.G W W F W X.v X.W X.F v S F h v h w q v Z V w V q q V W F m m m W E ! f.Y.H.f.",
"a a a w 8 t 8 5 8.A 5 w w V w w.q q v Q S D Q & w w h h h h w w 5 h h 5 9 v V w h S o.o.G V h q C w w 8 t w w w a V V w w w 8 5 V w w C C w w p w w V V w 7 5 7 C C C V w V C G C w w V w p V w C p w 7 w V C C V w w V V C C w v F W o.X.F F W o.o.W F v v F o.G G Z Z 8.Q S D D D Q 0.o.D S Q Q W W F S v S A 5 w p b b b p p Z V v p p w w w v v v v g v v b F D F b b D Q Q b D v S S m W S S Q b v o.W v S q S o.Q Q o.o.F u.W #.W m +.X.X.f.W X.,.O.#.d.i.W W o.u.y.o.W o.W Q W W u.j.+.W W W S S Q Q S S 9 h S S V w w q V S V S S S S S v V S v w S Q V h v b S W o.Q F W v m m q q v v S v h h v S S S D S v S S S S V v w w V V V C Z V G V h h u.F v v F W Q D b b b F F F b v v v m b v g b F v v S G Z Z Z p p V p h V V v h h v V h V V h w w w w w V S h h h h q V h h w w w h V w w w w V A C w w w w w w w p V w w w V C C p w w w V V V V V Z D Q S h F W F F b h h v h b W F v v Q b h m h F D +.F o.Q v o.Q V v w w w q w V 8 8 8 8 t t t 8 8 w 8 w 8 p p p w w q w h h q v w V S S h w h S h h v V V V v v w w V p Z V 5 G D G o.v o.W q.o.o.m m Q 0.Q E W E m h E u.u.E g o.Q S v Z o.G w Z V o.D v v q V w v V V w w 8 a w w 8 8 6 8 t t a a a a a a p p w w q V S h V v h F F G Z G 8.v v p p p w w 8 8 8 8 t p w w h h S g b v h h q V V w 8.V w A w C o.S S D Q D b F +.N m #.o.N $.#.+.N c m b m N W W o.v 5 V Z 8 8 d 8 8 8 w w 8 8 a 8 w w 8 a V V w w V G v 5 q G v D D v h V D G v w V Z Z G G V Z v V o.0.D b D +.o.W +.X.o.y.F W E 0.0.o.y.p.E y.X.! ! P X.+.W N O.d.! +.X.y.,.f.a.N W m W q c +.W h h W m h y.Q +.o.E Q u.y.E y.a.U.#.F F q 9 o.F F W G o.o.F F W +.W v S F g v v v v V G V w V w q w m S F Q W +.! W :.p.:.! ",
"8 8 8 6 6 8 8 6 A G w V Z w = uXh Z q w D Q o.S V v h h w w w w 7 v h 7 q V V w 5 h S S S S S v C t w 8 w w w w w 6 6 t t w w A V 5 7 V C w w p 5 5 w w p p w w V p w 5 5 5 w V Z V V C w V C w A V w 7 w v V V w w p V w w V w v b G Q F v v F v F o.9.o.Q G G S S v V G Z v Z v D Q S m S S v o.Q W W G G S V w w v V F S i 7 p w w w v V S V v v v b F F F F v F W W Q o.W S S Q b F F v W b b W b v +.Q v b h h S o.o.D Q 9.G N f.q.X.$.N N ,.U X.#.U U #.#.N m W +.+.W E X.g X.W c X.u.+.m m W E W o.Q D D Q S w w V G G V V V V v v S S Z v V S v w S G V Q S D o.Q m v D W v S F h g v v v v h h v S V v D v h S S S S V h p V V V C Z Z V D W D h u.Q D b D Q Q W F F D F D F S b v m b W b v N v q q v Z V G G V v V p h h h h h w h v h h w w h V h 7 w V V w w V h 5 V V V h h V S A V V w w V Z C w p V w w w V C A w w w w V p w w C V p w w w w v G G v q v S v S o.D S S h v S v v v G V v V h Z Z V 9 Q G 5 Z o.V v v v p w w p p a V p 8 8 8 a w w w p p p w w w q w v v q g v v V S S S S S Z V V V v h w h V V Z C Z w w G 5 G F G q W W q.W +.o.+.y.o.m b o.E S v m +.+.m g v Q o.D v v v h D v W S v v 9 v w v v V V V V V 8 a t 8 8 8 t d V a a a 8 8 w w w h 5 V S h D S G o.S F V Z G 7 V V a p 8 w w w 6 8 a a C Z Q Q v F +.b h S V G w w G w v A h Z S D S S W o.W g W F m X.F N +.W #.$.W m N X.o.X.G q.F q V Z d a 8 8 8 8 w w w w a a V a p p V G v q v D v 9 q G S S D Q F v S o.Q Z G 8.C C A w v q v o.o.S v b m b g o.y.+.y.m W S S g 3 m +.W +.W W ! N W X.N P X.+.N ! m X.N +.f.#.X.X.y.! N E W m E +.m g W o.+.+.o.W E m m ! P X.m W d.s.h.#.F F F b G o.F b F o.W b S F h v S S S C Z V w V v v v v b F Q m W P m W O.! ! ",
"5 6 6 8 6 8 a V 5 V w w w.s.= ` S u.v 7 G D S Q S V v h w w h h h V v w h V V h h v v w w V S v C V w 8 8 w w w a 5 5 t V w a G V w w V V w w w w w 5 5 w w w w ` 8.8.` G G G G p w a p w w V w V p w w V V w w w w V V w w V p V F F v v v G o.v F o.o.W D F F S Z v v D S h S h Q Q v h S W b o.W D W o.o.S h Z V v v S F b i V v p V Z G F Z q q v F F F F W b F F S F o.o.W S W b W W m F m S D b S W W v h s.o.W o.D h b +.F N q.$.X.+.O.X.X.U O.O.N P O.O.! W W X.X.W W W N +.W g m #.#.E F Q W S Q D S Q D G D S S G A C V h S h h V v Z v v S V h V D V Q b F 0.o.v v o.o.b F Q S v v v v h h h v S v h D v h S D S v V v V V V V C V v S h Q u.b F b u.S S F F F F F F F D F F b b b S F b b F F v v F w w V Z p v V w h w w h h w h v w w w h S G S h w h w 7 w V S V w w h h h v S S C V V V C C V w v V V p p V V p V w 8 w w w 7 w C w 8 w w w V V V Z v v G G S S Q S D G F F S h v h D V v V w V S S w V S v D G V V V Z C p w p w a Z Z t 8 8 w 8 8 p V V V w q w w v v v v v v V V V S D D Z S v V V v w w v V v Z V G w v s.q v h v q W F G g t.o.o.0.o.E F W E W S b W W m b W W Q W D D b h b g F S b S g b h w v V V V V p 8 a a w 8 8 t t V a w a 8 8 w v h V w v v h G D G D v v v S o.q v v p p 8 w w 8 5 8 8 a V Z W o.g W u.F h D Z G 5 V V w V C V Z h G S S D +.q.v W W m N c m #.W +.$.X.m b o.$.X.W o.D w v V a a 8 8 8 8 w w w w 8 p a p w w p Z Z v v D F v v G G F o.u.9.S v Z G v A G t V A w h h v D D S W +.S o.g +.f.o.O.n +.W W 0.S E W +.o.W X.+.W W O.O.#.#.! c X.W f.i.9 ! W m P #.N f y.u.Q o.+.W Q o.E E o.+.Q m m W K.,.#.W W O.m N a.+.X.o.F F Q D b b W o.S b F v v Z G S v v v w v V D D S v v v 9 m k f n W W W ",
"5 6 w 8 w 8 C G 8.w 5 5 v z.h h 9 o.h 7 h 5 5 5 v v v h h h h h S V h h v V v h Q 8.G V S Q G v z t w w w w w w V w w t V a a V V p w w p V p p w w w w 7 7 w w 7 8 w w p w w 5 V V C C w V C w w w w w w w w w p w w a w w V v V v v v v F o.9.9.o.o.G F D G o.Z Z V V D S v Z V Q o.W S D Q W o.G F G o.o.S h A C V v v v b v G Z Z Z D Z v v v g c b F N N E W W F v m Q o.Q v S h F W b F h W b b S b S F v 0.Q D W W D o.u.+.o.F W F X.d.,.X.a.3.O.,.,.,.,.+.+.o.W N W X.X.+.+.W E +.#.o.o.W W S b W W D Q q G q.8.V w w v v w Z v h S w S V h V D v v S V D v b Q o.D W q.+.b b Q F b m v v h h v S m v h D v v W Q S v V V V V V C A V w Q q W s.b v v u.D S b m b b b m F D D F S S S F v b F G F v D o.V V A G V Z G C h w q h h h h V w h V V S G S h Q G S V h h w 5 7 w w w w w h h V V V V V a w w w V V V p V w 5 w w w V w 5 5 w w 7 5 w p p V Z h v v V o.o.S S v h v D S Z Z v v h S v h v q v G S S h v Q Z D V V Z Z Z v p V p V V V p 8 w w w p p v V v w q w w v S b v v S v v V S S S V v v v v v v v v v w p p v v G 8.G G v G G u.o.o.G o.W E Q 0.q.W m E o.W m W W E F 0.F h S o.o.F v v h Q W F F v W h V C V V v w p 8 p a 8 8 w 8 w a 8 8 t 8 8 w C w A v v h h G S v v q v v Z 8.V p p p 8 8 w w w 8 8 a p v v b b v F 9.F v F v V 5 8.w w Z w D v v o.S D D D q.W W W b W N N #.X.o.X.F b b F W W +.F S v w a V 8 a 8 8 8 8 w w w 7 w w w w w w v Z V F F b v b W W X.+.#.o.F b V V 9 V A 0 t A w V F W D S W q.j.m y.g o.K.n g m N P c o.W X.g m X.! #.#.P N O.#.q n N N +.m #.N X.#.+.W #.a.+.P y.0.m m m m t.W m m E o.W S W #.#.N X.#.#.#.m N y.o.o.+.W G X.W E v b W S v b S D G Z v w w p p w S Q Q S v v v o.q.E f g N k f ",
"5 8 t 8 6 5 w A Z > o.o.5 o.h q 5 S V h w 7 V h w h h v V v v h Q S V S S S V V w h v h V D h & w w w 5 6 w w w 8 w w 8 V A C w w p w w p C A C 5 w V C V w w V w 8 8 w V C V w w w V V w p V w w w w w w w w V V 8 w w w V C V w v v v v S G G v v v F F D F b V V v v Z v v Z S D Q Q W m S W o.G F D Q Q S v V V V V v b b v Z Z V Z G Z v q F m v F W F F X.m W Q W Q o.W g v S v W Q F W v D g v b g b o.F S D D D W o.o.o.+.+.m +.#.+.h.W N ,.O.N O.:.U P O.#.X.m c E X.W O.P m ,.h.y.E X.F F b S +.+.D D o.o.G V p v v w h q G V h S q V S h V G S h V V Q F S F W o.o.W +.v v F S v v h v v h v S S v v D v m Q o.D v V V V V V G o.D h o.g b +.h Q b b o.W S b b S S b F D W F S S F W F o.+.W v h v v V v V V q q p w h 0 q h V h V C w V S S V V h w h h V G Q G V h V V V V h w w w w w w p w w w w V V V w w V p w w 5 w V a 7 7 V w w w V w w w V w w q w D Z v v D v v v h v V v q q V h h V w v o.q v q v Z q V V v V C V p p V Z V w w w p V V p w w w w w w q v v v F S v b F v S Z Z S v v v S V v S D F v q V p V 5 Z G 5 o.v q F D q.W o.+.m W 0.+.o.W S m m o.W m W W E E F v h b b h v W v b 0.+.D S v o.v S G A v w w V w w a 8 8 w w 8 8 8 w t 8 8 V A w G Z v w h D v v F N F V Z 8.V p p p p p p p 8 8 a a p v v b F F b o.W F S q V w k.w V G q Q w Q 0.D o.F g +.q.N m m +.X.N o.F y.X.F W F m m W u.b v F v V Z 8 C a a p p w w q w w w p v v v v V S F S v v F X.W +.X.N m F W S Q h G Q w t A w v o.0.Q S W q.f.m f.c ,.}.N N f.X.a.n g m f.+.+.! W +.+.c q N +.+.y.+.W X.c y.#.f.#.m g ! X.! W m W m W m W u.h m E E S m b E W #.n P O.,.y.#.h.W m F o.F b F F o.v v F b g v F o.o.S w q w V v w S G Z b v F W o.q.E g W u.y.o.",
"5 8 5 8 6 w C q V v 5 V Q Z Q S V S V w h V V q o.v q V o.o.S V v 5 w S S V Z G h S G V q q h v w w w w 5 5 6 8 w V A A A V w w p w w V C V V V A C V V V V V V A V w V V w p C w w V C C C V w V C V w 5 7 w w V w w w C Z V w v v v w i v v V V V V V Z Z Z V Z Z Z S v v V Z Q S S D D S S D 9 v o.o.G V V C v V V V S D G G G F v v v v b F W F b W X.W N c Q o.o.W Q 0.0.o.b F S W 0.o.v q b D Q W b v S W W F v h S o.+.o.N o.o.N F #.,.X.N `.P.P N O.O.U c y.,.U X.+.X.+.y.X.#.#.y.y.N m W +.W q.+.v o.Q Z S V S Z Z V w S v h w h h v v v h V S S V S D S b v D o.F v Q S v v F W F b m S q q F W b v F v D F v W o.b w S w G V q S S h S S Q q.q.o.b b o.g v W b S Q D S +.+.Q D S v b v F b o.F o.v v V V v V V V p w h w w h v V h w Q Q G S h w h V h S S S S S V G V V V S S S S S w w p V V V w w C C C V V V V V w 5 5 w w w w w w w w V V p w w w w w w v V v w v v v v V V V v Z V w w v V V V v w A 5 5 V q w v Z w Z Z w C w v w v Z F Z V V V w 7 q w v V S v F F v v F F v v F D F v v v v g 9.o.G o.g 3 v w p p p v v V V N v F o.o.F b W W N N #.f.y.X.#.y.W m ! o.W m m s.o.F o.q.o.m g b v F +.o.m v Q S S S v w q w w w w V V 8 8 A C 8 8 a C C C w w v C V v h v V S v v v F v V Z w p p C V w a C 8 8 C Z w q b F v N o.+.W v 9 w 8.G v w h v h v S F W W q.v v u.v q +.N g $.+.m o.#.W W W c v W o.m +.v h v p Z & 8 a p 8 p V Z V p V V p V V v Z q o.g m o.b G X.X.n N +.N a.o.v v h S G C V A V h Q W F +.o.b W m X.c i.`.n n y.! g P ,.X.+.a.X.N #.#.N W P h.m X.W #.U.,.5 f.#.+.#.N X.W n X.g #.! X.n W u.W o.+.g u.y.W y.N W P n n K.#.,.y.P W N N +.m c +.N g o.q.W F F F Q G V V V w V Z V S h D S 9 q D F F F E E W X.+.$.",
"8 a > 8 A w w w h v 7 h v q S S Q D h 7 q v V V 7 w S G V 7 q V v w w v V w h S h h w w v S S h w w 8 8 w w V V w w 8 w w A 8.w.w w w w w w w w V w w w V p w w p w w w w w w V p V V V V V p w w V C w w w w w w w w w w w w 7 V V V v b V V V V F Z G G Z Z Z V V V V S S V V Q D S W Q W S W v v V v v v V C S S S S F D G o.v v v V F G o.+.W o.q.#.o.W F W o.o.W F W o.+.o.F W m v W Q S F v F o.o.W S S D F W D F D W W b b X.W m F y.h.d.#.K.K.:.O.O.O.U X.y.+.m U X.X.,.h.#.,.O.X.#.O.y.N +.F o.W v W F w V G G V w v V S S V v h h v v V V V S S S S G D S v b W m h W 0.W v v v b b F v h h v S S b v 9 o.Q F F v b b V V 8.Z v D S b b D F b b W W F o.v m W W F D D v W W F W F v v F F v F c G F o.Z V p v p p w w h h h h v v h w h w w C 8.8.S 7 h S V v S V V G w h h w 7 7 w V 7 w p p w w w w V V p w w w w w C w w w w w w w w w w 7 w w V C v w w w v v v w V v v v V V v v V V V V V V w w v 5 v v w w 5 Z w V w V V w V w V V V V Z F D Z V C C C V V F F o.o.+.o.G W o.+.W D F G o.o.o.o.S o.v 9 v v g o.o.G Z p w w v Z v c v F W b v N N N m W #.#.y.K.y.o.X.#.o.E N W W v v b W q.+.u.W o.o.o.o.o.W F v v S V V h v v S w w V 8 t C a 8 8 w a a a w w h S G G S V h q v v v v i Z G v w w a 8 5 8 a w d a V a v b b N W F b m S v V o.A V v S D V v b D v v +.b b u.F v o.N c X.X.N +.o.X.+.o.N N W N c N g v S w Z 8 8 t 8 w w p v v w p w p Z V h h q W g v F v b b a.+.X.X.b u.W F v h V S V D ( Q o.0.b q b G X.a.W E P ,.`.y.N i.! n X.a.+.W O.+.X.! X.X.+.c #.N ,.X.m m m q a.q X.+.#.d.y.N N N m m +.W o.y.E m W W E 9 W #.f f.N ,.,.K.#.f.i.q y.+.F o.N N #.F o.u.+.N m v v Q o.V v h q v G G 0.h 5 q W q.+.v b b v b N N N N ",
"V A w Z w.w q V w V h v q 5 v D Q S h w h h S G 8.G V h q q S q.q h q q V q 9 D G Q Q V q 7 q q w 8 8 w 8 t V a C V t w w 8 w w V w w w w 7 w V w w w V a w w 5 p 8 w v V w w p V V V p p w w w w V C V V p w w w p C V w 5 7 w V V V V V V V V v V Z Z V V V C S V V Z Q o.D S D S S W Q D S S F S b b V V C Z S v v S F S F o.o.G G G D S b F g F +.o.X.X.O.W +.o.D S D o.o.W Q Q S b W Q Q 0.v S Q Q D S S F b W o.D S S S N F X.X.m N +.,.#.,.+.,.d.3.,.,.#.W +.O.X.#.O.W X.O.W #.+.O.#.+.d.N o.W W F v F b q v G G V v v V S Z Z S v h h V V v V Z Z S S G o.W v b F b m Q W S b F F m h g v b m h m D S h q 0.W Q W v W S h Z 8.S D Q v D m W F g g W +.W W D S W +.W S W b D b v D W b v b F g b q G F o.Z V p w w p w w h h V V h h h h w h h V V V V V h C V h V V h S V S G V w w v A w w V V w w w V w w w w w w w w A V w w w w w p V w w 5 5 w V C h w w w h h w w V v w h V V v w V C Z S V w w w v 5 V V v w w G w v w v V w V w v S v h h F D F w v V V v v v v b F W o.N c m G F h q v F F S F F o.v v o.G v V v V A Z V V V Z F q 9 v G F b b g E W W +.W E O.y.+.,.y.+.E E o.E m Q v h Q E +.W +.o.b E y.+.v g v S S V v h w o.w w V p w V w V a 8 8 8 8 p p 5 v A G G Z v q v q v v w Z G F 7 7 p 8 > 7 p p a p V Z V v v X.X.X.W X.G F V Z Z v V Q o.D v v Q v v o.E E y.W m W W N N F X.+.W X.+.X.m N W c W W F o.D q w p 8 p w w w i v q v w q w V Z v q h G v b X.N N N y.#.! W W a.W +.F v S S v S G V o.q.o.b W o.X.+.W N O.O.K.].P #.O.U X.a.a.X.W X.O.X.#.#.#.N #.X.N +.y.f.y.P a.g X.W +.+.O.N m a.W m +.o.m W W m g m P n u.y.9 X.! ,.U :.O.O.#.#.#.y.#.,.F m q.$.o.+.W N F m b o.G v v h q v G G Z S h v o.o.F v F b v b F X.W N ",
"> & 5 V A 5 V V h G Z Z h 9 S D v w h S D V V Z h w h V V w w V 7 S w w G V w 0.h D Q V q q V G w w 6 8 w w w w = & 5 a A C t 8 w w V V w w V A V V V V V p w 5 V V V C V w w w w w w w w w w p w V C C V V p w w V C V w 7 w p v v v V V v w w w v V v w w v V Z Z Z Z Q Q G D S S S W Q W S S F F F F G Z C V V h v D Q S F o.F v F G Q W W o.N X.+.+.a.h.f.+.+.W S S D Q W F S W D W o.W W o.S F D S v v b D m D W S h v F +.F o.+.X.X.o.X.N ,.U O.a.,.,.a.#.X.U X.#.y.+.W X.U N #.#.#.#.X.#.F o.X.W F F G b F F Z D o.o.Z V V S G Z V h h V v h V S S V V Z o.W b v F b b Q v v v D Q F v g S S b b F D F v m 0.v D o.S Q g v Q o.v Q 0.b Q v E W F E X.O.W W Q S S +.W v W o.o.v g F Q F S b F b o.F o.F G Z V v v V V v p h v V V h w h h h V V h q 7 w V V S V h V V V G V V S V w 7 w V h V V w w w w V w w w w w w w p Z C V w w w w p w w w w w w w 5 w w w w w w w w w w w w w V V v V V V h w h V V w A o.V w V V w w p p V V v V v w D G v q v F F v Z G G Z Z F F q.q.j.x.f.+.X.$.W v v F G F v S v G G G 9.o.q 7 5 w Z A Z V V Z F q 9 v W o.W G m o.+.X.+.W m g +.+.+.#.+.W W o.E E u.W m o.g m E +.o.m W u.+.v S S D S V v w q G w w Z V w w w C C a 8 8 8 w V q w V V V S V v v q v v w V G V w q p p 5 7 V V p a V Z S v N W N W q.y._ v v Z V h v Q o.S v h o.W W o.W o.#.m m m +.$.N N o.X.X.+.#.W c F o.N X.#.q.q.D q w w 8 p p w v v v v Z v w w w V G F v F F W o.X.X.X.E X.N E o.a.b o.F v S D S G G h Q q.q.q.y.y.W m N O.O.#.d.}.O.O.,.#.X.X.a.a.X.N g N ! c q m W c +.+.#.f.O.g O.+.X.W +.m m W n d.W m +.y.m W +.m +.f N P m +.W W O.,.n U O.P ! d.N +.X.O.F m o.X.b F F W o.F v D v h S Z v v V w 5 D 0.o.o.m q F +.W S F o.$.+.X.",
"w 5 8.9.o.A uXw.v Q D Q S v D F w w h D D h h h 9 h S D w 5 w Q w G V v 8.G S w.V V h w v S S v w w w w w t w w A V w w w w w 6 7 w w V w w w V V V V V V V V w w V C V w w w w w w w w w w p V w p V V V V V V p w w w w w w a w w p v p w w q w p p w q q v Z V V V V V V S Z S D D W Q Q W S i b Z Z V p w w V v S o.0.o.o.o.G F D o.o.W W X.o.$.#.#.i.d.,.W Q D S F W W D F v S S F W b h S F D W D b m m b h S D S h h F +.F X.+.+.+.#.#.X.y.X.@.O.U O.:.P y.W N W X.X.#.a.f.#.#.O.+.#.X.#.X.o.+.W F W F F o.G F F G o.G D w V S S V h v V h h V Z S V S D S b h h S b v F W b h h b S F W W b v F W b b F m o.v F o.b F g G o.Q v o.u.W o.F F W +.o.E N X.W o.v v Q D m W Q Q v h W o.D F F W W q.o.0.D G V v v V V V V w h h V h w w w h w 7 7 v G G h 5 V S h w V V v S V V S V h h w w C V w w w w w w w w w w w w p V w V V V p w p w w w p V p w 5 5 w w w w w 7 5 7 w 8 8 w w V V V C V w w V V V w w G G V w w V 7 V p V v v V w v q o.q.W v b W W G G Z Z D Q D v W G X.$.o.m c c b v v F F v v b i b v c v v v b Z Z V w q q v Z Q v q v W o.W G X.+.W N X.+.X.X.+.! W X.O.X.W W N N y.+.+.f.o.O.+.#.y.y.y.y.+.F o.Q W F S v v h v q V A V w w w a a a t 8 8 w w V C V v v v v q v q v v w V Z w w q p a 8 8 Z Z 8 Z A a v F F N m m o.$.v c F Z S h v D W S v v F +.y.W N #.+.m N m +.#.m b +.X.o.$.q.X.N o.q.W n X.y.o.S Z V v w p p p v V S v Z v V V q v Q Q v v N W W X.W W W X.m E W 0.f F F b F D D 0.q.o.o.+.+.X.W +.#.P N i.! d.d.K.i.! O.,.X.n } ,.@.N O.#.y.X.c o.#.X.y.#.X.y.O.N N N W X.a.P N #.m N f q +.K.,.#.y.m +.c N X.W +.O.P P ].d.U :.O.! N P X.c c N N ! m b F F o.+.b q h h h S G v w v q q Q Q D +.W v D 9._ v b X.o.X.F ",
"w 5 ` C w 5 w.q V Q D Q W b D v V v v v h q q w o.G V v w w G u.h S v h G Z v G V S S h q q q 5 0 6 8 w 8 w 8 w 5 5 5 5 w V A G w w w V w 7 7 w w w w w V V C V w V C V p p V p w w w w w w V C p w w p V w w V V w w w w V V V w p v p v p w q w w q 7 5 7 w V V V Z V v v S D v S S S S D S v b b b v w q w V w v D o.+.o.o.W q.o.o.+.o.G N F b W +.+.X.W W X.o.D S W W W D W W W m S F v h W S D o.o.Q F b v g v D W S h v F W X.X.W W +.#.#.O.#.#.U n O.@.U #.N U +.X.O.#.#.a.X.+.+.y.a.O.O.+.W o.W F W v G F G o.F v v Z o.w h V V V v V S v V S G G S S D h m h h F S m S F v g v v v v v o.v g W X.b v F b o.+.W W b v W G D W h S 0.W Q o.N N X.W c m o.W D v v F D S W v D F F o.o.F b F W b o.v G v F v v w v V V p w h h h h w w w h w w w h V V h h h V w w v v w V V V S S S S v w G C w w V V w w w w w w w w w w 5 w V p w w p w w w w w w w w w w w w w w 7 7 w w 8 5 8 w p V V V p w V C C w 5 p w w A Z 5 w w a w V w w v q w q W q.o.b b N W F Z V v v F b q q.+.X.X.X.F N F q i m v v v v b b G G v q v N v G A C v w w w v G F v v b F F b E W N N #.#.W W +.W N N X.+.X.N X.o.X.o.+.#.+.W #.y.u.f.u.+.W W o.D b v v v v v q w V Z w w w w 8 8 a 8 8 6 q w V S Z C Z Z v w q q v v v V S w p 7 w a 8 w V V 8 Z G p v F X.m f.W F W c v F b D v v D W F b F b o.y.P N y.W m X.N o.+.v m +.#.W X.q.+.W X.X.N g W #.N v G V w 8 p p p v V S v v w Z G q v W F F v W W b W N N W E b E m +.v o.W F F v v o.q.+.F W o.W m X.,.! n ,.n f.:.,.:.P I #.@.B g U #.X.#.m N ! g m g E g y.f.f.#.y.X.N N P +.N m a.a.N W N X.d.,.O.#.N f X.N W h.y.c ! O.].d.U ,.U ! U ! f.#.N n g O.y.b E F F W b h b Z v S V q q v v o.o.S h v b v F 9.G v v N F N v ",
"V V G v 8.5 S q S Q b S S v S q v V V w q w w w w w S 8.8.S w 7 h h h h V V v w 3 h S V q 7 h Z 5 6 w w w w w w w t a w w 5 5 5 V w w p w w w w w w w w w V V p w V C V p V V V w w w w w w p V w w w p p w w w V a w p V C C C p p v v p w w w q 7 7 5 5 7 w w v V V V S V S F v v m v v S D v F Z p i i p V C w S D S F Q W b b v b W o.o.$.y.W W +.y.,.O.#.a.+.Q W W F b F o.o.o.S W o.F b o.F D Q Q W W D F v v S W F v h v W W W N N W X.X.N #.:.} U O.O.:.X.N #.a.#.#.+.N O.N X.+.a.a.X.W q.N X.W W F g W F G o.F v v V G v v v V V V v v v V S G G S S D v S v v D D S F m h h b S m h g G b v F W F b F W G s.W G o.g +.S S o.b h W W F W F E W P m m X.W b b S b D W S F o.o.W o.W b S b F v F v F v v V v v v v p w w V h h w h h h w V S V h 9 5 h G h h w w V v w h 7 w h h w w w w Z C V V V C V p w w w w w w 8 8 5 w v w w w w w w w w w w w w p w w V w w w w w w w 5 7 w w w w w w V V C V w 7 w w 5 A G w a 8 a 8 V w w V q v v F W W N b N b D o.o.G G o.o.F o.+.$.X.W X.X.X.N G G F F o.o.o.G o.9.o.v F F v v v V Z G Z v w v v v v g v v b m N N +.y.X.n N y.+.W W X.+.X.W #.a.E +.o.m O.N X.o.+.y.+.X.E N W S v h h v V V h v C v w V C w w 8 a 8 8 6 w w V C C Z D G F v q q v F V Z F v p 7 8 a p p a p p Z G S S F F N `.+.X.o.v v _ b G S v D W F F W o.E o.m W ,.P W W N X.+.F N X.+.o.X.$.$.E N W b W P +.N b G w w p V V V V Z F v V q F o.q v o.m o.c o.W m X.E E W m m o.m +.F o.W W G m q N X.N m E y.+.m O.,.P P P g d.T :.P U 3.O.O.} n } a.#.y.N W ,.E +.m o.g ,.#.W q ! X.y.P m P W n y.$Xy.f.,.m W X.N +.P X.y.m g #.X.W f.d.d.O.n :.M O.d.! `.f.#.W m #.f.b W E m S S b D Q Z S v 5 w Z G 0.Q D v 9 q S G o.F b F F F b c ",
"5 v h 7 '.v V o.D o.S v v g v 9 q h S h w v V h w D u.k.8.h w S S h v S S G D w S S S V v v w 5 w a V a 8 8 w 8 w 8 w 8 8 8 V A p w 5 w w w w V V p t t t 8 w 8 w V C w w w w w w w V p w w w V w w w p a w 5 w w w p V V p w w p p p p w w w w w w w w w p w w w w w v V S V v D D D S S Q Q D F b i i V S V v v G Q b b o.o.b F b b F G F W X.q.W N #.y.O.! +.y.+.W F b v F 0.o.Q F Q 0.W b Q Q D S v m F Q +.F v v b b v v F b F W W X.X.X.W X.a.a.@.O.U P ,.+.X.#.,.X.O.#.N h.O.X.U ! O.P X.a.m X.X.X.F g o.X.F N S F D b v S V v v V v v v h v V D D S S Z v S h g b S b F +.F v v b S W o.F D F S W o.W b o.v +.c F #.9 F F S u.o.v Q +.o.b W o.W F E W E F v S G v G o.v q.s.q.W D S b W F W F +.D o.F D G Z V v p p w w C V h w h v h w V w w h S Z V w h V h w V V w h w h C V w w V Z w w 8 8 w w w w w w w w w w w w w p V w 7 w w w w w p V p w w w w V V V w w w v w w 7 7 w w w w w w t w w p V C w A w V A C G 5 V 7 C w w Z w V G S b W o.W N b q S W F F o.o.W g W q.+.W X.W F F W b q v o.o.b W W o.F v W +.G Z V v v V C V v q v V v q c v F W N N X.#.W ! a.f.y.+.X.O.#.+.! W i.m a.u.m a.+.N W X.X.O.#.O.N o.W F b F F F Z S S V w q C A 5 w a V p w w w V G G Z V v V v q q q v F S G o.V V q w V V V V p Z S F o._ N N X.o.m +.q.c v o.X.Q v v F W F S E s.F P N +.+.m +.m F o.y.#.W E W f.q.y.#.W F W O.+.m X.W X.o.q v V Z Z Z Z D D S Q q b G q b +.b X.q X.W c X.W W +.b ~ u.S o.v g g b X.W m F W c O.+.a.+.c W i.! #.g n d.! G.n :.<XO.U ,.#.a.K.,.X.U +.#.N h.o.W +.#.X.y.+.#.f m o.P +.U.#.i.sX#.#.+.q N #.X.+.P #.X.X.,.X.! y.O.O.K.d.n O.@.d.U O.a.N N d.d.+.m W q.+.F S m h g Q Z D V q h G o.Q h h S v o.q.o.v v v F _ X.F m ",
"Q 3 +.o.g q s.u.v z.q V Z V S V D x h h z z h q V h v v 8 5 8 G G T.o.o.'.u.v v w v V V V C w 5 p a V Z C p 8 p w 7 7 8 p a 8 w 5 w w w w 8 8 5 a H [ a 8 8 a 8 a C V w t w 5 8 w w t w w V a w w C 8 6 [ A 8 a w w a V V V V V w V w 5 w V V w p w w w w w w 7 w w p V v v V Z V V V S S S S Q V S V V v w h h v 0.+.F W +.+.X.X.#.o.m s.+.! #.N X.N O.X.n O.O.X.+.+.X.W o.o.o.W W v v +.9.Q Q m v o.o.m F o.v G v F o.9.G v q.v o.+.X.b b W W q.+.X.#.a.+.+.a.#.X.W #.y.#.O.! ! ,.a.#.:.d.,.O.iX+.N a.y.W +.W +.g m +.b g F Q F v 9 F h b h W g q v v q h S b b h v v v D Q S Q m v v b o.0.D G v S F G +.o.v m $.+.N m N N N +.W b W +.W F 0.b F q.W o.v W W F _ b b F F F o.v F v v o.Q +.T.W u.z.s.W b v S G F Z G Z v q q o.Z v v v w w w w w v V v p v w V v v v q 5 v 8.V w w p V V V C 8 t V t w 8 8 a 6 w 8 w t t a V w V Z C w w w V 5 w w p w w p V w w w V V C Z A 5 w V w 5 5 5 w 8 8 w 8 a a t 8 A V w w w v h q w w w p p p V Z G G q v o.F b q.Q W W o.o.D F Q F W v F g F D q.W Q W o.q.Q b W b W o.+.o.o.F h 8.Q w w Q V w Z v o.w.v q o.G v o.F b m N X.o.o.j.+.,.a.#.,.,.m g +.f.a.O.! X.O.! O.i.$XO.O.&Xn X.h.#.X.o.F v v V h V q w C w 8 w w V p v V w 5 q D h h S S S g h S 5 v o.Z Q Z v q w G Q V w v q v W +.N c b N z.N N X.W o.o.W q h V S S S D W +.o.P ! X.P X.X.S h +.f.o.0.m X.#.#.o.E o.0.~ W ,.! ,.g 9 q.W q v F h Q F 9 b b v g W o.g b o.g u.c m #.X.m F N W X.m +.+.m o.X.W F o.S b W b W m y.+.W W b P f.N #.O.@.lXK.:.,.,.X.X.a.h.y.X.N N O.N +.o.n ,.u.n W W o.q.o.N N +.W +.f.n n ].O.+.q c o.F m +.y.+.o.W m N +.f.i.! n O.U ! ! g #.P a.g b W s.q.q.+.Q b h v S S m h W Q g h q.u.v g S E m h v b S m o.Q Q o.m g F ",
"+.v +.q.u.W b 5 h v V 0.w G o.w x x x x S D Q ( D V w w w w a v v q.V v q.Z q q w v w w w t w w w 8 8 w 8 8 8 8 w w 8 8 8 8 8 8 w w w V V w 8 a 5 t a 8 6 r a a 6 w w 8 a w w a w w 8 w w 8 8 w w C 8 5 A C 6 V w w a V a a a V w w w w w w w w w w w w w w 7 5 w w w t h v V C V V V S S S S G S Z Z V v v v v v Q W b F W W W F $.+.m y.N N X.W +.X.,.,.U O.N X.+.#.X.W o.+.+.b F v v Q Q F D o.F F G F $.$.v v v G o.9.X.q G v F W F N W X.W #.$.X.X.X.m N +.o.+.#.#.X.W X.,.d.,.,.P.K.:.:.d.,.! N #.#.P +.X.o.m N W v v F b S D v S h W S D S v F W D W o.F S v b S b W o.F o.o.o.W h v D b F v v v v W F g c N m m #.y.X.N +.o.W W Q b v W Q Q 0.F W v W Q F _ _ F o.o.F ` F G D W o.F b F m X.+.W F b S v v v w V V V b V w w w p V v p V w p p p w w q 7 h v v v w q q v V w 8 8 p 8 w 8 w w t w 8 6 w w 8 w w w w w w w 7 w V V w w w w 5 w w w w w w w w w w w w w w w 5 w w w 5 5 5 w w w w 8 a a V t h w w w S D G Z V v v V p w w v v F b F G v v q.W F F W W F F W Q o.W q.Q q.W o.o.o.W Q 0.Q E Q m m m S E W Q 8.S S h S 8.G w V C Q 8.p 7 Z p q g F F q g o.o.N F b W ! N +.a.X.X.X.W m N O.,.,.d.d.U O.O.>.K.O.m a.+.m v m F q q q V w w V v S p p v w v Z V v v o.v v N b b q v S 5 v o.D Q D Q v g S S v v F F N W W m c N X.N b o.X.m m W q.v V V V S S D W q.+.P P N N O.y.y.W ~ +.m o.! f.+.u.+.W W W W W #.O.,.O.! o.E m F W b o.o.g b v W b o.o.g F +.b #.F F +.X.m m F X.X.m +.#.N +.X.W m W v S o.W W m o.o.Q +.W m X.+.X.U P J.>.N.J.g X.y.$.X.W N g c N g W #.m E g N X.X.X.+.o.X.+.o.F W ,.N P G.P #.N X.+.N m m f N o.f.o.P ,.i.,.i.P P ! ,.d.+.O.#.W b a.b q.j.b +.W F W W b m b S 5 9 F +.+.Q m S S S S S F W W Q Q Q Q W m S u.",
"q.F q 9 Q W o.0.w G Q S Z 8.5 v 0 l h h z z z h S V V w w v V h 5 F h h v w h v V Z C w w w w w a 8 8 7 8 8 8 w p p p w w w p p p 5 7 C C w w A 8 t a t t 8 t t 8 a w 8 a t 8 w w w w 6 5 w w w w C 8 5 V w 5 V 8 w a a w w w w w w w w w 5 7 w w w w w w w w 5 5 w w w v v V V S V V S S v S G S Z F V v v v v v G F F X.W N X.m X.o.m +.m n X.X.O.O.a.d.#.#.X.X.+.O.X.W o.+.+.v F F F G F v D 0.G D S v G G q v v G G o.o.q F b b b b N X.X.W W +.#.X.N N X.X.o.+.#.+.W W O.i.P n U ,.O.n U d.#.h.a.i.,.O.+.O.W N N N v F G v S o.b b g o.D S D v S Q Q o.o.b F v b F b F W F W W Q F h v F S G F F F b F W v N X.X.X.+.O.W o.F o.o.W W F S o.o.Q +.F Q v W S F ` _ _ $.X.F F F F o.o.W F b q N N N N F G G F G S v V V V V Z w w p V V w w w V V V v p w w w v v F v v v v w V w w p p p 8 p w w w w w 8 w w w w w 8 6 6 5 8 7 w w w w w w w w w w w w w w w w w w w 7 w 7 5 w w w w w 5 5 7 6 8 8 8 t t v V Z C V V V V v w v w w v p w v V v F F D F v g o.D S S F D F D Q W W b o.W +.b h +.o.E E o.o.W Q W S S E m m E 0.S S S S Q V 7 h 5 q V w w G Z Z h F F v v W o.F +.+.#.W c N O.P #.#.+.W N P P N X.d.O.n O.P n :.W f.y.W v X.s.v 9 q G v q v V G w w w 7 w v V v v o.v v b b F v S S 9 h Q F D D 0.S h v S v v W F N F W N N W +.v X.o.W X.W X.o.D S V V S D D D q.+.X.P m N X.y.+.W o.y.P #.! i.O.a.i.o.W E m W #.,.O.i.i.P N X.m m g W o.S S v o.F Q W g b +.F X.o.X.X.W m m X.+.X.N +.#.X.X.F q.o.o.v S 0.W m E E b E +.X.m m N c U O.>.U >.:.N #.f.q.X.X.O.W #.,.! X.+.o.#.m W +.o.F W G G q.G o.W W W O.i.N N F X.W F +.+.m W W f.o.P i.+.O.d.O.P O.#.i.a.c W +.b q.q.+.W F W v m W W h v W m 5 h y.0.m b +.W m k S W S S W o.E W Q h 9 F y.",
"g g g F Q W u.u.w q.S 7 Z C 5 D S z x G ) 8.S q q h S D V h v F v F v S h h G V w V A C V w w w C a w 8 8 V a 8 p p a p w w 8 p h q 7 p w 5 8 C A a a a y 8 6 8 V C w w C V w w V V w w 8 w a t w a w 5 w w w V w t a t 8 w w 8 w w w w w 5 5 w w w w w w w w w 5 w w w v V V V S V v V v v S G S F V V v v v v F F F W o.F N o.v N X.m +.N W X.O.O.O.,.,.#.:.,.X.X.X.W W X.o.+.b W F F G G v F S D G S q v v v v F G v F o.v Q F F N N N W W F N +.a.#.+.#.+.N #.X.U W #.y.,.#.O.f.].d.:.d.K.K.O.`.f.#.O.U W N X.E N N F W F v F Q v b q W b b F v S W F S F v S h v S v m F b W b v b S o.o.b G F G G F W o.o.o.+.O.X.X.P N o.F o.o.W Q o.W o.S S o.W +.S b g b _ G G X.W N F N m X.X.m X.,.W W W F F W W W F o.F V V V V V Z w p V Z V w w p V V v p V V V v v F v q w V Z v p w w p a p p V w a V a w 8 w t 8 8 8 8 w 8 w w w w w w w w w w w w w w w w w w 5 w w 5 5 w w 5 w w w w w w w w 8 w t t 8 8 w V w w w v V S S V v w w w w w v Z G F v F W F v v W W W Q Q Q W W 0.0.D o.W q.W D o.o.S S o.o.W W o.W Q o.W g g D D S h h h w w v V w V p p Z w p G v v G F v b $.s.q.#.+.W N P ! q W y.y.+.! #.i.i.f.d.:.d.:.O.].X.#.+.W v X.u.g c m Q v q v h G w V w w w w V w q G q q m v F b S S q h D D S D Q v v D Q S v S v m N W o.X.X.$.F a.+.W $.+.X.W Q S V V D W D D +.o.,.O.N N N +.E E +.f.#.,.! X.U ,.a.y.,.W m E ,.f.P #.y.n E +.m g g F o.W b g Q S D F v b o.F v +.X.N W N m +.+.X.W +.+.W F b y.q.q.b S 0.W S W m f v W W N F W N a.K.).3. .>.O.m g N W N m P W #.#.X.E W o.W W o.X.F F v v G V o.D b E #.#.P +.$.+.F b X.+.W K.E #.P E d.W X.! ! U #.N P f.c c +.N +.s.E c o.Q F F W b g v Q v b o.0.m g S o.E k m W W m m W W E +.o.g g E m ",
"g g o.z.W b q.v q h 5 v q 5 q.v 5 9 q h V v h q h g v o.o.m h S o.o.F D v v G q 5 w v v w V V v w w w 7 w V p 7 w V V V p w w w w w w w 7 w w w 8 8 6 8 a 8 8 8 w w 6 w C A V V t a w w w a C C 6 w w w t t w V t a a w w w w w w w w V w 5 5 w w w w w V V V w w w w w V V V V S V v v v v b D S S S V v v v v F F N W o.N m o.F N X.N y.+.#.#.O.O.,.,.O.O.O.,.#.+.X.X.X.X.X.o.W X.F F o.X.v F q S D S S D D Q S F D h D 0.W o.F F W W F N W o.#.#.a.#.X.#.+.c q.X.N ! y.a.,.W ! K.P.O.P O.:.U U Y.i.! O.O.+.W +.P m W o.W F W W F g F h b h S W b D Q b v b b b g v F v v S b +.D F F F o.o.m F v F G b F o.W o.N g m y.y.W m +.q.Q F o.o.S b b m Q W 0.F F g N o.G F W F N X.N U #.O.N O.d.#.N F W X.W N F F b v g v V v v S w w v V V v V Z V v w w v v v v h v v 9 q v b w w w 8 8 8 w w p t a V V a t w w w w w V C V w w w w q w w w w w w w w w w w w w w w w 7 7 w V 8 V w w w w p w w 8 8 a t 8 w w w w w w v V V V v G V p w q q w V o.F S F F F F b o.o.o.o.+.o.W F +.q.W o.F q.o.o.o.o.W E +.o.W W W S W +.W g g W S h h h h v S D G V Z V V Z w b G v v F S v F q.o.m c o.,.X.X.d.v X.q.+.N N ,.`.K.P n n U O.O.#.#.X.X.+.W W +.g b m D h w V v A p Z p V V w Z v v o.v h v q v g S S v h D Q S D S h v D Q D S b g b m F +.o.F q.v j.q.W W b o.Q S V V S W Q W F o.W y.X.N N m #.O.O.! i.U O.O.@.O.,.,.,.i.o.P E #.K.! ! #.P W E o.P F E o.o.v g F S F W F F W W c +.X.N W N m X.X.W o.X.X.F N W W o.q.F b +.o.+.o.m m S N N W X.X.@.@.,.$X).R K.K.O.N X.,.#.O.X.g W y.y.0.q.W m m F N v F V w w w Z S q v W E o.+.o.X.W W N o.f.}.! ! O.o.+.E #.g N U #.N ! U.W E g X.f.W q o.b o.y.u.o.S b b v S F W S v S S 9 W E Q 0.o.m m Q Q o.u.+.m o.0.h ",
"o.v g q.9 g s.v q D 5 v G 5 8.w V Q 8.Q v h D +.Q k k W t.O.E m W D v F S S Q q V V V w w w V V w w w w w V V 7 p V V V V p p p w V V w w w w w 8 w w t a a a t w w w w V V 8 a 8 w w 6 w a C C w w w w t V a w a a a w w w w 8 w w w p w w w w w w w w p V w w w w w w V V C C S V S F S v b D S V S V v v v b F W W X.$.W N +.$.X.+.W y.+.y.+.n N ,.,.#.O.O.a.,.#.+.+.+.o.o.o.+.$.o.W +.+.G X.Q Q S S 0.0.W D v v D S o.q.F Q v F o.+.W N X.q.a.+.+.X.m +.,.n X.+.+.+.+.+.O.P #.i.d.,.O.:.,.:.:.K.,.#.#.#.y.+.+.W N W +.F v o.o.F g W v b g W W b F Q v g b S S h b Q F b F D F F W F g v W S Q S G o.b b G F b F W +.a.y.W m +.o.S m Q Q b m D S Q S +.D o.W W o.o.F W W W +.O.@.3.,.O.O.@.O.N F o.+.o.W F W D S v b S v v v V v v V V v v V Z V v v V V v w v v v v v v w 5 V p p p p 8 8 p 8 w t a V w 8 w 8 8 w a C C V 8 w w w w w p V p V p w w w w w w p w w w w w w 8 w w w w w w w w 8 w 8 8 8 w w w A Z Z V v v w q A V p w w w V G F F Q Q m b o.+.o.o.o.o.o.o.W b W +.W o.F +.W W W +.o.o.0.+.Q Q o.o.o.o.W m E +.W S D Q S S F v v w Z V Z G V G v G F h v Q 9.+.W v g X.i.! P a.q.+.o.W N m W #.K.O.:.d.O.:.J.O.a.#.+.y.$.W o.F S v Z w h D V G 7 Z w C V w G v v o.v v F g m v S S D v W o.b D b h h b D D S S S o.F b W F b q.b u.N F W F q.D h v V S D W W F o.b y.W m ! N a.O.#.P ,.P O.,.:.h.d.#.O.,.+.W X.O.d.#.o.#.#.W c W m W E W +.S S b m m F W F F W m X.X.X.X.W N W F F +.X.W X.F +.F F +.F b Q W +.+.E o.y.X.N F X.N X.U O.$X$XL ).O.,.#.W X.+.X.m o.W +.#.f.U.0.W c b b b F C w w 7 V A h h S S q.F m m o.#.F W U.f.! ! i.o.n m O.! U P X.! #.a.m W W o.#.o.9 F b h o.y.o.W Q F g b v W o.D m v g W W Q +.W m S Q Q 0.y.W E y.u.W ",
"v F q q.g v q.h v q.h 5 u.v w v S G Q F h q h S E W W W ~ y.i.:.F W v S W Q o.S o.o.Z v w v h w w V V v v Z Z v C V v v v v V V h h v V v w w w w V C a t a t 8 a C t w a w 6 8 8 w 8 6 w t V V C w w w w t a w V V a w w w w w w w w w V V V w w w w w p p w w v w w w v V Z Z Z Z D W W S F W F D F S b b b F W +.+.+.#.+.! +.q.o.#.X.$.X.,.O.N m ,.,.#.,.O.d.#.O.O.#.#.+.X.O.+.q.o.X.+.o.o.+.0.0.S S 0.8.S G v h S S o.8.h S v F +.+.X.N W #.#.N X.X.m X.a.N b X.#.O.! ! ! ! O.P U ,.3.:.:.d.i.,.O.,.O.U +.P X.#.X.F o.W v F Q W v D v D b D F h b W S v b S F v F o.W S W o.v v S v q h D F o.F G o.W F W G c q.f.i.#.X.W +.o.W h v W F b Q W S o.F o.F o.Q o.+.o.W W ! ! #.:.,.>.3.d.3.@.@.W X.+.,.#.X.X.+.+.o.D D D v v v G V V V V b v v Z V V V Z Z V v v v S F V v w w V V V V p w 8 a w w t V V a w w w w w w V C V a 7 w w w w w V V V w w w w p w w V w w C C w w w w w p w w w w w 8 8 8 w p p p p w v v V S Z G o.V v w v v V Z o.D F o.o.b F +.+.o.o.W W W o.W b +.u.o.q.o.s.+.W W 0.+.Q o.o.Q o.0.+.+.o.W W W o.o.F Q +.D W D 9 S Z o.V w V q q Z o.o.v v +.9.G o.+.W E X.m g W N m m W X.W W ! g W ,.Y.O.n ,.U X.d.#.+.X.m W X.F b D h w Z S G 5 Z 7 V v 5 G w q G v D W b F F S S Q m Q 0.b W v h h v S S S v S q.W F o.b g +.F o.q F o.W s.v h h v V S S F D +.F u.X.P +.m y.! #.N a.O.#.d.@.g.3.@.O.,.O.U X.O.O.a.#.X.#.X.N m m +.X.o.+.F W b b m S W F b W N m W $.+.+.+.X.+.X.y.X.X.$.X.#.o.F +.o.W W b Q +.E +.f.o.N W W X.} :./.&XsXT ).d.h.d.#.+.a.d.y.y.m F b W q.W o.i b b p S a w a 8 8 A Z V S V 0.q.o.F +.y.N g o.X.+.P y.O.g #.W y.O.O.! #.i.X.m W a.X.F f.b v F 9 m D F S F F v m b o.q.F h m S b S b m v m S W W o.o.W Q o.Q o.",
"o.T.F q.v 9 S S G 5 v 9 V v V w S S F Q +.+.E m f #.i.U P i.Y.Y.+.s.Q W o.W o.D V V V V V V v q w V Z v v Z Z V G V w w w V V Z h q w C V q q V 5 w V 8 8 a t 6 w V a w V V w C w a w w w t V V A w 6 8 6 w t 5 V V a w w w 8 t w V V w V A C w p w w w V V w w V w w w v V Z Z D D W o.o.D F W G G G F b b F G N o.o.X.+.O.W X.#.X.q.X.X.N #.+.a.+.a.@.O.#.U ,.O.U U O.#.O.X.X.F o.X.N F b F o.v Q S v Q D S u.D v v v Q Q h S S W +.q.X.N N X.X.m X.#.m N X.q c N W P W +.O.! ,.O. .:.,.:.O.O.f.,.,.Y.d.O.d.#.W a.$.b W W v v S o.b b q Q F b D g m o.o.W W D F v F +.W S Q o.+.F v v v D W v G v F o.o.W o.W m #.,.W W X.O.+.q.o.S F W v h Q m b o.W 0.F W S W +.+.W O.! U #.,.>.} @./.J.5.J.O.X.+.#.#.X.W X.W F b S F F D G Z v v Z ` G G G v w w V Z F S v F v h v i q w Z p w p a p w p V V V V V C V V w C t w 8 V C C C 5 7 w w w w p V V w w w w p w w V w w G G p w V p V V V p w w w 5 5 5 8 p V V v Z Z V V V v V F V V V V V v V Z q.D Q o.F X.+.b +.o.W F W +.+.W q.q.b F b u.o.b m +.o.W W W W o.m E W E W W W E W h S Q D o.0.v 5 w G w q V p v o.Q D S S F b v g o.W g m m c E X.W W W N c c N c #.P ,.:.P K.#.! }.`.,.o.X.q.a.W F Q v q V v Z w ` w C v 5 G w v Q F o.X.v v v S S o.S Q q.S W h h h S D S h q h +.+.o.q.F q o.g E b +.b q u.S h v v v h v S W 0.D f.y.O.#.g X.#.,.n #.I @.J.3.@.,.#.,.d.#.P ! #.N d.#.m O.X.+.X.X.j.y.+.+.v F Q Q F W o.W F +.N q N y.y.a.a.$.a.$.a.o.X.y.X.#.o.b o.+.+.o.F 0.o.m Q u.X.m W X.+.c O.K.3.).Y d.K.O.n M ! O.y.f.+.m +.o.W o.v o.b F Z p p 8 8 C 8 & A A V V h Q +.X.m W a.+.E q.+.f.m #.+.W Y.P #.O.i.O.i.f.X.y.y.! +.#.s.o.s.g W S b m v h h S o.F b h v W D 9 b m g 9 g b W W F o.Q +.y.S h 0.",
"s.+.v F v g o.9 v q h G Z w w v v v v v v F E m i.U.iX:.P.$Xi.,.+.E m b +.v D v 0.S w v Z G Z V w w v v q h S h q q h S Z v h v q v Z V w q w V w 7 w V a 8 8 A 8 w t V V t w w C t 6 5 5 8 a V C V 8 w 8 w w 8 V V a w w w w 8 w 5 w V p p V w 8 w p V V a p w V p w p i w v S G o.G N o.+.X.W v W q.F b o.F b F X.W m P #.#.W c q.#.F +.q.O.O.X.X.O.O.#.,.,.#.,.O.P P O.,.X.n y.+.X.W +.#.+.W 0.m S S Q o.S Q h S S m h S D D b b o.o.m f.+.c y.N X.a.X.N X.m X.N y.+.#.#.h.#.#.#.O.O.:.K.d.n ].d.#.:.,.#.! W o.+.#.o.F m b F F S F Q D v v S Q W h D s.Q g o.o.v g D o.D S W F S W h v o.D S G q v v b o.G F #.u.N W X.! i.o.o.S v m b v h v b o.Q F W q.0.F W E O.u.i.O.:.d.sXU ].<X5.6.%XM O.n +.a.W P +.N m N o.+.o.W F F o.v v q G v v q v F G v v v F F F v v v q 5 q w V p p p p a a p V t w t w w 8 V w w w w V C C C w w w 8 w w V V C C 5 w w w V 7 V C V V A C w w w w w w p V V V > a 8 > 7 a V p v b G ` F F F v 8.Q v v G S h S o.g S D W W g o.a.N o.a.W N o.N W +.o.W X.X.W X.W q o.d.N m +.a.W E ! +.m W T.m m o.F b +.o.v q q S D v h v V v Q V S Q D W Q D v m o.E f W y.m g F W F a.N c N N X.W +.,.X.}.O.U ,.K.X.#.N o.#.#.X.Q D v S D V w 8.V v w w Z 5 9 F o.o.v o.s.v h Q Q o.D v o.Q D q h W Q Q Q D b b m q.0.h W +.W h m S v W o.h V V h h h v b S D q W U.,.N X.#.O.`.d.#.,.3.K.3.K.K.,.O.d.d.#.N N d.a.n n O.#.+.+.O.o.y.m f.s.b 0.o.h g o.W b o.X.g X.#.X.F N +.X.s.q.c c y.s.W W o.F b o.h 0.S o.E W o.N m X.+.#.#.P.,.>.J.5.G.O.O.:.O.O.O.O.W X.$.q.W F W o.G v S b 7 7 p d 8 8 a 8 w C v q h 9 o.o.N +.f.g +.E +.,.P n O.,.E ,.,.O.,.f.O.m y.+.m c o.s.u.W b 0.g b Q Q b q o.o.m F W W W h S Q h S 0.Q v v D g q.S F v F z.F ",
"+.b b g 5 v W b h q q v V w w v V w q V F F N E k k ~ P ,.:.:.i.u.m v v q.E F b Q Q D D G G Z V o.v v Z V v S v o.G D Z v q q v h q 5 q v V w 5 w w w w 8 5 8 8 w 8 w t t t w w a 8 8 6 w w t a C V w 6 5 8 w w 8 t w w w t a w V w w V w p C V p a V V V V V a V V V V b v v S G o.o.F o.o.F W v v F v v o.W W F o.+.X.W ! +.+.N +.#.+.#.+.X.O.X.+.#.#.O.} X.O.O.:.,.#.! O.#.#.f.y.o.F N W X.+.s.o.Q F S Q S o.8.F v F Q W m h F W W b q y.#.+.W X.#.X.m X.a.X.X.W i.#.a.#.d.,.#.P U O.,.d.1. .i.O.P P ! #.y.d.O.o.+.X.F b F X.v S W Q D S W +.m F F Q o.v g o.l.+.S S D F F W D S W h v Q S b g 9 G G v F F o.o.y.W W N m +.W F b b D W b g g S W S v S o.+.o.+.+.#.O.U P O.:.d.} 3.>. .*.J. .O.P O.O.c N +.N o.X.X.W F F D Q v S o.h v v G F F F F v v v v q q h v G Z V v b p w w 8 p p p p w 8 w w w w w a w w w w V C C C 5 5 5 w p V p w p V 5 w V p C w w V p w C V w V C C V V p w w w p V 8 7 w p Z 8.` Z Z F v v v 9 V S D G D w v 0.Q v Q o.o.o.b o.#.o.#.+.N N X.N g F N m N W X.#.y.m O.o.c W f.h.+.o.W #.W o.f.N #.9 m +.b F q.D q v D Z v h w q Q v w v v Q 0.0.s.S S +.E g m b q.+.o.F f.#.X.X.N +.y.d.#.q i.P c c X.O.].d.y.X.+.N b S S Q Q v Z C w G Z 5 v V g G W G v o.l.o.h D S Q Q D o.Q Q h h D S h h q o.W v F W S o.o.o.W Q W W o.o.S V V h w h h v b W F +.U.`.`.h.,.#.h.#.O.,.@.5.,. .3.5.3.d.d.d.f.O.a.,.! ! O.#.d.y.N m u.W +.o.o.o.0.W v b E F W W v +.q.X.X.W +.a.a.+.N N +.o.m b F W b W h o.o.:.W o.o.W F X.X.f.,.d.,.P 3.%X3.T O.:.>.O.O.W N W +.q.o.F b v v v S a 8 8 d d 8 8 a a p C V w g +.q.X.N +.j.g c X.i.d.:.+.+.E g #.h.i.! ,.d.y.y.+.m g m F N b b Q h W o.o.b q W 9 g W S W u.o.Q S b F F S D F h S 0.o.q.D q D q ",
"o.m q.o.0.T.+.S Z v w w v V v v Z q 9 V F g q g U.y.y.y.:.j ! P U.f.iX#.W F b o.v D Q F V S Z S Q q q S v q h v S D o.o.Q D Q o.W b h S Q o.S w v V p q 5 w 8 w w w w 8 w w w t w w w w w t t w V t w 5 5 5 8 w 6 w 8 w w V V t Z w w p w w V V V V V C V V V V V V Z Z V v v v S o.o.X.o.X.F X.o.N F v N X.N F W W ! O.O.O.#.#.+.X.#.a.#.X.O.+.X.,.d.3.O.I U O. .O.U P P U ! P i.y.#.X.F X.#.f.+.W o.W E W F o.o.g 9 S +.o.W o.F q.q.F g +.N X.f.h.h.X.q q m c X.o.,.O.a.! O.O.#.n N :.,.O.:.:.i.,.+.W U O.y.a.W X.X.W b F W o.F o.q.o.b b F W W v v F D D S v y.o.b h b D Q Q W F W v v W b v G q F F W q.o.W N $.O.! m c X.X.o.W W o.o.W b v S b S F Q o.+.+.m X.X.N P #.d.d.O.d.d. .3.5.5.J.K.,.i.i.! W +.X.+.o.F N F G o.o.F o.o.h F F o.v q.+.o.o.o.9.o.v b S G o.G V v v w w w w 8 p 8 8 w w 8 t w w w w w w w 8 a C C C w 5 5 7 w V w w w p 7 V C V A w w V w w V V p C C V V V V w w w p p 8 8 w 7 i o.G v v S v F F v Q V v D D v h S S S 0.+.o.o.E W X.a.y.W N W W W y.y.F m W X.N m m n E W m #.U.u.u.+.m W y.y.#.m y.m +.i.v v W 9 b F Q o.D V V S 8.h q w h S Q Q z.m g o.o.m g b S G o.g F v N W g N +.a.y.m h.i.,.} X.O.a.O.#.,.#.N v F W o.Q h v G V p w w Z w q F F F v b u.o.v D v Q o.Q o.D Q h v D S S S h m Q D o.o.W o.S b F b h m v h h S V h w h h v v b +.+.+.d.h.#.N i.a.! O.3.@.>.,.5.g.d.a.a.#.#.d.:.:.O.#.#.U O.K.y.P c #.$.+.W q.W 0.u.Q b W +.F N m q.#.W o.X.+.#.F m N +.#.#.+.F F q.F b h S o.+.W W o.W W X.W X.} O.g.@.d.lX:.@.>.,.:.@.O.O.O.N F o.o.Q V V S v V a 8 8 d a 8 5 a V p S F h g b m c F o.`.y.+.n W m N +.y.o.+.N X.#.d.K.,.W W u.+.W W W F W +.W b o.+.o.Q F 0.0.o.o.S W q.S g Q g q Q o.S v D S v S o.D g F u.",
"q.s.z.F 9 b Q u.Q Z h q v C V w ` V b F G F S F m h m W ,.O.$Xi.y.W f.q W z.W g v W D h q V Q Q o.D o.q.Q D 0.u.S S D D D Q 0.u.S F W D S v h h w V V w 7 w V t w w w w w w w w w w w 8 w t t t w w w w 5 5 6 w 5 w w w t V V t C w w p w w V w V V V V V V V V V V S Z V v i v v G G _ +.$.X.X.u.F W F N F c F y.N n O.i.,.O.W +.F +.y.W W +.X.X.,.d.d.O.X.O.,.:.O.O.O.O.:.O.N P P W W F N W o.m m o.+.+.+.S E u.X.S P m g m W b u.q.W b $.c F g q B F N N y.[.W X.O.N y.N P #.y.W O.,.:.O.:.:.,.i.a.#.#.,.#.O.X.X.W N b b W o.F 0.q.Q b v v g +.h v F S o.o.9 b S b h b o.o.F Q F Q v v D b S +.v S F o.s.$.F b o.+.X.N N +.#.+.o.W W W Q W W m v F +.0.o.Q o.W +.#.+.O.#.#.#.O.,.,.>.G.,. .,.d.U O.d.O.n N W W W F F W o.o.W +.G G v 9.9.o.v G F F G o.o.G v o.o.D F v q q v p w w 8 8 8 w 8 8 8 t V w w w 8 w w w 8 t V C C C p 7 5 5 w w w w V w V V w C w w V p w V p V A V V V p p p p V 5 w w w w 5 7 b V v v G Z G o.W Q V h v S D D v v W q.o.W W E m N y.X.m X.W N o.#.y.o.F o.+.X.o.W O.o.o.m m X.c o.o.m P #.X.m m g i.y.m b X.W W S v h v w 9 w G S h h V h h S S W m h m W +.o.b v G +.b F v W F F F N W y.#.Y.i.:.#.d.h.d.O.W m y.N v b F W D h w G Z 7 5 V V q 9 v v F v q F b Q D h D o.Q Q S D q h D D Q Q D q W o.y.o.v F S v o.F m F m g S S V v h h h v v F j.f.X.+.#.X.+.#.,.! O.d.3.@.@.J.,.U O.d.d.,.d.a.,.O.:.:.X.O.K.X.X.N W $.#.X.o.b D y.0.b W +.F m N #.X.m W W W a.X.N N W W W W W F u.F v S v o.t.W E W W o.#.X.N B U K.g.K.=X>.>.,.,.@. .O.#.y.N v b W Q S v V v V a 8 w 8 d 8 > V V i v F N m b N o.y.N q.#.+.o.#.m g O.P g O.#.! P O.X.m N a.o.W F W F b b F +.W Q S S Q W +.'.F g m 0.u.D W o.v g Q q.F b +.o.S W o.W v v u.",
"u.z.o.v q q F v S v q 7 v C v 5 w i w q v o.o.Q Q +.o.m W o.U.f E q #.g W y.v v Q o.Q b v D o.Q v S W F v W 0.Q u.o.v 9 9 h F W b W Q W S h h v q v V w w w w q w 8 t t t w w 8 w w w w w w t V w w t w w 6 6 w 8 w V t V V V w C w w V p w a w V V V V V V V V V b V Z v w q i v F N F #.q.X.F F v F W W F m +.U.+.P O.i.#.P n F N X.W c N #.W X.#.,.,.#.O.O.:.U >.,.:.O.O.X.U ,.O.! X.X.W N N N N #.#.y.y.N n #.#.O.P m m m N b o.F v m a.W q.+.X.W X.N B N y.N W ! m y.X.#.f.i.,.,.,.O.:.1.:.N ! O.+.,.d.a.+.o.X.W b v v F W h F Q W W Q F h D v o.o.g S 0.v F Q Q S F Q W v D S W v h F b D F v Q S v X.W W W X.+.X.W O.+.+.W F b b S W D S v g b o.o.D S W X.N W +.+.X.O.,.,.X.O.g.d.O.P U O.! O.#.O.X.X.X.! X.X.X.o.#.+.W o.v b F s.9.+.F v v v F F F F F Q F v v w w v Z V v p p p p w 7 a a a V t w 8 w w w 8 w t a V V C V p w 5 5 w w V Z w V V w C w w C V w V w w A C V V w w w w w 7 Z Z 7 7 w 7 7 F V o.8.G v N F q S o.S q G u.0.v o.0.Q m m E m m W g g $.W c $.X.a.a.o.W N F $.,.,.! +.N c +.+.g X.#.W W g q O.n f.a.c c W +.u.W S v v h 7 w G w q V G S v Q o.h F E m o.u.+.b +.v S v +.+.+.v u.a.+.m +.O.+.f O.O.@.3.,.K.a.n +.m g g q g v h ` V V V v q q V q D v G F g b S o.D q S Q D Q S D q g S S S S v Q S v o.Q h S Q v Q W S Q S h Q D S V h h h v v v q.y.+.#.+.+.h.P +.O.X.,.d.@.} g.#.N X.d.a.O.#.,.a.,.O.#.#.y.U.U W F W #.+.W F W v W Q v v W F N N +.N g N N N +.+.W m m N W W W b +.E m o.b +.f.+.o.Q X.#.y.+.y.} O.#.J.J.;.G.>.>.,.>.O.O.O.#.+.m g b Z V w 7 h V V 8 w t 8 w > p b i N W X.X.X.+.a.z.N W +.W f W P W f.y.o.K.g #.f.i.O.#.X.n E m m N F F b v q.D b q g S g g l.b g b o.0.W +.v q.o.v S o.Q v h v o.o.q.o.q F ",
"v +.g W u.Q o.h V h q w V Z V w 5 w w 5 q Z Q v o.y.q.b +.f.'.W o.m U.f.+.9 9 u.o.o.o.o.Q Q Z S 0.o.o.W o.s.s.F W F m v S W F v W F S F D D S v p V C V w w w q w w t t t w w w w w w 5 5 6 8 V w 8 a a w w 8 6 w w a t t V a 8 C w V C V V V w V V p p a V V V V b V Z v q q i m F m v $.q.X.N b v X.o.X.X.N #.a.+.O.,.,.X.! O.F X.X.F m X.,.+.#.,.,.,.:.#.#.:.U O.O.O.O.O.X.N h.#.W X.#.#.+.+.W N O.X.+.y.X.W N N P W +.y.#.N N W F F W f.W X.X.a.#.N W X.X.X.F W +.m +.X.,.,.#.i.d.:.O.d.K.:.O.O.O.O.#.,.#.X.+.o.W b v v m b v b D W o.o.F v W h D o.h F +.v Q Q W m b D D b F m F h g b v D F v D v v o.W F o.W +.P P O.P W b S S F W Q F v E b S W D S D o.X.m m o.#.+.y.`.h.! ! K.i.i.:.O.O.K.d.P P i.a.X.#.y.+.W W +.+.o.+.F o.+.u.v F W F G o.o.X.F G o.V v v F V v V Z V V a a a p w 8 V V V V t w w w w w 8 w w t V V w w C V w 7 w w V C w V V w A C p C V w V w w C p w w w w w p V p ` Z > > w w 7 b b o.q.G v v v S G 0.D h o.l.8.b 0.o.Q S m W m F W c m a.+.N y.a.a.+.W +.+.N m ! #.W y.+.m y.i.N W X.N +.+.c U +.N ,.d.m c X.b +.+.0.8.G S V G S V G Q V S o.q.Q o.W o.y.o.m F q.h v q W F o.v b +.u.W a.#.#.U ,.,.:.O.n d.h.O.+.m g g 9 9 v S ` Z G V v V w v v o.v v b v F W D v 9 b Q S o.Q D q q S S m S v 8.m 9 Q u.D S m h v v m S h h S G S V v h v v b q v m X.y.#.X.+.P #.a.#.i.K.:.@.O.@.O.#.,.! n n X.,.O.P X.#.y.h.,.N W #.f.X.X.o.u.W S S v v E o.X.F +.N c W W F m X.W c B X.#.+.+.o.W W S o.b W f.+.o.W F +.#.X.+.X.#.O.P.J.L G.>.>.3.d.d.O.! W #.E h v G D V w h z z t w 8 8 w 7 p v b X.X.X.,.W X.X.j.o.q.u.X.y.f.u.+.y.O.E ,.i.,.,.! c P #.#.+.W b N W o.o.W Q h h g S Q h q o.o.q.D v b g v F q.o.v F F v v 5 v v F 9.o.v F ",
"& F W F h 5 F T.G v w V Z V V V S A Z C A o.o.D 0.Q o.v +.o.+.u.#.f n W u.m b o.E m F o.Q b v S F m m m m Q W g f m W o.0.y.o.b S v q g v b v w S V V C V w w v w w w w w w w w 8 8 w 5 5 5 w w 8 8 w w w w w 5 6 w w w 8 t t w C w w V w w V w p w w w V V V C C V S Z S v v b c v v m o.$.W F X.F +.o.o.+.W O.#.X.! O.O.O.O.#.X.$.+.+.#.+.#.d.,.y.,.,.#.#.:.,.d.1.:.:.d.d.:.U ,.P c N X.+.#.y.X.U O.N U #.+.#.+.X.O.O.+.X.N c X.W +.q.X.s.N c +.h.y.N X.X.X.X.W X.y.W X.X.i.! ! #.,.O.O.d.G.@.d.i.,.,.#.O.! X.,.#.X.N v v v b F F D Q Q S v v o.h v D S Q o.b S b v h v S D W Q S W v h b v W G v F F o.j.q.F X.F +.m m W m E F W W W Q o.W v E E W F F F Q +.a.#.@.+.#.+.+.#.#.O.P #.O.a.#.! O.d.:.n n ! W n +.,.+.F N W X.W +.W q.o.+.v b F F F W W F v b W v v F G Z v w v V v a a V a 8 w t w w t w w w a w w 8 w 8 t a a 7 w V V w w 7 7 w V w V V w C V w V w w V p w p w w w w w V C Z Z G p 5 7 w 7 q q q F 9._ b F F q.D Q o.S o.y.S m o.W o.W m ! N X.$.X.X.a.q.X.#.#.X.g c y.h.a.+.,.Y.+.y.#.n ! c X.P W N y.U.X.N ! 9 U f.+.X.#.b S W Q D h h h V 8.G G G S S o.o.0.o.F Q y.W h W q.v o.o.o.v o.o.q m $.+.U.y.y.K.@.,.K.].U ,.i.U #.m v b g q b F V G 9.w q G v q v o.v q S b b b h h 9 S Q v Q Q D g g S S S D S S S h 0.u.Q S h S h S Q S S S S S S V h h v v b F b W #.y.a.,.W W o.d.,.,.a.O.a.g U O.O.#.O.! O.O.O.} M U O.O.a.d.N o.$.y.W #.X.q.u.o.S m F F o.o.N +.X.F +.X.W $.q.$.W N W F m +.y.S o.b W S b o.W W E b X.+.N m X.:.,.d.5.;.1.>.>.>.5.d.:.O.W X.W S v S G A V h w w t t w 8 w w b b X.#.X. .6.#.q.N y.X.X.X.c W X.W E W +.u.d.i.N X.d.,.! W m W N v c b F F F W g v S o.q.F W h m o.D b F m W o.F q F o.9 3 o.F u.v v o.9 9 g ",
"+.F W F q.+.9 D o.v q v V w q w w q w Z o.o.o.o.w.v Q S q.S h '.+.o.W m o.b Q h S v v W D h v o.h v W o.m g S E Q o.Q m m b S m Q W D S b b S Z v w w v h w w C a t w w w 8 w a w w w 6 5 5 6 w t 8 w w w w w 6 5 8 w 8 w w w w V 5 6 w 5 w w w w w w w a V C Z F Z F F F v v F 5 v v v o.o.o.o.W F o.F X.q.! ! i.O.N P O.O.U n o.+.X.q.f.o.X.h.O.#.:.O.O.O.@.,.,.d.H.,.U P U O.d.O.! +.y.,.y.d.,.,.d.O.W +.X.#.W N W +.E g m y.y.X.o.+.m a.+.W o.$.X.X.$.N N f.N W d.+.#.a.`.#.! ! #.O.O.:.i.O.! ! O.i.,.O.#.a.,.#.X.F b m m b F b F W F h v D b v Q o.V v Q 0.S v m b b b b S +.W o.S v b v Q g v q.+.o.u.q.+.W b +.m c W m W o.o.W b S W F v h b W D F D W W N X.+.+.#.q.#.X.N f.+.+.#.U.#.! ! U ! ,.i.W N +.N X.o.N m F W N W F F v o.X.+.F o.W W o.W F F o.v v v S V v v V w w w a V V p w w w w w w w w V w w 8 w w t a t V p w w w 7 5 5 5 w 7 a a 8 p 8 w w 7 5 V p w w C V v w w w p a Z V w p Z p 7 q b q S $.o.F F F G h o.s.S h o.o.v W b o.Q m W m F q.#.X.+.$.X.W F +.X.N N X.#.f.#.`.P m ! X.h.#.m ! f.#.+.d.#.,.K.d.! c #.i.o.W b W W h h S Q Q D h h Z D Q o.Q Q Q h h +.o.S Q q.q F o.q.v b q q.W +.#.U.W n y.Y.O.U d.X.P.`.f.y.N m b g q h v Z w A V v v 5 v w 9.F v Q F v q q h q G Q h D D o.h h S v v v h b o.Q o.W b o.o.D h S Q S v S h S V v h h v v b m v W O.E #.a.X.! P ,.#.O.! n d.:.d.i.O.+.#.O.O.a.3.O.} O.} X.d.#.N #.m m X.s.c v y.0.b W W b F o.m o.+.o.#.X.X.o.X.X.o.+.+.X.F m o.g o.S W +.o.b m E E N X.$.W o.d.#.O.L T Y.1. .I P  .O.O.O.O.W o.G v w w 8 5 t w w t t 8 w w v b F y.d.O.} 3.W $.c +.m m E N m m W #.#.y.+.N d.#.O.! U d.a.g W E N N F F F b y.b S F W Q S o.0.g h W o.F v o.F F 5 q o.F 9 o.9 0.q Q q.9 v F ",
"v F v v o.9 5 $.5 o.G q h V w h v G G v o.q.v V S h v h 5 7 V S G v S Q D w q V D v q w v v v v b c b F F W W N F b W o.b c b F h S Q h o.v S Q w h h h w z V C w w w w V C a 8 8 t w 8 8 > > C 5 8 p a a p w 8 5 7 7 5 w V p 5 w w t V 8 w V 8 w p w w w V C v w Z G Z v v V Z w v V v V G 8.0.o.v D u.q.W ! ! ,.:.:.! N X.#.W a.m +.h.X.W #.+.#.+.d.X.c ,.d.:.O.~ n O.3.,.>.n @.d.@.@.X.#.N X.O.P f n +.X.[.m F X.+.q.#.N m X.#.y.#.P N W o.F N o.o.o.o.N F q.+.,.X.y.+.W #.m a.P +.d.O.U y.f.X.X.,.W +.d.X.,.X.O.N W N g m m F o.F v G v v o.D S 8.G 8.q.V o.q.G S V F o.o.o.G F b b b N W o.b o.+.0.m +.q.+.o.o.X.X.W N N W F m m D W F b b W W W S m W o.o.o.F o.$.X.X.o.F X.W F N W +.+.+.X.X.+.+.X.F W X.m m o.N N X.m b F X.N W W F X.F W F F W X.W N v F W G F F G Z v v 7 v G V Z Z 5 h v v S D w 9 V q q 5 5 w V w 7 V V C V w 7 5 7 7 5 8 a p 8 8 a 8 w w p w w w 7 w w w w w w w w p V p p Z b 7 7 i p i b ` o.` S G G 9.F v G F o.o.b o.b N +.F o.9.o.W X.X.X.o.#.X.W U N ,.#.n +.X.X.W #.d.q O.h.f.U i.U ,.n g ,.9 X.O.#.h.v F F W z.W h v v o.8.v D D v o.h q W v F W 9 S +.q.h v D o.D v W u.q.m o.+.O.K.f.N i.#.$.+.h.f.X.#.U N a.q q G 9 v v V A a 8 a C V C h Q Q D S o.y.g S w h Z o.Q V S G v S v v F v S F s.W W s.+.W o.Q F b v V v v V w Z G q w v q o.v F F W +.q.o.m U U N X.+.W X.a.#.,.y.h.m O.#.#.a.#.#.O.O.:.X.O.X.,.9 X.W m F m +.S m D Q S v v o.o.E y.o.m y.+.m y.E g Q +.y.+.S g Q Q S W E W X.#.#.W X.y.#.n O.i.#.W ,.i.:.i.,.G.K.,.P N E o.F V v w w w 8 8 t a t t t 5 5 v F b g X.K.>.L >.,.U N +.,.! N P ! +.,.#.X.! O.#.i.P i.K.#.#.y.g g m F u.m v q W m o.Q S D W F D b F v Q o.W +.9 h q.S o.q.W s.o.b v W o.b v F F ",
"G s.o.S G m v q.g F G G Q Q G Q v F o.v v S q F S v S S h z D D 0.D z z h w h S 7 w v D G G G G F b F W N N F F F X.$.X.m N F v m D D g Q h v S S S S S C C C C V w w w a t 8 8 5 w 8 6 6 > , C t 8 8 p V C p w 7 7 7 8 8 a a w t 6 w t w V C w p V v w v Z Z V V Z G Z v w v V w v v w z D ( 8.q.D F W E W #.:.O.:.d.,.! O.+.F +.v W $.N X.,.W N N d.,.U O.O.O.P y.:.:.O.O.,. .} O.M } N } c N j ! #.,.#.c a.c F F o.q.+.W Q ,.O.@.X.U W +.+.F v W G F X.X.X.#.y.y.X.X.W ! a.X.a.X.+.#.P N X.! ,.O.#.X.X.,.O.W U O.W O.X.N X.N v b b v v q v G G Z o.Z ` 8.V ` V v v v F Z D F v b b b m N N F E E ~ f.W W E o.W W W N N F X.$.o.W F F W F W Q Q Q W W W o.+.o.o.F F Z v F o.o.o.o.W W W X.X.X.N N N N m c m F X.F o.F F X.N W b W W X.X.W W N +.X.F m c v b N b F F v b F V v o.Z Z Z V V V w v v v v V q q D w q 5 5 w V V w w V Z C p w 7 8 8 w p V a 8 8 p w w w p p p w 8 p w w w p V w w G G p 7 i q 5 5 7 7 q p F o.o.o.v q o.v F q.F $.o.F o.X.o.o.v v W F F W N N E X.d.y.#.P O.O.g X.g f.f.W +.W i.U c n O.P U g U P P #.X.W y.g v g G j.o.F D v v v Q q q 9 v v G F v F o.v v q Q o.b b D F b E o.E u.X.E g N #.y.Y.y.X.a.#.X.X.O.}.X.a.m F o.q S v V A w 5 8 C S G S S v D S W o.h q 5 V A G V h V Z h S b F o.S W +.a.F N o.F F W o.F v v v V V Z V Z G v v q 5 o.v F W o.+.q.q.+.X.X.U X.,.#.X.#.h.,.m X.N a.#.X.O.,.a.O.X.O.#.a.N X.#.a.+.f.X.W v o.o.S S o.o.b F W F 0.X.N +.W W y.m h o.0.u.0.Q m o.o.W W m m N X.X.N X.a.a.+.n ! O.! ! P ~ i.f.i.,.:.W f g D S V h w 8 8 8 8 6 t r 8 a p V o.W W #.:.P P 5.,Xd.d.i.O.P O.d.`.#.#.i.i.O.P P X.u.P W d.i.W W u.W m 5 v q F D q.9 g h h W o.D W F o.b m g m y.W h D v o.v h s.b +.F G G v c m m ",
"S q.G 9 m F m m o.v V Z h 5 5 5 W v D v q v w V w w V V w h C z w w 7 w v V v h v S G G V h q q b N W W F b W +.F m W +.N m F W W D W h Q h v S S V V V C C V h V V V p w w w 8 5 a t 6 6 6 8 a A p w w C A V p w 8 8 8 p 8 p V V w 8 w w C C w V V v p V Z Z V Z S Z G Z v V G w h w w w V A G 8.Q o.o.P W O.O.P O.,.:.P ! O.F X.N W X.F q.d.W +.U ,.,.X.O.O.i.P f.i.O.P  .,.} >.,.} 3.@.X.m #.d.d.O.! O.m f.F _ m N o.W W +.#.O.O.X.X.+.y.+.b F o.W N X.$.o.+.+.+.N m m ! y.P ! P X.X.W +.y.+.a.+.X.#.+.,.f.X.X.a.,.,.+.X.O.m N b W W v 9 v D Z Z Z p V G p A V v v v S F F F b b m v m b W X.! O.o.u.E #.W W +.o.o.F b N o.9.o.Q Q W W F W o.m m v v b W D S o.Z Z Z v v G F W W W F N N N F W W W X.W N F X.+.N W W X.X.N +.N W o.X.W X.X.X.F W W X.W W W X.F F F b b F V v V Z V v Z V p V v v g g h q q D w w q 5 w V V V w V A A V w 8 w 8 p V a a a a p w w w v V V V V w p a V V V V V G F p q b b i b 5 5 5 q v F o.9.9.m X.c b $.c m q.o.m N X.W X.m F F W o.W N E o.#.X.O.P O.,.O.f.f.W g X.`.X.! ! ,.f.:.P n n ].:.P +.X.W a.W W c 5 b v F o.F G o.s.v o.G F F s.o.9.v v v s.0.9.o.W v m W W W E v X.c #.#.! #.O.m X.+.q.a.f.O.O.}.,.a.W $.o.w Z v C A 8 6 w V V A G V w S S v Q v 5 w C G Z h v A V q v v F W v F W X.m W W b o.9.o.S q v Z G Z V q.Z v v Q Q q v g b W W X.o.#.#.#.a.#.X.+.#.+.#.#.y.X.+.#.a.W N d.d.O.U O.,.+.m X.m h.o.9 a.c F q o.q.Z b o.+.F F F W +.W m o.E o.Q 9 h o.o.o.E +.S W W Q Q h g W X.W N W X.O.O.O.O.i.d.O.! :.i.i.#.O.W W F F G V v w w 8 8 t 8 8 a a w V V F W X.c X.,.U O.K.d.d.,.#.O.O.,.i.d.! P O.,.#.P W #.P ,.X.N W P m o.o.o.F W g q g D S m q q S F F o.Q y.q.y.o.0.s.Q v h v 0.q q s.v v q g F F W X.F ",
"V G v q o.q.F 9 o.q w v 7 w D V q.q h v v F v w 7 5 w h 7 7 w 0 3 7 w w h S V w h v v h w v F G b N W X.W F W #.N W o.W m F X.N o.W W h Q S D S v h h V Z A C v h V V V w w 8 8 8 A C 8 8 8 8 8 C p 8 p C Z V p a w 8 p p 8 w C A t w t w t V w w w w w v V V b F b V ` G V Z 8.v v h w q w V V Q o.9.o.N X.O.n  . .@.U n U #.+.o.F X.X.X.y.d.+.a.+.,.#.O.,.#.a.:.f.:.O.O.O.:.M ,.d.@.3.@.+.N #.d.d.:.O.d.+.a.B o.m N X.W W +.o.O.@.O.O.#.q.o.b F +.o.b F o.X.F X.+.+.X.X.a.d.W #.#.#.#.X.W W P y.O.W a.O.+.`.X.O.h.a.#.O.X.O.c o.F o.o.v q F S V F v w V Z V Z o.Z v w v F D F W F N v c b X.$.P ,.o.m f i.y.N +.+.o.F v v F o.b D Q o.W F F D S S S S W o.Q F G Z G o.F F F q b b F G N b N W v m F X.X.N N F o.c N W X.W N q.W X.+.F N o.o.$.F W X.o.+.+.X.X.W G F F D D S v q Z V V G V w V v v h g v w h G v v w 5 w p V v w V A Z V w 8 a 7 p a 8 p C Z p w w w p p p v v w w p V V V V v b S b b G F V S w 7 7 7 q p G 0.s.+.b m m N b g o.o.q N W b +.F F G o.+.X.W o.y.! P O.U O.i.i.`.o.X.+.+.#.g O.Y.n ! ,.d.:.1.].O.,.#.,.W $.F W c o.o.o.o.F h h v o.G s.9.D q G F v 9 v v G q F o.+.m b o.+.W E m X.m ! P N #.X.W N j.q h.aXU ,.O.d.#.N $.o.b F w t C t t C C w v G Z v S h h Q S w V V G Z w Z o.G w v v b S q v v c c +.W b +.+.o.v v F 8.8.Z v V Z 8.Z v v h o.v F W W W W X.X.,.K.h.X.N X.+.a.X.d.y.#.a.,.N N @.#.M N ,.].U.W d.U `.q.9 a.m F v G o.Q D S S S W F W Q m m E m q.o.m o.u.o.o.S o.S E m W Q m E o.X.X.X.W N P ! i.O.:.,.:.p.p.m m +.+.v v 0.+.v h w w w w 8 t 8 p G Z b F G F W h.O.O.d./.&X].O.K.#.P U ! N ! ,.U n P ,.,.X.#.f.N d.f.X.! #.+.X.9 g W +.W S W u.o.W v m F m m Q S b W q.0.o.W q h v S o.v v q.W o.b b F m m F N ",
"v h 9 g G o.m q G v v v w Z 8.V 8.5 w V v Z V w w q w w 5 5 w 0 V G S w 9 h S D Z D V h v D o.o.E W ! o.,.W m +.W f.K.P g y.u.g o.S W v Q S Q S V v v S G G Z V w v V V V w w w 8 A A 8 8 8 8 8 8 w p V V V p w V w 8 V w 5 w V C z V V 0 w V h w w w v v v v v F v v o.G V Z 0.V S V h w w h h o.$.9.X.m X.,.O.,.@.} I N X.#.+.X.N W X.X.X.O.#.+.#.d.:.a.h.O.P i.y.! ,.d.:.:.U ,./.3.@.X.d.3.a.:.d.d.! #.N +.N +.X.X.o.$.#.+.o.O.#.#.#.#.#.o.W g o.o.N F X.F N N W +.X.X.a.y.P +.X.+.,.+.c m +.,.O.X.a.N m a.N X.a.#.+.X.O.,.F X.v F W h v F v G 8.Z C ` ` A V 8.Z w w F G D v W W W F m N W +.N #.! m 9 ,.#.m E W W S v v S W h b W W W F F F S F F F W o.Q D Z Z o.8.o.G F c b b F W W N F X.m m N W X.W W o.+.c N X.+.W m +.W X.y.W F q.o.+.a.+.N m N W W F o.G F F W G S v v o.G V G V 7 v v F S b Z V V Q V v w 5 5 w p w w V C V w w w V 8 a p 7 7 p a 8 w w w w w w w w w w V V V v V V b b v v F S w i V w w w w w A 0.F #.q X.#.N f.X.g N c +.#.m W c b F W W W F o.u.y.#.i.O.U O.X.#.o.X.a.#.#.c #.&XY.! O.O.n d.K.d.#.! X.g m N $.#.m c W o.o.+.o.q.F q.s.W +.g g b q.+.q.o.+.F o.o.+.m b o.o.F W W W o.P q X.i.+.h.X.h.5 +.`.N ,.O.d.O.m X.o.F G w w a w t A C h V S o.G S w h o.S w C p G G w Z Z q.S V v S D v G b m m X.F g G F o.F v S G G V v V v F w v o.S g W G W o.+.+.X.F y.K.d.X.U X.X.X.d.h.+.m #.,.X.U N ,.O.#.d.K.].,.+.n y.U.X.s.X.F D Z D D D F b v F b E b f m N P o.W m o.+.E Q E W E W E +.o.m O.X.X.X.#.#.O.+.#.y.+.,.#.:.U.f.g v o.o.v q D F 5 w w 0 w w t t w i F _ G o.+.o.#.#.y.U n #.3.O.@.X.i.K.d.X.N P #.d.O.O.i.i.#.,.K.,.N #.f.X.W y.y.u.+.W m S m m m g m S W Q m g W F 9 9 m h q g F 9 D v S Q b m Q s.o.F b q v o.$.",
"w q q v q 5 q b v b Z V h V V 5 v 5 V v q v w V v q w w 5 q w w h S G V w h S D Q o.Q S V G G b m E P O.u.#.! f.O.! #.#.W O.+.o.W v W b D m o.S S V V V C C V h w v V V V V w w 8 C a 8 8 8 8 t w w V V V p w w V p w p w w w w w w V V 0 w V V v w v V V V V V G F F G Z V S Q S D Z v h h w w F _ $.$.X.,.d.:.3.@.O.O.} X.X.m W F W +.+.W X.#.,.a.d.O.a.K.O.X.:.,.O.f.d.O.3.d.>.).d.@.X.K.g.h.P.K.,.g X.W +.X.W o.W X.y.y.o.#.@.@.@.O.+.+.o.o.v o.o.F X.o.o.+.W m X.W P #.+.O.m N ! y.y.P X.`.O.X.O.,.U N #.O.#.a.#.+.X.X.,.X.W v v v v v F F G q.A Z o.G Z w Z V v Z o.o.G v b F W W F m F W O.O.! ,.W #.W E W W Q W S S S D b S F S S W W W v S S b S F F S Z V Z Q D G o.D b v b W F b N W o.W N F W X.+.y.q.N W o.+.X.m o.F F a.o.o.f.X.X.y.+.F W o.+.W m o.F b F W F v v Z Z V v V V V Z v F S b Z V v Z V V w 7 5 w w w V V V V w w p V Z V p 8 7 8 8 7 w w w w w w w w w V C C V V V V v b i i F F v F v q q w w w V Q F a.m a.f.N d.N m N N O.X.c m m b b F W F F O.y.y.O.a.#.P O.O.X.f.W +.#.`.a.,.f.f.! d.].d.].:.:.U c #.! W N +.q.o.W u.q.W W v q W q.o.g q.F v F o.b b q o.W F 9 o.v b Q F b E W m y.,.! K.K.N +.+.$.X.X.,.:.O.d.d.@.N N o.o.G b w w 6 8 V C C Q h Q Q G w h o.v w A V 9.8.w Z w w.v v v S D b o.o.+.F W W b o.W o.F q v v V V V 8.v S v S 9.D q G b m W +.+.W N #.a.#.X.,.a.X.c +.a.a.W #.O.O.U P ,.U #.a.d.U.O.X.n c y.X.+.X.b v G Z v F 0.o.v W b W b g E X.+.W m g E m m +.o.m W +.+.f.y.g W W X.X.+.#.#.+.+.W y.f.,.:.f.f.Q v S F F S i w v w q 0 w w t z w m F X.X.X.U N +.f.`.,.X.h.f.,.h.P d.f.O.P #.#.P d.#.O.,.,.#.,.f.h.W #.i.n P y.W b m S v S b +.q.m D F m m h b 0.S 9 S W g q b j.h 0.S h 0.S 9 W o.G o.o.F W $.q.",
"G F G G v q b _ g m v S Q Q G o.5 w V q q w q V w 5 w w q w V w 5 w S S S V V S 5 v F v F o.o.o.m ! P ! i.O.O.Y.:.g n y.:.N ! d.W v Q F F v o.S v v v v V v v v V V v V V V V V w w 8 8 t 8 6 a V v p V V V V p V V p p v V v w w 0 w v w w V v V v v V Z V V Z G F D F F F D G V Z D S v v h w i b $.a.#.#.,.O.@. .O.@.} } } m N o.X.X.#.#.+.+.a.a.,.} :.a.O.d.O.y.:.d.,.O.d.d. .g.,.@.U 3.@.,.d.d.d.O.K.a.N q m $.N m y.+.P ,.3.@.O.} X.! W W F o.W W +.$.+.a.q.W y.y.+.a.y.h.+.y.,.,.,.W N a.X.N O.+.+.#.+.a.,.a.#.#.O.U O.W W F v v S v S o.V 8.V V G Z Z 7 v b V G o.o.F v h b F F b b W X.#.O.O.h.#.,.+.+.+.o.Q Q Q W S S W W W S F Q W F D o.o.Q W W Q Q Z v V Z v F o.D F v v F W N N W W N m m N N F X.y.F W X.+.+.F +.X.F a.W o.z.o.X.X.X.X.#.u.q.X.m +.W N W o.G b v F v v v v Z G Z h F S v V v h S v v w w w w V V V S V V V V V v Z V p p p w 8 8 w w w w w v v v v V Z Z V v V Z v b c v _ ` Z G w q 5 w w 0 w V y.,.O.,.,.U ! n ,.P P N N n n X.F F W X.X.W W +.X.m #.O.P ,.i.,.m s.iXW O.f.f.a.O.! P O.O.d.d.].H.! K.i.X.g g m c q o.W v o.o.F F b v 5 F m b g g b q.o.o.b o.+.o.b S W F F W E +.y.,.P #.d.! X.X.X.f.#.O.d.>.d.#.3.O.m o.9.S V p w 5 5 V V V Q h C C G V v D w w A a e.8.7 C w o.q 7 w V Z v Q F u.W N +.+.+.o.G S v v v v V Z F F z.s.q 5 v s.F c g N X.X.P N W +.X.X.,.,.X.U n +.`.a.,.X.#.U n X.f U a.3.`.+.,.#.N o.W #.o.W F S V v W 0.+.W o.F +.E n o.X.+.0.o.W y.o.Q f.+.S W Q W f.y.g E X.X.X.X.X.O.X.P f W o.O.W E E o.S p V A Z p p G w w w w z V z h W X.X.X.X.n M ,.3.#.@.#.a.3.X.U `.,.g 9 g O.,.,.! P P O.#.,.,.i.Y.f.d.,.O.i.u.N m W s.W F 9 v S o.0.W h h b W y.m g o.o.S W F +.o.o.D S o.W g Q q.o.+.q.X.F N c ",
"Z v v v v F N q o.F w h G w 0 ( w V w & w Z 5 w w 7 w V h V Z V S V v h v v V D w G o.S v V _ o.W y.O.! ,.P P Y.O.,.y.! N O.:.m W v +.Q W m o.S v V V V V V Z A G S v v v V V V V V 8 a a 6 5 a A V w p Z G Z V p V v w V G Z w w 0 w h w w v q V w v Z Z V V F G X.Q D D o.o.o.v S D S V V v h F b F X.N N @.@.@.O.@.@.X.X.@.o.m +.X.N #.s.,.X.W X.#.#.a.O.n d.#.u.#.O.O.O.d.@.3./.d.g.,.3.O.a.:.G.P.U #.U N X.m a.W c a.#.N a.h.,.U N P U N m o.W v m X.X.X.#.X.c #.#.X.+.X.a.P ,.+.W #.+.X.y.+.N O.X.+.#.m +.O.+.X.#.+.U +.+.W o.b g v q q o.v o.w v G G ` p i v V V v v q q b b b v g m +.a.U @.O.:.P i.y.#.F m h m S Q Q D S W Q W Q o.F g m W Q F v m S D S v V Z v v F v +.F F o.$.o.o.#.X.W X.$.$.X.F N +.N F N X.#.o.y.q.W u.m W U.+.#.#.+.X.X.W W F N #.X.F X.o.W F S o.v D o.Z G o.v b Q D b S V v D w v h w w V C C S V V V Z C V w V w w Z A V p p w w w w v v V V V C Z V v v V F v N b N o.F q q V i w C C w w V y.n P N U ,.N #.,.N ! U ! X.g P F F W X.X.F N E #.P ,.O.N ,.,.O.y.F y.! a.#.O.Y.,.`.O.d.O.O.:.,.P.c O.N g q W d.o.b #.b q o.o.G F v +.F v v +.v W v F W s.o.o.G 0.W W o.o.o.o.F X.m O.U P a.,.! X.#.O.X.U O.J.@.U d.,.m o.9.v S v p w w C p w V V w w o.G w v 5 8 A 8 A V = V w G 5 9 w V S w F g u.W b q.+.F v v v G o.G V V Z u.9 v 9.F v v o.X.m c N ! W W W n O.+.X.X.U +.h.+.X.d.+.y.a.K.N d.].:.a.O.g O.N N +.+.X.X.f.N b o.w q G o.F F q.o.F y.E g W m N W E W y.W W +.f W E h g 0.0.k W X.X.X.U X.#.+.W W o.W +.y.m h +.G ' Z p 8 p p 8 w w w h z V z v X. .O.#.#.N O.].a.X.3.f.X.N X.N a.n N f.Y.X.n ! P N P X.#.,.,.#.#.P n #.K.+.c X.E m o.b o.S Q S g W Q W o.+.Q W y.Q y.W o.z.q.F q.S S S S D F W q.N g g c N X.X.",
"q h v 5 i q b q a.o.V F Q V 0 w w w w w w w w w 5 w V q 5 w Z S h D G V V G D v o.q v o.o._ o.F ,.i.W W i.O.P i.n i.:.O.#.O.,.O.W q +.o.b g o.b G v w v V w p V o.D V Q h Z V w C V w w t t 8 8 C Z Z Z v q w v V v w v b V V v w V V h q w h h 9 v D S v F F v +.$.+.X.W o.o.Q o.D h S Q h 9 v v b b r.h.f.`.`.,.,.#.X.} X.+.+.$.N +.+.#.N +.O.O.#.:.#.:.,.,.#.O.+.d.d.O.O.#. .3.@.d.K.,.O.,.,.].G.3.:.U g y.W +.+.X.W N f.#.:.,. .J.@.P n #.q +.f W X.m X.+.O.X.+.+.+.+.#.y.#.W #.X.N +.f.f.a.#.X.+.a.y.X.O.a.#.+.X.a.,.X.a.#.F b F v v S Q F q v V V v p V Z q w v V v v v v F b v b W o.o.X.O.O.:.,.#.O.#.d.m q.S S Q m Q S o.m o.o.o.m o.+.m W o.S g S Q b S o.S v o.F m G W W F b F X.X.W W W o.#.+.F N X.g X.+.$.o.o.a.y.c o.q.X.F X.$.#.$.W W +.#.X.N N W W W o.+.o.W W b N F D V v Z q.D o.S S h o.D V C v w w w w V G Z D V h h V S V p b V V p p w w v h v V v h h v S v h v v h Z 0.o.N N b b $.9.9 h V D 5 3 V h h m #.K.}.}.K.y.O.#.! ! W P ! W N X.o.W W X.m m +.#.X.i.N X.X.O.O.+.j.N m W c O.,.O.P.d.,.O.:.].G.P.O.U g ! ! a.y.X.N q z.s.m g m `.m N o.9 q o.c X.N v X.X.X.f.s.0.o.W W o.o.o.o.c E O.d.d.d.h.O.a.#.#.,.U d.3.U K.d.#.N a.X.F F Z w q V C w w V V p w p C C p 7 8 8 8 8 8 8 w w w V w q v v h S b y.#.#.z.u.F +.F G F v Z V V o.F o.s.F F u.W m q.N W W W X.P +.y.#.#.+.X.#.,.O.h.W m y.X.O.c #.a.,.,.3.#.I m N 9 U m X.y.f.N v 5 G Z v v D q.W F F m +.N g X.o.W m X.y.#.W W m N o.W m m f.N #.O.X.#.X.m U #.#.F a.f.X.F o.o.N V p p V a p 8 7 p V v V G G G o.X.@./.,. .3.@.3.M } K.`.} c N X.#.,.n Y.K.g #.X.h.#.O.O.O.#.i.d.O.f.N P i.m c m o.F o.W W Q v S b u.W W o.0.m +.v W m g Q y.o.S v h o.q.F v Q Q W v v o.y.+.N v ",
"S h S 5 v F F m b v v D D V z C w w w w w w w w 7 V C V w w V V G Z S S Z Z Z F G v F G v q N o.W :.W ! y.! n :.:.:.O.y.#.n ! O.0.v +.o.F b q.D V h w v V v p w v V V o.h S V V V w w w w 8 8 5 V V Z Z V v v v b v w w v V V v h h h h v V V v V S S v v S F F W o.o.W F G o.+.v v h S Q h 9 w i v q _ q.#.d.3.d.d.,.O.X.X.X.X.s.N N m X.N y.a.X.+.@.O.O.:.#.O.o.W o.#.#.,.,.@.3.,.,.@.I } @.T 1.;.U O.d.O.a.n +.B m y.#.,.W H.P @. .n a.O.U W W N W N X.+.} #.+.+.O.O.#.a.y.#.+.#.W m N N P O.#.O.X.X.X.O.O.+.,.#.X.#.#.X.,.X.F N F F v b F v q w v v p p p V w w v v v v v v F b F W +.q.#.$.O.O.#.#.X.N N W W y.F D Q S D v o.v F F o.S o.Q W +.+.W F W D S V Z V V G G F G o.W F F X.+.o.W $.+.o.X.W N W X.$.X.F b W +.+.X.W $.#.X.F o.#.$.+.+.X.W o.#.X.c #.X.W W W F m g b v v S V v v S W S h o.Z Z h V v w w w w w w C Z D S h w v v w v p p b p p p i v w v Z v v Z S v V S Z S V D o._ m m F _ o.G v w h G q 5 h 0 h g P #.d.f.d.y.#.! P W #.O.+.+.N F F v v o.#.X.W y.W i.O.i.O.O.,.X.y.X.+.f.,.O.! ! ! P O.U O.:.P n O.O.P i.U N N q #.m m g +.u.F o.X.+.q m y.m c F F W #.X.m X.W F o.F o.+.Q q.Q m W W ! P O.f.#.X.#.,.d.O.d.@.P O.,.:.n #.X.F v 8.V q v V w w V w w 7 w p a w 5 8 8 w w 8 8 w w 7 w q 5 w w w v o.#.c 9 b F F u.o.Q v v Z G V V W F q.o.W o.F +.X.N X.N m W W y.#.O.#.y.#.#.#.X.c m #.f.U +.X.a.a.,.O.P P X.W m a.m q f.a.m 5 o.v Q v v S o.q.D +.b m +.E ! a.N +.o.#.#.W m b N E o.,.y.W ! 9 ,.y.N X.f.#.m N ,.F +.#.+.o.W m 9 p p p p a p 8 w w A Z Z o.S w m O.} >.} O.d.@.} O.g.U 5 X.3.X.#.q K.i.:.,.N ! N O.#.#.O.,.i.#.! y.Y.N g O.! E m Q m F m o.y.D b S u.F b W q.D q.q W o.W W W D F 0.S h v v b D F v q g F X.W F W ",
"5 v x.o.o.F i c F v o.q.S h S V w w w 6 6 8 w a w p V C p w p Z o.v w V Z v S o.v F F N m q c o.N #.o.O.i.W m ,.O.E E y.W m :.#.W g +.$.+.b F 5 v v v h v F V v w v V o.w V v V v v p w w w w w v v V Z Z S V v v v p v V V V V V V h h V D Z v Z V v F F F F F v W X.F b b W +.h F D D Q S h v w b q b X.+.a.@.,.#.O.X.X.X.X.N q.m X.X.q.X.,.X.U X.O.O.O.@.#.O.y.+.+.#.O.} O.,.,.g.3.@.:.d.d.,.G.].).,.,.n O.#.X.U O.a.,.d.:.H.d.d.].J.:.N +.,.o.y.+.m +.+.c X.+.X.U U +.y.#.! X.X.P W W m m +.a.y.+.X.X.#.,.O.a.a.O.#.#.#.,.W N b F F v F D v v w v v p p p p v v v v v v v v W F b b N F F N #.#.,.,.#.O.W o.E +.S F Q Q Q S s.F W F +.D o.b W o.F m W b q v Z V F Z b F G F b W +.o.W X.+.+.W W F N F X.o.o.#.N W c N q.W o.o.#.#.o.X.+.+.X.X.#.o.m X.s.q.c a.+.N N W X.F v N b b D G F v v Q F v o.Z S h S V V V V w 5 w v D Q Q S v v v v V v b V S Z V p Z q v D v v G S q V D S v v S F F v q m X.v c F v v G V w h 7 h q g N o.y.y.+.+.f.o.N m f m X.X.b o.o.b F X.E m W q ! U #.N N X.c W +.N m N ! Y.f.U :.d.,.d.d.d.P.$X,.f ,.P f n N d.a.K.#.y.+.N u.E y.N W y.f W m N W y.X.m +.X.q.u.W W b g F m g W O.X.P X.f.#.W y.#.:.O.g.3.J.O.d.d.N +.X.G 9 q.V w V S p w w 8 7 5 8 8 8 8 5 8 8 8 8 8 8 8 6 7 w w w v v w V v o.X.o.s.q.F W F o.o.v i b Z G D b o.o.W X.X.y.N ! ,.W n N ! i.X.U X.+.O.W U X.,.X.y.a.O.K.#.B :.,.O.M O.g.f.O.g a.f.+.9 N F v F q.0.8.F b q.u.+.b m o.! o.f.m W +.f.f.#.W W o.E o.+.a.+.o.m a.! X.a.K.d.#.X.N m v m W o.F g 7 7 7 7 8 p p p p w 8.o.G q.Q w F U P U M } 3.O.U P #.a.X.c X.f.h.U K.,.O.d.O.n #.! f.i.O.a.d.X.n +.Y.,.N P N W W Q E W m W q.W b m u.F m W s.o.0.v W o.o.F v m F S D S S F v v F v v v F W N b N ",
"v V z.v 9 q c $.o.N 9.u.V w S w w w w w 6 w 8 t a w w w p q v ` G V v S S S G 0.N F c m o._ c N m W O.+.i.o.! #.m m W o.m W H.W U.+.o.m v g o.W F F V w v G G Z S S S Q q V h w w v V V w w 8 w h v V Z Z Z V v V V V V V F Z Z Z S S v V S V v v h v Q o.G v b m F X.F F F W W F 0.o.D D D S D q Z i b F X.a.#.,.#.#.+.q.a.q.o.o.N #.y.f.+.#.N U W O.O.O.#.,.,.E W X.#.#.} ,.{.} 3.,.@.,.,.:.d.1.1.@.n :.U U X.+.O.a.,.#.i.:.d.@. .J.K.P g #.f.m W ! m +.a.X.,.+.X.W N ! +.X.N m W X.+.y.+.W X.a.a.#.+.+.,.y.,.y.h.#.O.#.#.y.X.W F F F v F G v V v v v V V V p v v v v v S S S q.+.W b N F W W ! U ! ! ! W E W S o.W F W W S F s.F W S o.W o.S q.s.o.Q s.0.b o.G v F G v v F v v F W E W +.$.o.m F W W X.q.$.W N c a.W N $.b y.W +.#.$.+.+.X.N W $.o.N X.f.a.F #.X.N m W +.+.X.b b D o.o.o.G D F o.b v 9 D S v V V V V w 5 w V S Q Q Q S V V Z Z V b V F G F V G q v D w v Z h q Z Q V h h v v _ F i q F v q X.G h S V V v 7 v g g m W +.o.Q W y.+.u.s.y.+.Q b F q.q.W F N m m X.c O.! ,.O.! O.X.m X.X.i.U.#.#.Y.O.K.d.O.d.,.,.9 n P f O.O.#.,.#.X.m #.m c g X.h.m y.+.9 W #.N m m m W E N y.#.W F Q S b E W +.g N O.i.O.! d.i.X.d.O.O.:.P.J.$XO.:.d.U #.+.+.v o.V w Z ` Z w w 8 7 5 8 8 d 8 8 8 8 8 8 w 8 8 6 7 w w w V V v S v W N b W F F o.v o.0.G v V o.o.v W o.b N #.#.X.N +.K.#.P X.W #.X.U N N W m N #.#.W ,.#.X.U.K.,.P U P N O.d.#.n O.U W a.X.y.X.c 9 D G o.v 5 F +.F +.+.W +.X.a.W m W +.+.o.E E +.o.+.E X.o.U.u.y.,.#.+.W N #.a.y.F m c m b N v i 7 q w p V Z Z S w o.G b q.0.D q.n U O.P M I O.#.,.N #.d.X.X.d.,.d.#.#.O.,.O.g a.! f.y.W ,.,.U O.X.i.#.! O.X.N m m W u.W m W W o.q o.S b F s.Q S +.F b F v h m F q D Q Q +.W b o.v v F o.X.N c g ",
"v 9 F & q v N F o.v Z o.w w S 0 w w w 8 6 6 6 8 8 5 7 a V w p ` F G G Z S F o.o.G G q c $.o.c v F N m N W W N N W X.o.+.m F u.v a.o.o.m m q W o.b F S v V Q Q V o.F v F q D v w q w v w w 7 7 w w v F F F G b h v v v v v v F Z S D D S v v S S b h v W o.F v v N W X.X.o.+.o.F b +.o.b S D S S 7 Z V b v m o.X.X.X.X.X.$.u.q.o.q.X.#.X.+.F y.,.X.X.O.O.O.O.@.,.o.+.o.+.y.X.X.g.3.d.,.,.,. .T K.1.G.K.>.).d.#.O.d.N O.i.,.N P P.3./.>.,.].d.X.}.i.U +.X.N #.O.U #.#.+.X.! X.! P P #.+.X.y.i.X.n +.X.O.,.#.X.O.a.X.h.#.X.O.X.+.+.+.X.W F v S G b V v v v p v v p v w w v v F F F W W F b N X.+.o.+.+.O.! W W E E W +.q.W F b h F W g S m Q F 0.W S Q h h +.W g F D i V Z h v F g W F b b o.a.#.b o.#.$.o.+.#.o.N F b j.o.m X.c q.N X.+.o.W F W W X.o.X.W X.$.#.+.O.X.W m N ! X.W c N F W W W Q o.v W v h 5 V v h w q w w 5 5 V G V F D D b v v S S b v b F F Z S G v v F v v S h h D Q b h m S S W +.D v D F v D o.h h v S S q v v h h S D F E Q b S +.u.q.0.o.F o.F v F y.#.W W O.W ,.N #.:.#.X.y.W y.+.#.d.X.O.U g O.U U K.d.:.K.K.&Xd.P g #.! N O.N m c d.y.#.U.a.W m P sXBXq ! P c N m m +.N F g u.Q W u.m y.o.E P ,.X.n y.h.X.d.O.:.3.K.>.,. .U O.} ,.+.a.q.o.V w V G Z p 7 8 7 5 8 8 r 8 8 8 8 8 8 8 8 8 8 5 8 w w V V w V b W N g q q F q.o.v v F F q.8.q v W W b F +.+.m N O.K.a.,.,.! ! O.O.U W #.X.X.a.U X.].d.n c #.].#.#.O.O.O.O.n q d.m W aXf.W N u.v v q Z Q b D b S j.0.m h.o.+.#.#.i.O.N W W W y.i.#.N O.O.f.y.W ,.n m #.+.N F $.o.$.X.m q v c 7 q i b Z o.9.9.o.b o.v g +.+.F W U O.#.X.n n O.i.i.,.N N ,.O.n d.! N Y.y.f n N #.N #.! N +.! P d.#.P n ! i.,.m g W 0.z.u.o.u.u.z.9 W m v h q.F g o.v v F h g S F S D h h +.q.W Q g g g F W F v q ",
"q v Q v o.F F 9 o.v v V w w z 5 6 8 8 8 6 5 6 6 8 6 8 G A p w V Z G G V v b F F G G N v m m m N X.F b b N N m c $.F N q.W v o.F q c #.#.u.N b v v v S F G G S w o.S g S h Q S v w v v v w w w w w b F S b F v q v v v v v v v v h S S S v S D D D b v v b v v b N F W X.o.+.W v g W W S Q Q S S w A C V h q F N W W F F W o.o.D o.F +.N F N a.a.O.O.O.O.O.U } O.a.q.F W a.#.M } `.g.3.d.d.:.i.=X;.G.%X>.@.P U #.a.U #.O.#.P ! d.>.3.U @.,.O.n i.`.X.,.#.n U U c #.#.#.X.W ! W P +.i.O.N +.d.#.N X.U O.a.#.U X.a.X.h.#.X.#.W X.#.a.+.o.F q v F v v v w w w w p p w w q w v S v v g b F F F W F m #.,.y.#.O.+.,.,.m W q.W W o.F +.W m Q S Q S o.W W o.S b +.o.D o.v w v V v v D b F +.q.W N X.o.X.o.o.X.W W X.X.W o.m o.N N o.N q.W X.W N v m W $.+.W W o.X.F F o.y.y.#.W N W N c m W W G F D G G S b v o.S V q S V v v w 5 5 w A D D W W S v v v b v i i b S Z b F S v F W D S F g v b v v b F D b W Q F W D h 9 0.v v v D W v S S h q h h h F 0.Q S S S h S o.o.o.F v W y.+.W +.W N #.f N O.X.m N X.f.+.9 g #.`.K.h.d.:.d.].:.n ]. .:.O.n P d.N 9 P W m g a.W f 3 f.O.N c c a.N W W m U W W +.v q.S q.m v o.g o.#.W ! f.y.N #.,.,.d.O.:.>.K.,.>.3. .:.O.y.+.s.q.o.V w w v p w 8 7 5 5 5 6 8 8 6 6 6 6 6 5 6 8 8 8 8 w w V p w V g F #.q.W F F W o.v b o.Z G G 9 W F c X.+.N P N m N a.a.d.d.O.P U #.O.O.d.y.X.#.K.y.h.,.y.N n X.h.d.,.:.O.O.W N X.,.a.s.N +.+.u.v V h G o.W o.W F u.E 9 T.+.W o.W y.#.X.i.,.! +.+.W m h.+.P U X.U N +.f.y.W m m F +.$.F v N v 9 i b F F X.$.+.X.+.+.F m X.+.b 9 +.,.O.O.! P #.O.U #.O.P U O.O.O.,.g h.`.! P ! O.! #.O.O.#.N N ,.X.n ! O.! N c +.m m F v h b g v S Q b v q o.Q S v g Q +.h q F W q v v v F W S b G b v v N F N c ",
"G q.Q v N 9 $._ o.o.Z v h w 0 5 6 8 8 6 5 6 w t 8 w p C V 8 7 w o.V q v v v v N v v F N q c F W o.W W W N N F m W N c X.X.m o.+.+.+.#.W q.W $.u.v v v D G Z V v D b g F h Q Z V V V V V V V w w q v F v v S v v v v v v v v v v h S S V S D W D b S b g g v F F b F W W W X.W b b E F F o.Q S D C A V Z V q b b o.+.o.o.o.+.8.o.G N $.X.X.W y.+.O.O.O.O.X.U } +.m X.v m a.d.#.d.J.@.O.,.:.:.d.P.P.2.G.T ,.P.P.d.O.O.h.U O.:.:.O. .>.>.K.O.,.d.Y.a.N P X.O.#.@.a.#.#.+.X.X.+.X.W #.,.X.N #.a.y.#.X.O.#.y.#.O.+.a.X.f.O.O.a.W W #.y.o.o.F q v v h w v v w w w p V v i w v v F v v b o.+.o.X.+.X.b k E ~ W W W o.o.m m o.N o.a.X.q.+.W 0.Q o.D o.S S F m g h S S v v V V V D D F G g +.s.o.c m X.#.N N N W W F W X.X.N b W o.+.+.#.o.X.F N N N X.+.o.W F X.o.W W X.#.i.,.+.+.#.W c W X.W G W W D b S S b q.G D h D A A A V w 5 w V Q F F W F b v F v v v v b b b v v W m b 0.Q h D h g g v v v v S S h v Q D S h q W b D S F W v F h q w h w 7 h Q D D 0.q.o.Q G S Q +.o.W X.W E +.+.W ,.N O.#.#.W P F +.f.y.y.f.#.c #.U O.].].].].].U O.d.].P.d.n K.,.#.! c +.N ,.h.y.c y.[.y.#.N N P N X.X.+.i.W F b g h b W +.y.W W W d.d.#.,.N d.d.O.:.U d.G.5.J.@.3.O.#.+.s.G o.v q q w w 8 8 5 5 5 5 6 6 8 8 6 , > > 5 6 8 w w a w w p w w V v m W W b v b b o.v o.q.V v Z v W X.m +.o.c W ! W N #.,.d.d.O.O.N ,.X.U a.a.W U `.O.N m }.`.X.X.O.#.O.N P O.+.U U.y.q N +.f.W v 5 V v S v g W W W E S g f.P y.+.9 W W W i.#.c m W N N U.X.c ! #.,.,.,.U c U #.+.c m F F G F S v N F F N N X.X.N a.o.X.W F +.$.c ! #.W #.+.W +.P ,.n O.d.:.G.G.g Y.n O.`.K.,.O.O.#.,.i.,.#.X.P P P n ,.O.g g m y.u.o.+.+.o.Q b Q Q o.F W h +.0.o.v g o.0.h v o.W 5 h o.Q v h b v o.X.F N N F F F ",
"h Q 9 v o.v s.m F o.Z v v w 5 8 w 8 8 6 6 w V A t 8 w w 7 q w p q.h 5 v o.G D o.q q b X.b W +.F F F o.o.N F X.F m +.m c N W +.W o.W P g X.m F o.o.b v v F S Z Q b b v W h D S V V v v v V v w 5 5 v F v v v S v S S S V v v v V S S S v S W D S 9 v S v v F W F F X.o.X.W o.+.o.o.W m v F F S Q V w 5 V Z h S b v b S v v V S S +.F +.W +.X.y.O.X.X.O.O.O.} O.y.N s.#.W +.X.U a.g.O.@.,.>.,.1.U 1.;.%X1.T O.@.X.#.N a.O.d.U P U ,.$X@.@.J.d.n ,.K.,.U P ,.O.n d.,.#.O.X.#.y.#.X.#.#.! X.#.+.W #.O.#.,.+.+.#.,.#.O.a.U X.a.U m +.o.W W F h v F v w v V v w w p Z C V v V D F v h v F F v v W o.W m Q y.+.W W E S W E X.b X.y.m F E v W E +.o.q.W o.o.o.b h D o.v v Q S v Q G b Q F G b g F q.q.N N F o.q.$.F m N X.o.X.y.y.X.X.W o.X.W X.o.X.W F X.W E X.+.q.+.O.P ! ! X.#.d.#.m F F F F W o.F g g W S S q G S V w v V V w 5 w Z S v v b S b b F b v v v v b S F m o.m v q.W 9 S F v h F F v h v q.q h o.W v D D g h W b v b g v 5 q v G V 7 7 V V h C C v V G G o.+.F c o.y.X.N #.N #.P ,.O.O.O.+.o.W #.N m a.U ! `.O.O.O.f n d.&Xd.1.@.,.n U O.P P +.+.m #.m +.X.g a.U.c g #.X.N W N W N W y.W g +.v u.s.N y.g N W m m E #.d.N ,.,.d.d.U ,.>.U @.U #.N W #.j.b m q q w w w 8 7 7 8 5 6 6 8 6 6 6 6 6 5 6 8 t a 8 8 5 5 w w 7 v S m W o.F F F g q.q v 9.G A 8.Z b y.o.X.b c +.X.#.P #.,.i.,.! #.P i.! c :.a.W U #.a.d.m f.+.N d.X.y.#.N W d.a.N a.aXU.+.c F g v D o.V S Q o.y.Q o.v q.+.y.c Y.d.+.h.#.N +.O.N +.X.#.W a.n N ,.X.W n O.f.#.m m W N c c F G b v F $.#.o.N N X.X.F q.N F N c #.`.#.c +.+.a.#.m X.P U d.Y.`.K.U O.$XO.,.#.P O.,.#.! X.O.#.X.! ,.#.m #.n W N N ,.N c W m #.q.o.F F j.D W F o.m o.o.o.o.h S W v W y.D D v S v q S +.F g b F F F W X.X.",
"Z 5 v q 9 F F m b F h q w w 5 8 p 8 w 8 6 5 w w w A Z w w G G w S D h v Q D D u.v s.F v Q b S u.#.v +.+.P c +.N g #.! U ! ! :.O.N m +.0.~ S m 0.+.m W D g v S v v h v Z S Z S w V V C V V a w w q 7 V G S v S S S S S v h h V Z G v v v o.9 F v Q h q v S D D b W b +.u.S v D b o.o.v g o.u.q.o.G q V w q Z h v v v S G G C C Q o.X.W m N X.#.#.y.O.O.,.,.O.O.O.X.X.$.X.X.#.N N M h.h.3.#.+.d.U >.@.].3.n ,.,.U } h.d.#.,.P n ,.].sXn @.K.1.U i.d.K.d.O.U d.U O.i.#.! ! O.O.#.i.#.d.d.#.#.O.P P W y.a.#.O.#.+.N N #.#.U N #.,.X.o.Q u.F 5 q h S w q v w 5 V Q h C w w q Z o.q q o.Q F v N F F F W N W c u.#.F X.F F v F X.c m o.m m N W E N F o.o.F F b h v Q Q o.S v D Q W Q +.0.m F +.0.q.o.W v F o.G o.9.W q.X.W F c #.#.#.X.,.! N g W +.N W P W ,.+.+.+.P P #.f.#.N P y.m u.W W g 9 v F S F m S D G D Z V v Q Z V w w w w V V 8.o.v v S b N o.F m v v N D Q b F o.g b v D v v v v G v w Q h 0.0.D 5 W b W o.D 9 S q.q.o.v h q 5 5 w 0 w t 8 V V 8 G V Z b _ i N N X.X.X.o.X.m X.O.@.#.,.O.U +.+.+.+.! g N d.P.O.K.,.d.3.n G.$XP U d.:.#.f `.+.O.N F m m q.a.m q `.X.N #.X.h.#.X.c F m W F X.W m m X.a.f.y.O.N +.N N n c X.X.O.U O.O.n n U O.O.U U ,.d.+.N +.'.h 5 v w 5 8 8 8 6 6 8 8 w w w 5 8 8 w 8 5 8 V w w w q q w h v v v o.o.F F q F q G o.F v v v 5 9 o.o.W E W y.P +.P +.m N f.i.#.O.! $XO.:.K.,.X.a.d.,.a.N E b +.+.q.m E n X.O.E N y.f.z.v _ q.S Z G o.Z h S W m o.g E #.a.#.W a.a.+.! +.#.X.P W N W X.#.,.y.y.y.+.X.X.X.+.+.X.F b v F b v v o.W +.X.q.W q F 0.v o.W W +.a.a.X.m f ,.d.O.+.#.! #.i.Y.y.! O.! N ,.M <XX.U d.n X.#.#.n ! #.N W +.B `.O.O.n N +.N #.U.O.X.#.X.o.#.W b W +.W b b F D q Z Q S V h v o.S v v G h h o.v q D D F m W y.b ",
"q.q v G F G W +.q v V p p 7 > 8 p p p 8 8 7 w p w C V w w S G h G G V S Q S v o.W u.m m t.0.+.+.X.X.m f h.h.d.f.N X.n U O.O.:.:.#.N E E E W m Q E h Q Q h h D o.h v v v V v v v v V V p t w w w p w V G S S Q Q S S S S S S V v F F G N o.v o.v h v o.G h v S h 0.F W o.m S o.o.g S S h b W Q q.Q w G v 5 v w v w w v C G G G G F F W X.+.#.#.! +.,.,.O.P U O.a.#.X.+.W X.y.#.a.a.a.X.+.+.X.a.a.h.O././.@.,.,.,.O.d.d.:.,.#.! O.a.].U ,.d.:.T d.,.d.d.,.n O.U ,.P P P ! O.O.P n O.O.#.#.O.O.O.O.a.a.,.+.X.O.O.O.a.a.#.W W O.+.W q.o.0.b 9 h v V v h V G Z V C v G S Z v Z G w v G G G F F b S F F N q.N +.X.o.a.m a.$.m X.a.q.m P W X.#.#.X.F F W F G G v F W G o.W S F W Q o.o.Q h b o.o.o.o.Q G X.o.F G o.N +.X.o.#.X.U.f.d.,.g N U.f.K.U.N O.#.P P n ! d.,.,.N +.! ! O.u.v W v F D Q q.o.h g S S S Z D Z V v V V V V V w w w A Z Z ` 0.G b o.F F N N b F G o.b m W b o.b G F F v w F v v 8.Z v S F g +.W D W o.q h b F W v g o.q 5 5 5 w y t u V a ` p b b _ F F N X.F m X.#.N } U N } #.3.,.X.X.U X.i.a.,.,.O.O.d.U O.d.T >.,.aXa.U U d.,.+.#.N W q.N X.'.s.#.W X.q B m o.m a.X.c W v b g m N W X.X.W m m N N #.+.#.#.#.i.W d.#.O.P N d.Y.,.a.#.P U ,.,.O.X.z.S q w 5 6 t 8 8 8 8 8 w w w w 5 8 8 8 w 8 w V w w w w w h h h o.v S v F o.S G o.F v v F G o.9.W 9.D v v F +.E W m o.! O.d.,.,.! n K.G.].P.O.g U N n a.y.y.b b v Q Q +.m ! g g +.N N v.o.v b F Q G Q G v v D b m g E +.,.,.U X.a.+.X.+.+.! ! +.N N W +.#.X.W X.o.u.s.+.F W W F F v v v F o.o.v W F o.F q F y.0.o.+.W n W d.d.,.i.,.O.N N P N ! d.O.P O.#.,.O.N :./.O.K.jXK.X.c U q N y.X.N X.F n U U } #.a.,.n ,.m m +.y.a.#.m +.o.W F W +.o.D Z Z h q v v w w C V v G V v o.v h b b W m m +.W ",
"8.w G o.o.W N X.v N v p V p 8 8 8 8 p 8 w w w p h h h w h V V V D G S G o.S h D v q.0.o.W W y.+.F s.f.! y.N N #.d.f.:.,.:.n P O.O.m W O.t.f.u.T.E m D Q v g S D m Q S m G S h D h w w w w w w w w 5 q v h S S S S S S Q Q G V h v X.o.N o.F q.N v o.u.o.V G 8.Z 0.F S F S W o.o.y.s.u.+.Q b S 0.F v q.8.V v q w w w w h S G G Z F W X.o.+.+.! m N #.d.#.! O.#.X.y.+.#.N m X.X.#.a.+.m #.#.X.+.#.,.I 3.5.X.O.O.U ,.,.a.a.i.d.,.P O.O.g O.d.d.,.1.d.:.:.,.n O.U ,.,.,.#.#.,.d.i.O.O.n U #.X.#.i.:.#.W N X.#.#.y.h.a.O.W +.#.+.X.X.y.W +.b g b v h Z S S Q 8.V w C A A G v v V q V w v S S b i v v X.N y.W X.X.#.a.b $.o.b W +.W m X.X.X.+.+.! N N F b G W S F G b o.Q F S D o.o.Q 0.F W o.Q W Q W o.o.o.F F W b $.X.o.#.W d.#.+.X.#.,.,.! ! #.#.K.K.i.,.! X.,.O.O.#.#.,.f.i.T.W W u.o.v g m m D u.D F D D D D S v w w w w 8 w 5 5 p p p G 8.F v F P X.o.W F b F F +.F o.X.q.b F G s.q.o.o.Z V G v h D o.D u.0.0.0.u.S D S D 0.W F a.o.v q 5 5 8 u w V a ` p Z p _ F F _ _ N B N #.#.+.X.U X.#.,.,.X.! N P #.f.i.! g #.:.U O.K.d.3.:.}.n #.#.g X.O.d.U #.U.F m q.9 9 X.+.y.a.X.`.m +.N c $.b F b W o.O.#.d.f.y.X.N f P N ! +.#.#.n n N d.f.#.f.Y.O.d.d.,.! O.i.i.+.+.S h h q w w & w 8 8 8 8 8 7 7 5 8 w w 8 8 8 V w w w w w v w w D v G o.o.9.F G s.o.F G G v v F W o.b S F b E g ! g P o.#.,.O.i.f.! :.,.,.O.g.].c I +.f.W E o.T.D S o.o.h W g +.a.N q h.s.v q G Q A G G V v D b v c E N O.f.#.X.a.y.#.#.+.N m P X.W X.#.#.X.P W F s.j.o.b F W v b W +.o.v W W v q.$.o.X.W o.0.y.E W W P ! #.O.P i.W N N n N ,.d.K.g g W E O.a.X.O.O.O.d.h.P g X.d.g g X.N m X.+.N O.n X.#.O.a.n m n X.y.#.+.o.N +.W b m E o.o.S o.Q h w V V w w V V v A S V o.V F m v Q F v Q W ",
"v Z u.o.F o.m g W v 5 5 V Z t 8 > 7 8 w 8 8 w w V w w w h h h V S V S G Q D v S h o.u.0.g g o.E o.9 N W ! W i.P a.f.,.d.K.,.i.f.! W y.#.W E m +.o.Q S S D S D 9 S +.S h o.Q V o.v v w p w w 7 w V 7 w Z G Q 8.Q S S S S S S S Z v _ X.v o.v $.F F S S v w Z Q S W S S W W F F S o.F h v W S b o.F F 8.o.v w w w q w w w V A Z V D W X.X.X.X.+.+.X.+.#.#.,.i.#.N +.X.#.X.N W B m +.+.N +.o.#.X.X.@.,.g.,.O.d.a.n d.O.,.f.i.d.d.P d.O.P :.,.,.O.n ].O.P ,.:.K.O.O.,.a.,.X.O.a.d.,.i.! #.#.P #.d.! y.#.#.,.,.+.X.O.O.m N a.d.X.N X.+.F +.W b F v h S G V V G V w A Z S A v v V q V v V Z F F F F G q.v +.F X.+.q.X.+.q.a.+.X.W N q.y.+.W W W W F W b v F W v v F v Q o.W m S o.o.F o.Q D o.F m Q W o.o.o.F W X.N q.y.y.q.N #.X.+.O.#.d.n ! #.! d.i.O.,.K.d.,.,.O.,.i.O.#.y.W d.W W o.W b F W m b q.S D Q Q G D Z S V V p w 5 w w w p 8.8.G o.+.W N P X.X.W b b F F q.W o.W q.F G F v S h S V V G w q v v q g v D o.b q b h g W S g 9.o.v h h 0 3 5 w V 8 A p ' b b b F $._ F X.X.X.#.+.O.O.O.@.O.O.X.! ! W N ! #.#.,.`.:.d.:.O. .P ,.].O.h.#.n K.+.`.a.y.a.N N s.$.m a.+.X.U c h.N X.m W h.o.W W q.+.W P #.f.f.#.W P W N O.#.+.y.+.O.N ,.f.! U i.#.P d.Y.,.P #.i.+.q.F v w w 8 8 8 t 8 8 8 6 6 8 8 5 6 8 8 6 8 8 a 8 w w w v v v w F v 0.9.+.o.F o.G v v G G v v F S W S Q W b E m #.m c ! #.! W a.i.O.#.d.i.U d.K.`./.d.#.W W W o.q.D +.W g +.n f.a.#.g $.q.o.b V V S G V h D Q v b F W g W U.h.a.m N X.#.#.X.X.+.+.#.,.#.#.#.+.X.N o.W b b W F g b q.u.u.b o.+.W f.q.W +.s.u.Q Q b 9 m d.`.i.O.:.i.#.+.#.n g ,.#.P m f.iX}.i.a.,.d.,.}.K.U n O.dX`.N q N X.X.o.X.d.#.N #.,.N O.#.U W +.+.X.W W X.F F F b m F D D V o.Q S V w v o.w V w Z S V G V W F v W b g W m ",
"q ` s.o.F W m N F v 5 5 w p 8 8 > w p w 7 8 w w V w w h v w w h V h V G Q D S m b F W W h b o.9 '.m U ! P g O.O.! #.P U ,.,.:.P ! W ,.O.m N g E F u.W S Q 0.q.g b W g q o.Q v D Z C Z G A V w w a 7 w G Q Q o.G S E Q Q D v S o.G F N N X.g o.W Q v v F S v D W F W W Q W b v m u.o.m b o.o.W 0.9.G v v 9 q V v q h v h h V S S v F o.o.W o.u.U.f.+.P ! O.#.#.,.U N #.X.X.+.W X.+.+.N X.m +.X.3.:.d.d.3.,.g.d.P f.N O.f.#.O.,.! O.O.d.d.:.O.:.,.].O.P ,.d.].O.O.P ,.a.,.,.d.a.#.d.,.d.#.n #.d.n #.a.a.y.y.,.+.X.+.N X.a.a.N n X.X.F +.o.b F b F h Q V q S S v S G D G V G Q h S S V v v Z G Z S o.g +.W X.o.$.W W q.f.F W y.W X.y.+.W ! X.X.X.X.G N G W v v G F W Q D v b Q Q S m b h W b v +.Q W G o.F W W m $.+.+.X.c O.X.:.,.n N N P #.#.X.O.O.,.K.a.#.,.X.#.,.X.O.#.m #.W ,.m N W q.q.F g W h S o.o.Q D Z D o.o.Z w w p V V 8 8.9.G Q W F E P W W N F o.o.o.F b W c W W +.F v D v v S S G V W Q W S h D q.u.F S +.W S q.q.+.F v 5 q G C 5 & 8 t w Z p ` b b b _ q.N F s.$.X.N N U X.O.O.X.X.o.N X.#.W N +.y.q ,.n :.:.,.d.d.g.O.,.].O.n K.O.N +.N N N q c N y.+.+.B X.+.a.m o.W q.[.W b F o.y.+.W N N E X.+.+.W m y.y.W +.a.f.U O.i.#.#.#.n n #.K.,.N O.i.W z.o.w 5 5 5 d { 8 8 6 6 8 8 8 8 6 8 8 8 8 8 t a 8 8 w w w w w w u.G F b b o.G +.F G F v v v W +.o.+.F D b v +.0.y.E f ! a.O.W i.i.O.U d.d.,.O.g q I #.O.y.f.l.q.o.S 0.o.m y.f ! :.,.q N G o.b q h G o.V h o.0.h F W O.c W U.h.y.m N X.O.X.U W +.X.a.i.! W y.y.P N m v b F N m m X.o.F $.X.U.s.o.X.N v W u.0.Q o.y.g f #.d.O.P X.#.,.+.#.P ! d.P f W K.Y.$X! ! d.P n K.#.g n n #.W c m +.a.a.+.N #.I 3.d.d.#.U ,.a.+.N P ,.a.o.N b F W W W W D F q Z Q S V w w G w C v C G V D S b F b F b b o.m ",
"V Z o.G F b v a.g F D V V 8 8 a 8 C A p 8 8 w 7 V h w h v h w h D h V S S S D v m b E o.m m +.m c W #.#.U.W #.iX#.}.].K.d.:.i.,.y.! o.! #.u.+.y.g l.+.F S S o.v b F g q Q Q v S D V V G A p w w 7 > 5 v V S S h S W 8.q.o.S V o.o.F m F $.c X.W o.G 0.s.o.v D o.Q o.W F W m v W +.+.W v h q q S +.Q v D S v G q w h v S V V G o.v F o.o.F F o.u.#.X.O.#.O.P O.a.X.N X.N W #.X.X.X.m B a.X.+.m h.#.:.X.,.3.O.O.U d.n ! i.W N +.X.O.U d.,.d.d.d.K.d.,.O.,.d.K.U :.#.a.d.i.,.d.f.d.! O.#.! N ,.f.! N X.+.X.X.,.a.,.#.X.X.#.+.U X.i.$.F +.W g v F 0.q D D v S Q S v G C S z G Q h V G V w w v S v q v c q.W W N o.$.W c W N #.s.v b X.W ! +.+.X.W W o.W o.X.F F o.G Q W F b S W W F b W h W S h 0.D F F X.F W N c X.W W W c O.W X.U P.#.iX:.#.].! $X`.f.d.O.O.i.O.O.#.#.i.a.W i.o.U.+.+.W F W b b 0.g b Q o.D S S Z S G A V p V V w 5 p V G D g g +.#.#.X.m F o.o.W W W +.v X.X.+.F u.z.o.F D S G G g v v S 9 S Q Q v g D v q W Q o.q F F b D w 3 V w a 7 V p ` b b b N $.q m h.$.X.X.N N U U X.X.X.#.m X.a.O.N W W N `.O.O.n ,.:.P K.q ,.`.U g #.W W h.+.+.a.N B X.#.X.h.#.a.h.a.$.o.F #.U.v b F F ,.o.W o.+.+.W W W m m #.#.m P O.g P #.,.,.f.y.N #.O.,.#.! i.f.X.u.G w w a 6 , C 6 6 6 8 8 8 8 8 8 r r r 8 t a a a a p w w w w w s.F g q F +.b b b X.o.F v v F F F +.W W b v Q W X.o.m o.K.,.O.,.d.:.! O.U ,.,.@.c ,.`.#.! N F g S b W X.! f.P ! ,.+.c X.F v v v S 8.0.S v 0.0.g b F +.N W a.+.X.+.+.X.P m m U O.X.a.i.W P #.#.m N m N X.F c m X.+.#.W a.N a.$.+.b m b F b b Q u.y.W k N O.#.N f o.i.W O.i.f.`.! ! W N 9 o.f N d.X.O.].,.U ,.U m c N X.$.+.o.X.X.X.O./.#.O.d.X.X.O.+.W ! i.a.X.E F F F W o.0.D g h S V V Z V w v v G v V Q S D D h b m S b F +.b ",
"Z Z D v G F c #.b o.o.G A p 8 a w Z A a 8 w w w h h h h V V V h Q v v v h S W v m W Q 0.m g o.+.$.y.y.+.}.a.! U q #.:.:.O.P ,.K.H.,.#.W ! o.m m g f.W F F 9 S v W W D F D D D Z Z v v V V w w V p 7 w Z S D Q W E W o.0.o.v v G X.F N F y.F $.N F b o.q.W v v b W Q b m W F b o.S +.+.Q Q o.0.s.F F v o.o.Q 0.v v q w S S v V o.F F F W F b N W N W #.,.#.O.! X.#.X.X.m N o.N m F m N j.X.y.c #.:.d.O.,.d.O.#.O.,.X.#.#.N ! #.! }.,.d.! d.a.O.P #.Y.a.#.,.d.N d.d.,.O.O.#.,.i.i.N U ! ! X.#.,.,.O.O.O.X.U N U O.#.X.U U X.O.#.a.y.W #.W h m S +.v v S D S Z D V G C V w C G w V 8.Q Z Z G Q G G b F u.N X.N F q.q.m +.o.a.s.m #.W W X.+.O.W F W o.W o.o.F F o.G o.W S F W W W Q o.q.b o.W h q.b F m F F X.W B $.,.,.,.W d.,.:.O.#.X.`.:.#.d.g O.a.O.O.O.,.P.d.d.P #.#.#.! #.n a.N X.W W o.W F W E E E W D F D S h S Z V v V v 7 w V Z o.0.F E y.,.,.#.N m F W F +.+.i.X.$.F W b v q.F v F v G o.v b F 0.v o.+.Q 0.F o.Q W 0.o.o.q $.q.o.o.w 5 G 0 V w V 7 Z S F b i X.c m y.F o.#.X.X.X.X.X.X.O.$.m X.y.N m U c c f.! #.P K.,.,.#.3.].O.P ,.`.N #.+.q 9 m N a.`.f.+.h.W B B o.a.+.N X.a.g W q.W m m m +.u.#.N g W X.N #.#.W o.P g #.O.n P ,.d.K.f.! O.i.O.i.f.#.D D w w A 8 & : 8 8 8 8 8 8 8 p 8 8 r r 8 t a a a a V a 8 8 p V 9.b b b W o.v v q g N o.o.F G o.g o.Q W F b E f m a.! O.d.#.+.#.W ! f.K.O.d.,.].,.} X.n #.o.Q g F W m N N f.d.d.#.+.X.h.F v F V Q G Q G D Q Q v v c W N E X.m N W W W N P X.,.a.W +.#.O.O.+.O.N N N E W E N E X.W y.y.U.g N m y.o.N W W h m o.~ m m m O.f.].d.O.,.Y.#.d.h.#.,.c #.N O.m f.X.#.P ,.d.K.#.X.,.+.W X.W F W X.N N $.#.d.a.N N ,.#.W c #.#.X.+.X.E o.b m F W Q o.S q S S h h G A v v w G w v G v S D v h h W W b o.b ",
"Z 8.o.v X.u.m m +.o.v i Z C 8 8 7 Z G a 8 8 V V w h v w V Z S v o.h h h q b o.b 0.o.m o.o.N X.X.o.X.h.#.W #.}.d.d.:.n O.d.,.1.,.! X.i.#.W W m N h o.9 S +.g F D o.W +.o.S b D D G v h V V v V ` p 7 q v h S W S ~ E S D S h v G N X.X.N u.$.u.v o.b S F F o.Q h m S g h o.Q m W m o.Q F Q o.Q W b v 5 v v F s.q.D q 9 V S h w S o.S m F W o.+.y.o.X.P N ! ,.#.P #.W X.N W $.N c +.#.X.X.q a.N +.U g.O.} O.#.,.N #.i.d.O.P ,.i.P i.O.i.n ,.,.#.,.,.}.a.! ,.f.n d.d.,.#.d.K.f.#.! y.#.O.#.#.m c O.X.N X.y.#.U X.d.#.#.X.N U O.O.U #.W y.+.F m v S o.g v D h h G G o.G D w V D w S v h h v V S S S q.+.#.v $.X.m X.N #.U.g 9 #.F +.+.O.O.+.X.W X.#.W F X.o.F F G F 0.W S W o.W Q +.W +.v o.W m u.b N m F F X.X.N a.O.X.X.n a.,.3.#.,.K.U a.`.d.`.,.N U a.,.,.d.O.X.O.a.#.O.! X.q y.c E b c F W W o.y.o.F F W Q Q S v Z D V V A Z v 5 C G F o.+.X.W N X.X.N m F o.X.X.N #.#.y.m N N c u.o.D G v v q h h v o.q W W m 0.b o.+.+.0.b q q m q F z.u.h w 5 V V V 5 V V ` F q $.o.+.q.m #.W N U O.#.O.O.+.N m +.+.q m ,.X.X.y.N a.U i.U d.#.,.O.} d.N #.a.,.W N $.+.X.q.N W c W X.#.X.a.#.f.X.W #.q q.j.W W +.y.+.E m E #.W +.b m W o.+.n ,.i.P ! f.i.P #.i.N O.f.O.! ,.#.0.q.v & w a 8 r 8 r r 8 8 8 8 p 6 6 6 6 6 8 8 8 8 p V a p a A o.0.W +.F v b b q.a.W N o.W g v +.F 0.W m b W 0.b N U.+.N o.E O.#.i.W d.K.O.K.O.`.O.M O.X.y.c S W F y.N N n i.d.O.P #.a.U.v v o.w Q h v Q Q S S S g 9 m m m m g ! a.d.a.#.X.W N m m n N #.#.X.P W W N c c W y.+.m W o.W U.m o.W a.#.c b W S o.t.h Q v g X.,.O.U U 9 i.#.K.K.n N N ,.g #.P ,.! d.c a.d.O.P #.i.+.m X.c q X.f.+.F +.,.d.N X.O.O.a.W U #.P n X.O.m E g F +.o.F b b v v V h w V V v C w G q w S h h S W h g o.o.v b v ",
"Z G Q q v +.+.F o.o.Z q 7 a t > p p a w 5 8 w 5 G S w w V V h S S G D h g b F b s.W F m E #.+.a.+.q.+.#.h.#.N U #.U P.,.K.P.d.O.O.O.y.! d.i.W 9 X.X.o.F q.g Q q.q.o.b o.b u.Q v S V S S V V V V C p q w V D W S m F D F b b F $.B `.c F f.y.c X.N W o.F g W Q 5 b h m b o.o.9 g q.W h h S W W b b q q.s.v F o.v 0.h q v h v S q o.v g W o.W Q 0.W y.d.:.P P #.y.+.X.N W y.#.W W F X.X.X.W F W X.O.c d.n #.,.K.#.,.,.O.O.,.#.! ! ,.X.! h.,.O.f.P ,.i.O.O.d.#.K.,.#.#.O.! ! ,.,.#.O.P ,.,.,.:.P O.O.O.#.#.O.X.O.y.d.X.,.a.+.X.N O.O.,.o.W X.X.F F W m m b S S D G D Q h 0 S S h S S D Q S o.S D W b #.#.X.X.o.X.o.N +.s.o.W #.o.X.W N W #.#.#.+.+.W F F F m N G F Q W 9 v F m +.Q v D Q W S D W W $.m g +.#.W +.X.+.N n d.,.K.3.3.,.O.K.,.P n a.X.K.,.,.&XK.P O.,.O.O.Y.i.n f #.O.,.+.$.m W a.o.a.o.W W W W F F Q D o.v 9 G 8.V w v v S Q o.F m n O.P O.g X.q.m '.c O.W i.y.n X.q.W N b F F 5 W v h o.F F v v q.m W v Q o.o.S q F W a.F F F v D h w V w v w 5 Z G F m 9.F o.F o.q.h.+.N X.#.+.O.O.+.o.q.q.+.o.o.F y.N U X.P #.,.g U O.#.O.P.#.+.h.O.+.f.c m a.N X.B aXa.X.a.c s.+.W #.s.X.W o.F +.m m W 0.+.S m b E u.S +.E o.u.,.i.N N i.K.K.f.i.f.d.#.P O.,.#.y.z.v b 5 C A $ 6 d ; d 8 6 8 > A t 6 d 8 8 d 5 7 Z 8 ` w w w G 8.s.N o.9 o.#.g X.#.c y.W c $.N b D u.Q F o.o.o.m m m P O.,.,.,.,.,.P ,.:.:.O.I d.O.O.d.W m y.+.W c #.i.#.O.O.O.:.P #.a.#.o.o.G v h 8.G 9 u.W b o.F g 9 y.E q f P y.#.K.y.X.9 W #.n m N +.O.N O.#.W X.n W +.W X.+.N #.X.y.f.#.#.+.X.X.F W Q b S t.S +.+.O.+.O.U U E o.#.n #.a.N ,.O.#.#.E N #.h.f.#.N ! #.i.y.N W u.W m X.u.q.o.X.,.X.O.#.X.#.a.O.,.U W +.! N N E b b F E S S S S q v Q Q v w v V q G v 5 S V 9 v S S Q 0.W g v W ",
"8.v q v v v N #.b v h 7 7 p a 8 w 7 8 8 7 a C w h v w h S V w v v Z D V S Q o.o.+.F E m W #.o.+.N q.+.P X.#.i.Y.d.#.].,.O.U :.d.N f.N 3 i.! m X.q +.z.F F v v g +.o.b W g o.o.+.h v o.q.S 5 w q.V p w v S Q Q o.S +.F b u.+.F a.m y.N N 9 X.#.q X.m F o.F F o.W g S Q h v Q Q s.g g h S o.0.0.0.o.F +.o.v W q.D o.h v S v S D v o.F F +.o.F E o.y.#.! W O.,.#.X.N +.+.W F F +.j.+.+.o.o.o.o.o.X.f.d.jX,.#.P #.O.#.+.O.O.,.:.+.d.#.P P #.O.X.,.X.O.#.#.#.f.O.,.n N U P P X.#.,.#.! N ! ! ! O.! ,.X.X.+.+.X.N U O.,.U y.a.+.X.X.a.! #.X.m m E Q q.v g v D D S v v S S S V G D V v S Q o.v 0.Q o.o.+.X.c b u.f.X.c W X.y.W N X.W X.N N N ! ! W W o.W F F F v F G F W o.b o.+.W o.F b W o.W S F W F W F N $.$.+.a.O.N U O.P.:.:.} O.d.M O.,.a.,.K.O.h.g.#.n O.h.:.#.O.g n P ,.n W a.y.P W c m o.W $.N F W s.z.q.b 5 o.q.G V S h w Z w v F o.+.#.#.,.O.N i.P #.U.v q.X.,.W +.+.c m N X.m F q.u.g W v F b h 0.q.o.Q 9 h 9 b D Q o.F +.X.X.c N $.o.G v h h 5 V G Z A w v _ s.v N o.$.X.+.W ! #.,.O.X.X.o.v v o.y.j.u.N y.W O.,.! #.d.#.LX:.O.h.K.#.,.n O.W y.q.a.a.m N c a.X.N +.c q.N m N +.+.+.o.v W E m g F +.0.o.W g E m u.o.W Q X.N O.,.O.! ,.a.O.N &XP P `.O.! #.W W v v V w 8 A 6 a a 8 8 w p 5 t 5 a p d a 8 A Z > V p F S Z S o.#.U.N N g q +.o.m u.X.F y.N W v +.F v m h E m +.o.X.! O.#.y.d.! O.,.,.K.d.n O.d.O.+.N ! d.o.E #.#.#.,.,.O.U ,.U O.,.+.W W D F v D F 9 o.v v o.v o.+.T.o.m E o.y.N X.+.f.+.#.W #.+.O.,.#.W W W +.#.O.i.y.X.a.a.X.#.X.y.a.+.! P m m v F W v g S u.y.~ W O.P n X.! P O.,.,.m g f.N O.i.! g f.iXa.X.n P W O.#.O.d.u.X.N W W F F F #.X.#.#.U } O.U X.N W X.W X.+.o.o.W F b v v F W o.S S V w v C v w G Z v Z S v Z v D D h g E o.o.",
"Z v v o.W c g N W F v p p p 8 8 p 7 8 8 a A G p 7 w w v S h w V q v v v v b b v +.X.o.m W y.X.X.y.u.W c #.f.O.f ,.N :.:.:.U O.O.n a.X.`.Y.P cX! a.E W 9 F W v o.F W P W F o.W W u.u.o.h v G Z q q 8 w p V D Q o.F +.g v U.a.m a.X.U W a.W ! y.X.E W W m m 0.u.E +.Q S 9 W u.S 9 b D W W S m m b b m N W F F F v W v S D S S D S v v W 0.o.b S o.y.o.P m o.y.+.E m X.W v m N m N +.X.W W W W F m f n ,.f ! U #.,.X.O.! E o.O.+.f.i.O.+.! W +.+.y.a.#.! N #.W a.#.U ! X.O.#.,.,.#.,.X.#.X.! O.! ,.#.#.y.y.#.X.O.#.+.N y.a.+.X.+.h.O.#.#.P m m W +.b m W o.Q F b S S h S S S S S m D Q Q g o.W o.F W W F W q.o.F W o.W $.W N W F +.! W ! ! W N W o.W F G W S F D v D o.Q q.q.Q o.D o.+.+.o.W W W W N W m m n W f.#.,.O.U @.n } :.g.O.N a.d.,.I ,.@.:.d.d.I 3.d.c ,.d.K.d.O.{.K.#.O.#.m X.+.F X.W X.N X.m W W F f.T.Q S h S o.v 5 q v v F o.o.X.+.,.n O.$X,.W i.c W y.,.! X.O.W X.N X.m F y.j.b W v S S Q s.D 5 b o.q.o.q.o.Q o.S F c +.s.X.F F v Q h Z V G Z v V q G o.s.v F $.+.W N N X.,.#.! W o.+.S v v v G X.F $.N X.+.c c O.#.d.g c O.K.O.,.#.+.W W +.a.j.a.q.X.X.W W #.X.U.y.W m o.q.q.o.b o.W m m m E Q E g W W m u.o.W Q y.! #.,.O.+.U.`.+.,.h.O.O.i.#.i.#.N q.v G G p p > > Z > 8 p w G 5 a 5 w 8 7 8 5 V G w 9.F F b o.q.5 m u.+.f.+.W m X.W #.E X.y.E $.W q.Q o.o.F Q o.X.W ! P N ! ,.d.H.i.d.d.K.].d.,.{.3.#.O.+.+.b m m q g ,.P.:. .d.O. .! W m v V D S v G v Q h F o.b o.b o.h W o.N +.W O.X.#.N W W X.P W +.+.W N N X.! O.d.O.N i.,.O.,.X.,.d.O.U m u.o.v g m m E y.u.o.E O.y.O.X.a.#.W f P d.h.i.P P i.X.E a.#.! `.i.#.d.,.! P m +.W W W o.W b D +.U U #.,.X.} O.X.#.+.#.X.P +.#.W o.W F m h v S W Q V V v w v V v w C Z V v v V D D +.+.W F W N q ",
"w 8.0.o.F G F 9 o.F S Z C a t a a w p a a C Z v w V h w h w w S v F D F S G W F #.+.+.m N #.X.W b +.y.y.a.f.i.#.d.! O.,.K.d.d.:.n ,.N g O.c #.+.h.c N b s.j.q F W W N N W Q b g S q.q.v w Q o.V 7 7 w w v D W W W W c N j.#.m #.W U B X.#.N c y.+.#.X.m F u.y.b v S W v W o.v v S F F b v m W +.F W N #.s.F b +.D S S W S S S S h h D o.Q b F +.W o.O.W ! O.#.o.m X.N c X.u.q.+.y.#.$.+.+.o.X.W i.d.i.c ,.#.,.i.`.U.i.+.:.W E #.f.y.a.W X.,.W f.,.+.#.+.f.+.#.W #.#.#.#.#.,.,.#.P N +.X.! X.N ! U X.O.+.X.W X.X.#.U ,.y.O.O.O.a.P O.,.#.E E W W F F b b v g v b S h S m 9 h Q F Q F F v q.W F N m X.y.o.X.q m y.+.F +.X.W X.W y.+.O.+.O.X.X.X.X.W F W o.F F F v S F F Q Q W o.o.F D F b v v v b W X.W X.X.#.h.a.:.U U :.>.,.>.O.@.,.{.K.,.U a.d.U @.,.3.K.O.c ,.f O.#.g #.,.a.+.,.m $.s.F N $.$.m ,.W o.F q q.q.q.Q S Q 8.D h w i v F W W N P O.n O.d.O.P y.+.c O.! P ! O.,.a.+.o.N +.o.+.F o.b o.v h W S g S Q h g S v b o.S F N +.y.c F j.W v v Q S V w q V v 8.F o.X.o.o.F +.W W X.+.X.W O.y.v h W q.u.u.a.#.s.+.#.,.N c O.d.N O.d.,.d.:.h.U.a.d.X.B m $.s.F h.X.X.N m B q.W #.W #.+.W o.W +.+.u.f.y.+.+.o.E W W h o.m S m o.+.P U O.#.d.d.O.K.N f.! P K.X.#.d.U.c q q v Z w p 8 & w V 9 v v q > w q b o.G o.b v s.G v c W o.a.#.m 9 W X.#.m o.o.o.m W +.N u.W Q v Q y.W F m m W X.P N N ! X.H.! ,.d.P J./.O.P c c U ! m b u.y.U U g.].,.O.d.,.O.P W S h v Q F q o.o.o.v o.o.o.+.v W m +.y.m +.#.#.! N g m #.#.W +.,.y.y.#.a.#.! #.h.O.P d.,.O.,.U #.d.O.X.N N F F W o.b h S W W W #.d.,.:.h.,.d.O.#.#.#.i.q #.,.P +.K.N 9 Y.P ! f.f.y.+.N +.m E +.u.q.o.o.u.N U #.,.#.O.+.#.#.O.+.+.P N W m b b F F S b v v w v G Q v w V V v v V V h v Z S h g b o.q.W F W ",
"v s.0.v v W u.m b v v V C V a C w 7 p p 7 8 p w w V V w w q w S w v v S F o.+.$.X.o.#.W W y.! N N N ! X.! +.d.P.,.#.U P n U O.P i.N dX#.d.Y.3 m #.+.s.m N a.q g #.+.N g m m b o.o.S D q.0.v 5 q V 8 w w S Q W D y.F X.y.q.+.$.o.X.,.X.q m W N W Y.W c #.f.O.b Q o.S S m F F h o.W F b m b D o.q.N y.N F +.N o.f.W W W W W S v S D S D Q W S S W m Q +.+.O.O.o.o.o.s.q.b b W +.u.+.q.+.+.W W W W g O.X.g P n ! ,.u.#.E W y.o.E O.y.+.y.W X.y.W a.y.W #.X.i.! P m ,.#.O.X.O.O.O.O.n N #.#.#.,.O.,.N W X.X.X.W W W ,.N +.#.X.+.O.#.N P O.#.! O.+.N o.! F F S S F o.F h S S q v o.W +.m b W f.X.W o.+.X.o.N $.c N o.X.b o.+.+.o.W y.O.X.X.X.+.+.W N W b W o.G F F v b v b S S F W o.W F F S b b S F N N N a.a.#.,.U d.O.>.:.>.@. .M g.I n n K.}.P.n O.,.n O.@.@./.O.<Xd.d.#.U c #.y.,.N X.q.c g q.h.E X.c W +.E W q +.q.0.D 9 9 v D 9 w S o.X.! O.:.U P.K.K.,.#.[.#.P N ! ! U ,.y.+.X.X.a.F F F +.b v h F W F D F b v v o.W +.s.q.u.N N X.c X.z.o.o.W F 5 7 V S G w G v F G G o.N +.+.o.X.X.X.X.+.q.q.v q D $.s.u.o.a.X.X.+.X.W #.h.#.9 O.O.n O.dXh.O.a.a.#.X.a.z.X.s.m +.X.N B a.X.X.X.y.N q F o.o.f b W S m E E m S Q o.u.o.y.E m O.#.i.#.P ! O.! #.! i.n d.`.9 P N a.O.F q G S ` o.w V v V m 5 q b i V 9 b q.G c F F j.W o.q.$.g i.#.X.g c g +.N X.+.O.N X.X.N #.W W v W +.b b F W #.y.o.E N m N W :.O.d.O.d.3.} d.d.+.#.o.q 5 b W M n P O.U U 1.d.O.! o.Q b D 0.D 9 X.o.W v +.+.v o.o.l.Q W Q E f.y.N N #.y.O.#.N g W N n m c +.,.! O.d.X.P i.O.O.#.P O.,.X.O.W m W o.o.Q b h S S o.+.O.#.#.O.,.,.! n i.a.! ,.W Y.#.Y.}.#.i.}.d.P P i.i.,.,.X.y.o.+.q.q.o.W W o.+.@.#.#.#.X.X.O.W c N +.W c m E b F W W F b v h w v Q o.V V C V G V V Z S G Q D m g h S b v F +.",
"w o.v G W F q.F b v V b V p a t 8 7 p a 7 7 V C 5 V V w h w 7 h h v v v b F F X.F X.a.y.i.f.O.W f.F m N N N ! U d.f.O.3.:.K.d.P iXP f.#.g P y.m a.#.W c c $.g W E #.+.m W g b u.z.o.v D o.Q h 5 C 8 5 q V D F b y.N q.f.X.X.#.X.O.c ,.O.X.+.#.m y.P g X.a.o.m E u.b h b +.o.9 v o.Q W S b v h g 5 a.W c m N +.W o.o.Q W Q S v D D v h m S S S W W W ~ ~ #.,.O.W o.q.+.F o.W v g F F W F m v v m #.d.,.#.+.P N g ! m f N +.W m E W W +.X.O.y.#.#.y.m W c X.W X.#.#.X.U U ! ! ! O.! O.i.#.O.i.,.f.X.#.#.O.X.X.X.X.#.m X.X.X.#.+.#.#.W o.#.m ! +.m X.! W o.0.0.+.0.S S Q o.W W o.W y.W W W a.N m F y.X.o.c q.N W W N v X.o.o.o.N +.! X.O.X.+.+.X.N W b G o.G F D F S v W W W W m D Q W W Q Q W W o.X.N c O.+.W ,.O.K.d.J.:. .U ,.,.g U 3.I I M ,.a.d.K.U K.3.n `.,.3.n O.O.X.U d.#.U U o.y.N c $.#.+.W N m m +.u.s.b b Q W v S S w 5 9 v X.X.X.O.:.P d.O.O.! f W 9 ,.P ,.,.P O.X.W m N s.N m N W v q b y.D q b W +.b v D v h v q v W N X.X.X.N N j.G o.S V V V D w q v F v q o.F W +.o.o.+.+.+.+.o.z.o.v v v m F N o.N m N N N N X.K.N O.X.P g W m q 5 m X.c B F N o.W a.h.a.X.`.$.b F a.W q W +.F Q E m m ~ q.+.W W o.+.0.Q f.o.o.O.,.d.O.W i.i.n ,.i.P #.d.i.#.c n #.U X.c +.i v F F s.G F $.c c o._ ` v N q.N 9 +.+.j.m N #.a.W n c y.#.#.P W n P X.#.#.#.X.N W +.u.o.o.o.v W u.W +.,.O.! X.O.X.n $XU O.d.d.I g.,.d.U +.h.u.q.s.n } :.3.J.d.J.#X,.O.U W W S D 0.o.v G F b v u.u.b F m u.E m S m y.y.m ! d.h.! ! +.N y.+.W O.W h.#.! ! ,.! N ,.O.O.,.P X.#.P ! W #.#.W v v b Q u.S o.W N P O.O.:.+.! g X.f.K.f.+.i.N #.i.n n +.P f.+.,.! ! ,.+.f.q.+.o.F S b S F O.O.X.O.#.X.W #.X.g N y.+.n N +.o.o.Q E b v v v D v h v v V V w G V v V Q Q D D D +.+.S v b b h ",
"5 v 9 o.q.v X.c W o.G b w p 8 8 a w p V 8 8 A G w S C h V V h v G G X.X.W G F W o.X.d.a.d.f.O.O.W o.f.f.W W i.i.O.O.P K.K.].d.n U K.O.:.`.N #.N X.N c y.a.#.q b n O.+.! f.P b +.q q.u.v 9 W l.z.V w 5 7 h m S S W X.#.#.N N X.N M 9 #.@.,.W N N g +.W g W #.W b 9 h o.o.Q F m u.v m b S S S b v g s.+.#.q.W q.m o.+.W F o.D v Q v h h h m S E W Q Q W W ~ +.O.W m F F +.z.z.q.o.W W W W W F F W n N g O.i.u.h.O.Y.d.o.+.y.E f v W F W #.o.$.a.W F q +.o.f.#.F W O.! P ! ! ! ! O.P U #.N n U P O.W X.X.U N U U N X.n X.X.W #.+.,.d.#.y.,.N ! y.! m n m W o.o.W F F o.+.+.#.+.X.X.#.+.o.B +.N m m X.o.a.m y.m +.o.N m X.W W X.b W W +.#.+.X.X.+.o.o.b F o.W F G G W h W W o.+.m W S m m S F b m m y.,.X.O.X.#.P.d.>.:.].K.J.@.3.@.K.@. .} K.,.,.@.,.).g.<XK.c >.d.3.,.g.O.O.U X.c n X.W #.+.N o.F +.+.`.,.E o.b q.q.v b u.j.j.0.h q q v N W U U O.&Xd.n U Y.K.N g K.U d.d.! O.! ! N g q.W W N N F +.v b q h q.o.b D v D F b F F q.#.#.B N +.X.N N b q.8.G h 7 V w q v F v 9 o.N W W o.o.+.+.+.O.X.v v q.x.s.o.W W o.o.F N ! W m m n O.,.:.&Xd.,.].h.W f.q.c N F X.+.a.y.f.a.c q.5 X.F s.#.v o.+.F Q m g m W W m h W m m m g o.m +.! P N N O.d.,.f f.,.U d.O.O.}.N K.].9 n q W F N v o.s.$.X.$.+.X.o.F o.+.a.z.s.h.W m #.g q c O.#.[.P y.W X.W N n P W +.y.O.N U N o.q.D W W b W W E o.#.! X.,.,.+.N H.g O.U O.n ,.@.K.N n +.W W W N @.d.K.J.>.;.5.i.O.P m m v S Q o.F o.v F b +.+.y.o.m o.S W ~ W W f.+.+.+.+.c O.N f +.W P +.N d.#.,.#.d.,.X.d.K.! ,.O.,.,.P ! W c N b b W F h h W E n N #.#.O.,.P Y.}.O.E #.! #.f.K.,.#.i.m g d.+.! ! N ! u.u.U.W W F S b S S b N X.} X.#.X.W d.,.W O.y.+.N W ,.o.o.W b v m b F Q h w w w v V w V V w v Q S h Z g S Q W W o.o.b ",
"h Z 5 F W q W g v G Z w 8 a a 8 A w w a 8 p Z A V G C w v S D o.q c v F F F N N y.o.#.#.+.+.N X.+.W O.X.W y.i.n X.,.O.$Xd.,.d.d.h.g }.d.O.,.W N n a.o.o.c m m N o.W b f j.o.b G v o.0.W v S D D v p w q w v D Q N u.#.N X.X.N X.X.].`.9 #.#.m y.c #.+.P o.+.W #.u.q.+.m F o.D +.S W W W F S F F q.$.g q.q.q o.o.W o.m b o.D v W Q W W W S S E W W o.o.W P E ~ o.+.q.+.W F v F u.W F b b F W F b P O.X.#.m c i.O.X.N m W #.W P +.W W N #.W W s.g a.b +.N +.W v F ! N N W W E P W P ! i.X.! +.O.#.X.+.+.X.X.+.#.O.X.N +.X.N O.+.,.#.! d.f.W #.Y.a.#.W W o.q.q.o.W X.q.X.W #.+.W #.W #.+.q X.$.y.X.W X.s.m s.X.q.W F N o.F F X.b N m X.#.X.N P o.q.o.v F o.W F W o.Q g F F Q q.D o.o.W W o.o.W W W g X.+.+.W O.d.X.P.,.d.O.>.U ,.U 3.} @.,.d.n N g.n {.K.@.d.d.,.#.K.a.:.O.,.q B `.O.,.g g m m +.X.o.m s.E F u.b +.T.v g Q W S S v h h g b W ! O.O.O.P ,.U O.O.g sXf.c O.,.P O.O.X.y.g #.o.#.X.X.u.g q +.W b W v v o.b W D b b D j.9 h.y.N c m $.F b W v h v V Q v V v v o.v D v q.F W o.X.W X.o.o.q.S v F b b F G v F N m ! X.N m c c X.n X.#.a.N n q a.F q y.#.X.m #.N +.y.c h.c s.F y.q.b W o.F m m W +.o.S m E o.m E y.Q 0.h o.y.! +.d.a.#.O.O.P #.#.#.d.d.O.O.O.sXI $Xa.X.+.m +.u.X.a.X.c #.a.s.W o.$.+.W m y.+.g +.#.h.y.+.X.U.g a.+.#.#.W +.! N W +.m c X.W q.q.b W s.y.W q +.y.i.#.#.,.O.P O.P P iXM >.,.g U `.O.c N m o.+.:.,.:.,.3.@.5.&XP.d.O.N v v S W N N o.v W b F g v o.Q y.g h E S W h.+.+.X.O.n a.U g +.X.X.#.c #.P #.O.#.#.P ,.`.! i.,.d.d.X.O.O.X.W v v o.+.F m o.S n O.f.,.! O.W O.+.P #.#.g a.P i.#.c g W o.W O.! #.! E W c c S W o.o.o.W m g N #.#.#.#.N m a.+.X.+.+.U W #.y.b b b m m m S F S v D D h v G G w Z h h Q v 9 D +.b g v b v v F ",
"b S F S v v V V A p w a 8 C 6 C Z w 5 q p v w q v q V v q 3 W W v h G o.+.F g +.W m +.g y.X.m dX+.,.n O.,.N #.,.P U X.i.f.i.#.d.d.O.O.O.X.d.h.+.U #.W q X.g W z.+.q v b v b b o.s.q q D q.V G o.> ` p w 5 V w G G S v s.y.f.O.U ! U f f.O.g P d.O.X.U f m O.W O.0.F F F o.o.h W W W S Q W E q.W +.N #.+.+.+.b #.+.+.q.+.q.q.F +.o.m h b E E W W Q o.Q E E o.o.o.+.q.W N +.o.X.a.W +.X.m W a.#.g N F X.N m X.,.X.+.X.N N X.N U ,.X.N P W P n m X.y.N X.q.W W o.b o.o.o.F m F E F Q o.W W o.+.+.o.o.N m #.X.q.+.+.X.X.:.a.:.,.a.#.X.a.W N ! a.X.+.F a.+.W W q.s.F W f.f.X.N +.+.+.N +.b m q.+.N q.b o.0.o.o.F S o.b o.q.+.W F F F X.o.X.W W X.X.W W c m X.W F o.+.F c b F b F W F o.b b N +.q.b F X.#.a.#.X.#.,.N ,.U K.O.O.}.d.O.O.O.,.O.O.:.O.@.:.@.d.3.a.:.`.O.3.} ,.#.,.d.U X.W #.c W #.a.s.m F F q b v D s.v F v s.F v q.v o.q S h 9 q f.m n c h.d.].O.P ! #.N y.N X.X.a.+.N X.q v o.b v W o.v W N X.c N m W g W b q W +.W W $.$.X.X.g F W o.o.+.+.F b o.+.v v S F F v v F G 9.G F _ o.G o.q.0.Q W Q s.o.o.g m b N +.#.N m o.X.m m X.#.+.X.+.m m m m U ,.#.c a.X.N W X.o.q.#.+.y.a.o.m X.a.q.F o.S o.Q v W m o.S m Q +.W b b X.X.m #.N y.i.n O.}.P d.].d.U d.P O.:.d.:.,.X.K.U h.d.U aX,.n d.a.m m W y.W +.o.W 9 T.N X.#.! W #.f.a.N +.O.y.X.#.#.m U X.m X.#.F m o.y.X.F X.F m W d.a.! :.,.n ! a.c O.d.O.:.O.d.,.:.,.+.#.q.+.y.`.#.c 3.I #.P.d.#.U B W o.v v S q.b h F b b b +.+.o.Q F b b N y.N X.+.h.a.N X.M } O.O.@.,.,.@.X.#.X.,.X.W f.y.y.m P X.+.#.N m F G G F F F F b v N X.X.i.f.W P q N X.,.P g W F N +.W W g G G +.N g c h.y.9 m O.y.W +.O.a.#.U }.a.n #.N W W W #.m W o.E E o.+.W b h v S F b b F D F W o.Q F S m v W v m Q D Q W o.h h W W W o.Q ",
"v b S S v v Z G V w 8 8 8 [ t 8 5 w V Z V w q w q.o.o.F o.W q.b F v F Q +.o.b u.F N f.! f.y.P K.,.a.a.O.! P N #.f.d.#.X.,.i.O.! d.O.O.,.O.X.X.c m 5 iX`.+.m 9 F o.h Z Z v V v S S V o.v v w Q Q F F 7 w 5 V A k.V Z D +.m ,.:.P i.d.N ,.X.O.O.P O.U O.X.#.O.N X.o.S F F +.o.v Q D Q W 0.o.W o.b W m W W N m v o.o.X.X.F +.#.F +.Q S m S E S m E S W W E W o.o.W o.+.o.W W W W o.N F F F o.u.s.a.X.o.#.o.N X.X.N X.#.X.N X.@.N B O.! U ! ! P W X.m g W u.q.+.o.b S Q o.Q S v F o.W W W F W o.o.W o.F m #.W y.,.,.a.X.O.#.X.I O.,.U X.X.h.s.X.c a.X.+.W q.q.+.s.y.W a.y.N m N F X.o.q.N m o.F g W D W S S o.Q S S b Q +.o.D W W W o.X.W F W o.o.X.+.N W +.X.N F N +.X.X.X.b F +.#.u.W o.o.+.#.N N W +.y.o.N X.,.X.`.X.,.O.#.P.,.d.,.O.O.U X.,.@.#.,.X.h.a.,.O.a.:.O.O.,.:.O.O.m m a.U.+.g c X.$.q v v o.9.o.9.D q q.G v S Q Q v w h w h W S y.W O.:.#.g ,.,.O.:.K.U a.X.#.N W W o.y.N F o.o.o.G 9 N +.o.+.g m m +.W s.u.W W F S o.F X.F X.N +.X.X.F W +.o.W X.W q v v S v v v S S b b F o.o.F G q.b m W W +.b o.o.c F X.+.#.X.N X.y.X.N N N N N X.#.W O.#.n g U ,.q F +.q q X.F m $.#.#.X.m N W m W o.v m b m o.F b h h F Q W W W o.y.+.f.! y.f.O.O.d.O.O.i.K.U i.O.O.d.O.O.P.n @.3.d.d.U d.,.3.K.h.! E g N m i.f.+.f U.n P W W O.U U #.O.+.c U U #.#.U X.+.m X.+.N i F $.o.#.a.+.m P ,.y.! :.i.! +.a.N #.d.O.d.3.G.,.d.O.O.#.X.q.X.f.O.} &XK.K.h./.,.X.X.X.X.D D S 0.v v Q Q Q W W +.+.F m m b m N X.+.N @.h.@.O.#.#.@.O.O.@.,.@.#.i.#.a.X.W f.f.f.X.+.W N +.X.X.W o.G F F o.+.o.+.m m W #.X.c O.+.X.P +.P c X.+.W o.F o.v o.D F u.d.#.+.W W f.+.U.y.W m X.X.X.].h.W #.X.y.+.#.X.y.X.! o.X.m m X.W b v b b v v v v h v b b m m S g D h m W F W S v 9 m +.o.F m g ",
"h v V V v V Z G w V a 8 8 e.a 8 C v p Z G V q 5 v D F 5 b b v 3 v q v F o.F q F X.c X.g O.a.W W i.N P n #.f.O.K.P i.,.! P O.#.,.} c n @.#.#.a.f.h.q y.N N #.X.F o.Z 0.o.S D v V 5 o.k.v w v Q v b 9 7 G V V V A o.V Q y.E i.H.:.#.,.P O.! #.#.N #.N O.,.,.! n X.o.F W W 0.0.b o.F Q F o.o.D Q b b W X.y.#.W q.s.o.W F m X.q.W +.o.W W W E m m S m E W W W Q Q W b W o.X.F o.$.X.q.o.X.+.W c v W F N X.+.X.X.X.W +.h.a.@.a.`.h.@.O.O.! P U X.X.W W m N X.F W o.F Q W W o.D v b Q W W F S W o.Q F 9.$.X.$.m +.+.O.K.+.O.:.X.n U ,.#.X.W h.a.W m U.W o.E o.W m W E X.a.#.X.X.N N o.X.$.F m o.W m o.o.o.F S o.o.W W b W W W D W Q W W X.F N F X.X.W o.N W $.o.X.W N o.X.+.X.m N $.q.y.N +.$.W o.W N F $.a.+.m W #.X.a.#.K.,.#.#.n #.P U 3.,.a.h.,.,./.n O.O.d.a.M g O.:.O.O.:.,.#.N ].X.+.y.y.m N j.q.G o.q h G h 9.s.q.5 G o.v Q q G S h o.m N W c O.#.N f.Y.,.! ,.f #.O.#.N W X.N #.+.o.F m _ o.N N X.X.$.m F N +.v o.o.F b h h W F u.W F F #.m b N N o.#.o.X.W m F V v v v S v b v b F ` ` S v F W m Q W o.v W q.g W F m m m c c o.X.F N F X.a.z.X.m O.[.}.a.N q X.+.u.X.+.o.q F o.X.o.$.X.o.o.F +.y.D b F o.u.Q o.W W o.+.o.o.q.v W m +.N #.d.O.#.,.,.P U K.T ,.,.@.K.@.P ).I ].d.U U P P P d.,.d.O.#.P O.O.d.,.O.f K.N ! #.#.d.#.N ,.,.#.N +.W #.a.#.y.a.X.+.a.N m m F W +.+.N P N O.#.! O.:.O.X.#.O.h.d.O.J.:.d.1.,.P X.+.N y.i.d.! n h.,.a.3.`.O.X.O.N m W D m W q h Q Q Q F F +.+.F m b N m N +.#.m X.a.O.X.,.,.,.@.>.,.@.X.#.y.y.y.W N i.a.+.X.i.O.N +.X.F W o.Q F F G W F y.F N P +.X.m #.+.W N #.+.m W b o.X.c F F 9.D v m o.W m m #.f.N a.y.N X.#.W X.+.! +.f.y.+.N a.#.f.+.E W E m m W +.W b m b b v v W S b m v h v S q D v b Q F D b o.b F o.W F W W ",
"v v v v V V v v w V a a 8 8.C V ` V w p C Z V v F 9.s.v 9.o.G W S v o.o.q.o.g F X.m a.a.i.f.#.U U n ,.K.`.i.N a.N a.h.#.P n P ,.dX$X`.K.,.X.U N U `.y.m #.N o.F v v 8.Q S o.o.o.q o.u.S G S S 5 o.q q i > 7 C Z x.h v u.W P U n U ! ! #.O.N P O.,.P #.,.X.U N #.o.E Q Q q.q.S o.F Q v S Q F Q W m o.F q.+.g N c W W W m W $.F +.+.o.Q W S m S W W W W W Q Q Q W W F +.+.W #.a.W o.X.+.a.#.W W #.N m W +.X.X.+.X.m #.X.M X.f.a.@.O.,.,.X.! O.O.W X.E b m v b G W u.W b W Q S m F W W F F W o.Q F g N F $.W h.`.U.a.O.#.a.@.U O.O.,.#.U O.! y.o.#.W f.y.X.F E o.m +.#.#.+.+.X.X.y.F X.F W +.o.F +.W 0.0.o.Q S S o.S S F F W Q W W F X.X.F N N N m X.m N o.X.o.o.W m b X.X.F X.+.X.y.m $.q.N X.X.N X.$.a.q.W X.+.X.X.d.K.U O.,.n M ,.d.].d.O.O.O.,.d.P d.X.O.K.`.BXd.].,.#.O.U ,.U m c y.W X.X.m N o.o.+.o.u.q.v 9.o.9.v G G q o.S 9 w 9 S g X.U.m N d.#.P N n n #.n ,.O.U m #.y.c $.$.$.F v F o.$.N F m +.W o.m m F m b F Q W F W W h.o.b N o.g N F m F o.F N X.o.G S v v S S v b o.S i S ` ` F F s.F Q F +.b b W W +.X.N X.X.W o.9.9.o.F v v N X.N W y.a.O.O.a.a.W X.g W h.$.N +.c q v W N N W F S Q S g b o.Q q W W W o.Q F D o.+.q.m y.a.`.K.#.i.O.:.O.U ,.O.O.].P n O.d.]. .].d.U P ,.:.U 3.d.,.X.#.O.d.a.a.n O.N K.! O.O.P O.a.N #.n c X.y.c N #.X.+.+.N X.+.X.X.N m m W F c X.N ! O.! P ! O.o.X.X.f.i.O.d. .O.d.U N ,.X.N +.iX[.d.,.d.I a.K.f.N m +.c q W b S W h m W S W b o.W W W F N N N $.X.+.X.#.q.X.#.,.#.@.O.@.3.>.O.+.+.#.#.W P #.#.P X.f.#.W ,.+.N b G G G F F F v F X.+.N +.a.X.X.U W W ,.#.X.o.v q.o.q b v 9.o.D W E W +.+.+.y.O.W +.n +.y.W X.c 9 W y.o.E g f.y.y.y.W c m +.#.X.o.W S S D W F S o.W S S m h v b h W v S Q E W S 0.b g g g m W W ",
"v h h V Z Z V w V w t V 6 C 8 A w V Z C w w G s.v v o.q X.b q W v v o.o.+.o.v o.W m y.i.g f N ,.,.,.P ,.K.i.i.,.O.#.#.,.i.#.#.d.U ,.a.O.O.#.O.U g a.X.X.U.X.u.+.q q W F b +.0.q.S S W F q.v g v o.v Z w > w G C k.h S y.o.P O.O.O.! #.#.#.P N U ,.! ,.#.P O.O.#.W E o.W +.+.v W F +.v b o.W W W F +.F q.y.X.y.X.b W +.N F X.m X.o.o.W m m m E W W E E E W W o.+.q.X.+.o.W $.q.m N F X.X.o.#.y.y.q.o.+.+.W X.X.W #.a.a.+.#.#.@.#.,.d.d.#.O.O.+.X.m N W W o.o.W W u.Q b F F v m Q W W W W Q o.Q F u.j.f.f.X.y.#.O.O.+.,.,.O.O.O.U X.#.O.O.N a.O.n n #.+.X.W X.u.X.X.+.X.X.X.N F #.W X.X.X.o.F b F S o.+.o.W b v W S S F W Q W D F b X.#.o.N m b N +.N N W N F W F W N W X.X.#.q.W a.N y.y.N X.X.N o.+.#.+.W o.#.X.f.h.O.g O.K.,.O.U O.K.d.,.,.X.O.,.#.K.X.M ,.N ,.n a.#.#.U n a.a.,.,.[.X.#.q.F q v o.F u.T.+.F b b W +.b v W F S h h 9 v m +.'.N N #.,.P O.O.! #.f.d.+.U m U y.N y.+.W $.a.#.F c X.X.N +.m N g m W F F W W S S F g a.o.W W +.m +.X.m N W m c W o.F v v v v S v v G v v F o.9.0.0.q.v Q b +.F v W W N N X.y.+.+.s.v v F F F X.y.h.g m +.+.N X.,.y.F U.c c +.F X.g #.o.#.a.+.o.#.q.S F S g S 0.o.h b F Q o.o.Q o.+.+.y.m #.,.a.#.N ,.O.U ,.:.U i.O.O.O.P K.d.U n ,.O.d. .,.d.,.,.d.,.X.O.n ! O.i.P c g #.P O.O.! y.f.U a.N c X.,.U U #.X.O.O.m W +.+.$.X.F X.X.X.X.X.W W O.O.P P #.y.F m O.O.:.d.@.T P.n O.h.! +.W ,.W O.d.a.g O.,.3.I m #.m q o.b W Q S Q W b Q D +.b c W o.N m F X.N X.X.a.a.+.y.3.#.} P } @.,.#.#.O.#.,.+.,.y.#.y.y.f.X.N a.y.o.m F G G W +.+.o.c F X.m X.y.W W X.#.+.+.X.#.h.#.+.o.v W G q.o.o.s.Q o.+.W N X.y.+.X.g N U m #.U m E m m X.E h.X.y.#.W m W a.f.y.W W F F W Q D S v v v b m v v S m Q v m W F Q D W v m W Q o.W v ",
"v w h V A G V w V w w a > 8 > C p V G G V p V o.0.q G q o.X.v G v v G v v v 9 F z.#.,.f.W W #.a.O.f.n f N ,.`.,.P ! ! #.,.#.d.&Xn O.U f c X.X.W fXX.+.X.W c c 9 o.S o.W S Q W o.o.F D D y.q m T.q v o.V V V A w G Q q.W o.+.Y.Y.! U #.m #.a.O.n #.N #.#.N O.O.W E F W F W o.v F W y.F W u.o.F F v c q c N X.q.$.N +.a.X.X.+.N X.o.Q E m m m W W S m m S E W o.0.o.N N W X.+.$.X.+.q.o.m m o.#.o.#.+.o.W m W X.m N X.X.+.+.N B } ,.i.i.#.X.! ! W W #.+.W o.o.W o.Q Q Q W v g F y.W W W W Q o.Q F b W X.a.X.s.f.d.#.,.d.:.X.#.,.U O.@.+.y.n W ! +.m m m +.+.m o.+.X.+.X.X.X.N N o.X.X.o.$.o.W F F Q o.W W +.o.S b F S F Q Q W F F v X.#.+.W N W W W b N F m N X.W #.X.W F F +.q.W +.v o.+.W +.+.+.o.X.X.F m X.y.#.f.d.,.O.O.O.O.d.n n O.O.,.g.@.O.O.O.O.:.`.BXa.O.g n n O.,.,.a.#.d.U o.g X.m N m +.q.9 v W b o.W o.F s.v F z.b v q.h h S W v +.N y.n O.i.}.K.O.N ,.U +.f.#.g X.X.X.X.N X.q.X.m N W X.W +.g c N a.v b +.o.h g S F 9 o.X.$.X.o.m +.#.W X.+.W N W F b v v v v v v v 9 v G G F S F W m 9 0.S o.o.W u.m m m +.a.X.m o.q.o.X.G N m F $.U.W g g c U ,.f.#.'.W X.W 9 N N F N W W m m F N o.W W m W s.y.+.o.o.0.q.0.+.0.q.W f.+.f.a.a.i.d.,.#.O.d.d.U K.,.n K.>.d.P n O.:.g $XO.P ,.3.:.:.O.O.i.P N N y.,.h.d.d.! W N f P d.N U.a.+.N W a.X.a.+.+.+.N X.X.y.y.+.X.$.o.X.,.X.X.W ! #.O.X.y.W m m +.i.d.,. .O.K.U a.Y.+.y.W ,.N #.K.K.@.`.f.@.O.m +.F g +.v S D D 8.W m o.W +.v g F X.N m F N X.X.N +.h.#.O.X.O.O.@.@.@.} n #.W #.#.#.d.,.#.i.,.f.+.W a.#.N W G F v F o.+.q.X.N N N X.! c X.N #.,.y.#.y.h.+.b F b +.G o.b F W m +.o.m m N W ,.U c N n c X.X.+.o.#.X.+.W f.+.y.E m W +.+.+.u.F D D F F F S v v v v S S v v v m Q h h S b W D o.F Q q.y.u.0.S ",
"w w w v V V w w p w 7 w 5 C 5 w ` Z V Z G Z v w o.9 o.q N o.v b o.o.o.G W F g F v N W h.y.y.N 9 9 d.`.d.! n N U ,.f.f.,.X.N ! d.O.d.O.N O.d.a.f.g 5 #.#.m g +.q.u.W +.o.D D b F W o.Q S q.g F T.G F V & w q C A A 0.0.h o.! ! ! #.N O.c #.d.,.X.,.g O.,.P ! W N E F o.F W o.b W W u.F W s.o.F F s.q.#.W F W N F X.q.a.o.+.y.W o.o.o.E m m W W m E m m E W E W o.m m m F o.X.X.y.o.#.+.W X.a.j.f.W X.X.m v +.#.N X.+.+.a.h.a.#.a.,.#.O.O.O.X.W P #.f.+.m F W F +.W W Q F b m W o.D W W W W o.W b o.X.F q.N +.O.+.y.,.d.a.@.#.,.O.,.@.O.d.N ! #.d.+.O.! i.i.! #.+.o.#.+.X.X.X.W o.X.W +.#.o.o.+.+.Q o.W W 0.0.W Q D S F W W F F W b W o.X.W W X.X.m m F F m N X.X.+.X.X.F N o.+.N X.m W W X.#.o.#.X.X.o.X.N W #.#.+.,.d.d.O.M X.O.].d.O.c g X.O.d.d.K.O.U N #.U d.h.O.O.#.,.:.N N U y.y.5 X.y.[.b q.+.o.o.o.+.q.W q.b u.b W T.F F S 3 h h W v N X.s.q X.U X.X.#.U U c O.h.d.N y.N N +.W m N N N #.N W N +.m N X.j.b W s.y.b F 0.o.v W F #.N F m X.y.+.+.#.X.X.o.F v v v v v v v S v v F S v v v v S g q.v W +.W q.X.o.X.#.a.+.F X.N 9 9 v F m m o.v W f.h.+.P X.+.N g m o.W g m f.F W X.W N X.+.F W h b g b +.F W W W D S S S W W q +.m X.! X.O.d.,.,.,.:.d.O.i.,.3.d.P  .:.P.,.U n <X,.,.d.d.d.d.O.X.i.#.#.! i.#.N P N P ,.i.,.`.X.q a.+.+.N g O.n O.U X.O.N N N f.y.W X.y.X.N #.X.+.P m X.O.X.a.F N W +.d.d.O. .>.1.K.h.f.y.o.o.#.! ,.O.P } {.3.@.d.N X.W v +.v W S S 8.W b +.W F F F N N W W F X.X.+.W +.y.X.#.N X.,.,.,.@.I c +.N +.+.X.y.+.+.! W a.#.O.y.! c W W D v v F F F +.W X.P X.X.n X.c N X.f.a.X.o.m b b v o.v v q v h h u.q.W o.W X.+.c X.#.N m N X.#.+.T.y.X.m X.#.+.m m W o.W W o.S D D b v b b m F S S F F v v v v Q h v F S W S W S F W b F Q S ",
"w w v w 5 5 5 w w w w 7 7 8.w 5 V V V C V V V Z v q z.F c o.W W 9 q F G +.+.v F g #.O.X.9 m #.f.Y.n g P K.`.O.i.y.h.d.#.i.d.#.! n O.#.,.K.,.n n m }.+.g X.q $.q W 9 v W W W S Q v o.W q o.b m o.D b S w q.w 5 w v w w h [.f.O.! K.! i.O.i.! X.f.`.n O.d.O.! O.#.W W o.F o.q.W +.W u.v v q.o.F o.N c +.N m W g N W +.#.F X.q.F W +.+.Q W W o.W m Q W W o.Q E S W N X.W X.+.m g #.m F X.X.W X.X.X.X.#.q.F N a.s.F F X.N N +.#.#.a.d.+.! #.i.,.X.! m +.o.F +.o.F o.+.W b m Q +.W v S F F S D W F v q.X.N y.W +.+.,.+.X.:.d.,.O.O.O.#.O.:.K.,.K.a.! N +.! ! W W #.m W #.+.N X.X.X.+.+.W o.+.W W o.+.v W Q W W D W q.W S S W W F W +.W W F N N W W N N F o.X.m m F N F X.$.o.W +.#.F a.#.#.X.$.$.N X.F o.a.a.X.W X.X.y.O.P P X.h.K.n N O.P.d.#.,.,.K.,.d.P a.d.,.N O.,.#.`.d.U N N [.U U W m a.m #.q F g +.F g o.F v W g o.F D q.b o.h h 0.9 v v q c c c iXf.N X.f.,.d.#.,.U O.a.&Xm o.s.+.N $.a.W c $.W c +.X.+.m N F F +.W h F Q f o.m c X.g m N $.#.X.W W F X.+.W b F F F v v F G 0.F q q F o.o.v q.v o.9 F q.v g N X.N m X.+.+.+.q.V F r.s.W v N m o.#.N N a.d.m $.c f.W N a.m X.W W X.F N o.X.g F h W S W o.g v F S m h b Q 0.q.+.s.m X.+.+.X.,.,.O.G.n O.@.U T U ,.).$XJ.d.n >.U d.U ].d.U O.,.d.U ! P ,.#.d.O.#.,.X.! #.O.c ! X.c ,.c #.a.N U N #.O.y.f.,.,.#.f.$.m W f.+.N ,.+.,.N g N W W ,.a.q.N c ! O.T d.,. .&Xh.#.a.m $.! d.&X,.c } sXa.3.`.X.W X.N q.v 8.D S q.Q W q.F v +.+.F m o.$.W o.m F #.a.o.W ].#.#.@.X.U O.O.O.+.N #.O.W #.X.+.X.W #.X.W #.#.$.v S D D G W F v N +.y.N W #.N m +.m n i.#.c b N +.o.v F q v q F Q q W F v v g +.+.q +.q.N m N a.a.N f.+.+.N m P ! +.o.E W +.+.N b D W b h b F D m v v b S S S W m Q m b W F W S F D o.o.b b W F ",
"` w p V 5 w C V w w w G q v w.q V C v w C o.Z q 9 h q.S o.o.W b v o.F o.o.v W v W v +.+.i.N +.a.X.c #.,.O.P g #.i.i.P ,.i.#.,.! O.N a.N O.O.U U W m N y.a.$.X.#.W q.q.u.z.+.b o.E W o.v m o.F b W S S D V q w V V V D 0.y.o.! ! n `.P `.K.g K.P ! d.,.q ,.,.,.y.O.W m N o.X.W q.+.b W F +.c b N F v N W m W X.q +.o.o.b F W m X.#.o.X.W u.a.E #.#.X.m #.o.c O.E b a.X.X.m W m #.X.X.X.o.+.o.o.X.u.q.+.W m W $.X.m m X.N #.W X.N ,.y.i.O.,.#.N a.+.W F W W b b W S Q o.D m W o.S q.W F F +.0.v b X.F X.X.F X.,.#.n +.a.#.O.O.O.O.K.U O.@.].h.,.,.#.O.O.O.+.#.O.P X.#.+.X.#.a.X.N W o.o.o.o.+.q.q.F W Q Q W F F F S F F b S Q +.+.F X.W F X.W b F o.W W o.o.F F +.F m W #.$.o.X.F +.o.o.+.+.W W o.$.o.W X.X.N U #.X.#.K.} O.,.U U P ,.X.U n a.,.#.} d.d.d.O.:.h.g `.O.U X.n c X.X.N a.z.o.+.#.W q.a.y.a.#.N m W X.X.c b X.q.c X.b D Q D h q v S v X.W h.a.X.} U ].N $XP.n #.O.a.a.N m o.W #.+.s.9 m W +.y.+.W X.c g v +.q v S F m g N c F m g +.u.X.m q N q N N F 0.S +.s.b o.Q F h W Q g g S F +.Q W b v b F F m W X.y.y.W W $.q.+.v v S o.G q W #.c W m c c a.#.m F W N N $.y.W X.N W W q X.c #.W h b b 0.W +.+.S m o.b g S S b +.q.N W d.X.g #.#.,.P O.O.:.K.U P.P ].J.d.d.d.d.,.O.>.d.M O.d.&X,.O.X.i.#.P #.,.P O.N i.N #.f.n q y.O.X.N c O.O.y.N N #.#.+.O.X.h.m #.N N +.a.O.f.X.#.m B #.X.N X.X.,.h.H.O.@.1.d.d.d.O.i.#.a.N #.m ,.:.,.I X.3.} 1Xh.X.F q b W S h h h b b b W o.o.v v $.a.q.y.$.N N m X.a.y.y.+.m P :.:.O.X.N X.#.+.X.#.f.h.a.W ,.N ! a.+.+.$.F v h F o.o.b g m W X.X.O.#.#.+.X.m +.X.N #.$.W W v v F F G G v D b b S W W b g c q X.N X.o.c c m W h.y.m W X.+.+.X.N m +.d.#.N 9 v D D S S S v h b Q Q S g h S W W F F F F W W o.F Q o.F v b m ",
"w 5 w V w w w w w 5 w C q v o.w V p w p V V v v 9.G G 5 v F +.o.v F G S b W F F y.N W ! a.! X.X.i.O.i.O.P #.d.sX#.,.#.d.d.i.K.#.n :.{.P n U X.N X.n c X.#.+.b c W o.W o.u.+.F o.v b y.+.o.u.o.v m b S h q 5 5 5 w w v G o.X.W ! }.,.! #.,.#.O.i.K.! a.a.i.! #.c o.o.W W +.W m b W c N m o.N o.+.+.o.#.+.m N o.F y.#.#.W o.+.N +.X.W X.P X.+.W #.W X.W #.X.N #.W m y.q.$.c F X.j.X.#.+.b F q.+.c F F W W N W X.N c o.a.m X.+.a.X.i.y.d.i.,.#.W y.m o.o.N m o.o.v Q q.Q v S W W o.W v m m Q o.v W b m W X.X.+.f.f.+.,.d.d.,.,.,.d.,.O.g.,.a.O.#.d.#.#.i.d.y.#.#.! O.#.X.X.+.+.W F W +.+.F b W o.W Q o.o.o.Q W S b W W W F F W Q W b W F F o.X.W o.W N F W W F F X.F N X.X.v m +.s.q.o.X.+.y.q.X.N $.N X.q.W X.#.X.+.+.a.O.d.P.X.I ].d.N O.d.<XK.O.n g.O.a.`.P n d.P.#.O.#.O.O.X.c N X.y.+.+.N m h.g y.q.+.a.F 9 m y.X.+.q.y.c W v S v w q q q h S v N m N O.,.h.h.O.O.@.>.P.,.d.X.a.N y.N N X.$.+.`.W N 9 9 N N X.b v +.b o.o.o.F W X.c W o.W a.a.F N N q.W o.N m h h Q s.S W b v S b b v v m v W W F b b W o.W b o.c m #.+.N W o.b v D F +.+.v F s.W W W i.m N O.o.+.#.+.W X.X.c o.v q F N +.b o.D W Q v +.F S h S b 0.o.W o.W b u.o.W #.h.U.d.,.f.d.O.O.O.,.,.U :. .$Xd.O.,.d. .J.].K.K.P  .@.,.a.,.h.d.! N O.a.O.n n d.,.O.! iX+.#.+.N N N B N #.X.O.#.O.O.O.N y.N y.X.+.#.#.W O.N +.W F a.o.N N X.#.,.K.K.G.P.d.d.d.O.#.N X.N +.P ! n d.,.#.].f.&X#.X.o.m b F S S S Q W S F W W F F W F +.+.N o.N X.W $.f.#.,.#.U ! ,.#.O.O.O.! +.X.W O.a.h.f.W #.N X.y.W N W W G S v m F F v N N X.! X.#.O.+.O.N #.+.N X.X.N W b F W D G D v F S b S F D F b X.N X.m m X.m N o.X.u.o.N X.+.u.y.+.W N ! o.X.N h F Q W S F F F g v S F m h b W b S m m F o.Q D u.m h W m 9 q S ",
"> 8 8 a C w w p w 5 w w w v h V p q w V C v V o.o.o.o.F F q g 9 v v 9.D W u.N F +.m P X.f.y.f.h.n N #.! N P N O.a.X.N N N X.i.g U U h.d.K.d.#.#.y.O.W m W W X.X.F W m E 0.+.E W b h +.o.E y.0.m W o.Q v V Z C w V V Z o.+.$.#.#.f.#.f.#.O.d.! #.i.P N ,.}.,.O.h.P X.W N o.o.F F #.X.o.b o.W #.+.N N W W m N X.F $.o.o.F +.q.F o.! m +.X.N X.W +.m X.O.o.m c W g W F m N g F W F W o.W v W a.q.m W o.o.W W W F m N q.s.N W $.f.#.O.! a.i.#.,.+.,.c O.+.W W +.o.b o.q.F v Q W b o.S v S m W Q b +.F N X.X.N W #.y.X.U X.#.,.:.a.K.g.,.K.>.,.@.O.O.O.P ,.f.#.O.,.#.#.#.+.+.#.+.X.+.W #.#.F b W o.W +.o.o.o.o.Q S v S W W D F D S v W X.W F X.W N F m N N b N F F N X.N W o.X.+.q.q.#.o.N m N X.X.W $.m +.y.N +.f.U X.#.a.,.a.d.O.,.P U N O.U O.O.,.U ,.O.@.O.c N #.P.,.#.O.O.:.y.+.+.W X.W X.N c q.b y.#.W X.E c m a.o.W X.W g +.o.D v v S V q h F G h.#.+.+.#./.#.d.O.,.d.,.N a.U #.N [.O.N +.N +.m q h.a.X.+.q X.b g o.b 0.o.W E b N c N N m o.o.X.F N #.N X.W F g m b 0.S W b W +.S h b S v m W S b m S Q +.W m W c m +.X.N W W F G D q h W v G o.o.m m f.+.N ,.+.X.o.o.N m m q N F m #.W b F $.9 F o.b u.o.m 9 S h o.o.W +.W b u.X.+.+.! #.#.g ,.O.O.U ,.K.1.d.).n @.d.O.9 P K.O.].:.,.,.d.K.d.U N d.#.P #.:.P.].#.M n O.:.c }.#.X.h.+.N X.N d.N U +.+.X.#.#.W O.P y.P +.O.X.W m c X.W F q.$.X.N +.W N :.d.,.3.,.:.K.d.f.W X.#.O.+.W f g.:.c X.K.&Xy.m F N b v h m W Q W b b D W v W o.c N +.c +.G o.X.+.y.+.#.#.X.O.,.O.O.#.#.X.+.+.W ! #.#.+.! #.W #.a.W P F F o.o.v g F W b X.b #.X.X.#.P #.W N #.X.N X.W F o.G o.o.G F F h S F D D S S F W q v o.F X.q.o.X.u.X.y.o.m ! W #.o.X.W X.W ! W +.S W W S v m S S F F F F S b F o.W W F S Q q.0.W h v m h b y.l.u.",
"8 a 8 8 V w 5 C w 5 v q v V 5 D v w w v V v V G 9.o.v G +.W q.+.q.F F v b o.W $.$.$.,.+.N q n ! K.d.a.,.,.,.O.O.a.d.`.i.N N d.#.,.X.U I O.@.#.a.g N #.F N c F N E W W o.0.o.S m o.m +.W m +.+.S E W S v V G S w w w v F W X.X.X.X.d.! i.,.! f.#.i.d.X.O.`.O.g #.P X.F m X.q.#.#.u.#.#.N X.F +.W o.F N X.#.u.+.N W N F N +.y.W +.X.m y.,.E +.o.W o.+.#.#.W E X.N q.N N W N o.+.N $.F N X.$.#.+.+.0.q.o.W W W W X.$.+.#.o.X.W +.#.#.N ,.,.O.,.#.+.m m W +.o.F F W o.F F Q o.W D F S F W b F W m o.G F +.X.B m X.X.d.a.,.,.:.:.:.:.>.O.d.@.d.J.d.d.i.U O.,.U P :.+.#.+.X.+.#.X.X.y.W o.+.o.W W o.+.q.o.Q W o.Q F v b F F F W W W b W o.W F W N c N m W W m b W W m X.b F o.$.q.q.X.+.u.a.+.X.+.y.s.X.W +.X.m X.a.X.#.,.O.:.O.#.O.K.,.,.,.,.,.d.a.a.}.:.n P #.a.3.O.:.:.d.K.d.O.O.+.#.X.F c F #.F v f.W #.o.9 N f.m o.W X.f.a.W #.F F F G o.G v h v 9 +.+.+.X.X.a.O.#.>.O.O.d.,.K.U m +.}.#.N #.N N U.c m m W f.#.s.F q W b o.D S F v X.+.+.N c F o.W F N $.N o.X.X.0.q.h F m S S +.s.0.S F v q m v W F b F o.q.o.m c X.a.o.m W +.F +.8.8.v S o.o.u.#.s.X.q E #.+.W #.F N F c q c m c +.W +.N q W F S Q F 9 o.W Q 0.W h S m m Q W W W X.#.#.! X.,.,.d.#.:.O.,.d.U :.:.O.d.d.:.U >.O.3.].n  .d.:.d.>.].,.].:.X.d.X.#.:.#.O.N a.$XK.&X#.X.d.#.n c c +.W U O.,.#.#.y.+.O.O.,.c ! O.o.,.W N W m c W $.X.F #.X.U d.d.d.). .L d.K.Y.X.W #.#.O.#.N K.K.#.,.3.&Xh.m c N F b g h S S F S b S F b F F m W o.F q.W X.N N W P +.#.W ! O.! ! O.O.+.+.+.+.#.#.+.N N #.X.#.y.#.,.X.v X.o.F F W F v +.F d.#.! X.m #.+.X.#.X.W +.X.X.o.W o.+.F b F v v S Q Q S b F Q F q.a.o.F W c 5 X.m +.+.W E N O.E P W +.+.W W o.o.W S v v b b b W F S F F S D Q q.o.W o.+.+.o.W v F F h h +.0.h ",
"8 a 6 > 8 5 5 C V v S w V V 3 Q Z Z p q w V v q G g & 9 v b g 5 G S q o.9.b F F q b X.X.m N +.f.#.! ! i.,.U ! #.O.! d.#.y.#.a.P #.&X&X,.U d.h.O.n X.y.m N B +.o.E W +.+.W W W N #.o.f.y.o.y.W m o.m h S Z V h w q w v F W W F N N ,.9 `.sX#.K.n 9 g #.f.,.i.,.m #.y.o.N X.#.+.+.W N X.B W N X.N $.X.N W #.q.X.F W N W N #.a.X.+.+.N #.+.W y.,.X.#.N ! #.+.X.+.#.N N #.#.N m $.$.s.#.+.#.#.o.X.o.F Q F S o.o.W q.+.X.W o.X.X.W X.f.O.,.,.O.i.#.W N m F X.F v b G 0.g W y.F Q q.S S S W v b S h W F F +.+.N N #.#.O.a.,.O.#.d.d.#.O.@.).,.d.,.d.d.P.,.,.i.O.! O.O.+.+.X.X.X.N N +.F N W +.W v b W q.o.F S W Q W S F W D F W o.o.o.F W F F X.X.F X.F o.o.N N X.X.v F F X.X.m N +.#.q m X.X.F N N N m q.#.F X.X.U #.h.y.g O.:.d.O.,.@.d.d.O.X.O.O.N d.d.#.d.].O.O.BX}.#.n O.K.d.W N #.W X.N X.a.o.N #.n +.#.c X.f.m a.+.m X.N n N c m F F b h v w 9 S v N N W +.N } n ).].d.P.U U P O.d.a.+.N W +.,.c N a.z.$.m N W o.v o.F o.b m o.g F #.+.F m m W N F X.j.+.$.F N u.u.g Q W S b D h b m W b F u.Q +.o.W W o.q.+.W b $.f.$.m W #.W h v Q o.0.0.F q.o.o.W m g y.h.+.y.W W X.m c N X.m $.m m N b X.5 W W o.o.l.W m D +.m F m v Q Q o.o.y.O.X.y.X.! Y.d.O.,.:.d.d.U O.K.K.K.,.@.d.d.,. .].3.d.O.9 >.P.:.n ,.U U K.,.d.O.,.h.K.O.N ,.X.#.U m #.#.X.,.W d.X.O.h.d.,.,.a.,.y.f.N O.#.#.a.#.+.X.F c m X._ #.y.#.,.d.O.O.d.d.T K.h.`.y.X.#.K.P ,.U O.3./.h.@.a.a.W b W W o.S S S S W W D b v +.b v q.#.F +.+.F W b m N m +.a.#.,.a.d.d.d.,.#.+.X.+.a.f.a.+.g +.X.W W #.d.F b v F o.o.o.F b o.X.f.#.N N c +.f.y.y.W X.#.W X.o.W o.o.v v G F h S Q Q Z S F G 9 v v v F $.s.u.c 9 W +.W W W y.o.E E O.o.N m N q.Q S b D W D S v h h b F S S D 0.F F o.o.m v W j.F S +.Q h g v ",
"8 8 6 8 8 8 w V V Z S h Z V q Q Z C p w V 8.G i F G o.o.v N 9 g v F v s.s.b W b o.+.X.O.P O.! W n P #.Y.d.N O.d.#.g N 9 #.O.O.P g ,.O.O.P ,.y.N y.#.y.N y.+.a.X.E N W E c N +.#.a.y.a.o.o.+.m N 0.F m D G v w w w V Z G o.o.X.N n i.#.d.K.K.K.c P a.d.d.#.,.! m +.q.+.o.q.#.X.X.W N X.N +.N X.N m N m v F F W u.X.W X.N +.#.N X.#.N W m N a.a.#.a.m ! #.+.X.W #.X.F $.X.N q N N $.a.u.+.o.q.$.W m Q W W q.o.b +.m X.W F m #.X.m ,.! O.! O.i.+.X.N +.q.F b W o.F y.m Q 0.v Q s.W S F W v F o.m W b N X.X.N F +.#.g X.O.I O.h.K.,.d.>.K.,.d.:.O.O.,.,.,.,.i.,.O.O.,.#.X.X.X.N m W W N N X.W v v F +.W S b E Q W F W F S b F o.o.W W o.X.W +.o.W o.X.+.o.W W +.X.m W W o.+.X.+.#.X.y.o.W X.$.#.#.#.q a.#.X.a.o.c #.+.,.c ,.:.,.U X.O.d.K.O.O.:.d.O.g c O.O.N g n h.U #.a.d.@.n U `.a.U y.f.$.F b +.N X.P W a.a.+.y.[.h.X.,.W X.y.#.v F b 5 5 w v w u.F q.X.W X.B a. .$X].J.].n c #.d.K.X.y.#.U +.h.y.X.B X.X.X.+.g +.b +.F W v m W v c W F W +.b v W W W y.N W N N b W g j.s.q.+.S +.s.y.u.F h Q 3 o.Q F b F o.o.F q.F W #.o.F W X.v h Z Z Q D q W F 9 g o.c o.u.+.F m W +.X.W +.#.N +.X.c F W #.c S h y.T.[.W v g o.m W W S Q D W u.a.N N a.X.g i.#.P :.d.1.K.d.:.].>.,.d.:.d.P d.K.,.n :.$XJ.).d.a.O.a.X.c N n U n U U n g P &XO.X.X.N d.y.O.K.O.,.n U f.h.,.,.d.y.,.U.O.#.#.#.X.y.y.+.#.W N X.m +.X.#.d.,.P U :.K.@.K.O.d.f.#.u.f.g ,.O.n I f.#.#.B m X.o.W b 0.o.Q S S D Q F v g u.F v j.u.c o.F v F F W W m o.X.m N X.O.#.O.N y.+.W W #.y.,.+.c +.+.W N +.f.N o.S v D o.o.W W F $.,.X.m c m N #.+.X.m W +.N X.W F W F m v G G h V D D Z S F F o.9._ o.X.F X.m F n o.W m W X.y.o.N m m N E W W o.D S F W W D F F S F W D b v v Q m b Q W v h W s.W W o.o.W o.0.",
"C 8 8 a a a V p w G V v S v F G V p w p G 8.8.F q q o.q = X.b x.0.o.v q g b +.u.g c 9 N P f.#.X.O.#.N ! N f O.d.i.a.}.! i.n O.&Xh.@.5 U U #.h.}.N c $.X.U.+.X.5 E m N m g W d.u.+.y.o.g ! O.g O.W m h v v h w q 7 w v v b F N m #.f.,.n c #.K.d.X.h.! #.h.h.O.iX+.+.X.o.y.$.X.o.q.X.+.X.q.N W W m X.W W #.+.+.z.W W W m W X.c F +.X.W c X.f.#.#.h.+.f.a.+.#.W +.j.q.$.N #.N F F W o.o.X.+.y.$.F W q.Q W y.Q v X.v o.W X.m #.X.F N N ! N ! #.W X.W y.a.o.W +.+.o.Q +.o.F F Q o.Q W W Q b o.y.W W F N X.X.N N X.X.#.d.d.O.O.,.,.X.,.M  . .G.d.d.d.L i.,.O.i.i.O.,.,.a.+.X.+.+.W W X.o.W N F W W b o.W F F W W W S F S b m F Q Q F W +.X.W o.X.N W X.X.X.W o.$.o.N W N W $.u.f.q.v j.X.v N X.W X.$.N o.X.X.y.X.N +.g a.X./.@.@.P O.:.U N c a.h.d.P &XU a.,.O.sXaXc n P P ,.sX<X+.q a.N q.f.X.m v X.! #.m N h.a.X.f.9 c m a.U N c 9 F F v i w i V V q q W X.N m X./.,.>.P P P.g.K.3.O.h.d.a.#.f.X.,.F W q.X.B W +.+.o.b +.b W m v b o.F +.X.+.s.X.W X.W v F q b W +.v S h '.s.o.y.D m b v q.Q W T.Q S S b v v F F F #.m m +.X.m F o.+.o.8.S D o.S o.+.F g o.m E g g m m W +.W W +.+.X.W y.N X.X.#.y.y.h W Q D v q.0.Q m o.o.F D b F +.o.N ! f.d.,.d.d.#.,.d.O.:.K.L M U ].d.,.&Xg P >.d.&XP.,.P K.].d.O.,.,.O.O.a.h.`.d.O.f U a.`.O.O.+.d.a.g q U c U c W d.a.#.#.,.#.! K.O.O.#.#.m +.#.X.y.+.X.$.N c q X.h.d.d.].P.:.P ,.g P ,.W W O.f ,.3.,.@.d.g.,.n X.W N F v W W D S S S W F h v +.F v #.+.b o.G g b F W W m o.a.#.i.f.d.f.f.,.#.+.X.X.X.! W P P X.+.y.X.+.f.X.o.G S v F o.o.W N y.W W N m +.c m ! X.c N W c o.F b F F v b G F S V v v S Z F F v G v $.q.o.o.m #.W +.E m o.+.+.N N m m W +.+.+.m b D Q W F F Q o.o.o.o.W b v b D F F F W W D S S Q Q h 9 W Q g ",
"H 8 5 8 5 w V w q G v V v h 0.D Z w q V Z V v v o.v 9.F b uXg v q v 9.v g o.g q o.#.W #.+.U.y.#.W o.m W #.! O.g #.N O.g $X:.g ! :.h.O.K.#.U X.X.d.W W 5 W c y.u.F m N N m +.f.,.g X.W m y.+.9 E W o.Q D D 8.o.Z v V V S D o.o.W X.g 9 `.&XP U O.}.:.X.}.d.O.} f.y.+.W W +.W N +.y.W O.X.y.N X.+.N X.F X.a.o.c N W N W m F W c W X.#.#.N ,.f.! X.W N y.! c W n m X.X.o.c X.g N y.#.N m o.y.X.m m W q.F v +.W v q.W o.F q.N F b $.N +.,.P ! ! g N W X.+.q.+.F W +.g s.o.h +.Q g D o.W W m o.u.S b F N X.X.W X.#.O.m U W U ! O.,.,.d.O.d.>.:.P O.K.U ].d.P :.:.! d.O.#.X.U +.#.O.W F +.X.g v 9.q.b W W W W Q W S m W D D D o.q.0.o.b F N N X.X.W o.W F F W +.$.o.W m m W F b X.#.o.#.X.+.f.a.W m X.$.b c N W X.O.#.N h.O.].d.h.#.O.! ! ,.! O.n O.:.O.X.`.,.n U ,.].O./.d.U O.d.,.,.X.g N W N $.o.m X.c m y.a.#.X.W W +.N #.g m +.q.X.F G o.G v w v V G v $.y.} @.M n d.=X3.P P ).3.P `.&XU n &XO.O.W c a.N m s.N m o.S +.b Q W b h X.W q.F b X.v N m m v o.v X.o.q.q.+.b T.S 9 W g s.W 9 W g 9 0.h S D D b b F W F b N o.X.m B X.$.9 V Q h S 0.F b v o.f m o.z.X.+.q.#.#.o.m m W N s.g F c q.$.X.#.W 9 +.+.F b q.h +.S +.o.S F b W o.X.#.#.W +.,.! O.P O.d.U :.&XU K.n ,.>.U K.g zXd.U ,.P O.d.).,.].,.U #.:.O.:.O.#.f I O.$X#.c h.#.N h.,.m y.a.#.X.X.a.h.y.O.X.P #.P f.O.! ,.f.N W X.m $.+.X.a.X.b f +.d.O.d.P.U 3.:.].n ! a.P c i.W #.! @.n B 3.3.d.{.X.q W F S v S S S F W W F F W b g c N o.q.+.v m v b F m X.+.O.,.,.#.,.i.#.N X.#.y.#.O.W W W N X.f.,.X.u.+.W o.o.b F +.+.F N s.c N W W f.g W a.f.W E m 9 F b v N F v S F v G V w w v Z F F o.o.q G o.v G b W m W m N u.y.+.m X.#.+.#.y.+.W g b +.q.o.S W q.F F W o.Q W W +.S o.W v S 0.o.g g h F W b F W v ",
"q 5 5 w w w w V w h v V S S v h o.D S 9 Q v F G v g o.b b o.v S 9 v v 0.+.v F v o.f.+.+.o.y.`.#.N X.m W h.N X.a.c +.n U ,.,.f.+.N X.,.#.c X.h.9 h.m c c f.F 9 b F h.c 5 W c m +.X.+.X.m a.$.9 a.s.S v D D o.Q h 9 w h v v V S b m y.N N ,.h.K.U :.P.K.sX .I P.d.].q ! O.K.a.#.,.X.+.P y.i.E #.X.c #.m c X.X.X.U i.O.m +.+.,.N m m o.X.o.X.W #.o.+.b X.#.X.W X.N n O.f.+.c N O.X.X.N U X.X.N P +.W y.N c y.u.W #.q.o.F b F q.u.W O.X.W W O.#.y.i.#.y.! +.h.,.m +.F y.o.h b F b W W F N F W X.W F W X.o.W F W W X.a.X.W X.O.$.#.O.N h.P.d.d.,.,.f.P #.,.X.O.,.#.:.,.! #.O.X.! N X.W F F N F N F _ o.G F G F F F G o.o.Q F b v F W F X.W m #.s.W +.W F X.W m F +.X.W W W W W o.W F +.v W W +.q.b o.b s.+.W X.W #.d.#.a.g g.&X3.n ! n d.d.#.! Y.! g d.! i.i.O.1.O.n J.O.O.d.I O.d.U N c d.+.c W N s.q g v N X.o.o.X.W o.a.$.m X.y.P ! W W o.D w w 8 a a Z F m c M O.X.n :.].&Xn :.&XK.BX>. .,.].d.n N N K.f.+.O.m P X.X.b b W F v F b o.h o.S b z.W v F +.W g o.v o.F m o.W +.o.+.v W m q q.o.+.b o.u.v w v o.v o.v v c N F N F X.N G Z o.h m 0.S m o.S b W +.+.+.+.N O.y.N a.y.a.+.N O.y.#.X.,.y.W W b g m o.D v D S S W W W S F Q Q X.F #.W N d.X.X.m d.O.,.@.X.:.).P.,.n ,.d.P G.d.d.1.:.:.d.d.@.a.#.#.M c U N X.X.X.g P y.,.,.O.a.O.#.+.N #.,.O.+.a.N #.a.y.m a.P ,.#.h.h.a.W h.N X.X.b N o.X.m X.,.,.W O.,.#.U O.:.P U U ,.O.i.o.! i.,.O.}  ./.} a.a.#.m o.Q G Q v b o.Q G o.+.F m o.N P W g o.F W W b m F N c X.#.#.O.#.i.,.O.g X.#.! ,.O.g #.W W $.f.q.s.F X.v s.#.c N #.X.b F X.o.F b F W W h W +.o.+.W v v F F F S b v v v F h D v q v h 0.o.b v o.+.v v u.Q g 9 F s.u.W W m W #.o.O.#.! m X.N o.u.o.W F g v m b b V S S D S S F D Q Q Q Q o.W b v D +.W g ",
"V V Z G S v S Q w V V h h h h w o.S F b W 9 b y.F c v b F Q Q u.S D q v b S 0.o.F v +.j.+.m N #.u.W s.q.+.m N o.m ,.h.&X$X,.O.#.#.h./.N q B W [.+.X.y.W s.#.X.u.N #.m m F v N m g m #.q.X.m c +.v b S W b v Q S v v V V v w v V #.h.#.W U U :.,.,.].,.O.d.).P >.O.`.,.U h.O.O.f +.y.O.i.u.o.u.,.m #.W +.y.W N U W O.X.+.n N N #.m X.F W W F #.+.$.W W X.X.+.s.z.#.! O.P P #.O.N ,.O.U X.O.! P W y.y.+.W W X.W N b W +.W v F Q F E ! X.! W W W X.W X.N P #.O.N X.o.0.W m W o.F W W F N F W W W N m W X.X.X.o.X.X.y.X.X.X.W +.u.y.O.d.#.O.a.d.#.#.X.d.d.#.O.#.#.i.d.,.d.,.O.O.P +.X.W F F F F G G v G G F F G G v o.F v v G o.o.G W X.W m o.#.m F W b N W N F o.X.F W W W o.o.o.o.+.F +.o.o.+.b o.N $.N N X.m U O.+.&Xg.U c d.K.O.i.,.o.,.P X.P Y.f.}.K.K.K.O.,.&Xd.O.n U U O.d.O.a.O.U.#.W a.W X.X.W N N F W N m +.W F N N X.X.m ! U W W Z V w 8 C C V b N X.a.`.#.P ,.P :.,.K.].U K.,.K.3.;.:.K.d.U ,.O.c m N #.N o.q.u.s.o.v b S m o.s.W 9 b D W q g Q W +.q F F m W X.u.W F N X.W W a.o.y.W v 0.h D 8.o.D z.o.F F F N m X.o.F o.v D S W o.h b v h v F X.X.W W m q c U h.! P X.q m O.! n N X.W F W D W o.W S Q v Q y.u.Q b W y.+.+.X.a.+.X.a.X.+.n O.M @.O.O.,.:.O.d.K.G.,.U d.d.1.d.J.1.d.].&Xh.+.#.N c X.#.a.W +.O.,.O.P ,.y.X.N O.+.W U O.y.N y.! #.a.i.N a.U X.#.#.B #.+.X.X.N N b b N F +.#.#.O.O.O.#.,.#.X.O.N ,.a.a.} ,.O.m g ! d.g.g.6.3.3.X.X.g D Q Q v q v G v g m F W X.N W #.#.+.o.b +.u.o.v c m N N W X.! O.d.d.,.,.i.O.m #.:.N ,.N W o.+.o.j.o.o.W y.+.m m m m W W X.o.o.W D W W S F D F b b S F h v b b S S S S F q F D o.+.v F D F v S Q F v F D W W o.q.W E +.E m ! y.,.P ! i.W E o.#.o.E b v F D D F S v v v q v S F S b b S F S v v S F m q ",
"V v v V v h h v 7 V S w q v S V u.Q v 3 o.s.a.c '.s.W o.b 5 9 q q V v v v v o.D W v y.Q m E m $.W 5 u.o.c g f 9 q #.i.g n f.#.g #.U #.,.,.K.a.c N N #.N y.+.o.u.+.X.W +.W W q.m W m +.f.W N #.g b o.g v W W y.o.V h w v V v C Q X.O.#.X.X.U N ,.d.:.P.U U ). .).n /.U n ].O.! #.! #.! W W ! #.! N O.X.y.a.N N X.W X.U +.N X.U #.X.$.F W F N +.W W +.y.a.a.o.F W i.P n P O.,.#.N i.O.P U O.#.X.N +.N X.X.c N o.b b W +.W h v F b N ! +.+.O.+.y.f.P ! W P W X.! W +.o.b F q.+.W Q X.W W W X.X.W N N F W W X.+.o.W $.o.o.X.N W +.+.a.d.O.! i.h.i.#.#.,.O.P O.#.O.! ,.,.i.O.P U N W W W N N F G F S v o.o.v v o.o.v G F v F o.o.o.X.+.+.+.F +.q.F X.o.N F X.X.W +.+.F W o.+.+.+.q.u.o.o.q.W F W b W m F g N +.W X.X.a.n N a.U X.N ! +.O.! m f n g i.P P P.d.g n U U d.K.d.K.K.>.O.n X.U f.O.X.h.y.+.o.W N N W X.W N y.u.#.X.F c m +.n n N m Q G C 8 6 8 w q m X.O.@.d.n ,.f N }.K.,.].O.O.K.G.5.T ,.n U i.O.P ,.O.N b W X.W F v v W g +.z.v 3 o.+.v W v m +.W o.m q.W N b m q.m N q.+.+.o.X.g o.+.g v w Q Q v q q.v c F F m m F F c o.q h D Q F g F F F b g c b F F ,.#.+.W f.a.y.+.! ! #.#.W W O.W q W +.o.o.Q Q q.o.m q v Q Q b g o.o.o.y.$.o.y.X.d.W O.U d.d.d.a.d.n :.].3.T O.d.d.O.@.d.1.:.:.O.d.B X.X.B W #.#.X.W W #.! W i.#.W N P #.y.O.+.f.g a.a.a.O.X.W h.a.U h.h.c a.,.m #.X.F o.F i m $.o.! E O.#.O.+.,.`.d.P ,.,.O.c ! E m m ! O.}  . .f.} M X.q g v S D S o.o.F v F W F o.q m X.! #.g b o.q.W m m m N W ! P N ! ,.,.O.O.,.,.N O.#.n W X.+.o.F b j.o.W N W F F W m N y.W W o.q.+.W W o.Q v F F q h D S b S F D W W F S Q v b b W o.F W v D b h W +.S q S +.0.o.o.F E +.X.g n O.X.c n +.P ! W X.+.W b F o.o.Q W G D S v q v D W F v b S S b b S F b m b ",
"V w 5 7 h v h 9 w G Q V w S G S S Q o.9 v o.a.m c N g o.Q v o.o.5 v o.8.S q v F F q m m N y.u.a.o.g o.F X.X.+.N X.W ,.#.K.$Xd.f.N O.#.a.n N U.n h.N ! W f.+.W +.X.N m m c F +.F q.X.F q.F W h.v +.T.W F +.Q 0.S D w 5 h V Z A o.W m W N O.y.N O.:.P ].:.I 3.} $XK.d.#.n h.d.g f.,.a.,.o.O.#.+.! W O.U #.#.U O.+.U W N +.W #.U X.X.+.F X.X.W +.X.+.u.$.o.a.y.q.h.#.U N #.#.O.,.O.#.! N P O.#.#.X.N m N F N X.o.W 0.o.W E b W W v +.+.X.U N P O.#.W O.#.X.N ! X.m q.W b Q q.+.W W o.o.X.X.X.X.X.W X.X.F N F X.W F X.X.+.+.X.o.$.X.O.#.O.P ! O.O.O.N i.d.#.! ! O.d.i.d.K.O.U O.! X.X.W N m F G F b o.o.o.v v G o.G F G o.o.G D Q o.W N F m W +.N W #.N N +.o.X.o.o.F F W o.+.o.+.q.o.+.+.F b W W F +.q.F N X.F W c N m :.d.#.K.P n O.+.,.W O.y.P U Y.n zX&X:.&XG.:.,.U P P U U d.O.X.X.h.#.m X.W X.m m N W +.+.o.W F +.+.$.#.F o.}.W U W W 8.q.G 8 8 C G G o.#.#.O.P g `.d.N O.,.d.P.n :.@.;.%XK.d.O.! #.O.P #.a.d.+.+.W b b b W s.+.W D F S W Q Q F o.W W v +.+.u.N X.W m s.W W s.X.#.h.h.X.o.X.9 v 8.w.D Z w o.v 9 m N N F N c c W h v Q o.F m Q W o.W b c N X.X.W +.X.m X.#.X.m i.P N ! X.X.! m q o.+.D F W W o.q.0.0.o.W S W +.F N F X.+.+.#.O.y.X.@.O.h.a.:.X.].T U 3.3.@.O.J.K.O.U O.O.1.K.P.{.B X.a.X.#.a.,.X.c m ,.! ! f.O.a.d.X.+.d.+.W X.N h.a.#.P +.X.y.y.c a.`.b @.n m X.N F $.$.v i N N N E X.#.+.o.+.d.+.g O.,.,.U #.d.,.f.,.I I B @./. .X.z.X.F S Q S v F F c q v b +.$.N P +.a.h.N o.o.F b W $.o.m O.O.! ! O.,.#.! c #.d.P N U c W +.+.X.W b u.W o.c m N X.X.W W q.W F W q.+.W W 0.Q h W o.g h D h F F D W W W S b F S D b v v S o.h D S v Q 0.F q S Q F m W +.o.W y.W P W ,.y.#.X.N W E W 0.W b o.D D F F G D S v v b D W W D D W S b S D F v F +.",
"S V h h V Z S V V 8.q.G v V S V D 5 v F W q N W m y.o.o.b q S q G S G o.F g v q.u.m f s.a.c m F b q.v g X.9 +.W N n #.#.,.,.O.}.X./.a.N U c m f.[.W W N #.X.N m X.X.m q m W N o.v +.F W N m a.y.9 s.q.+.u.o.+.o.0.V 9 w V Z C S a.+.X.q N a.X.#.X.O.O. .&Xd.9 d.h.d.K.O.O.K.O.,.i.d.d.,.#.y.#.O.O.#.W X.O.#.a.W n X.X.+.c N N O.m F m X.+.o.y.+.X.$.F N #.#.o.#.#.O.! d.i.! ,.O.! P P P ! O.O.+.! y.X.N a.y.N W q.o.o.o.W o.Q v X.W W W W o.+.#.m O.y.o.N W X.c +.S S o.+.F F W X.X.X.X.X.X.W W o.o.W F W X.W b X.W o.o.o.y.s.#.O.#.#.O.! X.O.O.X.#.X.X.,.,.O.O.i.i.H.O.! :.O.O.W W N b F X.G v +.W F W W b b W b W o.o.F b F W X.m W F W +.W X.#.N F o.X.W W F m m b W W F W o.o.+.W N F o.+.F F #.W m m +.d.W q h.`.N n K.X.,.! m N N X.! n O.i.! :.:.P.Y.:.P.P.U  .@.:.d.sX@.O.U #.#.U N U #.m b N F W W W X.X.X.m W y.+.W a.y.,.,.q.q.q.A w > 7 w q v N +.#.O.m #.K.#.#.,.! U n =Xd.n 3.J.].P.O.O.d.#.n +.U.X.+.o.+.#.X.F o.o.o.v u.a.c F v W W f b b q.o.b g #.a.X.U.y.X.X.g q W X.N F a.j.q s.q.h q.S F W m N N X.$.F m o.F Q o.0.o.W o.o.v F W W W X.o.o.W E E f.f.X.n X.y.F m W X.+.o.m m 0.o.m m F b m F W o.Q b h m W F F F F X.+.O.#.#.X.#.,.K.,.3.O.T O.n U d.O.n @.O.d.).K.:.,.K.P.aXm W #.W #.a.#.N n O.d.P n a.,.m y.N N +.X.+.+.+.a.X.X.X.d.X.m P U ,.h.@.@.c +.n B m X.X.X.m g b W W F W #.y.X.E X.N #.a.h.U N Y.m ,.N O./.B O.g.X.X.U.o.S v o.F v v v q g b b m q m g c y.#.W u.o.b v X.u.,.E W ! O.#.i.d.d.,.X.,.i.n g P P #.W N F +.F +.b q.N N F N N X.o.F o.F F o.o.S F 0.D q D +.v h D v m v b S D W F S h F W Q D b v v v W F F Q D v g b D v g W q.o.E E E ! #.a.d.d.i.N O.W W +.W b o.v v v v V V v v b v v b D W W W F v v S v g b o.",
"q h V h q w V D w S Q D V V S G o.5 g v W F o.c q W F g 9 g D v q.v V Z W Q b o.j.u.E f.#.9 E N v [.s.j.`.5 W E #.a.i.P X.i.,.d.`.U O.#.].].c #.a.X.y.g c W ! g F X.W c F X.m X.N #.N N o.F F +.W +.o.F o.q.0.0.o.S w w V A Z S X.$.+.c N #.X.+.:.X.n @.$X,.:.K.O.3.d.aXa.O.f.#.#.#.i.#.#.i.#.#.X.O.W X.X.+.#.g O.#.N W n O.X.O.m F b o.o.F X.W W X.F W +.o.v q a.,.P d.d.O.,.n X.W ! O.O.U ! #.W a.W m f.y.m W W W q.u.Q W W b Q X.+.y.u.u.y.+.c X.,.o.o.+.o.E o.b F +.W b F F F W X.W W F W W F X.o.+.+.+.X.N q.o.X.N m o.y.o.a.+.#.,.#.,.,.! #.O.N U d.d.! n :.O.,.! ! O.P ! N F N m b G F m W v F +.+.b g N F b b F W W F b +.m X.X.W o.W X.+.X.o.+.W X.X.F W b N X.o.X.X.o.W X.v b W W o.N m o.X.N N y.[.a.+.d.X.U O.X.g K.f.U.K.c n O.i.K.j ].:.:.,.,.$X,.@. .).K.3.U K.g O.c n O.+.X.+.#.F N m m b F X.+.W o.X.W X.W N N O.! O.+.+.G V a 8 p V F _ X.$.a.a.+.g ! ! d.d.g ,.P &XP.,.d.,.:.K.P.f.a.O.U +.m +.+.X.+.y.o.b b q u.b o.W g o.b F F g q.o.F v b b $.#.c +.X.W m y.X.W m v 3 g +.q s.Q 5 0.v q b W X.N N o.F N s.b q.0.Q F F o.S o.W F b m m W +.f.f.#.u.+.X.N y.s.u.f.u.X.W o.X.F o.W h F o.W S Q F F o.y.q.Q F +.o.X.F +.q.X.#.#.X.O.O.d.@.d.,.O.].d.,.].3.,.).n O.3.>.P P U g f.q N #.X.X.N g X.m N ,.O.N #.! 9 y.X.W m c ,.#.c #.#.y.W #.! U g g.#.X.@.3.X.a.O.+.X.m N o.G g F o.W v b +.q.X.+.y.X.+.o.q.m m f.f ! c #.&X} @.3.#.N #.F b h q.o.F F D b F o.W #.b a.+.N a.,.$.o.+.o.b m W W W N W O.#.,.i.,.#.i.#.#.N P #.W N o.m F q.W W q W W W N c g X.q.N +.o.W o.W m b Q F q v W h h W W Q W F D W W F b W W v S Q W W q F W D D F h q v v W F m W o.Q o.g m #.d.,.P ! a.W X.W X.o.E m S b S S S V v V S F m h v D Q W D W F S m v h b W ",
"7 w h 7 9 w v v 7 q h V v h S o.h S s.b 9 v a.N N N F q q m v v D V o.Z W 0.v h F F S m N +.K.s.9 o.+.j.j.5 m g +.N n d.`.#.N U P.3.,.g.3.,.P.h.i.#.h.! ! y.d.W c q W m g N N F u.X.N N #.$.m W aX$.o.v N u.v q v F V h w Z G F g W F X.+.W X.X.#.n ,.a.@.U $X]./.K.#.&X3.U :.X.i.#.d.,.i.d.,.f.O.X.U O.W W +.c y.#.N O.O.f.#.X.N X.N o.W c N N #.X.N b F y.z.f.,.,.N ,.,.P ,.g ,.X.O.i.,.! ! ,.W +.F m o.o.N N o.W o.+.W W Q F u.y.y.+.W m g f c +.o.W #.+.W X.o.b D o.F F o.F F W X.X.W W W X.N W X.X.X.o.o.X.+.o.o.N g N X.N y.P P O.! O.O.n N d.`.K.#.P #.`.d.:.i.,.,.,.X.+.m F F b b W W b F b F o.o.F b F W F F F W o.W G W q F W m N m m W X.+.X.F o.$.W +.F N +.y.#.$.#.F W c F W m X.N j.a.#.#.F F a.X.O.f.X.,.,.d.O.X.+.K.`.9 f O.,.O.n K.P.d.O.1.&Xd.>.J.].>.J. .].].d.O.U #.+.U N g X.N m N o.q.#.+.9 N +.X.N #.s.,.P n P o.Q v p Z w 7 q b F c c N c #.a.+.q X.! ,.Y.n :.:.].sX].,.K.].,.P n #.K.n d.i.+.+.y.#.o.#.F F q o.q.9 b j.F +.W f.o.g v W o.W F 9 m m X.N 9 c X.q.uXy.X.a.W q.Q v o.v W F v $.F g F F N q.m o.S S S S o.v u.W b F N c N $.y.f.m f 5 m g m +.y.f.#.m m N m S W S m o.0.o.W 9 v W Q m q h F o.X.o.N $.y.N #.X.U n n :.U d.#. .d. . .@.P O.3.jX].d.,.d.$XjXsX+.N y.h.a.#.n g y.U g #.d.#.O.N #.`.d.a.N 9 X.c g +.a.f.m ! +.a.g h.n P X.X.X.X.f.a.+.m N X.o.N W Q W F W +.+.o.W X.g N N +.+.h.a.,.,.,.d.K.a.6.g./.X.o.o.+.S s.v v F F v v F b +.m +.+.c N X.m b o.+.F g c N E W X.O.+.O.! ! ! ,.P O.O.#.,.W m +.W W #.o.q.g m F N X.N m +.a.F o.+.+.o.W F F W D v m S b v F o.q.o.W D W D S m +.o.q g S W 0.S D o.F b S v v D m D F S o.o.W o.N +.f.K.i.! ! #.! m ! o.W S b v F W Q D V V Z Q W F S F W Q W F D D S b S W W W ",
"o.S h w D 0.Q v V h h v h 9 w D o.h S g q b y.c #.m W b D o.h D V 0.z.D g o.b v u.9 m E X.+.c b +.q v o.+.N U.f.g y.! P ! O.h.,.n LX@.,.d.g }.O.i.n O.X.,.,.y.W O.9 y.q.g #.z.a.+.g X.W N X.W f.X.3 o.X.o.j.b S v o.8.v q v V v +.+.g W $.m O.#.c O.`.O.,. . .:.].g.@.n n sXK.,.i.P #.X.X.+.P i.d.X.U ,.X.U a.,.m #.,.f.+.y.O.O.m F b X.W m o.+.W b X.X.N o.y.W W ,.N #.! n i.N a.O.O.f.f.O.O.a.#.X.X.X.c N W v j.W v b D +.0.W o.+.+.X.W W +.u.c o.P m #.W c W +.b D o.F o.q.W W X.X.X.X.X.X.o.W X.F m c N o.#.c W #.+.F X.$.X.d.#.,.i.O.O.y.+.! O.! O.#.#.+.i.i.! #.#.#.#.m W F +.+.X.X.+.9.o.W W W F F o.+.+.W +.q.+.W F o.q.#.m $.y.X.+.o.X.c N X.N c W o.m +.N m o.y.q.$.$.X.+.N #.+.m +.+.a.F N y.X.m #.X.g W U K.U n X.n N N i.+.K.d.#.O.,.P ,.P G.d.j PX>.K.@.f &X5.O.P U O.,.a.#.X.O.N #.X.X.#.j.j.$.m +.+.$.N N s.s.g #.! O.y.o.q q Z w.b 5 v F v W a.b m #.#.O.K.g ! `.i.d.n ! d.].P.O.n n P.$Xd.i.U X.X.P W +.o.X.+.b o.o.b +.u.b v q.j.E +.m F Q v W c W W #.W X.m #.q.W g f.N g W S g b F b v s.W 9 u.+.g F o.N F S Q h S Q Q q.F b g F s.j.+.W +.a.#.N f.u.,.m i.E o.#.X.m X.+.S Q o.W D o.o.S b u.Q m S W Q W F F N X.m $.y.n O.a.y.O.#.P.,.`.d.K.1.O.G.d.O.d.O.J.>.>.3.,.>.,.,.#.X.#.X.F N n X.,.#.X.d.].,.,.,.+.#.P f.a.O.U.+.a.#.W #.W a.a.a.#.K.g d.d.N X.m +.+.W m N X.+.$.o.o.q.s.j.u.+.+.W F g X.N N m f.! a.U ,.a.O.a.N ,.K.N B X.+.q o.g v G G g g v v W m N y.U m a.W b o.+.W N F ! W +.+.#.#.O.W ! O.,.U #.O.! #.+.y.W N N +.q.T.o.F X.X.y.a.X.X.+.c F +.q.+.o.o.o.Q Q W F W Q v v Q W S v v S F F b h Q b W W b +.S F o.D v S W Q +.S m g m +.+.W W g +.y.O.O.i.#.g m g P +.E S W v v F D S v v Z o.F D W W D F S S v b b v D +.o.F ",
"Q w Z 8.D o.q.V h v G V q Z 8.h S D D v g F +.X.o.X.9.G +.D o.Q w h V D D S b F +.o.v +.#.f.N N uXv v u.y.o.9 `.f.O.,.O.h.f.N ].].n c M n `.O.O.n n i.f.,.i.,.m a.g h.+.N q.q #.W +.j.a.m N +.X.g X.c f.q.m g v o.m v q & b o.9 N W X.X.X.g #.N g O.#.#.d.3.#.d.3.d.O.K.} d.&Xd.a.O.,.O.#.i.W O.a.,.U ,.W X.U y.N m +.#.d.X.O.O.X.W W F F N b m c $.y.F m X.$.X.,.! P +.O.,.Y.i.#.! i.h.,.#.#.U X.+.W X.X.N X.N b F +.+.W W o.W o.y.+.m m u.s.E F W E h E u.u.E W v h b W u.u.W y.X.o.$.y.X.c +.u.X.W +.o.N W #.F F W W o.#.y.q.,.N f #.X.i.O.O.O.i.,.h.,.i.O.#.,.y.i.y.,.#.+.X.E o.u.q.F E q.y.b N W X.W N b N F W X.X.X.o.X.W q.+.o.#.q.+.X.X.o.F W +.+.N N +.X.X.c W s.a.#.F #.+.#.X.+.a.F c u.X.X.X.m W y.#.X.h.#.d.O.U {.U #.O.f.O.g ].d.@.,.J.G.].M ).gXj U M P %X,. .U n J.d.d.d.:.#.O.N f.#.X.+.#.o.F N h.z.g N z.X.v W c f.f.v F q D V 5 w V V Z F F F X.W W m P U g P #.d.Y.d.U K.:.P.:.K.g P.].d.d.! O.U E +.N N i.X.o.X.c F m q.N m X.X.y.+.W F v W X.v o.N g b m X.'.N m m W o.c o.m o.m q U.+.c F W N F o.+.o.o.o.S W Q h Q b F S g j.o.g W o.#.q.y.m g o.iXo.h o.W m m f.y.m Q o.F m v o.o.9 q.v 0.s.+.Q v +.Q F +.F X.F c s.O.X.X.y.O.d.O.#.O.} n :.d.,.,.$X>.d.d.=X .K.K.P K.,.$.a.q #.X.c g O.}.+.U X.O.,.,.N N W a.X.m y.a.X.+.a.! #.W +.y.,.U O.,.:.,.:.O.U X.m #.N g $.o.N W b q.+.+.F q.y.y.m h.q.q N h.`.i.d.a.,.a.n d.@.K.d.X.y.o.c W v b o.q v W F o.v W F g X.! m #.X.b W y.W N W N X.W N #.n g ! N O.i.#.#.X.P X.+.W m q g N o.q.+.m b m +.+.m W +.N W q.W v W o.D h v F S b F b v S m Q b 9 h F v g v S Q F g m Q Q W F D W o.F l.S v o.q.Q b F f.[.m o.y.#.! O.+.X.m N E E E E o.q.F v S o.Q v v G Q b F +.o.h h Q S W F F o.o.S S ",
"Q h G o.v S Q h 8.8.8.G v S S h 9 v W S q v o.+.W N W v o.F Q S Z v h S o.o.o.Q 9 u.q.W N U.#.c +.F j.+.N h.m `.#.X.d.,.K.Y.P a.d.3.d.3.:.g.g U a.d.,.i.U P K.d.+.q #.W m +.F h.b N q.y.W W o.N +.#.F y.o.$.o.G F o.v 9 V b w o.F X.X.W X.B y.X.+.W U #.a.X.O.h.X.n U O.@.aX#.g h.K.#.P K.a.f d.X.#.U X.m ,.O.U X.X.#.X.#.W +.X.+.o.X.X.X.F N N W o.+.o.W W W W O.g n K.f.P O.X.i.#.#.#.! O.#.N c X.+.$.W m q.s.o.o.q.q.o.+.0.W y.W Q y.E k m o.m o.y.W m E W S 0.W W W W +.o.v F F X.X.$.#.N +.y.+.X.+.o.W W +.F W X.o.o.X.X.W ! #.#.f.! ,.#.O.O.O.P ,.#.d.#.O.#.U n n X.O.P g n E y.#.F m W W o.o.+.$.o.W F W o.F b F W F X.$.X.W W +.$.+.$.q.y.W b W +.X.N b X.+.c m o.X.+.X.y.X.$.X.X.X.m F c N $.a.#.X.X.N +.O.,.P.a.X.#.I `.#.O.d.#.].d.d.U ].J.G.>.J.d.3.).>.>.#XM U K.3.J.,.O.O.O.,.:.m a.o.N N X.+.+.+.N T.y.W W b o.y.N #.#.X.a.v F F v w w w v Z D G o.W W F +.y.! +.n O.O.:.O.P.O.n n d.3.$XO.n d.].O.,.y.y.! X.i.N +.X.9 +.W m N X.N o.a.X.m W W +.X.m o.W m X.X.$.F W a.+.m v 9 m o.X.q.b c g #.a.$.X.N c q 9 q g o.W S g q.+.o.m s.o.q.T.#.F a.+.y.y.E 9 W W Q Q +.W m o.W S o.W o.u.q.0.o.g y.q o.y.Q o.b o.W F F g N +.W a.W X.m #.U ,.U O.a.d.d.].K.P.O. .U U @.P.,.:.3.3.d. .q q.+.+.g c N +.h.O.U O.,.,.@.P K.,.a.X.g N P m N y.X.a.X.+.O.W P O.,.:.#.,.#.X.W X.U.s.X.#.#.+.o.v o.+.y.F +.+.a.+.+.W a.a.n U }.O.I X.O.P h.N U #.X.f.s.F G b v G v b F N o.F #.X.n m m W y.W b v +.o.W W m X.m N #.P N O.! ,.,.O.#.#.X.O.#.+.X.+.q.X.v b F c +.W +.+.N F +.F F o.o.W F b v F F D m g v v v W q D F h b Q W F S S b S Q o.v 5 S S D W W v q.v q v F S v v m E E W W U O.#.X.m N E W X.W E E E D v v D D v V o.v +.0.S S 0.+.v S D S F +.+.S v ",
"S h S Z 7 w V w h v h w h h w h D S b b b X.X.c F m F v W v S h G S v V F b v h b b E u.X.m m y.W +.u.+.X.[.u.u.+.W i.O.,.K.X.O.@.>.@.I ,.J.M 3.d.,.d.K.,.O.U n u.X.a.#.N m g N N c N X.W F F m X.N X.W q X.F m G o.v v b 5 > G F F N m F c +.X.a.N N +.X.U #.g.g.3.,.M M /.3.h.O.O.P.`.,.n n K.,.a.#.#.+.f.#.U O.O.,.U O.U +.X.F F W W X.X.X.X.+.F W #.#.F m W O.O.O.i.#.X.i.O.#.O.#.#.#.d.d.X.P o.W +.+.X.#.o.F b F W F W W v Q E o.+.W E o.o.m W +.o.E F W o.Q W Q Q o.+.o.v b X.#.W +.a.X.+.o.o.X.X.X.X.X.X.X.o.+.o.W F N N ! X.P P g O.O.N #.#.! ,.O.d.,.i.+.+.+.O.X.W W ! o.W +.+.o.+.0.W X.W W X.W N m E W m N #.y.W W +.X.W W W W W X.+.o.F m N X.+.W b N +.X.+.y.X.X.X.+.N X.X.U N N y.F $.#.+.X.N m W h.W O.X.U #.,.h.O.O.O.].P.h.,.U 3.O.d.). .@.@.1.N.T >.).L >.,X5.).K.d.,.@.,.,.N a.+.N c m W W N N a.+.N m F +.N $.+.m c +.m W F o.S q 9 w V Z D G v b b o.a.+.O.y.y.N X.#.K.K.:. .U :.P.>.:.:.O.Y.K.O.N m #.f.N +.X.W y.X.W F y.+.N m g W u.X.b N c F N m X.W X.#.$.$.m N y.X.N O.W X.N W X.#.N y.#.o.o.0.y.Q m D Q Q h +.W W W o.W b q.q.g g X.o.o.0.W +.m W Q +.o.m E E W y.E o.W W s.0.3 F F o.o.W +.F Q S F q.N N #.N +.W ,.,.h.O.:.N } O.O.n P g ,. .T P.K.,.:.K.d.3.,.U d.N o.+.F q X.W N ,.a.d.d.a.@.@.3.O.n X.#.+.y.+.X.N ,.+.f.+.#.+.W U ,.d.:.O.3.i.O.n N a.i.W W W X.+.W y.#.f.y.d.W #.O.! U :.d.,.].K.#.K.a.P ,.].c c O.X.q.s.F c b v Q F F F b o.o.#.c N +.#.#.X.W E W q.o.W X.m m N W ,.O.! O.! O.#.! #.i.O.U O.+.W y.a.W g F o.N y.X.o.+.F F X.X.F W W o.o.m v o.h b v m W Q W o.v Q o.F b D D S b o.F v D D v D b b D S F h +.S Q D W Q o.W m g g m N N X.,.#.P W W W W W W F b W v v F D S D 0.b g g b F b v v b b v b +.o.S v ",
"S h V V w h V h v V w h G V w G v q q v G q.q.N W N o.b W g v h G o.q.9.D h g b m b W o.c g N q.o.o.g u.q.$.y.O.[.y.i.#.#.K.d.d.O.O.@.U @.J.d.].zXd.].,.O.d.U f.X.F W $.X.N X.F $.N m N N m F X.X.m f.y.g W X.X.s.o.9.q.v q S v G G X.N +.N X.+.X.N X.X.m O.d.,.I `.3.d.d.} @.,.g.I :.K.,.:.,.X.a.X.W #.#.+.W X.O.W #.X.#.U +.O.o.+.#.q.q.q.q.y.X.m b +.$.N N +.#.d.#.O.! #.Y.h.n N X.,.a.i.#.N W X.N +.#.X.W c F F W W F Q o.S W F E E o.p.u.S o.E m m W Q o.+.S m D Q W o.o.F W +.#.W +.y.X.#.F X.X.W W o.o.W X.X.o.X.W N W +.#.X.! O.! i.d.#.#.d.d.f.! #.#.f.W O.,.,.X.m m W o.! W E m W 0.o.o.X.X.o.o.X.X.+.N N E #.y.+.W W X.X.X.X.W F W o.b W X.F N W X.W m +.X.#.a.+.+.X.X.W +.X.N X.W y.q.s.X.g c c n #.W X.#.U X.d.,.O.P K.,.,.O.,.&Xd.].U d.).3.J.,.>.>. .>./.G.#XsX>.J.J.d.,.,.K.K.O.O.X.W N W o.W m q.N c F X.#.+.q a.f.o.c o.+.j.W q.o.v q q v V S o.b W W o.a.+.X.P X.N d.h.,.d.d.J.M O.d.:.K.,.U U d.f.d.X.P +.N c c a.N v q.g F N m +.X.m c m q.o.W o.X.W o.o.F N +.$.g 5 m X.#.X.a.m g `.Y.m g g m N N E E m f S Q o.v W h S F b u.F b X.N F X.S h u.U.U.E W W S E m o.Q W +.m o.S b s.u.q W u.+.o.F 0.D W m W u.X.W #.m X.X.#.#.y.n O.O.d.,.P ).).@.,.d.>.:.,.P.1.J.,.,.d.T d.a.v W F c +.X.+.U O.} O.a.,.@.g.W c ! +.#.i.! N N y.X.i.X.+.#.#.#.d.K.:.:.d.a.O.#.W X.#.+.+.o.#.P X.y.P #.d.H.n $Xd.P.K.f n ,.K.,.c O.K.#.P #.,.#.a.N N y.W q m G Q D F F F o.+.N g +.+.#.h.#.W b +.j.W N #.X.E +.+.i.i.i.y.#.,.#.! #.a.O.N X.,.N P W N F q.u.W #.X.W X.W W W X.o.W m F +.+.W Q Q o.S v F S v b W o.+.W v S D v h +.W g b v v u.Q F F h F b 0.o.o.F v S o.o.E m E +.,.+.! W P N +.W N N E W E F W S S Q o.G Q 0.u.v v u.u.b v q.v v g v Q Q S D ",
"o.Z V S S D D V o.Q V V G h 5 h q h F S q g N F F N o.F W q S S v S Q o.F v S o.v m o.W c m +.o.W g v j.F g m y.Y.X.! X.O.,.,.,.P U ].J.P P 3.,.,.,.P.d.d.,.:.f.#.W g m b F s.y.y.+.W F F N X.a.+.g a.y.N W X.X.$.N X.o.v v F 9 v v _ m o.m m X.c m $.+.U O.d.#.J./.M  ./.@.@.,.K.{.,.O.d.a.:.d.#.W X.#.,.O.+.y.,.U X.X.#.N O.a.+.#.q.#.+.o.o.o.N b N W W N X.#.+.O.O.f.f.X.,.K.#.O.#.a.i.O.U O.g W X.+.X.m X.X.F W +.o.S F Q F y.m h W W W S h y.W h m W W E S W F W W b F W m o.X.o.W X.X.m #.F o.+.X.X.+.+.W F W X.o.X.W X.#.P ! d.K.i.#.i.f.O.d.d.f.! O.O.i.#.X.N X.X.X.P N W +.u.+.m m y.f.W W P W ! W X.X.X.X.N n N +.#.+.F X.+.+.o.o.+.$.F o.+.F b F W m X.+.B m X.X.+.+.+.#.a.X.N #.X.W m o.N m X.X.m U U ,.X.P X.O.O.c g P.O.N N X.$X:.@. .@.U K.K.P ;.G.L.&. .G.J.J.3.).J.3.,.3.K.,.g c m N W #.a.a.q.X.v X.#.o.y.a.W W X.X.N #.+.a.v 0.o.Z h q w V S o.b o.F m X.N c N +.! y.a.O.K.d.,.T %XJ.L @.H.=Xd.d.,.d.h.,.#.U N X.#.F W +.X.N m N #.X.N W N +.X.X.X.X.N F W c v W X.X.N m N F #.`.O.N h.h.W y.#.d.f.+.m g F o.W S S 9 o.D F h W F o.+.q W U.m m m o.W Q S +.W h h m 0.Q v W m m +.W m v W o.S +.o.S 0.D W S +.g F W y.W #.O.m #.y.n O.O.d.a.U d.].K.T P.).:.).,.].,.n O.].K.n X.q +.W v X.#.a.h.a.U O.K.g.} M O.! W g m #.W W W y.X.y.W X.#.#.,.d.d.O.O.d.a.O.i.#.X.#.y.+.,.f.#.O.,.O.i.d.K.:.d.O.,.].P O.3.>.].&X,.U U X.W N y.y.m m f.a.m m o.F F v b G W o.c F i.g g K.f.X.v F u.o.W o.O.u.W U P O.#.#.#.O.#.! #.i.O.P +.d.o.m m X.o.o.W m o.X.W X.X.W N W W +.F v W 0.o.D F F q 9 q g v D o.F D S h F Q v q D v h Q b 9 v q.D D h o.Q o.o.o.S v S W W W E W +.,.,.#.#.#.O.o.! N E W W F b F F W +.8.Q G Q h W W v h S S h b F b b F b S o.",
"Q D V v S S V h h w 9 q v h 7 h D D W D g q m m N m W b W q S Q D v q v b S D W b q W o.X.W y.X.+.5 u.u.v u.g i.X.m n ! #.! n N @.M J.J.I  ./.} d.].g U d.O.].#.f.$.N N m b X.m F X.X.W X.W X.y.+.q m B m m N m N o.v q G F 5 5 q i G c o.c 9 F N m X.a.#.W X.#.g. .>.>.sX{.I @.P K.}./.O.X.K.P.y.a.h.+.#.#.a.+.d.X.X.N O.m #.d.b F X.X.X.W W X.N W W N b N X.+.! i.#.i.a.O.#.i.K.d.#.! O.O.#.U.! o.N W W N #.#.W W +.o.v v S v Q W Q E h m S m W W W Q o.Q W W Q F F S v F W b o.W X.W X.W N y.+.q.q.o.o.+.o.W N N X.#.+.W F X.#.P #.#.#.P ,.d.O.,.#.a.#.i.O.+.a.X.N X.X.X.#.a.+.o.+.#.+.y.u.o.X.W P W W P N W ! +.X.N W y.y.X.F X.o.o.X.X.X.W X.W N b X.q.+.N +.#.m N X.X.X.X.X.+.y.N W a.+.W m X.X.X.q.#.W c y.,.n P O.U O.:.n ,.U O.d.X.,.n P P ,.U  .@. .L N.%X<.T K.;.>.).n U 3.J.d.g.P.K.W b m N X.o.+.$.W W s.+.N y.q.N F g c N o.c $.F F W Q S w q z S o.v o.F q N N g y.f.y.m O.d.}.d. .T =XK.O.O.,.H.sX].! #.K.d.a.a.i.h.m $.a.q f.X.W N m q X.U.+.9 W o.W W m m W g W b g o.s.q.q.X.a.,.#.,.W #.y.d.+.E m m W W S m S S W h o.F W D F v F +.b b #.c 0.m m g E g S o.E S S y.W g W W h W h h v W S W Q Q b o.W o.W q.b +.W q.W #.#.n O.f.O.O.n O.,.#.U d.).L 3.,.n d.M ].,.O.:.,.K.P b S +.b W #.#.N d.d.d.d.g.,.} I N X.+.n ! a.#.y.P a.,.h.+.+.+.O.O.:.:.O.O.,.i.,.N ,.#.a.y.P o.d.K.U :.d.P.@.G.].G.).;.K.1.@.n U n <X:.U #.K.].h.m m m W z.U.m c X.v v v v F v G N c ! X.W X.X.o.o.v o.u.+.c g i.f.a.O.i.d.i.a.#.! P O.#.! P #.a.+.N X.#.F g v v W #.+.X.+.! m m b q.+.v h S F S 9 v v v S b v S q.F F S q b W g 9 v v v F m v +.0.F W v q.o.b S Q W Q 0.q.o.W o.N m N ! #.i.#.! W W W o.+.o.m g m S Q o.o.Z S D b u.s.F v 0.q.b W o.W F F v v +.",
"V V h w v v h h V w w V S Q o.G h q h D o.9.q.o.X.m F v W g S D 0.G S D o.o.W F b S y.m m #.U.g #.b q.u.N U.#.W X.y.O.#.f.,.O.O.&X>.>.@.d.#XlXd.,.].O.d.sX$XK.n X.N X.X.N W F m g X.W N X.W N W +.X.X.m W c o.N $.r.o.o.s.o.9 v v F 9.N q.G m s.+.X.F X.#.X.W #.g.O.@.9 } >.@./.@.N #.`.#.,.}.U y.a.d.X.#.X.O.c +.+.,.N O.X.a.,.W o.#.q.#.#.#.y.X.W F W W F W X.O.Y.,.P ! +.,.#.#.i.P q n O.,.f.d.y.N W +.+.#.W o.o.q.+.D W o.D S o.y.W h W +.S m S W W Q o.o.o.W b b S b W +.F F X.#.W X.+.F #.+.$.+.+.+.+.+.o.o.W W +.+.W F X.h.O.O.U ,.#.d.,.X.#.X.i.+.i.+.+.O.W W W m B W y.+.E N E W +.W g y.#.#.#.,.#.+.#.P X.X.+.#.i.+.N X.X.X.F F W W m X.F b F +.q.+.W +.a.X.#.a.+.+.F X.X.+.m N y.+.X.+.$.#.X.W +.+.N U U O.@.d.d.U ,.P.K.O.O.K.O.d.G.3.U )./. .>.,X@.5.J.J.).lXN.5.#X3.K.&X&X,.P U O.,.F c b b c c W o.W q.N m #.X.N a.N m N X.m f.a.G o.8.Q V w w V q.F q.o.N u.s.X.N N y.W a.d.,.P O.I 1.,.P.d.@.n O.].P.P.f.U O.d.#.#.N N X.9 X.m m N +.W F o.N W +.a.#.#.W N q.N q N m W N c u.U.O.U N ,.X.@.X.#.O.q 3 m u.u.Q m S Q y.S Q v W o.W o.b +.q.W X.o.y.E m S u.g g o.W W W o.W m o.W D S h q.q.o.b T.W Q S o.F o.W o.s.a.N #.F o.,.W c #.} O.n #.d.d.O.O.d.:.G.>.,.d.U d.>.d.d.P :.d.W o.D v q.+.,.W c c } @.} } ,.d.X.y.f.y.a.y.N +.m y.#.h.#.#.+.O.O.O.:.O.O.O.,.d.n d.i.f.h.O.#.d.H.L T ,.G.U >.d.;.J.I J.1.5.<.#X>.`.P &Xd.3 g ! c g X.X.#.a.m c N q v v v F v o.X.g m K.f.c m F +.b o.q.+.m 9 N ! X.N X.! c P n U U #.#.P P +.+.E P o.+.b v F F m q.$.N W W m m v o.o.b m v v S b +.q.0.o.v 9 9 q.D Q Q g v W g b S F S v v o.j.o.b D q +.o.v Q b b W +.o.b m E +.W N P O.! n q E E E W o.Q F b b F W W S v S o.S S S b v v v m W W F F D h h Q ",
"w V v h V v v D w.G G G v S Z 9 m S o.+.F b F N u.F b v Q h v h 9 q v D S h 9 9 T.9 h o.W 5 W +.c f.W `.N c U.c +.K.#.N ,.,.,.d.&XJ.@.M 3.J.#X>.U @.).M T ].:.].#.W #.N q m m F b q.o.N o.o.N N m f.s.F F 9 o.F q.q F s.$.F G v 9 i o.q o.v q f.$.a.F q W y.#.#.I 5.O.M 3. .h.} h.g.O.>.O.n ,.,.d.X.,.,.`.#.#.O.c O.d.W #.a.h.X.X.+.#.$.X.F N N +.N b X.+.X.W X.O.y.P X.#.N P #.#.Y.a.N #.K.d.O.X.,.#.y.#.X.#.o.N v b F b W Q b s.b b u.q.S S Q S S v g m W W v o.W F F F o.o.b v o.y.N N +.N F X.W W X.o.o.+.#.a.o.F W W W o.y.n U h.y.a.#.,.N N O.O.y.P O.! ,.a.X.m X.#.X.P N #.a.h.y.N m o.y.! P P X.O.X.X.X.X.N m N X.X.W P W X.W F X.#.#.+.#.#.$.+.X.N N F #.a.X.+.a.+.a.a.#.X.+.N m N B N W F X.F c W ,.X.X.X.a.q N f.n ,.O.a.:.X.d.U >.d. .@.,.,.G.5.jX).>.Y >.#XMX1.>.>.3. .>.K.).J.d.,.X.g f F X.N W y.X.g X.X.W X.W U.X.N W m N N a.v +.q.u.8.S h w h o.q F F v s.j.o.+.q +.O.d.X.X.Y.P T :.T d.,.d.d.O.d.n P d.d.:.P ,.X.&Xm W y.B N h.m F s.f.X.c y.F #.X.W c q W q o.y.N X.o.X.f.y.n ,.c N @.} g `.a.W N ! E c m y.0.0.+.b +.W F m +.g b +.q b z.F b u.y.q 0.o.E m g F S W S D +.g 9 S v Q F W q q.D o.W o.S Q m m #.o.c a.#.+.#.X.N a.O.#.P #.#.P $X:.:.K.K.P d.g d.d.P U 1.d.,.U N W b F u.g d.aXaX,.} X.I O.@.M O.#.y.#.y.X.m f.9 ! W y.W X.+.O.O.:.,.:.! N #.K.N d.X.+.f.+.#.#.K.1.G.,.G.5.P.1.-XN.Y =X .>.5. .n ].g ,.U #.iXg y.O.f.+.m W m N v 9 F b v N b y.W q.X.+.O.+.a.c m F q.W X.u.P f W #.O.d.d.O.d.d.#.,.d.i.O.O.+.W E E X.F b W +.F q $.+.c N W b b b b v F o.W v b b Q D b b S Q u.Q v o.+.h S 0.F u.D b Q o.Q S g o.v S 5 W W F s.D D Q o.W b b o.g c N X.+.O.#.#.! P N m S W o.0.F W Q D v h G q.D v v v F S S F v v h V D v h D ",
"h v S v V F S v 5 v G F V F v q v S Q o.S g b o.9 b b D o.Q o.v o.g g W F g S 0.h b W g W +.y.W o.#.N +.W n ,.d.`.P.n d.].O.O.].>.,.$X,XK.,.).zX&X5.g 3.L J.).L d.d.O.#.W q v v v o.W b W b c W b +.F b b E q.W F o.m Q D g o.Q v q Z S Q +.S u.F W h N m y.W N #.,.U X.1.1.,.O.@.,.O.:.:.M O.d.:.i.#.#.f.#.K.,.i.! #.d.#.! +.y.q.F X.X.X.X.N +.b o.q $.$.N a.q.! ,.X.#.O.U a.y.X.X.#.O.a.W #.h.U :.O.g i.+.#.N O.W W W W F F E q.W v S W W F b W v S F b F F v h S D D S v b F b W W b b W o.W F W 0.s.u.W E +.+.o.y.O.! X.W #.N f.f.! O.f.,.g P P f.`.,.#.d.#.U N U.N +.y.X.a.,.a.a.#.X.X.+.#.,.m X.+.c W d.O.O.n y.W #.n c a.+.W N W +.+.X.P ,.W X.X.m W y.+.#.+.X.P X.#.#.X.W y.a.O.N X.#.+.W o.o.F m N W X.F y.y.o.[.X.N U.X.a.N X.a.#.K.{.O.P <X5.M sX3.>.#XlX#X5.gXhX)./. .>.@.K.].K. .K.X.N O.X.n m W g u.o.m m N X.X.X.X.W m N #.q.X.N F F F v D o.q 9 S v W o.W W Q m E N k ,.O.O.U i.N :.O.1.d.! :.P.L d.U f :.P.,. .X.O.d.,.h.#.X.q X.+.W F +.s.0.h v m F 9.F m W 9 ! #.,.O.,.#.P ,.a.#.U ,.O.#.N U X.a.c N ,.+.O.N u.9 y.f g m v u.b g S D v Q u.0.v D q.W g D q.S W h q v W W b h F V q q b v v G F b S +.q.m g W X.a.#.W +.+.U N a.,.! #.i.N U dX].O.P d.d.N g c pX}.i.i.`.f.P n P m m W y.#.$X,.].O.,.d.,.,.O.} ,.d.9 ! #.f O.O.`.! `.O.P a.,.O.#.n d.].d.W P +.n #.! y.dXy.X.! d.i.O.d.).P.K.G.).T  .G.1.2.J.G. .1.P P } X.9 y.a.X.+.u.o.u.g W N q.v W a.y.q W c X.P ,.y.d.P N y.F N m y.#.#.N +.N y.`.d.! ! ! #.i.,.W P #.#.X.+.Q W +.u.q.W v q.s.W o.F v q.q.b S b b W o.o.W Q Z h v D v q w S Q G Q q.q.S w G v h Z G Z S D v V v q 5 w S D 7 G w S D Q 9 F +.c o.N n ,.X.m ! O.E m +.o.b W D S G o.S v V V S Z v 5 v o.Q q h w w v V h V A ",
"F F F F F v q 9 v b b q q v v q o.+.q.+.S g b o.Q +.F m v b q.u.W X.b v S g 5 q D D o.b o.o.#.W N X.W a.d.X.i.d.O.d.O.d.:.T O.].P.:.O.:.3.d.J.3.T G.Y ).J.J.>.N.:.d.O.N n N o.v S Q b h F W X.f.+.0.W o.o.F o.W o.o.W u.l.y.Q h h q V v D o.m 0.o.o.S y.+.#.W O.q O.d.a.d.K.,.,.P 1.:.1.5.,.G.P.U ,.i.,.,.N d.i.,.! O.i.#.O.#.+.O.N X.F N W N o.j.f.W y.q.b W c N #.#.a.#.X.a.a.#.+.+.N #.X.#.d.:.O.U U K.O.W P X.W F F N N N W b D S h F q.q.G F v v F S F G v F F F F F S b b Q o.o.Q D W W D Q W W W E S O.u.+.X.,.X.W X.U +.#.X.! O.#.O.O.#.,.P O.,.X.#.a.! U N y.m O.O.U +.X.+.+.X.X.+.#.#.#.X.+.+.N +.h.#.,.X.+.N a.#.X.X.+.#.+.! m m N X.W m P X.N O.a.y.#.#.+.X.O.,.,.#.y.X.W +.f.K.y.W b F W F N W W W X.W +.X.a.W +.a.g U.h.,.,.h.`.O.d.K.O.P >.].>.J. .5.G.>.>.5.5.5. .J.5.#X3. .5.{.:.n n N g n o.o.m m N W +.#.#.#.N #.#.X.X.W X.$.N +.s.o.D S q b S v W o.Q Q o.E W U.y.y.:.! f ! Y.i.H.K.K.O.j O.O.3.:.1.).3. .d.@. .O.n O.O.y.+.E W F b Q 0.0.F o.F v b c N s.q.P ! #.P U ! P :.O.3.#.,.O.f.,.#.O.#.N c #.a.O.h.n P U.o.N m W o.W F D S h v D S F h b o.0.o.Q S h b W o.D h q q i p q w S V v o.o.G S D W b S y.N X.N m X.a.d.a.#.#.X.! O.P W K.n 3./.h.O.P O.#.n W W +.f.,.m E o.g ! n ! #.h.,.`.O.,.,.>.,.@.d.9 #.P f.iXi.! N O.O.iXa.! ! O.O.y.m W +.#.#.P N +.X.X.a.[.#.y.W ,.P.:.:.].K.,.K.%X).#XG.P. X;.5. .%X3.3.K.}.K.a.X.X.X.X.W f.o.E F $.m F +.y.m ! c X.N O.O.,.N ! q.q.+.q N #.a.N #.#.! O.d.,.P W ! ,.,.O.X.,.+.W m F o.+.+.Q W W o.o.b D Q W o.F o.D S D Q o.F h V v w V o.D S Q 8.G G o.o.Z v v o.S v F D V v S Q o.Q S v V Z Z V v w G v o.F F u.c N y.f.,.N N O.:.+.o.+.W h h Q S D Q V V Z S v v v V Z o.o.G G A S S C w w V ",
"v v h S F v v v F G F v h v F S D Q o.Q b v S o.o.o.v m h 9 v h c X.b q Q +.D D S v W v F g N m X.X.X.a.i.! O.X.i.#.U O.:.].,.,.U d.].].>.>.,.>.=XK.T J.<.).G.T G.$Xd.P g b Q q S Q D F o.Q E X.q.+.F q.q.S F F W S o.Q Q W b W h w v v D W b o.+.F m f.y.X.m #.#.d.K.N n i.O.d.O.P.d.>.>.;.>.O.O.i.f.i.,.N ,.#.f.,.,.i.,.,.#.U X.! #.E N O.! #.+.N N +.f.a.y.#.N O.X.O.X.N X.W +.+.#.N a.a.h.h.! ! #.O.d.O.N W +.W N F N N E o.g b v q v o.o.v o.F F D v v b g W S m m S S b v m m b F F S F W W Q Q Q W W o.#.W W #.! W X.W +.d.P P i.i.O.,.f.f.O.#.#.! #.i.X.+.W O.X.#.O.O.X.a.a.#.O.X.X.X.N +.#.#.W U O.#.X.O.#.N m a.a.#.n N X.+.X.N N X.#.X.N X.+.! X.#.X.O.+.O.X.+.#.y.y.O.N m P W N N X.N W o.+.$.y.y.#.+.m o.W X.W a.X.X.a.a.,.X.+.d.#.U ].:.K.d. .>.).&Xd.5.g.@.3.).%X .J.>.<Xg.>.).J.].#.P ! P N E Q m E o.+.X.X.+.3.n #.a.o.N m F #.W o.q.W Q Q 9 q v h D Q W Q o.W g T.o.f P O.! `.d.n ,.P P d.O.P.d.,.U O.,.U U K.d.>.@.n O.O.a.a.o.X.o.o.o.Q D v v b N o.W N +.m X.! d.:.O.i.1.,.O.#.U X.n X.X.O.#.O.,.U d.d.c ,.+.E m W y.X.+.q b W D v S S S F F v g b o.S q 9 F D D S g 9 g F i p i i b w q V v v S F F S S W N m N N X.#.+.n ! #.#.P W #.:.O.P @.,.@.,.K.d.O.y.d.d.i.i.W m W m f i.+.,.f.,.,.P.,.@.P M I U /.U i.! W f.i.! i.P #.Y.,.,.U O.! N N P N W #.W #.i.N X.y.y.X.f.W N K.:.P K.H.O.P.5.:.1.>.=X).j ).<.#X5.sXJ.c ,.h.F +.b X.+.s.+.g F X.m N m #.P m W a.#.i.i.a.! y.X.m N c W c N W X.d.! N K.f.P +.W #.,.O.O.,.+.W m W o.+.Q F S S +.D W F W o.F S o.m h D +.o.b h G D Z G 8.Q D 0.0.v S 8.Z v G o.o.D Z D D v v Z o.o.o.D S S V v 8.V V o.q G o.v v q 9 X.y.m n X.O.O.#.+.W E E m Q S S V h S Z h V i v G Z w v o.v v V C C C S G ",
"v q q v v v v o.F G G F G o.o.W h v b S S b b b W S h o.0.S v 9 F b g 9 q S S q Q S o.W o.v F X.$.#.X.X.X.W ! N #.O.d.,.U K.,.d.,.@.P >.,.$X$XK. .>.J.%X&.J.L. .:.i.#.O.P m o.o.D Q Q o.o.W c g +.Q b o.q.W W F +.D 0.S v W F j.h v v v W Q W +.W v g y.+.X.m #.P ! i.g P `.:.,.1.Y.d.,.5.d.K.d.,.#.,.O.d.#.,.O.d.i.i.,.O.,.y.X.+.O.+.m N #.+.#.O.c N W d.a.y.y.a.#.W X.#.y.a.#.W #.y.X.h.d.f.y.g :.K.#.O.,.#.+.+.W F W F b m W o.F F o.o.F v F o.F G D v v v q S b m b S S b v S m S W Q F W +.W o.o.o.o.o.W m W E +.W U +.W +.#.P P O.O.#.#.P #.#.a.d.O.X.#.O.,.X.U #.a.O.,.O.X.O.O.O.+.#.#.#.U y.+.m X.#.X.X.m #.U X.y.X.#.N m N P X.+.#.#.#.+.+.#.#.O.X.W N X.O.O.X.! X.O.+.N +.y.#.N c W a.g b F F W X.X.X.+.W $.N W W a.X.a.X.X.#.N N ,.a.@.O.U &XJ.3.J. .d.>.5.sX#Xg.>.g.J.%X5.J.5.>.>.@.,.P n P W W W W W o.+.W B B X.3.m +.+.F W W N W W F F b o.o.q 9 h h S Q W W o.E 3 y.y.W +.+.W :.! f d.K.i.d.,.P.:.d.,.,.K.K.>.U >.@.3.O.,.O.#.X.+.W o.q.q.W v h N G v F N m W v m n ,.,.#.d.1.U ,.O.X.K.a.O.N ,.#.#.3.O.K.#.q N y.N N u.#.q b W g Q F v W Q F Q S q.Q g b S h v Q b q q g v b S V S b i b q 9 b F D o.o.Q o.o.W $.X.#.q.X.+.+.g X.O.O.! W ,.i.U #.U @.,.:.O.O.d.y.#.! X.o.W E E c N K.f.f.f.,.#.#.,.g.d.g.,.M 3.#.P ,.,.,.,.U i.O.#.X.P f.,.,.N m W W ! O.,.N y.d.N X.+.#.O.f.+.N d.,.P ,.G.:.J.1.>.,.J.gX#X .=X>.5. .J.3.d.h.n W N q u.l.o.Q g W W N W g +.! g P #.O.y.,.,.n W X.c X.y.h.N N +.c +.#.,.K.i.W #.+.,.#.! ! ,.y.+.o.W F F Q o.D v o.W q.b h D v o.W g q F o.D v b Q Q G Q o.Z S o.8.v G 8.v v 0.o.D F D Q G S S G S S D D D Z v w 8.Z Z G h Z Q v b q.N W +.N y.h.+.E O.X.h b o.Q Q S S v v D Z w Z v v Z V 5 q Z v V C C V V C Z ",
"Q F D Q F g v Q b F F F F D W D F S v v S F b h S b g W o.F o.o.9.9 q F q h F 5 D v W F o.v W o.X.$.+.F ! a.y.X.:.P :.:.n ,.O.d.K.O.g ,.d.].3.U T d.;.>.).$X&.>.U :.O.X.N q F W D S v b b m E N Q o.S Q +.o.0.D +.m Q D Q 0.b W h S h v W Q o.o.o.W h o.X.y.X.+.X.W i.n X.`.O.,.,.d.:.3.G.3.d.d.:.P ! P a.a.d.i.O.+.#.X.P #.d.,.#.X.O.m N #.O.+.y.N +.P y.O.#.,.,.+.O.O.,.d.f.h.U #.a.X.a.+.#.X.! ,.Y.,.O.K.i.#.X.N N W F v c b F v v o.o.v v G v v v F v S G F m b F D D F S S Q F S F b g h F o.o.W m S W W W o.o.y.X.X.#.X.O.#.O.! P O.d.i.P U ! #.,.X.W ! ! #.U m #.+.+.,.O.U O.#.O.X.+.#.,.m #.X.n +.y.O.#.N ,.W a.d.O.#.#.+.O.X.X.X.+.+.O.W X.O.+.#.+.X.X.O.X.X.X.W P W ! N +.,.#.,.a.y.X.m W X.F m m N N N +.#.m +.X.+.+.X.X.y.a.+.a.a.W d.U T d.O.J.d. .f 5.G.].g.>.M 5.@.K.).K.K./.M d.O.#.X.P o.,.o.m E W X.m g c X.a.m +.o.F X.+.W F W W o.F W W g S h h S Q D W o.W m E y.u.O.! +.W d.g U ].H.P O.d.O.d.d.:.d.].d.P } U #.O.d.#.#.X.W m v W +.Q F S c G N G X.W +.W W n #.:.O.d.:.n O.U X.}.`.a.U #.,.#.} U d.N O.W +.m #.T.u.F g +.h o.D h Z Z h v w Q S q V Z V Z v q q v G Q v 9 V S p p S b v G Q S S v q D 0.Q +.F W W m X.a.q.,.W U X.X.O.#.O.d.N O.a.,.U n i.#.O.,.f.f.a.#.! N d.i.d.,.! #.#.a.,.,.@.d.5. .d.,.9 f.}.,.#.O.,.O.#.O.! f.#.#.N a.+.c X.y.f.g X.f.#.#.W i.#.y.y.,.#.K.:.O.d.3.:.O.P.d.,.>.3.G.n >.J.<XsX,.3.,.X.F m q q.l.W o.m F N N o.c +.+.g W W N ,.X.+.N N c c N c W N N 9 P n X.f.d.X.P P #.#.O.! ! #.+.X.m m b b W +.+.Q D b o.h q F v o.o.S v D W v v F h v v S W b b +.0.Q q.+.h F 0.v v v S G G S V F v v V Z D S v h h G V w S V v D v q.m N X.c X.+.y.O.#.X.f g F b o.S S F F o.Q v G F F v V v S G q h V V V S G Q ",
"Q o.0.q.o.S v D W W D b v v S D W F v g v D W D W 0.o.o.b 9 v b 9.5 v u.Q D o.v h 9 v h F g N F W W +.X.+.d.#.+.d.U j O.O.3.U :.n :.K.jX3.:.P  .@.P.,X).;.L  .MXK.pX].f.:.+.u.Q S v S D b F W m D o.S W Q W o.b D S Q Q W F h b h D w h D D Q W +.+.b E N u.o.E i.#.d.! U O.n O.O.,.O.,.d.O.O. .,.O.d.O.,.,.i.f.,.#.,.O.N ! ,.#.,.O.+.W W #.X.+.y.! #.W y.m ,.y.m W a.#.U N N +.W O.#.N #.X.,.y.K.! #.#.#.U.X.W +.W W +.o.b v F h v S v v F F v v v b F v v G F h v b S S b b b F S b v v g h m W W W Q o.o.o.W y.y.f.+.+.y.X.X.i.i.! P ,.a.i.d.#.! P W #.#.O.! +.N U ,.U #.,.+.a.d.f.,.X.X.X.O.U #.U m O.+.W O.O.#.N a.h.a.#.,.#.,.,.O.N N +.i.W +.X.! +.+.! +.N N N X.+.+.#.y.#.#.X.m W y.#.m +.y.y.o.F N N N g X.o.c +.W o.#.$.W y.a.a.a.O.X.U ,.d.U P d.n 3.,.NXK.>. .J.>./.,XP.5.U ,.<X5.MXd.P.d.U ! +.E m F W W N m m N X.g +.#.W N F F W q.o.W b Q Q h S v h S Q D Q o.W 0.f P W N P f.d.d.:.n n n P i.O.,.1.:. .U @.3.d.d.O.O.U ,.O.#.#.#.E v b W Q Q o.q o.G o.$.o.X.N y.W O.! ! ,.O.! O.#.N U n O.U U O.O.O.O.a.N h.U +.N W +.W u.W F b o.Q v V Z v h D w 9 S o.S q v q v V v v V v w v b w i V p w v S q h v 9 v Q h o.Q o.W b F +.#.f.X.P #.,.U X.a.X.g O.:.d.K.O.,.X.! #.y.! n n f n f.O.d.i.O.,.:.&Xd.O.N O.3.O.a.].n d.K.N P O.#.N #.`.d.,.n P X.i.! c #.O.a.m i.d.#.y.N #.+.X.+.,.n d.:.n d.d.:.d.].G.P.>.3.gXI 1.f f O.O.,.X.#.+.+.X.W +.W +.m m m m X.c +.X.c O.m N i.N O.#.O.j.$.+.m +.X.,.+.h.m N i.y.O.! m W W O.X.O.#.W m g E W F v F o.o.S v S v S +.W S o.F F W D b F o.m S b D Q S S +.W Q +.Q b o.0.g v v V Z Z V v w v h v V v h w h w o.Z 5 D h 9 v D F b a.`.y.X.X.o.X.+.+.N c b v W h v F G G G v o.o.G v v Z Z v q h V h w h V S ",
"W W o.o.o.o.Q W F W Q F v h v D v F D S b F Q o.+.j.s.u.o.b F v +.m g G W g 9 h S v F v o.b X.F +.c W $.#.X.n +.N y.! ,.O.P U K.U #.@.P.O.P.P.$XP @.&X].>.5.J.K.U O.n n n m F g S S o.q.W E W n S F m o.Q m F b W 0.0.0.D v o.u.S o.w h F b D v o.+.m W m #.W m m c ! d.K.#.N O.U d.:.,.d.d.K.d.d.,.`.#.#.X.O.a.d.i.i.#.! ! O.! #.#.d.a.,.#.! #.d.,.#.! i.q #.P #.,.`.a.O.X.n X.X.U X.N y.O.,.d.K.P X.+.W Y.E m +.F F o.o.b b W Q o.o.G G o.G v F v F F v v F v b v h h m b S b S D Q W W Q Q Q S m Q 0.q.Q F W o.o.y.X.X.u.+.O.! a.! n +.! P d.i.,.X.O.i.d.,.#.#.N ,.a.c a.#.#.+.#.#.+.O.#.a.a.+.X.N N X.W N X.X.O.W +.#.K.O.#.! +.#.+.X.X.#.i.O.#.! N X.W N +.X.P W +.,.,.y.i.f.f.y.X.! +.#.+.W X.X.W W W F m F m X.N W N $.W #.X.#.+.+.o.N a.+.#.O.X.3.].n @.J.$X,.K.5.). .>.zX3.d.%X].<X>.P M O.! n P E S Q +.o.W W W N m B g +.#.N c m N W q.W F b o.+.v b h h S D S F Q F W v o.o.+.m W N ! Y.`.! E d.,.N #.#.d.K.d.,.,.3.P.:.O.N ,.O.#.O.y.+.W N F W X.o.u.z.G q m m W X.X.N P n N P n ,.K.K.#.U g X.O.#.O.m K.y.+.N U.N b q.+.+.9 g o.q.S Q o.S h D G w q.V V 0.8.Z v v v S v w q w v V v p w i Z p 5 5 Z q Z 8.S Z Q w 0.u.w.q.q.o.D W y.X.U ,.d.X.U P.g n h.i.#.d.#.Y.i.O.,.d.,.,.i.O.O.d.O.d.K.].,.:.$Xd.K.K.P.).O.P ,.X.,.i.#.#.! n O.N `.i.O.P P ! P P W d.N a.X.f.a.m ,.N N X.+.W ! c i.O.N :.O.d.>. .T d.;.;.].>.sXBX=Xd.n O.a.+.#.X.a.W +.W ! E W N m X.m X.P N W 9 ! U.g N +.P s.F N N #.N O.#.U.#.P O.i.#.! ! E ! ! O.#.#.W m m o.q.W b S F S D Q b b D o.0.S W D F F D W W W o.o.W o.+.D S o.v v v S o.q.o.v S S V V S S v h V v v v v q h V G G Z 7 Z V V 9 q 3 g W +.$.N g F o.o.o.o.X.F X.o.c h G F v N F G o.G S v v v q G o.G h 5 5 9 7 ",
"+.Q S v F o.o.W q b o.o.S g h m v +.s.u.Q S S S q v 9 v o.u.l.+.F X.9 9 +.W v l.S v S g F v F c y.9 m q.q.N g f.N a.g X.i.,.O.#.,.K.,.d.n J.:.O.M <XsXg n ,.I  .].,.N :.u.F W W o.D +.+.m W y.+.S m m y.y.m S W v W g Q o.S +.W D 0.h v F v D h W o.E +.W +.! W U.X.q +.K.O.O.a.,.].d.U U O.d.:.#.U d.! O.O.! #.,.X.O.#.O.O.O.! ! X.K.K.i.O.N #.P ! N P f.f d.O.h.,.f.,.,.d.X.#.#.W X.U a.X.U W ,.+.f.#.c [.$.N W c v F F v v W F 9 9 S G v g F v v F F v v G F 0.W v v F Q Q D q b F b v b h 9 D h h S b g v W v b o.N W u.+.+.P $XK.X.a.,.W f.O.i.i.i.d.i.#.i.#.N d.a.q a.O.#.#.#.X.U W X.X.X.O.N n X.#.+.#.a.n +.,.O.W U.X.,.X.W X.#.a.i.+.N X.#.N c W W N #.U.a.#.#.#.X.N N X.W +.f.U.f.#.! F F F X.q.s.q.X.s.q X.o.m m u.c g f.`.c m s.#.#.+.X.d.`.U 3.d.).J.I M <X3. . .$XMX .L 5.9  .].K.I ,.#.#.,.W b 0.y.o.F F X.o.X.m W y.+.m m W W W F W q.+.o.D m y.h q v S v b D b S W +.b y.W o.+.n P K.#.W +.! jX,.O.O.O.O.,.,.} #.n n n ,.O.X.N N W X.W W W W W o.z.+.G o.F b c N P O.X.O.! U }.#.y.,.K.#.O.N +.#.q [.X.q N ].,.+.u.g j.o.v o.h D D Q S 5 h C 5 h w S v 5 9 S v w h v v V S v 5 w i w Z 8.G w q G 5 q v 5 q V w V S h w D D m o.N F m +.f.U P `.`.P O.! i.K.U #.f.O.#.K.K.h.#.9 $XP.:.O.,.$XU >.].U U U U d.3.O.! i.! n a.Y.i.#.K.q #.P O.d.#.N X.X.X.h.W `.X.c f.9 y.+.c +.h.X.#.#.K.O.! O.c K.,.d.J.,.@.G.K.>.L ,.n d.,.X.f.f.N q y.y.f.W P a.a.#.W #.W X.N W +.c K.cX! X.d.P g X.q.N #.y.a.N +.f.O.N i.#.N ,.o.X.! ! +.#.+.o.m W o.o.o.0.o.v D u.F v g q +.W o.Q D S F W m q o.Q D W o.D b o.b h q v +.o.v g Q D S S D G D V D Z Z Z S v Z 8.o.q V w G 8.k.v S S u.b 5 o.W m o.q.o.F $.o.X.y.j.F F o.G m N X.c v F G F v v V 9 v V v V Q q.s.",
"0.o.m Q +.W Q S v m o.m S W +.9 q W h W S v s.W W h q q.S v D s.9 X.s.o.q v o.D 0.v q.W v q.o.F v v F o.c F a.c #.X.#.+.! ,.i.P P #.h.O./.U ,.O.O.P.$X3.n >.$X,.,.U P K.f.m o.D S o.S b o.q.y.m h W q.o.h v F b D Q '.F v q.h q.S v Q 5 g b W Q S j.f.S N y.y.W F y.m X.X.N h.y.a.g #.].d.d.O.O.$XX.,.K.U P ,.N P N X.,.! #.n K.a.,.O.,.Y.a.O.d.! d.#.f.h.,.K.#.X.U.,.c U N c #.d.N N #.O.O.,.#.+.m #.X.F a.+.F v b b v v v F F F F v c q v v v F G F v v G F v F m m S F v h v b g F W g g F v S D S h v W D v Q F b b N F X.#.,.d.i.a.X.,.P f.,.,.P P ,.i.i.N N a.#.+.X.X.y.N y.W a.d.,.#.X.+.h.+.+.O.U #.a.X.N O.X.+.a.#.X.y.O.X.+.#.+.+.+.W y.m +.f.! m O.+.P #.W N i.a.W m m a.W #.n a.X.+.a.y.W c F y.q.F +.#.X.W +.X.N W +.o.N N a.X.$.W a.,.O.#.a.O.O.d.J.3.d.3.@. .>.].&X3.n d.).3.5.P M `.a.U #.O.W W o.W b q.#.m N X.$.+.N m N N N X.T.+.b b Q y.o.g S 5 v v b F S z.u.b W +.y.o.m #.P n ! g K.#.#.n X.}.f.K.n O.}.:.,.,.,.O.N #.m W P m F F X.h.z.F b v T.W W j.N Y.m X.`.h.Y.#.N ! a.N c n m y.a.m N f.U #.a.#.h.O.c W S F +.W v D q q q v Z v w G q 5 q w w V Z w w v 5 V C Z 5 v w G w V p q V 5 p Z 5 w F w w v V w w V S S D D g m N N O.a.f.d.#.f.+.N ! K.#.d.O.#.}.d.d.N N $X3.,.].@. .3.).f MX>.P d.K.,.d.K.O.,.P i.aXN P i.O.,.,.! P O.#.#.X.W #.#.m N +.N #.f.a.h.#.O.X.U.W +.O.y.#.,.g ,.n O.P.f  .K.O.U sXU K.,.O.`.a.#.N y.m f.f.Y.U.#.F a.F g +.X.a.W N #.#.,.! #.O.f.#.X.c N F m X.X.O.+.a.! O.+.g #.! +.O.+.! n E m Q m +.g F F W Q h b W F m v F o.m S W Q D b F o.o.W o.u.f f f.o.F v j.+.+.v g +.v S S S Z G S w w G 0.S w Q 8.w V G G V h V V v u.o.o.g q S m F o.o.o._ F G o.o.F v v b F F X.#.b o.F g F q.o.D S D q h S D Q h ",
"+.o.h S D b o.o.y.0.W q Q b S W q.u.b D h 5 Q h q D o.W q 0.W q W N F F v h S S v 3 q v m v q g v b W 9.b N q.c W ! +.O.X.#.#.N ,.W a.c :.U O.,.].O.U >.,.3.J.>.$X:.H.$Xd.o.o.S 0.v b +.q.F m #.b F Q S g S 0.q.Q W S F W b Q T.o.v G v o.S v S F q.+.S N W E W g +.b +.+.m +.c a.f.d.O.U ].d.K.N K.! N `.d.P Y.O.X.O.#.P #.n f.,.,.O.#.d.a.i.`.O.f.#.d.d.#.Y.a.W y.#.#.d.+.N #.y.+.#.+.W a.h.X.a.+.a.#.$.s.#.+.F W W W G G G D b F F v F G G F q v v v v F F v D m v b b v v m S g b F v b F v v S v h m Q Q S D F N F F F X.+.+.O.W #.,.K.O.,.c i.i.,.#.P X.! W a.y.a.#.U y.,.#.W a.a.#.#.X.+.#.W O.O.U O.#.W y.N X.y.+.W +.#.m O.,.#.X.! #.a.y.N P +.+.#.#.m y.y.W N X.W W a.O.O.c i.N O.c W $.+.F m X.X.m g m W N c N F c q #.$.W N y.N +.X.N W #.#.X.M X.a.@.>.J. . .K.,.>.3.3.@.).K.5.&X&Xd.<Xd.a.a.! #.o.h E u.W o.f.X.B +.W m W a.a.X.F q.F b F +.s.u.W v v Z v h b F +.o.b E m m ! E y.,.#.y.g ,.P d.K.,.#.f d.].:.n `.X.,.f.K.y.f.m n #.X.W N N q.s.W W v #.b $.`.W i.y.#.f.X.a.,.O.#.U O.a.a.W m X.#.h.m c `.,.n d.P +.u.q.0.0.o.S V Q Q A o.8.Z v A A V V C v v v 5 w v 5 v v C w C w Z w v p w Z w w Z q p Z 7 7 a w z V G G S h h m F F N W #.#.#.N ,.a.d.O.#.n d.Y.d.O.N ,.N X.d.sXK.3. .g.d.K.3.3.>.,.,.:.K.].K.`.O.O.O.h.O.U O.N O.,.#.O.O.! N X.N m N X.i.a.+.O.d.+.! N #.X.X.y.a.m #.i.i.#.d.,.n ,.U 1.1.O.].P.O.U O.K.f.X.#.N c 9 a.#.X.#.`.W N N m W N a.n N #.O.,.O.#.! y.X.F c N X.N O.X.#.W ! X.i.i.! O.W ,.O.#.O.m W N +.m E q W o.W b F F b m v v S D v v b W o.o.+.y.+.F F +.F F +.g F E u.b W W o.F o.o.Q D D G Z h S V S v S o.o.w Z w 5 q S o.G v S v W v v o.0.s.G G F v F G o.G o.o.W o.W F N W W o.F v W o.D S D Q v S Q o.q.Q ",
"0.q.W W S m Q o.W o.m g s.S g q.g q 3 F W D z.l.S S o.D g q.v q v g g v v v v S v D F q.s.9.X.F q q F +.b v X.g b X.X.U X.X.W P W q h.X.`.h.U ,.f O.d.d.J.&X].>.K.4 H.].N #.u.v S D q.v v o.m E m D o.o.S W o.W g y.v F Q v y.W u.w S D u.S g S W o.W W X.m N o.o.j.+.y.q.X.a.O.X.`.d.P ! K.O.,.,.K.a.O.a.i.O.O.O.#.X.! N O.N y.O.,.>.O.,.d.d.].O.d.U O.P n ,.#.#.X.X.,.a.#.O.#.X.O.,.X.m #.a.N +.X.X.F W X.v o.F D G G G D Z Z F D F F G G G S v v v F F v v F D m h v v v b S W v v b v b F h v S S h S Q Q D F S F W W F F W X.#.,.,.,.d.! #.U i.X.O.d.,.O.N ,.a.,.a.#.N X.#.X.X.f.y.X.#.+.+.U U O.X.N W #.O.K.n O.U.#.X.a.,.#.y.X.W #.#.X.#.W #.,.X.O.y.y.W N W P #.}.`.O.N #.+.N a.N #.m m W F c N +.N g N F #.y.#.X.m c N o.o.W m X.g X.+.h.X.W O.X.+.X.9 P.,.].d.d.K.O.d.K.d.1.sXsX:. .9 g.<XX.X.i.n m W T.m o.b v N 5 +.X.X.N N W N N o.W b F W Q 0.+.b w o.G v q v W v F F o.b v X.o.y.S o.f.o.f.E +.y.h.X.O.h.#.,.X.K.O.#.y.i.! ,.m N X.N N m m X.q.+.o.W W W f.T.+.o.#.P U 9 X.#.X.U c +.y.#.#.X.X.+.X.i.N ! y.y.f.! F F W F S D S q h v v V A w 5 w A V C A V V V w q S w h w C h A w V w w w w Z V 8 Z 8 a V 5 w a z z D Q G V h h S S b m m N W E o.+.i.f.O.P n `.#.K.:.:.P.U a.,.K.J.,. .d. . .].J./.K.>.U :.,.P f.g O.n N ,.a.f.a.h.f.,.#.,.,.,.#.i.#.W W X.X.#.O.f.+.O.W i.+.#.y.f.c +.#.X.,.i.K.U d. .O.O.O.d.1.].T ! d.N n h.X.m m W n N n +.+.c X.$.W N h.N N X.W i.,.#.N +.X.X.N +.+.N ! ! N c m #.X.N ! ! ! #.! #.#.W X.E E E u.b W F W o.+.W b v S D D S b v v F W Q Q o.+.S W W o.+.F m m Q Q h m g o.W Q D Z S Z D Z v Z h v S S D D v Z v w w V S S S q h D v h W W 0.V S V V Z Z S i v v S D F v v v X.o.W N Q W b F F Q m S D W 0.Q ",
"W 0.o.o.W m Q o.m m S S s.S m q.y.o.F s.q.F o.D o.q h g 5 Q g b 3 F o.v g S D S 3 0.v q F F o.c q 9 g W b g F c F #.X.N X.O.! +.a.N d.X.h.f.,.].&XK.,.,.).$Xd.3.K.,.K.d.#.#.W v o.9 W W F F 9 #.b W 0.+.W o.Q v g s.b S W b o.5 u.w V v +.v h F W W W o.+.W E y.o.u.X.o.X.X.a.,.N +.X.,.,.,.n O.d.N i.K.P ,.].O.X.,.O.! P ,.O.,.U :.,.:.:.d.d.,.O.d.O.O.U P d.d.i.O.#.y.+.+.#.O.a.#.a.f.+.#.a.#.o.+.X.F X.F v +.F S b F D Z S Z F Z F v F F v g D v F o.G v v G S m v v b S S S W S v v v v v h D D S S S D D v S b S F F N b N W #.d.,.,.,.U #.N f.,.O.O.P O.d.a.#.X.O.#.#.O.W X.+.h.,.W #.+.O.W O.#.X.N W #.a.O.q N a.+.X.#.O.a.a.N N d.y.P O.P a.i.X.X.#.#.O.m `.`.X.N X.X.+.X.m c ,.m N c N +.W g b $.N v a.X.W X.q.#.v q W b X.F m W q X.#.X.N ,.a.N O.d.O.d.U ].K.G.].J.BXU $X$XK.1.P.jXJ.).d.,.,.O.X.+.E m m 0.h v u.F N #.q.+.X.W N X.f.m b D W b S F h q o.S v q q o.v F b o.W W +.X.$.o.W X.m u.W X.X.! +.a.y.q O.,.N d.i.y.,.W i.+.f.N m m W X.+.$.+.W q.o.+.u.#.o.W W m W c d.h.#.N ! y.+.g #.a.+.N [.`.N +.h.n q o.b v F S v Q 0.V h V v V A V w V h w v S V V V w w A w w w Z h V w w w v V V V V w C 8 a a 8 a V V z z V h h V D v v v h h v S F d.o.O.i.O.+.! `.N #.U g O.U d./.Y 5.J.3.5. .@.K.&X3.O.,.,.@.O.,.,.! i.#.i.f.O.c #.,.#.! ! #.i.i.W i.#.W O.O.+.h.m X.X.i.P m m h.+.#.O.#.O.N U O.#.P P.d.:.O.U n 4 Y.i.O.,.O.n X.#.N X.W O.a.N U +.c W X.W m ,.W m ! ! d.,.+.n X.o.o.W #.#.N X.O.X.W ! f.#.g ,.+.! O.P O.#.O.#.X.m E s.F F b D o.o.F v v F W W S S b v S F D F F o.W o.m Q y.E s.o.Q g S E f o.W S V v V S S v v v V Q G h h S Z A V V Z S v v D v v W m h h 7 h v Z G G G Z v 5 Z F W o.o.F F F W W N W +.W b W b W m S S h W S ",
"m Q W Q E m +.0.o.E o.E E h Q W v 9 q +.+.b F S Q W o.F g s.o.F b a.q.v v F S S S z.Q v N F a.q.G S h F G b o.F N +.W N #.+.P X.m X.f.U.}.,.O.O.O.d.].O.n O.U 3.n =XU 9 f.W 3 D q.9 W W W o.f y.W W W S v W 0.o.+.Q g b Q m S o.0.v Q v D b v S b W W F X.W W X.v G G o.X.X.+.X.#.m c d.O.#.,.a.#.! ! #.i.,.,.K.O.f.:.,.O.d.,.,.U O.,.,.:.d.,.O.U :.O.@.O.O.K.P.O.#.K.K.#.,.a.N X.m X.+.m n W N X.q.X.W o.G G u.o.G S D G Z Z Z F F v v v v v q v q v G G v v o.m b v m S F S b v S b v v h h b G G S S S Z S h F v v F F b N F ! ! O.U a.h.#.#.! d.O.! ! N O.i.+.+.O.X.+.f.a.O.X.#.K.,.U #.+.X.U #.a.+.X.X.+.a.N W X.X.#.#.#.y.W ,.X.X.a.#.W f.,.+.N m +.#.W N c a.#.m #.d.X.g y.N m f.+.m m f.f.+.b W +.m m a.o.F c N y.y.X.W b o.o.G $.c o.#.F N y.y.m W d.,.P.P.sX,.U d.@.3.jXG.n 3.d. .d.,.g.9 3.3.3 O.y.3 h Q o.F W q.q.b X.N m X.a.,.X.+.b b W W b D o.D S G w V v 5 F F W g b F W W m W W F F E a.+.W W q a.c #.f.,.X.U O.o.,.u.o.d.o.a.y.#.X.X.$.+.X.N S +.W o.+.E E N N m X.m f.h.+.X.d.h.d.N ,.N P W y.c g #.O.N i.z.o.F D D v Q 0.V Z Z V p V w w V V w p C w w w 5 w A w w w G w w w w V V V V w w p a 8 a V a A p w w w q q q v G v h h h h h S F o.! O.i.#.d.o.d.! P U 9 #.d.,.g. . . .5.3.5.>.@.sX>.U K.].O.O.].f.`.P U K.K.#.m n ! O.O.O.#.#.O.O.#.W N a.f.,.y.c O.#.f.! c c h.a.N s.o.+.y.N O.,.g O.O.O.U K.&X:.i.:.O.O.}.d.f.a.q N a.`.h.:.].a.X.X.N $.N W +.N +.#.f.#.! g W W F m +.+.m O.#.a.X.N d.y.! y.N #.,.! O.+.O.y.+.W g E g W Q S h v v v m F W D S b F F F F W Q o.o.W X.m X.q.E U.u.#.f W +.X.+.b Q D Z D D S v h v G 0.Z q v D v G w 9 V 8.o.S h V h S S S Q h h w A H A C V w w Q G Q Q Q S b F F N b W $.W b W m D m W S h S S ",
"o.y.Q W m m 0.y.W b 0.W m m Q q Q g h W S g v m W W o.z.q.q.W G q.q.b g D S h Q v Q W 0.+.v m X.o.o.v b F F o.G c N W X.,.+.N m X.q.W F O.W d.K.N ,.P. .G.DX&XP :.].O.,.Y.s.z.q.D S o.g v u.! N F W Q S v F o.F Q W o.S W o.m Q D D u.S W F b h v o.W b W X.E N F W W G W X.+.+.a.X.P d.U ,.f.O.i.d.X.X.a.P g a.X.K.,.i.#.,.#.#.:.O.:.:.:.d.d.:.U O.:.O.O.O.:.,.! ,.K.y.N +.a.W #.#.d.y.U #.a.X.N +.N N F F o.o.9.G Z D G V b V V v v v v G F v F v v F F v v o.v b b b S D F m q b m v S v v D S S V S Z Z S v D S F F F F F W X.#.d.O.a.d.,.i.d.i.W #.,.,.,.N W ,.h.O.N #.+.#.X.+.h.#.U #.+.X.m #.y.#.#.X.W +.X.a.#.U #.y.,.h.O.+.W X.a.#.! y.y.X.! O.X.P W X.m y.#.N m n X.[.+.K.f.#.+.y.y.f.a.X.F o.X.W X.#.W j.s.W X.a.u.o.F o.X.G y.N X.W a.+.$.#.W X.X.n O.O.:.:.d.K.d.,.J.U ,.LXMXg :.lX3.5.{.d.,.K.X.W f.o.h Q W q b X.N m c N X.N m W F S W W b W o.W q.G w Z F 9 h F o.g v b N N c W f m W +.a.X.W +.N h.m d.,.O.f.y.m N E o.N #.N y.f.d.X.N X.+.F N W o.m W y.o.E m X.N X.c X.X.X.+.h.X.#.#.h.g m +.#.f.#.m N P P W W v v S S Z D v w v w 5 w w 7 w p q V A V w w w w C 5 w w A w w h w V V V C w p a a 8 a a a A w w w w v v h h V S v h h h h h S o.o.i.i.P d.y.f.O.O.K.X.d.d.X.d.).5.>.J.3.3.5.K.].d.3.P.K.U L d.#.}.N N #.O.#.K.d.f.d.,.#.#.#.! O.#.#.+.,.y.#.#.X.f.y.a.+.#.W #.U.g u.m X.K.! O.#.! O.n P  .].&XH.T L O.k y.! a.+.m +.X.y.#.,.`.h.q.+.c #.W m O.N y.y.d.X.! n W o.F c X.X.g N X.X.W P O.X.P O.N #.,.! ! ! N X.W E v o.g W W S v v v S D W Q Q W D Q Q F b S F F W E m m +.+.m +.N a.#.o.m X.X.b F V v Z G D Z F D G G v h Q G 9 Z v v Z G S h q V q v S Q ( S S w V A V w w C A h h h m v v v S o.W b W +.X.b F h m h F D v Q S ",
"0.y.W m m m o.Q m m W S y.o.W q 0.S W o.W Q +.u.h h 9 z.o.9 h F W +.v q W b h Q D q Q s.q.F c F F 0.F v v b o.o.b v N o.+.+.W g 9 m X.F +.a.#.y.:.g O.U n >.U O.P.U ,.K.O.y.T.q 0.h q D X.v c X.b D o.Q m S F h g o.s.S F 0.b g Q D u.S W D S b v F F m X.X.W X.F b b g g F X.$.#.f.O.i.O.#.#.N O.P X.#.! P O.#.! f.#.d.#.O.O.#.,.O.:.,.O.,.H.d.,.d.H.d.,.,.:.O.#.,.y.U g N ,.,.O.U O.+.N W #.U N $.W W F W s.G G v v Z G V w w v v v v F o.G v o.F v v v v v b b S S m b F F m g F b v W S h D V V v V Z D S V S v v F F S F F W i.[.#.,.O.O.i.O.#.f.U.X.N a.#.+.a.].y.U W N #.X.W a.+.U #.O.X.N #.+.X.+.O.U O.U X.X.X.N N X.+.a.X.m X.y.#.O.X.+.X.d.f.W N +.#.#.,.O.#.h.#.g g c U.a.g W y.+.O.#.N W X.N +.a.W N a.a.W N F F W W G v N s.G X.m c W y.a.X.B U ,.,.O.P d.P.:. .U @.,.@.d.d.,.K. .M %Xd.3.].O.g X.9 m o.S D q.W g $.X.F W W c m y.E S F F m F W v s.Z V Z Z v 9 v F m F b b W m N W W b b F b o.U.X.#.o.#.5 m f.W #.W E ! n O.O.U.#.f.#.N X.#.X.W ,.o.W ~ u.y.W ! y.X.#.N #.X.X.a.y.f N N f.m o.E W #.c m h.E 3 h.S S v Q q.o.V C w V w w V C V A w 5 p G C w p V w V 5 w w V w V V q V V V C 8 C V a a Z 8 8 A 5 V v v V V v h h V h h h h h z Q y.+.y.y.m +.+.d.X.#.,.c I n @.%X5.J.| I L Y n  .;.1.,.>.d.,.;.i.P a.,.K.,.P q P `.Y.d.O.U O.O.X.c N #.#.X.#.f.f.X.#.P X.W +.N P h.v a.b W i.+.+.g a.`.i.d.O.O.n i.K.d.cX`.f.O.#.N #.#.B U X.d.X.y.c N 9 m N c c N y.#.#.! #.! +.q.X.m +.+.m W X.X.,.d.#.X.O.W i.O.#.X.O.W n E N m S s.F F m D +.W D D D W Q W W o.o.W b m b m g E W N o.+.m m W g y.f.#.g o.N E S h w v S Z D Q Q V v v v D D w v G 8.G v w w w S w S z S S h S u a C a u V A A z v S G Q G Q o.o.X.b N +.X.b v v m q b S v Q W ",
"h S k h m m Q m u.u.S f U.u.W o.b q v v q g v b v s.b q.v h j.0.q s.s.b F S q v s.h S g 9 W W +.9 o.D v v F q.q.+.v v W E O.+.m g g X.q c a.n W ! f i.O.n d.O.n O.P O.O.K.[.o.+.S o.W b b F O.m b S W v q b +.+.v S S S S h v o.o.V o.v D F W o.q g g b o.X.W +.g v o.o.o.q.o.o.X.h.N +.#.X.X.a.W X.#.O.P W X.N ! h.#.h.,.O.,.d.:.O.,.d.O.O.d.1.! O.,.,.,.i.:.O.#.#.,.+.U N X.#.a.c m ,.X.n W o.m o.F F g S u.q v q w G o.Z v v v v v b G o.F v v v 9 q g v v v F F S v v F D b S Q S b o.D q v V v v S D S S v v h v v S v v b m U a.N ,.#.O.O.#.m ! a.P U f.! a.:.P.d.,.,.X.d.! m +.O.U +.O.O.X.#.U c X.O.X.,.X.c ,.`.O.W ,.O.O.N ! +.X.X.,.f.#.W i.d.O.+.i.P N O.n f ! ,.+.+.#.y.W +.[.X.c U.s.W o.W q X.s.m a.m 9 F s.#.F W o.G v v j.+.$.N X.W F +.,.N q c f O.n O.@.P :.f d.,.n :.:.P ,.U @.3.3.lXd.9 K.g u.f W S S W 9 +.X.B q N q.o.m N b v S D F Q o.b u.V G Z F G 9 v 9 v o.F b W v g W W W q.u.+.W q.o.+.F +.a.f.c N X.E N E g ! W f.#.`.K.#.a.a.X.X.y.#.,.O.+.+.m O.P c +.X.a.N c X.W m +.f W E f.c m F W v F o.v g v v h G w.S 5 q w V V w z 8 5 8 V w V G C w w w w w 5 w w w w G C 7 V w w C w G V C Z Z 5 5 C > w q q w w w q q h w h h h h S Q +.m O.d.E #.n g N O.n P g.O./.{.$XFXG.} K.sX .M 5.d.O.U i.G.,.,.`.n g #.O.h.! #.,.i.i.i.d.d.d.d.d.O.O.#.X.#.,.P ,.O.m ,.#.X.N d.y.X.U.#.! N y.#.Y.h.,.U O.f O.].,.$Xf d.y.y.y.+.B c c W U.,.`.y.a.9 o.N N #.y.m v #.X.X.! f.y.i.+.F m y.f.$.a.f.+.#.,.n X.a.N ! ! ,.#.,.+.E +.o.W S q.b W D W Q o.D b v S F b v +.o.F b D o.Q b b +.o.u.o.9 X.y.u.! W +.#.`.N F q.G v v v v v S Z h v Z v h V Z V Z Z V C G Z h G h S S h v 0 S w V A A A D C h h z S D D S S S o.X.m m o.+.F v W F g b S v Q Q ",
"v z.'.v o.q.q.g E ! m f g d.O.#.g a.Y.a.U.N N v W +.W 9 0.q.9 0.m h v o.0.u.s.h D h D S S '.b v S q s.G o.o.v v W v b X.X.X.X.W W U.W +.m m m c X.X.+.K.i.X.f U.:.d.,.i.~ y.E m g a.+.+.F N q +.v Q 0.W m o.o.h S S m S Q E S Q D Q Q S G Z q 0.v q q v F F v v Q W v h b v b +.o.X.X.+.$.#.#.y.#.#.#.#.U n O.g.@.O.K.@.O.P.O.T U d.]. .O.,.:.T ,.:.O.:.i.,.i.Y.U O.O.U O.a.f.i.#.X.a.N g N v $.S G Q Q D Z Z Z Z w G Z Z G q v S V S Z S v V D S w v S v h v v S h v S v v F 0.D D F F F S S v S Z V b V Z V w G Z v v V G Z v m N y.f.#.! +.,.#.#.U ,.d.#.,.O.K.K. .>.O.P ,.O.H.#.g O.O.N a.,.X.U O.#.#.,.i.#.N ! h.y.O.#.+.h.K.,.d.,.K.O.O.X.i.q P 3.O.g.#.:.].d.d.d.U P ,.d.W N +.X.y.b o.#.m +.q.j.U.X.g F F W o.[.o.b F F s.q.q.o.N N X.X.c X.W X.u.W F [.O.#.c n n U M d.@.3./.} I K.d.d.3.J.>.@.} n O.d.E a.! g m W +.F o.G X.X.o.F q G v v F o.o.v v Q o.v v v v W G w q v Z Z V Z o.q.v b F b v W +.F W F W 9.u.q.+.+.o.+.X.W O.y.#.N a.i.i.].@.O.P O.,.} U 3.O.n #.h.q X.X.N +.#.X.N m g N s.j.+.W 9.$.o.m q v b v S D Z V h w w h h 7 h V v w 5 w h w w w w w 7 5 5 w p V V w 5 w w w h V S V V A 8.v w v A Z w w w V v w w v V v w w h h h q h S W b '.m y.+.W y.n #.O.g n K.O.3.d.n ]. .M d.d.K.K.L O.,.O.>.K.d.n &X,.d.K.i.a.a.N a.#.,.d.O.>.J.T *X<...B.>.>.K.} P.d.:.i.#.! O.W o.[.X.m #.c U.c #.X.N O.n ,.:.O.].P.U g ,.f.W q.q s.o.W W g X.f.n E E g t.m k P o.i.W j g ! o.O.o.g W U.E +.#.N +.X.f.X.X.@.3.#.O.O.U X.W b F F v Q S F F m o.W D v q g b W Q Q 8.u.D v Q o.S v S Q D S Q o.N b #.y.y.o.E E o.0.Q q w S v v D V S q F F 8.w V G w C V p C A C Z w w D V q q 5 S Z v w V V h S o.S h S o.+.E E o.+.v b +.9.W b q h v h h v S D G ",
"v g F W u.m o.f.E 9 N f.O.#.n N :.#.+.+.h.X.y.#.+.+.o.m l h S l.Q m q h h v Q 9 h h b S D z.S w S = Z w o.s.o.Q W W q.q.N g v b c X.E N m f.h.iXW u.+.f.P g m y.y.W m y.o.~ n W #.N N ,.c o.X.g m g m W S S 0.s.h S S W ~ E m W m D S V G S w o.Z v v S G F Z Z v S S b F v v W X.W N W X.X.X.o.#.X.U X.O.X.O.,.d.U 3.O.P U U $X,.@.,.U d.G.d.J.,.,.:.,.d.:.O.i.K.d.O.P ! i.,.! #.X.#.q.o.N c o.F S S S Z D D Z S w D S S G v G G Z Z Z S v Z o.Z h v Z v v V v S v v S S S S D D D S F F F S V v V v v b S V w V V V v V G G G +.X.+.#.W N X.X.X.O.P O.,.,.h.3.:. .@.:.,.d.d.].O.,.i.y.O.O.i.! #.+.,.#.! W X.W #.N X.P X.y.W X.,.O.d.O.d.d.,.:.O.K.].d.P O.O.P.:.@.,.d.,.,.d.3.a.O.N 9 +.a.y.q W X.N N X.N b q.W W Q z.F v b v v v o.s.y.+.X.N s.U.+.m X.W c N N X.X.`.}.}.,.@.d.d.3.N } f.a.@.M @.@.>.>.n U O.P ,.! ! o.E m q c o.X.m o.r.o.o.G F F V S Z F v S S G D v v v q w V Z Z V V A ` h h b v g S W v m F W W o.0.o.G W W N n P ,.,.O.K.:.g n O.$XH.P O.O.,.3.,.,.a.O.X.#.+.B q #.h.X.y.W W y.a.X.b F F q.o.v v F v q G Q G S h w w w V V V V V h h w w w w w w w w w w V V V w w w p h h V V V h V G V V V S S V V V V p w w h v v v h h v v v v v b b m m ! W y.O.}.n #.3.d.K.P :.K.U M /.J.P.$XO.d.&X].J.>.>.K.d.U d.:.i.i.O.+.#.P X.O.O.K.,.@. X*.N..XZ.L.(.5.5.P.,.d.d.d.d.:.O.#.! Y.a.#.i.U K.c X.#.n O.d./.O.I ,.3.d.,.X.W X.b o.o.v o.+.Q q.m o.n o.~ W 9 ~ f.m +.u.p.f.y.W E u.b g o.g ! O.W X.X.h.O.O.X.@.} U a.y.F b W o.S D 8.Q o.o.S W m q D o.D b W o.Q Q Q v v Q 0.o.o.5 h h w v b F X.m q.a.+.W y.q.F S D 8.o.h 9 w w v v D w Z V D w a A C a V V w w v v o.Q Z V w Z V v v v v h v F v v m o.+.o.o.#.N c W u.q.o.F h D W G V V G G Z ",
"o.h F W W v W +.U.c ! f.9 n :.`.O.n g c W N a.+.S m Q z.y.Q 0.Q q.Q v S v v 0.o.v 0.0.S 3 v o.l.8.w o.w v v v v v g F +.+.o.X.N m W #.E n +.g X.m y.W y.N N y.W u.Q h o.W W m E c F c W E o.N X.Q E y.f.+.m E +.o.+.Q E W m m Q m D v S G v v Z Z V v V Z Z Z Z v S F F F v v W X.F N W X.X.X.o.X.U W +.#.#.#.,.`.:.:.U >.].3.,.d.>.,.U d.d.d.d.,.,.:.i.H.i.#.,.,.:.! P O.a.a.#.+.P m #.$.c g v u.0.G Z S v h q Q S Q S V S v G v v v V V v v S S h v Z v v S V S S v v S D S h b S S S S S S S v V v v v V V v w b V v V Z G o.+.F W o.X.X.#.O.#.a.O.O.O.,.h.,.K. .,.:.,.K.U O.:.O.i.O.N #.#.+.O.X.#.#.P N X.X.+.W X.W X.#.X.+.:.O.K.O.,.K.,.O.d.].P O.d.].:.>.U  .@.>.3.,.O.U +.a.a.X.y.j.j.W F X.N N o.o.X.$.+.v 9 o.0.l.s.g u.N m N c g N X.F a.$.N W W N $.h.O.n N n O.O.X.#.,.X.U X.O.#.} X.,.O.O.O.n P X.P ! n ! +.! W W a.v.o.c X.$.F X.W o.o.v v G Q S v m F F v v S v v V V Z V V V Z Z F W D b Q o.F v Q o.S F +.o.v Q +.#.#.i.h.K.f.i.O.O.K.:.:.:.d.O.O.>.3.3.d.,.N N N a.#.m a.`.X.o.N m W #.+.W G 9 Q G 9 q Z o.8.w h v v h w w h V h w h V V w 5 w w w 7 7 w w p p p p w w w w p V h h v v h h V h v v h h V V v w w w w w w w v h h h v b b v g o.N #.+.W +.f d.P X.U U ,.n :.,.3.g ).K.O.).,.:.d.d.d.:.:.3.:.U :.,.,.O.O.+.+.! W O.O.).d. . XN.4.*X X(.L.<.N.P.3.$XG.>.P.G.U U O.i.d.:.O.O.].@.U `.3.,.J.K.U ,.>.>.,.d.n N }.+.o.v v o.b W '.T.iXE E E W m o.k y.y.:.o.+.W W f.X.N m +.N X.X.#.U U h.O.X.} O.} N ,.a.o.o.q.o.h 5 w q D Q W O.E 9 Q 0.D b o.o.D q.D S S S v S v w G G V S F o.a.m o.y.+.o.+.W g h o.0.G V h h S S S D h Z Z D v V A C a A G V V w w G G Z S q v w v v h h v b v F F F W X.O.X.W X.W o.o.F G o.X.v F V w q v v w ",
"u.o.o.W F o.+.m X.m U ! 9 O.O.#.c N W U m W f.W m m 9 y.o.m S q S S h S v h o.0.S Q S D o.q.o.h o.q G w q h S G W v F o.$.#.X.c g N #.#.,.i.m m m E +.a.y.f.f.m o.+.F W b o.E m E f.#.y.#.+.N y.g m +.#.E m E m W o.W E W m m W F Q v D G v Z v V v p v V S Z Z F W S m F F b o.X.F N F X.X.o.$.B U #.y.#.X.O.d.:.d.].3.3.).3.;.>.d.). .,.d.d.:.3.,.O.:.d.i.:.,.,.d.f.,.! P N N X.W 9 N W q b v h h h v Z G o.o.Q D Q D v h v D q q v V V v q q v w v V h v V v S D S v v D S h v v v m v v S S S V V V V V Z V w V V v p V V F F m N o.+.#.,.O.y.h.:.O.O.#.d.>.,.O.3.,.,.d.O.,.].n P X.O.,.! y.P N O.+.! X.+.X.! ! +.#.+.#.#.d.:.d.d.,.d.,.,.U O.,.n K.].,.O.:.T ,.@.U :.>.P I N +.d.#.N m X.y.N W X.o.q.y.o.F o.+.+.u.F W q.b F q c o.o.F W W W +.#.y.#.c g +.a.O.#.#.n M } N a.K.d.K.a.U ,.O.N O.n N X.U :.i.,.f.+.#.#.! ! ! y.a.m m y.F m q.m o.#.W b b W W o.b v v v F D v w w p V Z Z Z Z S b F S v S W b S Q o.F S W D v W +.#.+.#.y.a.i.K.O.O.].P.:.O.,.K.U  .3.,.@.X.O.,.N X.+.c B a.h.y.+.W W o.o.F v v o.o.q q w v V V V V S G Q Q Q h q 7 q h h w 5 V w w w 7 7 w w w w 7 w w w w w C h w h v h w h 7 h h w w V V w w p V w w w w v w w h v v v v v g +.+.X.X.X.X.O.i.#.P P d.O.G.1.,.J.,.,.P :.&Xn n O.,.,.,.O.U U :.d.:.O.,.a.#.W X.U ,.K.1.@.G.L.J.4.B.|.<.6.%X>.J.hX#X;.).).T >.d.O.d.d.T O.G.3.U ).3.@.@.3.@.J.n U :.}.d.a.aXv q v u.T.+.b Q +.o.W t.m m W y.g +.+.:.E ~ k E y.n W X.u.W W P i.#.O.h.X.N N @.#.#.P P X.q.q.Z v G Q v D W S o.W D D S h D q.o.m h 3 v Q Q S 0.o.S 8.o.S v b b o.o.m m +.+.S m W Q o.v v o.Q S Q G v v Z G h v F V A V a G A C V V w G G G D q v 5 v V h v D W b W W W F W O.X.E a.#.#.X.F o.q.o.F v v S V V V Z ",
"0.b S +.+.f.s.o.m +.P N ,.}.P g m m ! a.o.X.y.E F u.m u.W f 9 h S Q v S v 9 v S v v g v o.o.Q 5 q.q v q o.o.o.F F F +.+.W W o.X.g F h E u.u.U.s.+.m U.f.u.s.W F v W S D v o.F F o.g ! Y.W ,.i.m #.X.X.P m N X.! q m E X.+.E m b N F N F F F G v V V v v V C A Z G W b v F F b F W N m N N F X.X.m F $.q.+.X.O.,.d.O.:.,.,.,.>.d.O.3.). .,.d.d.d.,.,.O.O.,.:.! O.n X.:.#.O.#.,.a.W X.q v F b +.m S D G Z v q q w v v S D S v S D h v V S S V v v v w v v w h v w v D D v h S F S v v S S v S S D D D Z S S V S Z V V V v v S S v W F X.o.W X.O.U X.y.O.X.O.#.g.,.U d.G.K.,.U d.].].P #.a.a.a.! ,.X.W X.#.+.+.X.m X.N N +.a.i.y.#.O.d.U P.P.O.K.,.:.,.,.sXd.U O.@.@.d.3.>.d.,.:.d.,.,.+.U c n U #.X.W N m N X.W m N X.+.+.v v 0.b N g F a.u.o.W N q.X.W q.a.W c m c M g.].K.a.,.N K.].d.h.,.B X.U m o.N W X.N P N O.K.d.,.,.,.i.O.n @.N X.a.B c N W W W N m m S W o.F F F v v v v v q w V Z C V Z Z b F F v S W b S b b S S b b b q.q.o.N N W O.#.f.#.O.O.d.K.K.O.h.U #.,.O.O.U ,.#.#.O.X.m 9 m a.+.+.+.+.+.+.o.F q F G o.o.v 5 5 S h 7 7 w w 7 5 w w w h v v v h V V V V w w w w w w 5 5 w w w w V w w w V v w h w V C V V A Z V Z Z C C V v v v q h v v v v S W b X.N c W X.,.i.P O.1.3.d.O.K.H.O.sXO.d.J.3.sXn K.P.d.,.,.@.P @.O.1.i.#.#.#.X.W O.n i.,.:.>.&.L.<...4. XJ.(.,X<.5.hXhXN. X*X1. X).O.K.=Xd.,.O. .1.5.>.5.5.%X).N.L ,.@.K.f.q.h.g v F D o.u.o.g P m +.,.g O.O.! m W +.y.m W m o.+.W W N X.c m m #.f.#.h.U n n U X.d.! W c b W S o.Q G v D E m W W 0.S q S o.q.Q S q.S q.o.D 5 S v S o.G S D W G X.X.c g o.0.W W q.u.o.q v 0.D w S Z v v G S w h G V A a w V v q 7 w 5 v v v v 9 h 5 v S v v W W b b F E N W +.y.+.+.o.#.q.#.q.+.v W g q Q o.v v 8.",
"D o.W W W z.u.b #.U.+.! y.K.P h.+.N g f.f.+.X.E Q f.W f.+.o.g b Q q.S v S v D D q v W 9 9 9 D q.s.V Z V G v v 9 F b F W W +.#.X.o.q.v m +.m +.E y.h [.y.W o.f q.o.G F q.F v q F E m o.K.N P P n Y.+.X.#.O.N P W O.+.W W X.W P o.N c X.N m o.G G v b v w w V C V V D b b W W v v X.N m m m m m N +.o.X.$.,.,.#.O.3.O.P U 3.K.d.>.d.O.>.P 3.>.O.d.! O.O.:.d.i.:.:.Y.f.,.O.O.! W N m W N b F o.o.v 5 h Z D S S G o.h V v D Z w V V D Z v h v S Z Z v v V v w v V w v S S v h v S D S S D S S S D Q Z S S S V v V D V S S V Z G G F 9.+.$.o.N X.#.+.N #.O.O.X.O.a.:.K.).>.d.d.O.d.O.d.,.f.i.! O.#.y.+.W X.#.+.+.X.m P X.! y.y.X.,.,.,.d.U ].P.:.K.d.P.,.:.].:.d.K.U ,.d.J.J.d.1.3.P.O.d.,.#.W a.,.O.o.N m N m m N g W g 9 c o.q.l.c f.o.N m g v W X.N W X.W W +.$.X.O.N X.I O.O.,.U U.a.N U X.U X.X.o.a.W N N c N N #.K.,.L P O.d.,.U f.O.X.U n O.N f.+.N N O.+.W E c v W o.b v v S V w w V V V V Z o.F W Q F W o.W b v v F F b F o.u.u.a.y.#.+.O.X.O.#.P.K.,.O.d.d.O.I d.} M ,.X.X.c d.h.+.+.o.X.#.m m F X.o.o.o.o.q q w G 8.Z w Z w.Q V V S G S h w h v V v v V C w w p p p w w w w w w w w w w w V w w w V V V V h V C C S A S V C V V p v v w w h v V v v v W +.u.c #.P #.O.g i.N ! ,.:.:.P K.K.@.P.d.d.`.K.d.3.].).>.O.d.d.O.O.U ,.H.d.O.N ! #.+.U i.,.3.G.2.). .J.N.).*XB.5.N.L. X8XZ. XkXV.<.L.1.L.,XP.J.1.5. .Y &.L.4.L.4.L >./.>.O.O.U y.q.o.Q q 3 W y.O.U.f.,.m g d.P 9 g m W ,.g o.N +.#.W g f +.W #.X.U +.N a.X.U N U U P #.U.N g W v Z w h h Q Q m ~ Q Q S S 0.q.o.D D D h Q h D q 0.q.h S S S 0.u.q.q.N N E E W W E m Q Z V G o.v q v v G D D v G D Z w Z a w v p w w w 5 h w q v 9 v q V D v v F S v F W W X.O.+.,.y.+.N F o.+.#.o.v W g q G Q w w G ",
"S u.o.D v 0.F q q o.+.+.! W f ,.+.f.W f.f.f.+.W f.y.S W 9 +.E o.v o.h 9 v S D S S 9 Q h o.0.v w Q v Z Z G 9 F v q.W b F F o.F 9 W o.o.F q.m E N W v j.b F F g u.9.` F q.F v 9 b u.'.`.}.:.P j :.P g n O.#.+.O.W U.f.O.U O.O.O.y.O.g y.N q +.b o.v S V w w z V w h W D S W W F W $.X.N N N b m N y.$.o.+.#.y.,.#.c a.K.,.O.,.d.:.a.O.,.I ,.X.P ,.P #.+.,.d.d.,.i.d.#.W W X.+.+.o.m m W F F W v v G o.o.G S v v V v Z h Z Z q V w S S v w h S S V S V Z V h v S w v v v S S v v S S D D S S S D Q V v V S S V S o.v Z D Z D Q o.Q +.o.#.+.W +.a.#.O.,.O.O.O.U :.:.K.:.n O.P.].d.O.d.d.,.,.P N i.d.O.W ! +.X.+.+.W N #.+.d.#.m #.d.i.d.,.d.:.d.O.:.:.:.,.d.O.d.,.P.d.,.d.K.3.@.,.K.O.,.:.,.U ,.O.O.X.n X.#.X.W N c +.W o.W b g q.F m m N N m W +.W W +.y.o.m m W W y.+.X.c X.N X.m j.X.F N +.a.#.y.v o.v q v N y.f.`.$X,.U T T ;.T O.3.O.@. .O.&Xh.d.,.O.O.,.a.:.P W m N X.F F W F F v w V V w v Z F v b F v b D S v b S S S D o.+.F X.+.y.y.#.X.W a.W a.h./.O.:.O.O.I d.} n ,.U U O.y.#.N m #.h.h.+.W F W W b h q o.o.V w p w w V C V h h h V v h w h V v h h h v w w w w w w w w w w w w w w w w h w w h V h v V v w w V V v V V V w w w v V w w v v v v v b D o.b q +.#.h.+.P d.a.O.O.O.d.d.&Xd.O.,.].:.,.K.@.J.>.d.O.U K.K.O.O.,.O.d.f.O.N +.#.+.a.:.d.].J.P.G.J.).G.). X2.=.V. XV.*XR.Z.eXR.%.2.P.L.XXL.XX X X(. X|.9X*X@XN.B.&.5.J.].K.,.o.+.F o.s.W F X.m o.n n +.O.O.9 P f.g m u.o.Y.E ! m ! g N h.#.d.,.U N c #.X.+.X.X.U c ! `.o.b +.h v Q 8.Q y.+.m W o.S D Q o.o.Q D D o.Q o.9 Q q S h 9 h q w D o.W X.W +.o.P m W S g h V G D v S D v S Q V G S 9.D V 7 V V w V V v V G V o.W W Q F o.v S D S b F N b W W o.+.O.P ! #.,.m c W W X.X.N o.G D o.o.F F G ",
"D S 9 0.o.g 5 u.v g g m c y.m k 9 `.a.W m y.E 9 f.u.iXiX9 +.W F m q.S h Q o.Q h o.h q.q S D q V s.Z b Z 9.F G q v v F F m W X.b g q o.q F b v o.W W o.q o.F v F v Z p V q Q b v W 9 W [.O.H.pX].y.a.a.O.X.a.d.W #.#.O.#.f.a.+.#.a.B K.N 9 #.c o.G o.Q V V C C h v o.o.S b F o.u.o.F m m m b N F X.+.+.X.N W +.,.a.,.O.:.,.@.,.:.P ,.].@.,.#.#.i.,.a.,.X.O.! P X.#.#.#.+.W m m N W c o.F b F q W v v v v v V S Z w v 9 S Z h G V v V S V S D S w S S Z V w v S q S h h D D S h v v S S S v v S Q S v V Z Z Z Q 0.h Z Q D S F G o.W X.+.+.X.o.O.m #.y.O.,.O.U a.g.d. .d.1.G.].,.K.,.O.P Y.K.W i.i.#.X.O.X.N P X.W O.X.c +.,.W ,.#.:.O.d.O.n P.n :.:.O.O.3.d.,.n &XP.O.:.J.>.O.d.].MX].U ,. .O.O.h.#.m X.a.o.W X.W q.b b m F v s.W N X.q.+.F W W c +.v N #.$.W N N c X.+.c +.N o.y.X.m X.m m X.c F v 9.G S S v b N #.d.,.].<X].J.>.3.>.O.].d.O.P.O.g :.K.d.:.i.:.N }.+.c m W o.W g F v v V v w v G W S D Q F D o.Q g F D h g F W N +.X.N N X.#.d.K.#.+.,.n O.,.K.U ].O.d.#.} #.m #.#.c W +.m W #.m q.F v G o.G S S v Z V 9 w v V C w h h h h w w h V V V V V h h w V p w w w p V C w w p w w w w w w w w w h w w V V w w h v w w C C w w w C A C v v v w w v b S N v a.W O.d.g K.,.O.n U :.K.d.Y.P n d.gXd.U d.,.O.,.$XK.>.d.d.>.d.K.P U i.O.X.#.X.P `.P K.&X5.-X&.hX5.<.#XN.4.*X(.Z.<.ZX8X-.|.4X@XL *X*X>X(.*X X<.XX|.Y =.@X>X4.(.J.>.J.].K.a.O.W q q s.o.f W o.! O.N i.i.#.W y.! f.! +.N d.g O.i.f.X.#.U.n U #.O.#.N a.O.#.X.U m #.n +.m b +.v o.w h g S m f W y.Q Q D v S o.Q S v S Q 9 s.Q Q h D o.D V D G F F $.W W O.o.W o.u.S G o.v 9 o.q.w D w 3 G G o.w v q C Z w w q q i V v o.G F F v W v S D D E W W W m m E +.X.m P ,.#.m N #.$.W m c v F S v v F S v ",
"0.8.v 9 D o.D v v o.o.q.m N h.+.m Q W o.h g o.q c 9 N W X.o.`.v S q S Q v Q o.9 l.o.o.S S 0.0.8.D Z v G 9 v v G g z.W W c N o.q.+.F h h Q q.W 9 0.5 F F F +.h o.` Z V V G o.W S F m ~ ~ n ! H.K.P X.U O.n X.N U U ,.c a.M X.#.a.X.O.} X.W X.a.F W Z V V V V V C D D W W F b F W N N N N N N N N W o.$.$.o.X.W W U a.f.#.U O.#.O.P X.U X.,.i.#.,.,.#.,.,.+.o.W ! #.#.W W X.F m m W 9.o.v v v F o.Z G D v q h v F Z S V v h w h v v D S h v V v V G S v Z G G Z S v v v m v v v v v S S v v S S S D v h S D S S D y.9 D v o.S h Q W m o.y.X.X.,.O.U O.,.,.O.X.O.,.d.3.d.d.J.3.O.O.:.:.,.a.,.! ! +.y.i.y.+.! X.#.y.+.W N W +.#.+.O.d.P d.O.d.:.U :.K.P.n ,.&X:.O.).d.,.U O.O.U :.n ,.,.@. .d. .,.n X.X.N a.+.N U.o.#.X.#.X.$.q.N q.W j.m X.b m X.s.W X.q.W +.a.N W b X.m $.N q q.m N q #.o.m +.W G V Z G G D F W X.m d.n 1.$X3.G.I @.M  .>.M @.P ,.P d.M O.P.d.P d.,.X.g q.U.F v o.b 9 F 9 Z G V V F W S h v W D v W b h v S W Q o.s.W N o.X.c N a.#.O.X.O.#.O.X.} } X.3.,.! #.,.N N ! +.+.W F +.a.F G Q Q v q Z w.V i w p Z Z V w V v h w h V V V h w w h h h h h G w w w p C V 5 w p V V w 7 w p w 5 w w w V w V w w w w w w w 5 p 5 p V q w Z v v v S S v S S q q.X.X.#.+.! X.#.d.O.d.P.d.d.d.&Xg d.d.d.3.I U O.d.K.O.O.,.3.].d.K.O.O.i.i.y.#.N #.m H.{.1.3.N. .=X5.G.5.Y (.hXB.Y .XVX|.S.2XS.eX=.Z.|.@XkXM.Z.=.oX=.Y >XeXA.|.=.L #X].P ].f.N a.m f.#.o.y.+.,.O.#.#.f.! y.! P P #.! g y.E N P ! f.X.X.,.O.n X.].X.,.#.O.,.W m O.P ,.X.q.g v S V h h D Q F W +.W m Q Q q v D m 0.v D h q D D v D G w.Z w v o.j.o.+.X.E o.u.o.S F 0.o.o.V q h V w V w w D Q Z v V v V V w p V D Z o.D v b W o.W F v h +.0.b W y.m +.W i.,.y.:.P f.Y.n W m i.`.q c N b g g v g b 0.",
"v G D V D D D o.Q g F T.y.g c N o.u.y.+.E S O.m u.u.a.N m W f.9 z.o.u.z.0.D Q S S q S S S o.Q G 5 7 w 8.v v q q 9.q.q W a.h.W c v F W D S S b v Q 9 F v g Q g v V V v p v V v h S v S Q O.O.O.! U X.M N 9 c X.h.U O.U d.X.a.N #.f.a.X.X.N W q.F +.o.G S V V w q v v b b b F W W X.X.F N N N N F N F X.o.+.X.+.+.O.#.#.X.U U U P O.:.O.O.#.O.P U ,.X.O.#.O.W #.+.+.#.X.W X.W N W W W b b o.9.D v h Z o.o.G G F v S V v v h h v v v D S v V V v V S v h v V v v v v v h h h h h h S h v S S v v D S D D S S Q Q S 0.h W S 0.D D Q +.N W +.W o.a.y.y.X.} :.,.,.3.d.G.5.1.1.1.d.K.].P.,.O.#.d.d.#.X.O.#.#.X.W ! O.+.+.X.X.X.W W #.f.O.P ,.O.d.>.>.:.:.K.,.I ,.d.O.O.].,.O.d.@.O.d.d.3.@.>.K.&X@.3.3.h.}.#.+.X.m $.N N N +.q.#.+.c g 5 N 9 m N X.X.a.F W $.F W X.g b N o.m o.F g +.m X.q N X.N F F F V C Z Z v v b F o.N g O.3.@. . .@.>.9 P d.@.c J.g P.,.n n P.].O.X.q.N W a.+.o.+.q.b G 5 w w w V b S b v b F F S S v h h b F D F F X.$.+.o.X.X.X.X.U U X.U N P U N N O.O.N O.#.N +.O.X.X.X.o.X.X.u.W b F G v v v v v V V V v p w h h h h h V S S 7 h V V w 5 h G v 5 w w w p V w w w w w w w w p w 5 w 7 5 w & 5 V w 7 5 7 w w w V w p V w V Z v v v v v h S o.W q.o.O.,.a.a.#.O.n N d.,.P U ,.].].P.O.:.P.]./.,.U d.K.].P.,.d.O.d.,.,.i.i.f.f.#.P X.n n G./.2.<.%X;.>.P.1.<.*X XY @X.XeXOX=.OX=..X<.M.|.qX@XrX|.mXVXoX(.0X0XXX(.N.#XgX,.d.d.+.N W q.E m P N ! N i.X.! g m 9 W O.m O.O.f.E N O.i.X.O.O.#.#.N n O.+.d.#.m N ! P ! #.i.N +.o.q.o.S Z V D Q W o.+.W Q D S q D 0.D D S Q b v Q D h S 7 G G Z h q W W F y.i.+.o.W W o.0.q 5 V 8.q.G 9 Z S v h v Z Z V q v V p V G D v G G G b b G W b +.F W o.v b o.X.X.N O.O.:.:.P i.! P W X.+.#.o.X.F g q F F b W q.",
"q Z Q o.8.Q o.u.q.S +.j.u.+.W +.0.+.o.W y.f.W m a.#.o.#.f.#.U.z.h 5 v Q g 9 h q S 9 S Q D D v v o.Z S q.F G G o.g F +.q.W N q +.9 b o.Q b h v b D v o.v g o.b v V V V V v w v v m m b W 0.o.m P #.,.#.a.X.+.#.h.h.,.,.y.N d.m ,.d.+.n U N N +.F o.Q D S Z G S w h v v v F o.X.N o.X.X.N m m N X.F G X.X.W W X.X.+.X.X.+.y.d.d.d.#.,.#.+.,.#.X.O.#.N o.y.W E +.+.W X.F m W F b F F F v v q.q.Z w v S S V V Z D S v v v v h v v v h Z S v Z S v S S V v V v h h v D D D D S S S S S g h D D h h D h Q Q m m Q Q v S S S S 8.S o.F u.X.X.X.W X.#.+.a.X.P X.O.X.O.d.d.1.,.1.d.d.d.d.,.:.O.! ! O.O.! ! +.#.O.! X.X.X.#.+.X.W m m W #.#.,.d.,.K.,.J.,.P.d.].3.d.].:.d.].O.d.].:.O.3.J.J.].#XP.G. .>.@.c #.B N #.B B m X.W X.+.F F o.c y.j.a.+.X.$.c v +.+.y.o.o.W v o.F +.v F W g F b o.g 9 F F c F v V Z S V h h b N ! P `.,.n O.U K.M ).@.@.:.&XsX,.d.U P ].! O.K.K.g #.W W #.o.X.W b q W b G v v D b v b F F S F W b v v v S F S b v G X.N N X.+.X.U X.O.#.#.O.,.d.} U X.! P O.#.P +.X.W W o.+.o.W o.v q v o.G v q w V Z Z p 8 p V 7 w w w w w h v h w 7 w h h h h w w V V w w C V V V V w w V V V v w C V V C w w p w w 7 w w w w V w w V v C Z v v h V V h F +.o.b N W W X.+.O.P X.X.d.:.O.d.d.d.>.:.:.J.P.K.J.U d.,.U >.d.,.3.O.P ,.,.! O.y.q.X.W m g n 1.$X%XJ.N.P.G.J.5.N.*XL.XX*X=.8X(.*.ZX.X|.%.Z.8XkX8XoX4.Y .XOXM.@X8XA.>X*X;.).J.,.d.f.q u.y.o.y.,.,.H.,.,.O.,.K.d.n ,.X.! a.#.i.n N ,.Y.W ,.O.U #.#.+.,.O.K.i.c m #.+.! N ,.m m b v w h G V S S S Q ~ m o.v S m D 0.Q v D D S W o.S h S G G V Q Q b W N X.j.f.W S W W W Q q v 8.8.Z S V S D S w h D D v Z Z w 5 5 V G F g F o.b m F X.W o.W W +.o.m N X.a.#.#.O.:.O.n O.! a.O.a.X.N h.X.#.m F u.9.o.u.s.",
"q w h S Q S h D F h o.b b +.F o.W W o.S y.f.m W f m W `.aX#.c q v Q q.0.Q y.s.o.0.h S D D D h h s.G V D v v F o.v g o.F b W g o.v b D D F b v h h q W v q S v v Z V V V V V v v h F F W +.E S a.X.U N a.a.a.W W #.X.N N 9 N g X.a.X.m +.o.F $.W G W W F Q 0.o.v h S F S G o.o.b X.X.X.F N N F X.o.o.X.W F F F F y.o.X.X.O.X.X.X.X.#.+.+.y.,.#.y.#.N +.f.o.N W W N W N m F F b F b W F F G D Z G Z S v q q v S S v v v h v v v v h Z S V D S v S S V S S V v v V v v v v v v v v b h h S S v v D h W Q S m S D m v Q h S Q S 8.b o.X.o.$.X.N U U #.y.a.,.O.O.a.P.K.1.@.:.d.d.:.U ,.d.d.#.O.#.,.,.! +.+.X.! X.X.X.X.N N W X.! N m O.d.O.O.:.O.d.U d.U ,.d.:.,.,.d.K.P K.P.@.:.,.3.>.K.P.>. . .1.>.,.a.@.h.`.X.X.+.o.X.N X.g v j.X.c v o.N W f.o.#.o.X.F N F m c X.F 9.v b W v b b +.X.q b F q W v S Z D F v v b F W N h.N n `.:.n :.d.3.K.P I O.c O.n n i.n ! d.! N #.W O.y.N W q.o.G u.+.9.q 9 q b v F Q W b S Q F S b b F D D F G N N N N N X.#.+.X.O.X.U N P } #.O.O.O.O.#.+.W ! +.+.o.F N F o.S v v F D V v v w V Z C p 8 p C w w h h w 7 7 w V w 7 h S S h q w p A C w w V w V V p w p V C V 5 5 w 5 7 w 5 7 7 w w p V w w 5 w w w p v V C V q h D D v S Q F W #.y.X.W +.i.i.,.! #.O.:.K.i.O.:.3.d.J.O.O.P.d.3. .P :.J.3.O.U U d.i.O.,.y.o.O.#.O.! O.O.;.5.&.1.=XJ.5.5.5. X<.N.Y N.9X>X X(. XqXV.|..X8X*XV.OX|.8X.X0XAXvXA.|.*XM J.].3.>.d.W m f g X.U P :.P O.O.W K.#.n `.i.,.K.O.#.U #.,.i.n #.U g U X.X.a.N a.y.U W i.y.W N d.W m W v w F 8.Q Q D W +.y.E W h Q Q v Q D S D S S Q Q S v D Q G q v S b W b +.y.X.m W o.S g D D 0.q.v 5 V 0.v V S v V D S h q w V Z Z v q q g W o.F m W o.X.F o.o.+.#.W E o.O.O.O.O.,.,.O.i.,.f.#.d.X.! `.c X.c X.$.b F +.G ",
"V V v V D h q V v 9 W W F b 3 b W 0.f.W E W g y.#.`.W 9 m +.X.c S Q o.S v F S 5 o.q h S S Q S v Q v V G F q q q W b q.F W u.W m W F S Z D Z v h V w G Q V v v V S h w V Z S v v v D S F o.W W f.W m f ! ! #.W X.m ,.+.a.+.O.,.,.,.W c W W c N g #.#.o.W o.o.F q g S W D W o.W b N F _ F F N _ X.o.X.G _ X.o.o.o.+.X.N W W N N W X.#.O.X.#.O.! +.+.m X.y.W m E W m X.W N W X.F F S o.G S V v V o.S Z Z S Z D Z v v v v h v S V v h S S S D V v S v v v v v h h V m v v v v v h h h S S v v S D v S S W W S m S W S o.h D S S 0.F c N X.#.+.W W +.m #.d.,.O.,.h.K.K.1.O.@.,.3.d.,.d.d.#.O.i.h.a.X.X.+.X.W P ! O.X.N N N +.y.y.+.X.O.d.O.O.U U :.P O.O.O.O.P O.P.O.P.O.d.O.n ,.J.J.1.;.>.N.1.&. .5.d.@.} } B B X.B c m W y.m c y.m +.W y.m g N g v y.+.b N W m N X.F 0.F v G v v F o.u.S v b v o.v v S Q Q D S b N b F #.W U h.d.c B @.O.@.d.d.N ].N a.U N N f.f.N P #.n n P c F y.a.#.q.W W 9 v v S b S Q W v v D W D F S F W W W F N X.+.+.X.X.o.X.N m N X.U U X.O.#.O.O.#.#.X.W W +.$.X.b g v b Q G D F b w w w w w p p p 8 p p h h V V h q w h 7 h G Q S w h C w w V v 7 w w 5 w w w 7 w p p w A Z A V a C w a 7 8 p a a p 8 7 5 w w w w w w V q h Z Z v b D F F W W m n W O.! :.U ,.,.:.,.,.i.d.d.3.d.:.,.K.:.:.O.1.K.d.O.O.,.O.,.,.#.d.y.W ! W K.! O.P.;.;.-XP.P.;.N.P.>.1.N.P.Y B.B. XXX .qXXXL.M.4.>X>X<.8X.X@XQ.VXZ.%.Z.|.(.6.gX$X5.O.,.i.! P ! i.O.! i.O.d.K.i.h.N g a.n O.h.O.#.#.i.O.P U #.@.O.O.N N #.N ! +.X.W +.o.N O.a.m c u.+.D S G G Q D m o.:.W S q Q Q v D S S Q S S D S v S S S 0.G V h v +.o.F N g c o.+.S v Q S D S h S Q D v h v S Z V v S w q V 8.o.v g D F +.#.W N W X.N W y.+.m m o.#.,.O.,.:.:.,.! U O.O.O.,.,.! i.h.c N N +.W 9 m +.m ",
"Z o.o.A S h h Q m Q +.b F W v F y.o.W h S Q E +.m a.N W ,.`.h.a.o.S S o.Q h q v D h F D D o.D v S w G G o.v S q v o.[.q.N N X.b F D D G Z V V Z Q V G o.Z v V S S w q V G D V v m S v v +.o.W F +.,.O.#.N X.! #.g #.P +.N g O.! f.y.o.y.#.+.j.u.q.+.o.X.X.W v c h v S D G W W W N N N F X.X.X.X.X.G G G W W W W N X.X.X.+.,.a.d.X.#.+.X.+.O.X.#.o.W P N E S F Q v X.X.N F G N b D G S S G V v V S Z S V V D Q Q v S V h v D S h v S V V Z v w S v h h v v v v V Q W D D S v v v h F D h h W Q v Q S D Q Q S S o.S Q v D S W Q Q N o.o.X.o.W W a.U +.#.X.O.:.:.O.,.1.3.d.,.:.:.d.O.O.O.O.#.,.#.O.#.#.+.W W O.#.#.! X.#.#.+.! O.#.,.d.O.,.@.:.,.,.,.:.U d.O.U P.,.@.O.,.U U d.J.J.>.1.G.L.G.J.&. .@.+.3.} c a.`.m N m X.y.W m X.m o.N +.N b N o.+.j.f.X.X.$.X.X.X.F o.Q G F v v F v 9.F q v v S q v S D Q F S b b c X.#.f.X.c y.h.#.,.@.c c ,.g U d.a.g +.a.y.#.U.W U.a.y.h.f.s.y.N W o.F Q h o.G b m S F S v v m S S F F F D W W N X.o.N N X.X.X.X.N N @.,.a.a.a.! O.O.O.,.,.X.+.W E F F F b b v o.G v v V V p 7 w 7 7 7 w 8 w w h w w V V w h V 7 h V Z V w w v w w V w w V C w w p V w w V V w p 8 p 7 5 w 5 w 8 8 w w w w 8 a 5 p w w h w 5 w w w v v g S o.o.u.+.X.+.a.f.,.! d.! :.d.d.K.d.G.@.,.3.K.d.:.:.n K.:.3.d.3.,.@.d.U O.O.#.i.,.! W ! #.n @.G.5.*XhX).L.N.1.L.).J.J.>.>.5./.,X/. .#XL.L.&.M.qXeX4.Z.B..X.XAX-.=.SXqXL.*XgX1.K.P.,.P N W N ! P P i.,.g #.#.f.#.d.}.i.! K.! ! P O.O.,.d.,.3.a.+.U #.`.#.W W +.W W W E X.,.P c o.v V h V S S v h W +.S D q v S D Q S v 0.D S S v S D v D 0.Q G Q o.u.o.N X.W E W E m S D v v v v G Z 9 D h q v V h v o.G v w V v v o.z.F W X.W W o.+.X.W y.y.W m +.,.E ,.K.i.i.,.U ! O.U ! h.,.! d.#.W N ! $.F q N q.W ",
"q V v q w v v Z q 0.S 9 v Q o.D t.S 9 k Q +.+.m +.o.f #.+.X.#.U.o.S D q.u.D D s.D D u.o.S Q D S V w Z w S v Q v W G q.o.+.N #.q S S Z G G Z S Z v v v v q h D v D h h D Q D V S v h v v F o.o.q N y.#.#.m W m m +.u.y.X.m m X.o.g n k E m E y.o.X.N N X.X.N N F o.S v b F F W o.X.F N N X.X.X.X.X.G F F G G F N +.#.$.X.X.O.X.U X.+.O.X.#.+.+.y.W q.W b +.o.b W m o.W v m N v v G D V V G Z w v S Z S h w v D Q V Z S v V G Z h V S v v S h q V D V v S D S V V v v v v h h h h v S S v m D D S Q Q Q S W Q o.Q S S S Q v o.S o.+.q.X.W +.W N #.h.a.,.,.:.O.:.3.,.,.1.d.d.,.O.O.U O.i.i.#.O.,.f.#.#.X.W U O.#.#.+.+.#.+.W N N X.#.O.O.:.O.,.O.,.,.U U ,.:.U O.:.n ,.#.:.,.O.>.3.U 1.L.G.5.9XB.>.3.f.h.@.X.a.#.B h.X.W X.X.X.N X.+.m W X.X.v #.X.X.y.F W X.m F v F F 0.o.S v S F v F F q G o.q h m F W W S b b b b c 5 W $.c N $./.m N h.+.+.#.h.+.y.g m N o.W X.q #.! #.f.,.F q N $.+.W o.v o.g m S S b S F S v v b F W Q W D F G _ F b m N X.+.#.+.@.+.O.U N N ! #.O.O.i.,.+.a.E W o.o.W F G W D v w w Z G C w p w 8 8 w w 8 6 V 7 7 h v h h V V w w h V h w w w p C V w Z G V 8 C A V V C C p p 8 V p a Z p Z 8 8 8 8 7 w p V w V w w Z V q w h w v v v Q q.+.W N N X.,.#.X.P i.N P U ,.].d.O.:.P.d.d.:. .:.,.,.P >.d.].].O.n ! O.,.,.,.f.d.X.y.O.U O.g I =X<.P.P.-X1.N.gX/.d.3.>. .@.>.>.g.%XkX*X=.Z.(.qXqX@X>X(.B.mXM.qXVX4.N.L.L. .].$X#.n N +.P N ! O.i.i.d.K.#.#.n ! ! O.X.h.N N N P X.K.g.} X.@.B n a.h.i.W X.+.W W +.W O.i.i.W W 9 Q D Q Q Q D W y.u.W S h v v Q Q h D 0.D S S h Q o.q D S 7 v Q o.o.c F y.y.E m S m S D v V S v h w 5 S v v h h v S D w h v G o.o.o.o.v v N X.X.X.o.+.N W u.y.W #.,.N ! i.O.,.d.,.K.K.#.,.P.,.#.i.O.! N m m m v m N W ",
"h V 7 7 Q w.0.G S G q +.l.S b W S W Q u.Q v o.f m y.+.K.#.+.O.+.F o.o.+.o.b b +.m Q s.D 9 F Q o.Z V 8.V o.Q q.v +.b b W +.v s.b F h h D 8.o.Z v S Q Z v h o.k.0.S v S Q Q V v S q h D v 9 F o.v N +.W X.N a.#.W N N a.X.Q #.S W m Q o.y.+.+.j.o.W m m X.X.m c W z.W g b G F G +.$.X.N N W X.o.X.F N F X.+.#.#.$.X.$.+.X.X.y.#.W X.+.+.X.+.X.X.#.F z.q.W f.s.v v W q.o.v m F F F D G S V S v v Q q S Q G S V v h S D S v V G Z w S S v v V w q V Q S v S D S v v v m S S F D D W S v v S D S S D D Q Q h S 8.0.W D v W +.F u.S u.W o.N N #.+.F +.a.O.#.d.O.n #.&X).,.U O.d.K.d.:.U N N ! O.! O.#.W W N n n N W W X.P N X.+.+.X.W ,.O.,.d.:.K.U d.O.:.K.U O.].,.O.U K.#.,.d.n @.K.P.5.N.J.<.L.Y >.g.a.O.X.a.#.U a.`.W N N #.#.c X.a.W W a.j.F j.X.c y.X.o.o.N W m F v q.9.b v F F D v D F u.s.v W D W Q D S v b b h F G o.9.F v q.q U.X.+.+.X.X.#.q.y.F q.P W W m f.d.W i.U.+.W $.m +.F g W F z.q.b F S m F o.Q S g m W o.o.Q D S o.m W s.s.F F q.N W X.#.#.O.O.#.X.,.O.! ,.o.X.a.+.f.T.s.W h S o.h v v v V V V V V V V p w w 8 w A w w h V h h C h S Q S w 5 V 8.w p C p w V G V w A G C V V V w w 5 V w w w 5 7 7 w w w w w w w w w 5 5 ` 8.v v w h S G G o.q.o.F F X.#.X.P X.a.#.O.i.O.T K.d.:.n d.,.d.d.O.P n ,.U O.O.:.K.,.G.n U :.U n #.d.N m `.,.O.U >.9X X*X*. XJ.G.%X>.G.1.I ).#XJ.).5.>.L.N.<.>XM.XXVXZ..X|.qXAX=.;X0XqX4.<.).J.).:.U ,.W f.O.P ,.:.#.! c ! #.K.d.K.! ,.P d.N #.i.#.N #.h.} ,.d.N U a.X.+.N X.+.W o.0.m E N E m W b u.D D S S h m +.o.g q v Q S D S q q.o.S S m v 8.q.w G S h Q W g W o.m y.+.g b 0.+.W 0.w q S Z v v w h S Z v h S b v v S v q v o.o.b F N F o.W n N X.+.N #.,.P ! i.O.d.P.O.O.,.O.,.:.:.d.#.O.i.i.O.W +.N c W #.W N +.",
"8.Q G 0.u.Q S o.o.Q 5 q G o.q.v +.F m u.u.X.E 9 m a.N n P ,.N X.y.E W m q 9 g b v j.9 s.+.9 D v D q.o.0.F D h W m u.Q D Q q.j.S F D Q D v S D h v W +.Q F S v h S s.v 9 Q Q S v v h v V S Q 0.W o.m N N X.o.N W o.o.W W W F W +.h S Q +.+.o.F F +.m c +.u.+.O.#.y.q.m N N a.+.W W o.b g W X.m N X.O.m N a.#.N #.W W F X.q.+.F W +.y.i.X.W o.+.o.+.u.s.0.Q W D b Q W b g v W D g v S F F S D F b Q G G o.o.F v v V h q 7 w v S S S h h v V v S Q S Z S S Z G Z v v v v v h m W o.b v S S h b W D D q.v 9 q.o.q o.o.F Q o.F Q +.b F q G X.+.c F X.N N N ,.a.#.#.#.d.3.,.@.U >.,.X.,.O.! X.W O.#.X.W W X.X.W N W +.W N F +.+.N X.a.a.#.a.g.,.3.d.O.U M :.d.d.,.! ,.P K.K.,.U n >.K.>.,.>.N.I 5.5.;.@.,.n n c O.O.h.U #.K.m n +.c s.+.,.y.X.N P O.#.y.N N f.h.! N #.+.b g F $.N c o.W 9.5 q.b v S l.q h S Q Q S v v D v q u.s.v v o.F b +.X.N X.+.y.#.+.+.#.O.! W O.f.y.,.,.O.O.O.N g y.f.+.X.y.f.#.m g S +.+.W v Q k h E S o.o.h +.o.F q.a.o.X.o.m N +.y.#.+.O.#.#.+.O.U N W +.X.N u.q.o.V v Z Q G h h h h h h h w 7 Z w 5 V w 5 C C v V w 5 5 v p w 5 w & V w v 5 q v v v Z 8.G w v w v G D w h G V q 5 v V v v V V w w w q 5 q h 5 C A C 8 5 w v 8.5 q ` G V S v W F W N b N c m P a.y.n N ,.f.d.d.d.n 3.M  .].,.K. .O.U P ,.T O.H.P i.O.g d.a.c N `.,.3.d.M 9XL.4.B.eXqX>X).;.P.R -X5.;.5.P.>.N.kX*X<.V.R.L.8X8XeX@X=.VX%.vX6X;X(.qXM.*X .>.f ,.+.N +.g m N O.m n ,.X.i.O.d.i.#.N Y.:.f.#.#.h.O.#.#.a.#.O.X.#.iXy.+.X.+.+.W F b q F F F o.o.F S Q W Q W y.u.m g h v b S b v g q D V v G v v Q h v u.0.q 9 S o.O.f.! E Q W S S D o.v o.0.q q W W q v b v m F F g o.F W W o.q.o.q.W F N N O.,.#.! K.,.O.O.O.O.O.,.:.1.:.G.T K.].,.,.,.O.#.y.,.f.f.X.W F N b v v v ",
"v o.Q h v D h 5 o.v 5 o.a.b F v b F v b v W `.[.X.h.O.O.O.O.n ,.y.O.O.,.Y.$Xf.! g g 5 W +.+.S o.v o.o.y.Q Q v W S b 5 h W D o.v o.o.q.+.m g b S b v m b v h m Q S o.q h o.v v Q Q D D S h v v 9 N m X.N m m c W v b o.u.u.o.D F q.0.Q F S F W o.o.F m o.+.W ! o.X.X.c b c o.X.X.F +.Q W y.y.o.+.P O.N n O.O.N ! +.o.F W +.+.o.q.W o.+.y.+.o.o.+.W o.o.Q Q Q D S v S S b F Q S 9 b F F S S S v g o.F v m v v v F S V V V S Z S v S v v S S V V Z v V v v v V v q b b b m m m S S D S D D v S W F S o.h 5 D b 9 b o.b E W m W +.N o.F o.o.q.N X.#.X.o.$.a.y.X.#.d.3.,.,.:.O.,.d.:.d.,.,.,.+.+.+.W W W X.o.X.W X.+.$.X.W X.F b W #.a.#.3.3.@.O.O.} U U d.d.:.O.! ,.O.@.U P.=XK.d.3./.G.>.G.<.J.5.5.;.3.K.sX{.d.q g U P #.W X.X.c s.X.#.y.+.W W W P P f ! +.g X.a.c q.$.W N N c v X.v q.F W g u.F o.S o.o.h q Z D v q G V h v D 0.v $.m F N b W m g X.y.,.O.O.i.i.! m m P ! P E E m ! #.+.O.! ! ! E S v F o.o.W b E W S +.o.0.~ h W F b F W W o.o.W E +.i.y.,.#.#.+.#.,.#.X.N W X.o.v h v D S h w h v V V V v h q 7 q V h q V h 7 V 5 5 w V w w w w w p G w C w A C v S S v v S V w h v v v w q h V Q Z v w w v V V V h w h h w h V 5 8 a 8 w 8 p v v w V G G G o.G q.v q q o.z.o.c ! y.f.a.f.`.f.X.,.d.U K.3.J.$X3.U d.].O.U J.3.,.H.t.H.i.#.,.O.h.n } O. .3.>.%X(.@X8X@XM.I L B.=X#XP.1.>.N.%X<.*XL.4XV.&.=.R.8XZ.rXOXY JX|.=.|.SXZ..XN. XJ.$XM N m W y.v m +.f.E y.#.N a.#.O.U U O.Y.O.i.! X.a.X.#.i.a.X.! O.X.f.+.X.X.o.o.W F W D +.Q F W W S D W Q o.S W Q h b m m E W W F b v Q Q S G v w Z v h Q Q F W W W ! y.O.o.Q E Q Q h q.v v D v S W g 9 q b o.+.o.N v o.o.s.q.W W c v F N N X.,.,.,.:.3.,.,.1.1.,.:.,.G.$XP.G.1.I.;.;.! O.#.,.y.y.a.y.X.N b F G F v v ",
"9 G S w G k.u.S W o.W o.+.F b q o.+.F v q c +.m m a.#.O.,.`.f.Y.g #.#.m N O.y.f.Q T.s.E W T.q.g Q q.Q o.S F h W s.W g +.y.S W o.0.h 9 h b F v 9 o.S b W W b W s.S o.v S o.S S o.S v m v h S Q b F m X.N v v v G v v D o.o.G G Q o.Q Q Q o.+.o.o.W F ! X.W E W X.o.o.N G c N m X.v o.o.W o.W m N N O.O.N N ! ! N +.+.W W o.o.o.q.u.y.a.f.u.W o.u.+.Q D D D S v v h S D F D W S g v b F F S F S v F v m v v v v v V v V S D Z V h S V V Z S v v v v v v v v V v w b b b S F S m v W S W Q S F W F G o.G Z o.o.W 0.o.F E W P W +.X.o.X.G v q.N F u.#.+.$.#.#.X.O.a.d.,.,.d.3.3.d.a.O.O.,.a.#.#.#.o.X.X.X.+.X.F N F o.o.X.W N N W X.#.3.,.,.3.,.O.:.3.,.d.O.U O.:.K.,.O.M O.3.O.,.J.,.G.J.,X=X).<.5.5.T U O.:.d.,.dX:.,.y.d.h.,.o.h.y.y.+.W N X.#.y.q f.U.X.m X.#.a.m X.X.X.#.+.b c v W W v g T.W o.v o.8.G G 0.o.S v Q v h v Z o.v o.v F F F o.b g W +.o.P W i.,.E y.+.a.f.a.y.#.W +.E m W o.W W +.v c v v b b m g +.S +.+.E S k S W W v v o.+.+.y.N X.+.+.+.#.y.,.d.a.a.#.+.+.$.9.S h v G A w h G V V S V V h w q h h v v h w w w w w V C w w w w 5 5 V 5 w 5 p V h v V v w w h S q V S v w v v w S Q Z w q V S h h w w h h h v V w w w 8 8 V V p w G o.Z D G G G o.F W v W a.o.F #.! X.! P ,.f.O.O.K.,.).d.@.O.j O.,.K.:.:.O.L ! ! i.y.! ,.! c h.@.N 3.} >.5.J.>X%.Q..XqX@XL.*X&.G.&.N.G.P.hX4.L. XxX8XN.<..X8XZ.oX4XZ.8X.X7.V.vX0X;X.XN.).&X@.P U X.y.W W o.u.E ! y.U O.,.].].i.O.Y.:.a.N N y.a.#.,.i.N U ,.! O.#.+.+.o.W F F W Q q.+.W W W S W S W o.S F W h F b F W o.o.o.W S V V 3 9 V v V w Q S v S W m P y.W ,.i.W g S Q v 8.h h S m S W q g q v q.a.o.N b o.y.j.W c m m o.#.o.+.#.,.#.O.O.O.O.,.d.1.:.:.,.1.P.P.,.W.#X;.H.O.,.i.,.#.#.+.! X.m c m F W F F ",
"S V h h Q Q S S b +.o.S v F F v F o.W q.$.o.O.9 #.+.N ! ,.,.N N m #.! N ! O.+.#.m u.b s.s.h +.Q Q q.Q o.b F g F q.W W s.q.h S u.b F +.o.b F o.+.v g h S b g g S h q.D v Q o.o.D o.S S S h v S h G v N v F o.v F G S v v v v S o.h v D 0.u.u.0.Q F W W W W o.o.W +.o.N o.m m c X.W q.y.0.+.o.E m P O.,.#.P ! O.W o.+.$.#.y.o.F o.+.o.X.W b g b +.q.Q D W D v h V b F F b b F W F b F D F S W W F v v F G G F v v S v h v V S S S V V V V V v v v h v v v V Z Z S b b m S D W S b F v S W S F o.Q S S D Z b D o.o.W F E W W ! O.X.W o.F i q.N N q.y.W W X.O.+.W O.P.,.d.K.d.,.,.,.X.X.,.a.+.#.#.#.o.W W X.X.W F W m W o.X.W X.X.N X.a.,.,.g.a.#.d.a.,.d.O.P O.:.d.U K.d.,.:.O.,.3.T 5.5.>.&.I I J.G.,.K.d.3.3.P K.O.d.a.,.#.O.+.W a.y.O.N N +.i.d.i.Y.W c h.h.N X.+.X.c c X.#.o.X.o.W v b m 0.b y.v v Q u.u.o.D G Z D v Z D S D v F v o.X.S W D W o.F m W ~ E m E W E o.#.X.W m f +.E N o.+.o.o.y.N W b b F W o.b y.m W ! k k W W +.q.W b o.+.o.u.+.+.X.W W +.,.,.+.N B m X.+.W v F v h v w 5 w Z v v V V V V V V v w h v w w h q Z V Z C w w V w Z V V w Z G G V w w h h w w h G 5 h S S S S v h w V S V v V v w w w h v V V V V C V p w p V V w w ` G v S V v o.v o.s.W c W W X.y.! i.f.#.d.`.d.d.$XJ.1.O.U ,.d.K.3.d.1.$XK.d.K.! Y.i.W y.i.W #.a.O.h.@.U  .5.MXmX>X.X@XL.(.*X&.L.1.1.;.&.9X XB.n.L.L.Z.V.Z.-XrXoX8XAXY Z.VXA.@X+XM.|.| B.J.,.a.,.X.X.u.+.m W X.! y.X.X.,.].`.:.O.d.U ,.! #.a.y.O.#.,.N ! ,.X.+.+.+.X.X.W W o.o.b o.+.o.o.W b F v S o.W o.+.v m b F W o.o.Q F b v Q w v o.A A G Q S h v E k P i.:.,.+.S m o.0.V h g S S h h F b F v v W o.X.F N E +.f.W g F X.a.a.+.#.a.,.O.! O.O.O.,.,.:.>.1.d.d.1.P.;.1.=X1.$X1.d.f.O.X.y.+.X.X.m q q v F W o.",
"Z w 5 v o.V q V v q v F m g m q.v v F q.X.b +.+.f.N N i.h.n 9 N ,.d.#.a.f.,.u.y.f W v q.s.h o.W g W F +.Q o.m W F b o.y.+.F F u.q v W b g S W g F W o.Q W W F b h Q v h D o.0.v D v v v h h v h G v S v b F p v v v V Z Z V v v G D V Z Q o.o.o.W W W W o.#.#.W F v q F m N m X.X.X.+.+.+.#.+.W X.! #.i.O.P W X.W +.#.y.u.+.F o.o.y.y.o.o.q.s.j.Q F D Q Z v S o.S F S v v b D Q o.o.Q S b S S m o._ F v v b b v G D V V S Z S S S S V v v V S S w v v v v S Z Z W F S S D W D F D h v S m b W Q D Z Q Z g h S h m m m E W m m N o.o.X.m s.X.F q.+.N O.O.O.+.U #.P.,.d.P.d.:.:.:.:.:.a.a.O.X.#.$.X.F N W o.+.$.q.c W X.W W o.X.N X.3.,.,.d.#.U O.O.U ,.:.:.,.! O.O.J.,.:.d.d.d.>.5.%X#X1.>. .>.). .,.].,.:.O.n X.X.d.a.#.N N X.N o.+.+.o.o.+.X.E y.y.f.f.W m X.+.y.+.N W #.X.N W q.q.v o.F q g o.Q b S o.o.S v D h Q b g v F o.g o.F o.F h b v b W S D o.W m m o.W F o.q.q.q.u.o.o.+.+.o.W W W F m X.v m N F +.m y.E ! +.m n o.O.X.y.o.N W N m +.y.y.#.X.W W W W a.+.W +.a.s.+.G v F G Z V v w w h h w w h v S S V w h h q w v w w w h V w w V V V v w w w C v w S v v V V h h V w 7 w S S h w V w q h S V w w h w h v V V S S V C Z V p w p v p w V h w F v v q.v b o.F X.y.X.N y.N O.,.O.,.K.,.d.$X].d.d.:.d.d.,.d.1.n d.K.K.L O.i.i.y.:.:.#.W O.@.@.,. .U J.hXB.*.@XqX|. XL.B. X*XB.L.&.L.9XN.L.Z.R.|.Z.M.L.rX4XOXZXY @XZXA.;X@XM.@X(.XX3. .X.+.W m u.+.m +.i.a.X.N a.K.O.:.,.:.O.j ! ,.U.y.m O.O.#.! O.#.X.a.X.E m N o.q.q.9.v W W W o.D m F v W 0.W Q Q h S b F W o.Q W S v w q.o.o.o.w V o.h S W W W m P O.Y.O.n W y.f.q.h g h D D h h m F W W b c b X.X.F m o.f.q.o.+.F X.F N X.#.,.:.:.1.>.1.d.d.,.1.G.P.&X1.#X1.1.=XG.1.d.,.f.O.O.f.,.#.N m g g v m F o.",
"w p w w G o.G D v v o.W E W E o.+.F g F v 9 m c c N ,.#.i.#.a.i.N #.a.iXY.P E 3 W y.T.v o.T.Q 9 F o.m F m W S +.o.W o.o.+.q.W D q.F h b q.'.j.h h b b h g v v q S v 9 S Q D o.D S q h S v m D V F F 9.F w v w Z w w v Z A C V V G S v v S D W W o.o.W W o.+.O.N F N q F m F m N o.W o.+.W o.+.N ! P ! #.#.N m X.W W W W +.W F o.g E X.N b W o.F D W Q W S v S Q v m m m v b b S W Q D b v S S S F F F F F F v v D Z S S Z S h w S Z S v V Z G G V Z D S V Z D Z o.W F S S F F F Q v v F m v S S G Q o.G v S W b b F F W o.m c W o.o.o.F s.X.X.$.X.N d.y.+.#.U g.J.>.,.K.d.,.,.,.O.O.#.#.X.X.#.$.#.W N F W X.X.X.W X.X.N N W X.W N @.#.,.,.#.O.O.d.O.:.:.,.,.O.d.>.:.n  .:.U @.,. .3.J.,.G.5.1.;.=XgX$XO.O. .,.d.a.@.a.f.+.U X.y.W W X.W o.+.+.o.#.y.+.W +.y.o.m m X.a.U.h.X.c N b u.F o.W q F W v D Q W Q o.Q b F F q v b v o.o.w.V V v v Q S h h D Q S v S W W S v F W W o.9.o.F q.u.o.F W W b c X.g m m v +.N o.o.o.i.O.n ! P N o.+.W E m N o.m W o.X.W W E b F N W W F m v v F o.G Z Z G A V v h w q q w h V v v h h v v h v w w V C w w h w V G G G v S V Z S S V S Z G S V Q h w V V q h Q D h w V v q w V w h h h h v v w w a V p w p V V Z V h v F v S +.W b X.X.#.a.P c }.a.,.,.y.K.].d.,.d.P.d.K.d.:.j 3.,.d.>.J.,.).U W P :.K.! f W X.U #.n d.,. .J.G.mXL.>X*XL.L.*.2.B. XN.gXL.N.9X X4X8XeX@X|.oXoX8X|.@X@Xm.|.OXoX.XmX|.(.,X%X3.U n P y.W y.E X.f.#.#.X.X.#.d.U :.O.U ,.#.,.#.f.#.X.#.#.,.O.O.O.W f.+.W N b W +.o.D W W S m F b v F b o.u.W v v g Q b F W W W D S m v Z w V G C V w h Q o.F E E ! i.y.P W y.y.o.D v S S S m S S m b F o.W m N +.$.X.W W y.#.$.q.X.o.N N U O.:.i.i.i.O.d.K.K.d.d.G.G.P.I J.G.I.=X#X;.K.d.K.,.,.h.O.! N m m W W N F W ",
"w Z p 5 w v q 5 S +.s.E m y.~ P q.o.b o.X.F X.g c X.i.c N O.i.c cXK.n P g N U.N o.9 W b s.q.v o.o.0.b b g S v o.o.S W v b o.v g v q v D S F o.q.W D D W W D F F Q S q D D v Q S 0.D D Q S h h 9 V G 9.Z w V v G C p w w V a V C w h V S Z Z D S Q D F W o.W E F o.o.F X.v W v v y.#.a.a.+.+.#.W ! O.P P #.X.m ! X.W b b W E b W X.o.o.o.o.W F b o.+.o.G S S V S b m m S S S b b v b S S F Q o.Q v N G G G G v q Z V V V S S v w V Z S V V D D Z Z G Q F S D D D W W D S b b F D o.v b Q F m b b h S S v v F D b F W E W +.E m +.X.F X.F #.X.+.X.#.N a.#.#.a.X.g.3.>.,.d.d.3.a.,.X.U X.O.W X.#.+.a.+.W W X.W N b +.o.W F N W W W N N +.,.+.#.i.,.Y.#.:.,.,.:.:.].O.d.3.K.J.O.@.>.J.5.d.>.5.N.%X).j  .U >.P.@.,.M ,.n a.y.X.X.W #.W X.W N E +.y.u.9 y.+.c m m c W W o.X.X.+.X.o.y.g +.+.W D F W Q g b D Q +.q.o.F o.b q Q W 9 F u.q.v v v S 0.G V h S D S h v S S W b F W F W o.F v W +.W F o.o.o.F q.N o.X.m i.#.X.,.O.:.#.n P X.P W #.#.W E X.X.f m W W F F W W W W X.o.F v v G G V w w p V v v V v v v h h h h w S v h G Z h V V V Z Z w w v w 5 v w V 5 w q w h S V v V G G S Q S v V V h V G G V h h h h h h h v v w q w w q q w v p p V V V G Z G F v v F b o.F $.#.#.+.n N P O.i.d.d.,.O.n d.:.G.@.:.d.].,.O.9 L O.3.U $X,.:.:.y.Y.y.m ,.i.O.d.N d.:.O.:.@.*X(.(.XX>X>X).B.L. X<.E.2.N.qXCXV.R.8XoXoXeX8XeX@X8XoXZ.=.oXOXM..X(.I ).>.3.,.U N f.X.u.N ! d.! N a.,.g P ! ,.9 n d.K.i.N #.+.#.! #.a.O.O.,.X.#.a.y.o.W W o.W v o.W m v D S v S W o.q.F S D v W b b F W W D F S Q V 9 S 8.8.8.w D o.D v m W ,.U.O.W #.y.E g h S b E m m W o.W S o.o.X.E N ! +.#.#.m W W X.+.X.a.+.+.O.X.O.1.1.O.O.,.d.d.3.5.1.>.2.T 1.1.#X-X=XK.$X,.H.:.,.H.P P ! P N W W E m N ",
"7 p 8 7 V V v V Q v Q E W +.W y.b 9.q.+.c g W m [.W P ! d.! O.N P i.`.dX#.E [.m m E F W u.h o.0.q D F 0.o.o.h v S v o.v v o.D q.+.g h Q S q S q.W b S o.o.v g m S o.S h 9 h D 9 S g v D S v v h v p Z i p G V C C p w w V w w w V V V V v v S S b v b F W F F W F o.G _ v o.F b N N y.y.W ! #.W ! i.U g #.,.W X.y.#.W W +.W b F +.F N W Q E F o.W o.o.D G 8.o.Z W F b b S F F D v F W W Q o.Q W G G F v v G G D G S v h V G Q Q v V S v v S S v v S F v v S D D v b F S b S F W W v S o.o.D S b V o.D v S W S v m W m E +.N m ,.+.N X.F +.X.#.X.d.c U N :.K.U >.3.>.,.d.3.3.d.:.:.O.#.#.X.X.+.X.a.+.X.+.q.q.+.o.X.W W X.X.W F F o.F +.#.W X.,.#.,.! d.P.K.:.U d.d.].:.P  .,.K.J.J.>.J.G.5.T G.5.gXsX:.3.].P 3.n #.N h.+.N f.X.X.W o.+.W E E N N h.m E +.W y.f.c F X.m c +.a.+.N q.+.u.F S F g +.+.v q b S v b o.g o.W S h h D v Q v G Z v D S S Q h h G S q 0 S b g v N m N G b v b F F F W o.o.c X.g W m 9 X.P #.h.! O.#.n O.d.! N X.#.P E o.N W o.+.W b b W +.W m g v F F v F Q V V 8.w.G w w V V S Z S S v v q D v v 0.Q w S V v V v q w Z Z w V w Z v o.v w V G Z w q V V w w h V v V S S h v V v w h S v 5 S G D v h v v w w p V V V Z Z V w v o.F q F +.v W c F o.#.#.N ! N d.K.:.U U :.K.O.O.sX).1.@.:.g &X1.d. .O.>.jXP :.H.:.y.f.i.h.i.O.a.U ,.n I O.,.N.9X X X).B. XL.N.*X*XL.2. X@X*XOXoXeX8X@X8X|.OXJXoXOXrX=.rXM.V.8XmX*.qX .>.,.n m #.m f.! N ,.O.N +.#.N f.`.jXP.P ,.#.P c d.+.N N #.d.U O.d.+.X.y.y.$.X.o.+.+.W W F m F +.W v b o.W W F y.s.D m m b b F F F F F v S Z G q 5 G V v b b W +.#.:.H.Y.#.P E E F F h g E S m W o.o.0.u.+.W E N n ! a.o.m ! +.#.X.c X.#.a.#.U O.d.1.T >.3.d.,.>.>.>.>.).-XG.>.=XP.#X$X].O.:.U #.K.O.,.,.W n n N N N m ",
"Z w 7 w V v S Q v W S u.y.m o.W W o.F m X.W m W +.Y.O.Y.! K.$X`.i.K.! 9 #.n m g o.g o.y.o.W F q.u.Q q G v 5 v S v v v q.o.o.v G m g Q u.q.q.+.v o.F v v F D F b v S S v v D D v 0.q v D q S o.9 v V G b p Z p v C C C C A A A C S Z Z S C C S S Q b Q o.b F +.W F o.F G D s.o.v N u.+.X.m h.h.a.! O.! U ,.i.+.! o.+.+.X.W W W D c F W N g v F W v F G F G G Z v D D S F D Q o.+.+.F o.0.S b Q F v N F F F F D F D V w q V Q G h Z D D Z Z D Z S q 0.F o.h v G G g b F v v F D b F b F o.Q b v W G h v S q v o.W b b W +.+.X.W W W W q.+.X.X.N X.W X.O.#.,.3.,.O.d.@.d.O.d.P.P ,.O.#.W #.a.,.q.W u.o.N b N N F W N F o.+.W m N +.m W +.#.y.y.,.O.#.}.d.O.:.O.1.,.>.O.O.3.,.:.3.).1.#X5.,XN.%X*X/.5.n O.U U U U U U h.,.+.m }.y.a.m E m m m W 9 W +.s.u.y.E o.S m +.U.a.z.X.m X.X.F F W F m v S W F F v +.F v u.W o.W b b F g q h q.S v S v v S V D S C D D C S G V v F G D F F G o.o.F o.G o.G o.F o.X.a.W W N O.#.#.n ].}.d.X.X.! U ,.i.P P W N +.W S D W S v v F v g g v F S V V V A Z w w Z Z v q q o.S F s.v m v v 5 F o.q v q.Z q v 5 v v v 9 q v D Z v V G S V V S S h v S S S w q S S v V V v Q Q q q v 7 S h w h V V v w 5 w v V v v v S g G s.u.o.F v q.+.N X.m X.y.P N ,.,.d.,.U O.d.1. .d.d.sXU ,.>.P O.O.$Xd.:.L $X,.N P N X.,.P m i.! i.,.O.P i.P U ,X%X*X).*X(.(.N.L.B.M.-.OXV.L.KXM.OXZ.@XZ.-.6XOXVXbX=.rXoXVX=.=.OXkX9X4.5.P n N N h.g m a.W O.X.+.m N h.#.i.d.O.d.P.Y.d.O.X.+.a.i.! d.i.N O.#.+.W f.+.W o.o.q.+.F y.F F v g 9 s.m W o.Q W W D F v F b W F S F 5 V Z S h q w v V Q v b o.u.X.n K.f.n P E E o.v D y.9 W o.h Q o.N X.+.N N +.W N a.! X.u.a.X.#.#.m #.h.U ,.O.T &X:.d.G.3.@.>.g.G.>.>./.5.=XN.P.gX1.>. .O.:.O.:.:.! ,.O.f g N n f.K.",
"V p p p p w v S b S m o.W P y.o.q v v N o.F m +.m X.N O.g f.! g N K.i.m d.d.'.`.E b +.o.b b h b v G v v v q q.z.G o.o.9.v S Z s.b S o.o.S b o.u.u.q.o.Q D S v h S S S D Q Q Q Q u.D o.0.S D Q w V Z 8.Z V G V V Z C V V V V V V V V V V V V S S S b F F m b W F F o.F G v o.F b c 9 f h.d.#.N a.d.h.f.#.P N N P W X.X.F F F F b F W W b m b b N v v S V Z Z V v F S v h h h h v F h S W b S o.Q N F F F F F F S Z Z S v V S S h Z D G D D D D Z v o.v G w v S v F Q Q F v S Q +.b b S F b v v F 8.Z G Q v F o.F b b E o.+.X.o.+.X.W $.X.o.#.O.,.y.,.#.O.@.,.d.d.d.U d.O.M >.O.3.,.,.O.,.a.#.#.X.X.W N F F F W o.N N W X.W b N X.W W W o.+.+.y.i.P f.,.d.K.:.@.T O.d.d.O.O.d.J.>.1.G. .#X . .>./.>. .].].&X].,.O.,.d.X.O.g +.q N W S f m t.'.+.y.m o.W o.S y.o.o.+.+.g W o.h.f.#.+.o.o.W W F D W b W o.+.W o.j.+.W W W o.+.W F o.0.S S D D G Q G D S C D S V x D v v V F V v F F G F h D v Q G o.b F v o.m W m X.9 K.i.#.U d.`.h.d.:.N P P ! o.m v v S F b v F +.b v h h v v v w p w C Z p p V p S v q D v v o.v v F G v G G 5 9 w w w Q h S v v V v v v w q h S 8.Q G G S V S Q v V h w V v h V 8.w 5 h v h h v h w h v V S D Q Z V v Z G G v 9 o.F F v F o.F q.a.+.#.W X.y.P N ,.O.d.K.:.d.].:.P.O.9 ,.n d.].P.U d.G.U P.O.d.,.#.N g N i.i.O.O.#.#.O.O.m O.N d.>.N.%X(. XL. X).2.L.eXM..XOX<.R.SXrX.X.XOXoXV.M.eXeX-.OXoXOX|.rXV.@XB.>.$Xd.,.N X.h.m N #.m U m n N +.f.g N ,.H.:.,.,.O.! W X.X.,.! ,.#.U #.#.X.N y.W N W W q.o.v W q Q u.q.9 v F F b v m W o.Q g b b W F S o.v 8.G V V A G A V q b +.W n n ! $X$X! N c m o.D Q h o.u.h f +.o.W f.W c W y.f.#.N i.:.+.O.m X.#.N ,.X.P n j >.-X$XU d.P.J.6.5.J.(.N.(.B.*XG.#X=X;.j T ,.O.O.G.H.U H.O.N O.! ! i.i.",
"w V Z V w w h h F b m D v m o.g b F W o.o.b m +.U.m P d.O.d.N f.K.N 3 ! iX,.W #.m W u.W S q.o.Q 5 G v o.s.q.o.v q G o.q.G v q b D b g v F b F q.F W Q W F F F D S h h Q o.D D o.S S S D D D S v v v ` S V Z v v C V v w w h V V p p V V V V C C h V v v b v v F Z o.F G g b b o.y.o.N O.X.#.,.h.P O.a.a.O.#.y.,.W X.W W W o.G b X.X.N m b F F v v v v v b V V p Q W D D D W Q o.Q v b F v b D S b b v v v v v g v Z G Z V V V V v S Z S S v V S v Z q F v D Z v v m S S g q v Q b S S v h v b b o.Z G Q D W W v b m m S E E W o.+.W +.X.+.a.#.a.:.,.,.:.:.,.,.,.J.@.$XP.O.K.K.,.,.a.+.#.#.X.$.X.X.W X.X.W N N W W F F W X.W F W +.o.Q o.o.W O.i.O.#.P #.d.O.O.>.O.J.J. . .d.J. .L J.G.#X1.J.5.1.U  .d.O.d.,.U n d.O.X.K.+.#.q +.W u.f.y.o.y.h m q.u.W Q m +.W E g N W X.W s.o.W o.W F F W W W F E Q u.Q b +.+.E +.W F m b m m W +.F F D S S S v C V V C C V V C v b v v v v S F v b q F v Z S o.S S g F b o.W +.c +.P ,.h.K.,.U d.K.U ! O.N X.N b F D F m v Z o.h v v v v h w q p w p v w p V p v v 9 v v h N q v S F q v F v G V V V o.q v h V G S v h w q q h v v V V v w q w w V h w v w w V h w w S 8.D 7 9 h h h v h w v D Z Z V F o.G v 5 v g b F #.#.m N a.#.,.! ! #.U P d.P :.K.d.].P.j ,. .U sXP.K.K.].d.O.1.,.K.>.P.O.a.o.X.X.O.#.#.! K.#.O.i.X.X.g #.,./.,X).%XL.(.4.4.&.rXB. XOX2.4XZXM.Z.8XVX+X-.AX8X+X%.V.eX|.M.V.L.kX,XG.J. .O.n +.d.X.O.O.U ,.U y.#.y.f.! d.K.H.,.,.,.#.#.#.#.X.#.! O.P X.i.O.X.W y.X.F b b W b Q o.v o.u.u.S o.m b S S Q o.W b g b F o.S b 0.Q Z w 9 h V v w w W W +.b n ,.i.d.! g n c c N v q E t.+.m o.o.N u.#.N +.,.U #.i.N ,.:.,.#.X.#.#.N N c P.K.G.$X1.G.O.G.].).5.>.6.(.<.J. X).Y ;.1.! ;.n n ,.P.d.:.! Y.:.:.! W f.[.`.",
"5 p C V V S V w S v F W v F W 9 +.q.+.W N N N W a.g n f.! n g U.m i.i.i.#.f q c E o.+.v v o.v h G +.v v q.o.q v o.G v v v v v S b v h D u.Q h D g v b F F F D W S h v D W S S F S Q D D o.Q D o.F v F v v V w v v v v v h v V V V V V V V C C Z v D v h D S h D S D V o.v b b q.N u.y.N n a.d.#.f.,.y.y.O.O.+.N +.X.X.X.+.+.W F F F N m F W F v v v v i p V Z b S S S F W o.+.0.0.W F D F F F S o.X.G F F G G F h v Z S V V S D v v S S v h v S S D h D V o.Z V v v D o.W v m W S Q W v v D W b S V Z G Q o.Q b S b m m m N E W +.X.$.X.O.,.O.#.O.,.3.,.,.,.,.:. .n :.:. .d.@.g :.a.+.#.#.X.#.+.o.X.W X.X.W W X.+.X.W W o.o.X.F o.W o.y.y.Q W ,.f.O.n O.O.U O.K.:.,.3.,.,.,.,.3.;.).>. .I L.J.5.J.K.d.n O.O.O.O.,.n c #.N O.W U.9 +.U.y.g E m +.E W g b h o.S m c +.U.y.c o.q N W W F F F S S b E E u.W b o.b E W o.y.u.0.W m g W b F F v v v w v h z t V V V C V S F b b V F F v S b o.v F v Z F D h W S +.o.#.f.#.P d.f.O.#.].n d.U ,.f.! O.m +.o.F F D D V v h v v v v w w v Z w q q 7 p Z V F o.G G 0.o.o.o.v v F v v W G 9.Z S S o.q v h v V v v v S v h w V V V V V V V S h S V h V h q v h q.Q 5 9 V V G h h v V h q q v v Z o.o.G V v v b v b g m N m y.y.#.#.! U O.#.:.d.,.:.U n @.K.J.U O.:.&X:.M T d.G.M T :.:.T G.g +.X.q.#.P O.y.! Y.O.X.K.f.a.q c O.d.#XP.,X,X>XM.4.Y .XZ. X|.E.VXOX8XeX!.@X8XV.rXOX8XKX8XAXZ.M.@XM.>XCXJ.1.U O.,.+.,.#.,.X.} d.X.,.F N X.! K.:.n :.:.#.O.#.+.X.m ! ! ! N O.i.W X.+.y.X.X.b b W v o.o.g m S o.S 0.F W Q Q o.o.F h v E W +.W b +.W V h v G C w w G +.b X.E O.`.H.P n P ,.#.E F F v f.+.m O.f.O.m y.n O.f.i.n n #.#.O.O.:.,.,.y.+.N U n K.d.1.K.T 1.K.G.d.5.>.;.7.B.(.XX,XL.Y T ;.1.G.L j 1.P.;.R 1.K.i.Y.O.P &XdX&X",
"q p V V D Q D q v h F F N +.+.b F +.+.b m +.+.m m +.#.f.! N P c N f.d.d.i.i.u.+.o.E b q F o.m D v F v v G q 5 9.o.o.F S F ` o.o.h Q +.q.u.S g o.Q Q W W W F v h S D D S D Q Q S Q q.Q S o.W v Q o.b F m v G v G v v S S v v h v V V V V V V V V S Q S v Q S h F S S v o.S F b +.F W +.X.X.X.a.`.d.#.! ! X.,.a.f.o.W W X.o.o.F b b F F m v N F b v v b i V Z Z V G W F F F D W W W F b F o.o.o.0.G _ G F F G W G v v V V V V S D S v S D Z V S G Q Q Z o.V G h v b v b Q Q S b F S o.Q S S Q Q v v Z Z D o.q.o.F W W E W W X.X.! X.X.y.#.O.+.U @.,.,.:.O.@.,.d.G.3.3.d.:.d.].d.a.@.,.+.#.#.+.a.y.#.W N W o.+.+.+.+.o.W W o.+.o.W S S Q y.y.o.o.i.d.! O.d.d.O.>.K.,.:.,.J.d.@.>.J.J.J.>.>.&.&. .J.5./.K.O.d.:.,.:.U g U a.X.#.N X.m W W b 9 y.y.s.o.o.S o.W y.W S y.#.y.W c a.F o.+.+.q.o.D b m b E m +.o.+.+.N u.W E o.+.W X.#.o.m m N W F W o.Z V V p p V V a t V Z Z b p V Z S S F S ` b V i Z h S V Q v Q W o.o.m g U $XdXa.n P O.g T K.i.o.m W F F D G G V v v V V v v V V Z C w w w p a Z b q c v v F b q v v v 9.o.X.o.F F q q v 0.S W h q v v v v S F v h o.G S h w V Q 0.S D V v S V w h q q.8.7 9 h V G h w h D G V h V w Z o.o.Q F F D b b W m m m m a.a.i.#.! ! #.d.d.j O.,.d.$X].>.U K.K.,.P.1.,.d.d.,.d.O.O.P.,.:.:.X.N X.+.o.d.H.! i.W O.f.#.f.W m O.>.J.5.>X9X9XB.*.(.8X|.OXE.4X|.;XSX+XA.6XwX+XA.+X.XJXM.@XoX=..XV.4.9X5.G.J.U O.X.X.#.+.n N :.n O.X.#.#.! K.#.#.:.,.i.,.#.O.N B ! O.,.P O.i.X.+.+.o.W o.F F q.W 0.W 9 S o.u.S h 0.0.Q b v b W W m E E +.Q S o.b S v S Q G v V o.g q $.+.P ,.i.O.d.,.#.X.m F +.Q y.O.O.,.i.y.#.! ! d.,.X.#.#.O.,.O.O.! P O.#.X.U O.@.,.:.,.5.5.P.G.:.O.>.>.<.6.(.XXJ.L.<.1.G.:.R ! 1.1.1.G.G.1.H.i.i.&XK.,.Y.K.K.",
"S V v V G Q S q S m b g v X.F o.b o.q.W N q.#.g O.i.X.d.,.O.d.P g N m #.N n o.f.f.o.F b u.s.W u.q 9 v F o.v 5 o.v G r.9.9.` o.o.D W W D D b b Q D D D D W W F b v D D S S o.+.D D o.S v Q D v W o.N F b F G N o.v F G D V v w w V V V V p w v v S D V v D S v S S S h Q S F v F #.W +.X.O.n ,.}.d.K.f.i.y.! N O.o.W W X.o.W b b m F W N m m v b S F S b S G G Z o.o.Q Q Q W W Q S F b F o.o.Q 0.b F G F S F F F Z v v V V V V S S v v Z D V V D S V S Q v Q h G S v g h v v v S b W W b S Q W m v G S v W o.F S F W W W o.#.+.X.W X.a.#.+.#.O.:.,.,.:.:.,.d.d.d.@.d.3.,.d.,.O.d.O.#.X.+.+.X.y.#.j.+.F F X.o.X.F o.o.X.W W X.X.W o.Q Q o.Q W o.d.i.U i.d.,.:.>.d.,.3.d.d.,.:.,.3. .G.]./.J.5. .J.I >.3.,.P.,.g.,.} U f.K.#.a.X.c W S E W m u.o.W f.f.+.f.y.u.W E +.X.N W N y.W X.W o.+.o.W F W o.W m W o.y.o.N u.o.N W W g E u.#.N m W X.F W o.F G Z C V a V t 8 w V V p i V S p Z F w S q V b G h S S Q h Q E W u.f.K.P #.K.}.sXd.d.:.! O.O.E W m F o.D v h v V V V v v V V Z G p w V Z Z Z Z q F N o.o.G o.b N v v o.o.F o.o.X.Q S v o.S Q b h b v h g h b b v h V S V v v v h S D V v Z S h V 5 w v Q 8.V 7 w V w h G G v w v v v v V F D b v v v X.X.$.+.v W y.i.O.! X.O.d.d.,.d.:.O.G.K.,.:.d.K.,.G.G.d.:.n d.d.3.d.K.d.].K.X.o.#.#.o.y.i.:.d.O.+.+.9 o.o.$.X.:.J.3.#X*X>X|.Z.>XOX@X8Xn.E.Z.8X0X=.6XSX.X;X.XZXoXZX=.4XKX|.Z.L.*.*XG.P.g.n f U W #.O.n U @.n n B X.U n ,.P i.d.H.H.a.#.O.X.N O.#.d.#.O.i.#.+.y.o.W +.F F q.F Q W v Q F o.m h W o.Q S v m S W m b m +.Q S o.b S w 7 v Z V v v v b y.o.N ! O.d.d.O.f c m X.u.W W ~ #.f.+.E #.,.+.d.O.N ,.,.! ,.O.,.#.#.,.#.N N O.K.d.K.).J.P.1.:.O.,.3.3.7.N._.4.4.4.>.L.1.1.L 2.2.T 2.=XgXP.P.1.,.H.Y.d.! ! K.",
"Q S v S S S v h D G F 9 v v 5 o.W G +.o.N X.+.m ! g q N n n O.#.Y.}.O.! ,.fXiXm f.u.o.b o.W 5 v q.q 7 5 b G v ` S F ` q b i o.8.W v h v v W W h g v b F D D W Q S S S S S D Q D o.o.D D 0.0.o.o.o.b F N F X.m W m F D D b v v v v a a a p p v v C v v V v S D v v S h G h S v F g m #.U X.n N c n ,.,.i.`.d.W a.+.o.X.o.o.F F F m F F N v b b b S F S V Z F Z V b b b S S S F F F o.D D o.D m Q _ $.9.o.G G o.o.V v V S S V V S S w q V Z V v S v w v G V 8.v o.o.o.W S S D W W b S b v m D W S v o.S q v F v S W W W W o.#.+.X.X.X.,.+.O.,.O.,.O.>.,.3.G.J.5.>.>.>.,.d.,.O.O.#.O.:.X.+.+.X.$.X.j.q.W W W W N b X.+.$.X.F W X.o.0.0.o.Q S E +.u.d.! ,.O.P ,.>.>.>.,.,.,.,.d.3.>.T 5.5.I ;.N.<.#X5.d.K.].$Xd.}.K.a.U +.m q X.y.o.f f W y.m +.E S m m h Q W 0.W E m X.N q.F N m F F W W W W W o.+.W o.N W +.E N O.E E f.U.#.+.#.c W W X.X.b N F v G A C V V C V w w Z S p i V V i Z V 7 Z w V v Z C G z D h o.W W W g P g #.O.P :.K.3.].,.N U N #.m W o.S w q w h V v w h V C Z V v w V G Z Z Z i F 9 G F q N v v F i G b q X.o.o.j.+.v W g D S S b b b v v v v g q S Q Q Q G v q h S v h V V v D 8.q 5 h h w v S V h v D S q q V h w q q v v m v o.F F m F X.E y.O.,.U O.O.O.d.O.U d.=X].T T d.G.K.].d.1.d.,.d.d.,.T :.d.P >.$X#.X.q.a.+.X.! O.d.U.:.,.+.9 W o.X.N P >.3.,XhXCXeX@X(.M.|.eX=.n.rXZ.AX7X0X+XC.0XA.oX.XVXoXM.OXZ.M.=.*.P.).). .O.U N X.,.+.X.#.:.I ,.X.#.#.,.`.O.H.i.d.,.O.! W X.W ,.#.f.,.U y.#.W f.o.W o.v v +.v h m v S 5 g g h v F Q Q Q W S h v m b o.F h W F G S v S G G Z V o.+.#.N O.i.:.,.O.P g O.y.$.s.o.E f.:.y.i.m X.a.#.#.O.O.O.! X.:.O.d.d.d.K.a.U X.,.`.:.U >.1.N.;.:.,.d.d.6.6.B.(.4.(.(.L.#X1.P.1.G.2.L 2.zXzXI.d.O.1.O.,.i.P T Y.",
"Q S h S V h h S V G Q v o.G 5 q.Q g v D g g o.q.N N f.P g O.+.#.+.#.E a.W o.o.W v W F q Q o.g o.F q G v b G i q q 9 v 9 G v F 9 9 h +.+.b D o.h F Q o.W b v v S o.F b D D S S Q Q D S F W W b g X.b X.X.X.o.N W g v S S v b F G p p p V V V V V V q v C v C Q V q S v Z w S b W o.N W q N m O.O.a.h.P n K.a.b y.+.o.o.o.W b b F v N F N F G F F S F S V S Z Z b G F F F F S S S b o.W D o.F v o.v F o.D v c v v h h S Q G V V D D h q S Q Z V S o.V Z Q V o.q V F o.o.F v b S v F b h h v S D D V 0.Z q v F S o.+.+.o.W +.y.,.O.#.X.+.X.O.,.O.#.,.>.@.O.,.d.d.,.<X@.U ,.U U d.O.d.d.,.a.y.+.,.X.+.W F W X.W X.o.X.q.y.+.F W o.+.S Q Q W F o.u.f.d.O.d.O.O.K.3.U :.O.O.:.d.d.,.:.d. .U @.#XJ.T ).3.>.3.h.d.n ,.N U c ,.#.U +.+.c y.S W o.9 m h m Q Q m Q S W h m o.#.c #.F m W +.q.+.o.W W W W F b ,.g N #.W +.X.#.E o.! 9 m y.! U W X.X.N W X.v F Z V p C A A V p Z Z b p S Z i p p w G C A w w C D 0 h h o.W S Q b +.g o.+.#.f.O.j K.,.! d.P o.W W V w w C C v V p w v V V v w Z V V V p b Z V G 5 G F 9 F G F G q o.F i F v q o.S g G h F v v g F W G D F v q h V V w w V S S 9 v v w h h V Q Q h V V 7 h S w h w v G S w V q.q v S v h h F +.g b #.+.#.X.m ,.! #.U #.,.:.d.O.).T d.P.O.P.lXG.U T n P ,.O.,.:.O.K.,.@.O.:.d.a.X.X.m B #.i.#.d.K.P X.f.o.s.+.b a.U  .>.gXhXeX.XZ.Z.(.M.8XR.F.8XA.0X7XbX+Xm.6X.X+X+XoXrXM.oX8XL.L.(.5.%X).g a.W O.,.d.+.O.,.O.n O.U ,.i.,.K.n i.P.H.,.O.O.#.a.a.,.X.d.#.N ,.#.m y.E m W g g +.v W F m +.W q.F q Q Q W F W Q W b v b S o.v 9 F D v D G S v V S D v o.$.b #.Y.d.K.U U N ,.O.c +.o.N cXK.j :.d.,.U d.U O.d.O.O.,.O.,.d.,.:.d.,.O.d.3./.3.P >.K.5.>.,.,.>.1.B./._.).L.XX6.4. X;.P.1.2.*XL.R 1.P.N.:.j P.:.O.i.! ! O.",
"D S S V w 5 w Z h V S D D Z V v S w w G 0.Q D Q v v v a.a.N W F f.#.b o.o.m +.W x.q.o.o.b F q.F z.o.N N i q G 9.N $.s.o.v q m F q o.o.o.h q o.v v o.0.o.Q S v Q V S v o.m b q b g S W v +.m W a.a.m W c N N 5 W x.F q v F W F q p V V v v V V V V p p V V V a a Z v h v Z Z V v v b b F W W F b o.W +.Q o.u.+.0.q.0.Q D F S m h S F S v q q h b v F o.o.G F b v v F b v F S v F 0.Q b b D W b h o.D S D D S S D h S Q D S D W D D b D F g S Q h S Q Q D D b v F v V V v V F S v o.h h V h Z o.V v G o.v v q.s.W b +.E ! +.X.+.+.#.+.+.,.y.,.,.,.#.#.:.O.U ,.d.@.G.3.@.J.d.).,.:.O.O.,.a.O.U O.+.$.W $.+.m N o.W X.#.X.#.+.X.+.W o.Q F F W F X.f.y.y.,.#.! X.O.O.O.+.i.a.,.! O.,.O.h.f.#.#.,.d.h.#.:.,.} M @.K.h.O.X.X.X.#.X./.h.N +.m N q.a.u.N z.X.o.c v X.b +.W o.9 W a.c m q.+.#.X.W F F o.F g o.W v N F m N W N O.P ,.#.K.#.N g W X.g X.f.N F X.o.F b v b S Z v v v v V Z v w V V a a C a d Z V V C C V S D Q D o.X.N N W N #.N #.f.O.o.y.W o.D S V V V p h w h w 9 7 w h w D o.Z w w v v Z D v q g v v F o.h F v v h h o.0.v V D Z F V v h v v v V Q o.D h G G q S D w S V 8.G V h h v h h S G w w V Z Q w w V w S q.V 9 8.Q h 9 u.s.h S o.m W ~ E o.! Y.N P.} n :.O.O.d.U >.O.O.$X:.:.].,.1.L ,.sX,.O.U ].,.:.O.X.O.#.>.O.a.X.c q.+.P m U.#.o.+.W m +.a.X.P O.d.J.J.hXXX>XC..X+X=.|.|.L.^ eXA.6X;X!.tXVX6X-.6XoXeX.X|.XX<.9XN.;.&XO.g o.W O.a.3.M a.X.! #.,.U f.U N ! ,.K.d.i.#.X.X.N P ,.W ! +.,.#.P m m +.W q v b b +.v m E ~ #.m m +.b u.W W 0.0.F h q v F W S h v F W h F o.Q S v Q q.b m N X.y.h.#.f N n #.,.O.:.#.P &X:.T d.d.d.].K.,.P U @.O.#.a.O.i.:.d.d.d.f.i.K.O.#.O.M #.d.} >.G.*.&.5.J.>.).>.<.%X).5.N.Y  X2. XhX*X X1.).N.@.g d.K.P ! a.O.W ",
"S V v V v h V G S S V v h h v V G V h S S V v V v v q G X.c m c v N 5 q v q G G o.N N s.F 5 F F F m X.r.9.o.F m F F F F G o.X.N 0.Q h S v h Q S q v D W S v S D q S v D g W F D W 0.u.S O.P O.X.+.#.! N X.W F F N v F o.F v v v v V V v v V V v V V a a a C a a V h h v V V v v S Z Z G Q Q D D Q D 8.Q o.u.Q D Q Q W Q Q W S S v F F v v v b F v v b F F F F F +.+.D S W W S F F v g g v F W Q Q S S S D S D Q v D Q D S S F S D v F S g b W v F W F S Q W b F v V S V v S Z Z Q v v S h S G v v v G G F W W b +.q.P W +.X.+.O.y.#.#.#.#.#.,.#.O.,.,.O.O.,.,.T @.1.>.d.>.G.,.d.O.O.O.O.O.X.X.O.#.X.y.y.W F X.N m X.W +.o.W +.X.9.W v b #.y.+.#.#.+.O.O.X.! O.O.#.#.#.y.,.+.X.X.g +.,.X.P N N X.c n } X.X.,.3.X.#.h.3.g M I ,.c m f.a.o.b g W #.X.X.#.$.+.o.N N X.#.c g X.m c F W X.F W W F W F W X.F F X.X.o.y.f.! P P ,.X.,.! a.X.+.X.B W +.c b N F F F N v v Z v v V v V Z v v V V a a a a 8 a a a a V V V V v v W +.X.F N c a.N X.y.F F o.F D Z V V V V V V 7 w h v V Z S h S Q Z v Z G Z D g v W +.Q v q q 5 g h o.u.o.D 5 o.o.G Z V v w w Z o.o.G Z V V V S S 7 V S h G S V V V v h h h h S Q v V D Q 0.V G S h V Q h 9 V o.Q h Q Q m y.s.W k E +.i.P y.y.#.#.g./.M q ,.d.n ].,.i.`.Y.O.H.T :.Y.].,.Y.,.U :.:.,.,.:.#.@.#.a.q.F o.W X.W f.y.+.y.y.O.O.,.i.W ! :.,.5.qX.X.XQ.Q.A.I M.@XkX8XeXOXVXeXS.+X+XA.2X6XF.@XZ.<.L.J.qXXX3.&Xi.W Q X.c #.a.B X.U X.U N g :.,.K.d.#.n X.O.O.,.i.P n ! f.#.N ! ,.,.o.W m m g o.F q F b o.! ! ,.N m +.F #.X.b b D W S v v F W S v v v v +.W v h h v v v T.q N h.W W a.X.N ,.O.n ,.d.:.].d.1.1.G.,.,.d.,.O.d.,.U :.@.@.K.:.#.,.O.:.K.d.d.:.,.h.d.K.h.} U &.*.<.N.J.1.%XK.#X).G.;.G.2. X>X9X>X X>X X%X).$XM n O.O.X.a.a.q ",
"G V v v V V V S D Z S V v v S D V v h h h v S Z q m q F G v N q v o.m v G G 9.s.[.9.9 q.q.F a.v q 9 v F F G F v o.F v v G o.F q q.D v Q v 5 D q.h h S D v S D S v o.D S q o.W S W o.s.W ! W u.X.W K.W W X.+.f.X.o.b b W F v F F v F V v v v V p C V V a V V a V v h v v V v v V V S Z Z Z S S S Q S Q D Q o.S m S m S Q Q W S D v v F F S S F W v v v v v F D G D W b b o.o.F F W D F S b S W Q D S b b v v S D S D Q D S S S b W v b S h v S b D D m b o.o.D F h V F V v S D D D v V V h v S v G g v o.F v b F y.a.N P +.O.#.+.a.a.y.+.+.#.,.O.O.d.,.O.:.d.:.>.,.>.U @.,.K.d.O.O.@.I U a.,.O.,.O.X.+.#.W N F m m X.W +.X.N +.o.F o.W F +.$.+.y.#.X.X.#.#.O.O.#.#.O.X.#.#.+.X.W O.#.#.+.#.+.W X.X.X.O.,.a.K.h.@.M @.X.U a.I N g c +.X.o.o.F q.f.v W F X.X.W q.q.q W N 9 F u.W W X.F N W W F W +.o.b b o.X.W +.y.#.N O.#.i.O.d.}.X.X.O.#.q.#.o.N F F N N F F b v V v V V v v Z v V V V p p a p 8 8 V V p p V V v F v b F m F W N y.m F o.b v S h v V V V V V V V V V v v v S v w h S v v G Q S V h S o.+.W v b D +.W q g b S Q F w w q w V Z o.8.V Z Z V v i v Z v S w w h h Z v 7 w V S V h w w q V w w h v D w D h q h v V S V m Q m m m F u.f.m m +.E +.#.#.i.O.U X.3.X.N ,.O.O.d.1.d.H.K.T i.P ! H.].d.H.O.n O.,.d.d.,.,.,.3.y.h.#.X.m X.N X.y.+.O.+.o.m P f.W P ! 3.J.,XZ.M.%.M.Q.7.@XeXVXeXeXOXeX2XA.oX2XS.6X.X=.8X.XV.L.L.).*X1.P.H.q.W #.B X.g. .X.n U N ! X.a.d.K.#.i.N O.i.i.,.i.#.U P K.#.N P #.i.#.o.+.E F s.0.v W o.+.m N +.N g o.W 0.+.F g v Q D w v S W D F S v h o.D v v b S b v b m y.aX$X! f P P O.g P n n K.,.,.d.J.1.:.:.:.O.n @.,.d.K.O.P ,.K.H.K.:.1.].G.:.O.O.d.3.@.:.I M L.L.N.N.P.;.d.d.d.>.>.>.%XL.B.kXL.N.2.B.>.<. .,.,.O.O.#.a.U.U.a.",
"S v h h v V V V v V D D S S Z G w h h w h S Q o.q F b G o.G F 9 m q.G v o.q.o.q.b G 5 v 9 5 9.9 F v q q q G $.o.F F F b m v c h Q S D 0.S q W u.S v S D v v S h S o.D G v o.D F b v +.W W W f.+.X.Y.W N m X.y.W u.G b W G G G D v F S v v V V v Z V V V C V a p V v S S S v V D v S Z S V v v v o.D W h v Q S D S h m W Q m h S v v F F F F F G o.G N v F G D F q v v S o.Q b b o.+.+.+.o.W S v S S S v h h h v S D Q D S S S v W m v S b v b W F D v m o.o.F F v v S V S D Z V v v v v w w h v o.v v G F b o.9.$.q.N W #.O.y.i.q.s.a.O.O.,.,.! ,.K.:.n :.,.,.K.5.>.U  .,.).d.@.:.3.U U d.a.O.a.#.X.X.W N N W W W $.X.+.X.m X.W v o.o.F W o.+.y.#.X.! #.,.#.O.#.X.! X.+.#.#.#.+.#.y.#.+.+.W W ,.#.O.#.#.,.d.a.} N O.N N d.N I #.X.X.c W y.o.W m +.y.N N m g o.W W +.y.v W s.m q #.N N N F F F y.o.v W q.X.W W m ,.#.i.,.#.O.,.}.c N N X.a.a.+.#.$.o.W N b b F F v w V V w v V v V C V p p p p 8 8 Z Z p p Z Z w G v g c g b X.F N f m W F m h q h v V V v w w v G D S v h v V S v S V v D Z h h F D W S v v Q q.W +.W Q S q S F o.Z V v w w w w o.Z v V F G F Z h S v w w v V q q w v S S V h w v G S Z S V Q V v 5 q h q Z 0.S 9 v S Q o.o.0.o.m W y.m +.f.O.i.:.,.d.K.,.O.P.P.,.g P 1.:.Y.d.Y.! P i.Y.d.O.P ,.O.,.d.d.3.,.3.a.g o.W X.F q.o.#.f.f.o.o.+.P E U.W P U ].%X>XN.4.M.Q.Z.4.L.@X4X4X8XoX@X+X!.rXtX+XoX!.M.eX@X|.(.<.6.XX>.:.i.y.m #.X.B X.#.3.B U O.! ! P N P f #.N i.`.d.N P a.a.#.,.#.#.#.+.O.o.o.f.E v W W S F b +.N m ,.m 9 o.+.W Q W b S D S w h b F F W W F v q S o.o.D S D o.#.`.#.c W N W }.#.P O.:.U :.P.O.J.d.1.O.>.1.@.,.$XL @.].d.>.K.).G.1.1.;.,.K.,.T ,. .d.d.@.,.@.@.).&.n  .&Xd.d.$Xi.G.1.G.gX).5.9XL.XX(.L.>.d.,.>.n d.N m f.+.X.}.",
"w h h h h V S Z w v S S V v V S h V V v h V S V F o.F F F F F 9 v 9.G q o.q.G G 9 G G s.9.o.z.v F v v v q v b q q v S F v v v G Q v S D D o.Q D F S S S v v v h v V v o.F o.D Q W g W Q W m +.X.+.d.! X.m O.b W N b o.u.o.b v S v v v v v V V V Z V V V C C V V V v S Z S v V D S D D D S V S S o.S W h v Q S W Q S S D S v v S v v S S S S b b o.Q D D D D S m v W W W Q S v S W W W Q o.Q F v S D D F S v v h b D D S S S F S W S m F D b S Q S W b b F S m F V V v V D G V q h V V v v h h V o.F F F b X.q.q.W $.W X.#.W #.a.X.q.y.O.X.#.#.P i.K.O.n O.,.,.P.O.1.3.>.>.,.G.J.:.d.O.} d.,.X.a.y.y.$.X.X.W W X.X.#.X.+.W m W N W o.b g X.y.+.X.+.W U O.#.O.! O.W X.#.#.#.#.#.y.W y.a.#.! m W h.U U #.a.,.#.} g n K.d.U a.X.U c m F c F X.c c c m X.m W X.F +.m $.X.$.N X.q.m m o.c N N N N c +.o.G +.+.W o.o.g #.+.O.N #.f.X.,.O.:.U N #.#.W #.+.+.+.X.N b F D V h S S v v C v V C V p p p p w w Z Z p v Z Z w b v v F F F F g v q v W E b v h V V V V v p v w v V V v v v G 0.V G Z S D v h S b S F F S S S S v Q o.q.W q m S V h h V S S S Z o.S h V D Z v v h S G V v S V w v h w h S S v w 7 v w h w 9 h 7 V 7 V S 5 V 8.h h h D 0.y.q.Q Q y.E W +.f.f.m K.O.O.X.O.U n :.:.d.U U T O.].1.G.,.O.d.d.K.d.O.d.O.:.,.,.,.,.,.a.m o.F o.F o.W y.y.u.W m O.W P #.W m U pX<X/.4.J.N.Z.M.4.M.B.N.N.OX@XeXeX5X5XrXoXeXoXZ.8XV.<.<.*.J.>X3.O.#.o.f +.X.9 B  .a.W #.#.#.X.P #.K.,.Y.! ,.d.#.n N #.,.i.+.,.i.,.+.O.W O.u.W F v h W W b q.W X.f.W q o.q.v b D D Z V v S v b m b S D F v q S o.o.b h v W X.#.h.y.N +.a.! O.P d.U K.sXP G.G.O.:.O.,.3.>.).].T :.K.3.d.].P.1.T ;.;.d.J.:.:.O.P d.J.:.,.:.@.hXG. .T ].1.U U K.sXO.>.G. .;.J.I 5.N.5.T >. . .9 d.U X.f.c 9 q.",
"V S S v w h v v S S S v w w v S v v v v v v h h F o.v v v v o.o.F G F q o.w.F F G q h 9.0.G Q q F v G G v q 9 3 v v v F G D D G D S Q v q D D v S W S v D D v Q v v w o.F W v F W g W o.#.m o.+.N O.W f.,.f.X.a.X.m F o.o.F G F v v v v v S Z V V V V V V C V V v v V S V h v S S Z Z S S V S S D S Q S S o.S S W W D S S S S D v b b b b b b b G D F F D F S m b W F m b v S +.o.W S S F W D S D D D D D Q Q S m F S S S D D S F W S S Q F b Q b W D b b v h F S S V S D G V q v D S v S v v G F G o.G b o.9.F W #.X.#.#.N X.y.F +.#.+.X.+.X.P ,.d.O.P :.,.:.,.;.;.,.@.,.,.J.K.3.d.:.O.d.:.O.a.y.a.#.o.+.W m N o.#.X.+.X.W +.X.W o.F v W +.+.+.+.O.O.X.O.O.! ! N O.#.+.W W X.#.#.#.+.+.a.a.+.+.X.X.#.,.+.O.X.N X.d.y.X.a.N W N m X.v m N m W X.c N N W +.#.q.W X.g c b F X.X.y.F g o.X.X.o.g F W o.o.E N o.+.m N X.O.N X.f.P i.:.K.h.y.h.a.W F N X.$.+.X.N v F Z v S D V V Z V V V V i p p b i p V V w w V V v F v v F v v F v F m v b S v v D G D S S V V v p q w v S v h v D v S V v S v v G b S S S W o.Q F o.D q v v g Q +.0.Q D Q Q V w w v h v Z V h v Z V V Q D Z Q S Z Z h 7 q v S V h G o.Z G G V Q S V 7 S D 7 h Q h o.h v S W Q F q.o.W E W #.f.W #.d.d.O.#.,.,.K.d.d.:.K.d.n ].].L K.T O.d.=XG.U ,.:.O.O.O.:.,.,.,.y.a.W o.b N m a.m o.W m W o.P g ~ W P }.].3.1.L.<.N.<.B.L.L.<.N..X8XeXeXoXC.+X3XAX!.S.VXZ.&.&.4.J.).d.O.P o.g +.#.X.} B ,.#.y.! c c X.#.i.! ,.N O.U P #.y.P P d.,.#.O.! ! O.X.E W W y.W h o.o.o.q.W o.f.F 9 W o.W D D S h q q v m b v v v b v h F S b b b b S F +.X.+.#.! W O.P O.:.P O.d.d.3.T :.n 1.3.,.1.:.&Xf G.G.:.P.K.;.1.G.;.1.N.G.G.O.>.>.T :.O. .O.:.3.5.>.3.U G.H.,.U #.$XN U O.L :.>.T 1.G.).,.>. .:.O.,.X.y.X.g W q ",
"G G V w w h h q S D D S h w h S v q q v V v h v v Z v v v v o.9.v q v 9 v o.v v F v s.q.5 & q o.9.X.o.9.G v F G o.G F G G F v v S S q.S 9 S S D v 0.D v 0.Q S q.S G v D v D h h m b W E y.W +.y.g a.N Y.a.f.a.f.f.N c F o.o.o.W b b S v v V V V v v p v V V V V V V V S V v v V S V v v V V V V S v D v S Q v v S Q Q S S D D S S S b S F F F F F F F F b b b S h S v v b S F +.o.o.W F S S F D Q Q D S Q 0.o.D S S S S S D D S v Q F b Q W b W b W W b b v h F S D D S S Z Z S S Q S h S V v G F G o.G b o.o.b +.q.! +.#.N X.#.+.$.,.,.#.+.O.O.O.O.O.O.3.d.1.>.J. . .@.J.3.d.3.d.3.,.,.,.,.,.,.+.y.o.W +.W B N X.+.W o.+.X.#.X.b W W W W N E y.X.#.#.! W O.#.O.m X.+.X.N N ! O.#.X.c n y.f.X.g X.N U U m N W N `.O.g q P g ,.K.y.f.F m W W X.m a.y.q.N m W m c y.F m o.F g N X.W m y.o.o.y.m W b W E b F W E X.X.a.K.#.! #.f h.U h.`.h.h.h.#.N X.X.+.+.X.F N F D v S S V S Z w V V V i p b S b V V v v v v V V G V v v 9 v F F S b v v m g v o.Q D v v S S V h v h v V V h q q v v w w v v h D S S v v S o.+.o.F b q W +.F W F v w v Q q.8.o.8.S V D o.o.D Q q.D v o.D Z Q V o.D v q q v S Z S V S h V S h D S v 5 w V w v G V Q h v h v F b 0.g +.S m g u.i.n N d.d.,.! n :.P.P P J.=XU ].lX,.G.T >.,.&Xd.O.d.O.O.O.#.#.#.,.#.N X.N X.N +.#.'.o.+.i.,.#.i.i.! E :.P f.,.,.1.>.).J.&.4.4.L.L.*X8X>X|.@X!.m.+XwXVXA.|.ZX|.M.<.6.J.4.G.d.k Q W q.#.a.a.M ,.O.O.! X.X.Y.i.#.P #.i.O.O.#.i.i.P N i.o.O.P N ! +.X.E m g o.b g F S Q o.b b +.b 9 D F 0.0.G v w h v q v b b v v m v v Q S v m W o.o.W E X.W +.d.O.N O.,.d.n K.:.P <XP 3.M K.d.@.d.,.K.:.gXG.Y P. X1.*X2.;.1.;.;.:.R  .K.,.>.U O.,.i.$X].:.K.O.#.W c q W a.N i.d.d.3.,.T 1.3.d.O.,.X.! #.#.N W q 9 o.5 ",
"v h 9 5 q V S h q h S S v w w w Q h q v V w q v v D v F v 5 v v o.c G v w W v F v v z.o.q Q v v v 9 v G v q v o.G G o.o.F v v G Q h Q S S 0.D S q q.S q 0.D h u.v Q V V g +.W b b o.o.m y.X.X.+.P }.g f.U m +.m o.W +.y.W b F F N F F v v v V v v v v p V V V V D S S Z S v v V D Z V S D D Z S D v S g h D v v h Q o.S v S S q F F F F D W W W D W D F m v b S m D F F Q D v b v S W W F S F W +.Q S v S o.o.D S D S m S D D S g Q D v W Q b S S W F b S b v D V G Q Z v S G o.Z o.v q V v q Z o.F D F v F o.o.q.q.P +.#.U X.#.a.a.a.a.y.#.#.,.O.P U O.d.P.P.3.P.>.3.,.J.@.,.d.d.O.O.,.:.,.,.O.#.y.X.m o.X.W #.W X.m N W N X.m W b g b +.W m W P #.#.N m O.#.O.N O.#.O.! O.#.#.X.y.#.N W +.+.X.X.P X.#.+.X.W c a.#.X.P #.W +.5 c +.F N X.+.y.+.X.W y.N v o.m F W F m a.#.v $.+.X.m q.N N y.N +.b W F W #.N c o.! X.#.#.,.f.n $XP ,.a.U N #.,.X.a.#.X.W F F W W S h h S V C V w p V V i b S F F G V V V V v V Z h h F G v v v v q h v v b g g Q Q S w w V S v w Q v w v D D S S Z V w h D S v Z v S S v v S b h D D b +.0.S W D o.D Z o.8.D v V Q h q v S v h v o.v G S v S w o.D V h w v Z Q o.S Z h S D S o.G S 7 9 h h h V v v h o.D S o.b o.b W h +.m o.f.! f.K.#.#.,.O. .P U P.d.&XP.:.1.].L K.&XP ,.P.P.d.O.O.#.#.#.#.#.#.N q.+.+.N X.N #.o.E O.O.N W y.O.k i.! i.:.d.1.L J.B.*.(.(. XN.L.eX@XA.6XwXoX6XrXtX!.OXeXM.L.J.<. X>.].].k Q Q +.N @.#.N a.m N u.#.N K.,.,.,.,.a.#.K.d.! N N U O.P O.#.O.O.#.+.o.y.g F b b o.D +.W h g W b v o.D D o.D h V 0.8.h h b F S S F F S D F D D W W F b +.c y.U.#.d.Y.U O.P d.M O.K.P J.$XO./.,. .K.3.>.#XP.2.N.*X XG.P.T ;.G.;. .G.5.G.O. .T P :.,.O.P.=Xg ! #.+.g q W W m c +.O.d.U O.n d.d.#.U Y.d.N q h.X.N W c W q ",
"Q h v S S o.Q 5 w Q S v G V D l.8.S q v F F V v D h v S v D o.v v w V o.G h h D o.Z q V Z h v h v o.9 v V o.Z w V o.v 5 Z o.V q o.v v v o.l.Q h q 5 +.o.o.0.h o.w 0.G V 0.F q o.F F m m m E W O.! O.#.! N U X.N +.+.y.$.N X.+.m F q q.+.v v q v v v v v v V V p V V F G D v V D v v v S D Z v h S V v h h v V S 9.Q v q v V v h D S o.o.m F o.b S W W b m F F m D S v v h g h v S W D F Q W S D S +.q.8.D S S v S S S F D W D S v v v S S b F o.S g v W W v h F q v v w w v V v Z V v S S v h h G v v Q F v W j.a.+.O.n N y.#.,.X.a.m y.P ! K.,.O.X.O.O.,.d.:.U U J.d.;.d.3.U P d.O.U :.d.,.#.#.W +.#.+.X.X.X.W +.F N o.#.+.W N F q.o.u.#.W y.o.X.O.O.X.,.K.f.,.+.X.X.+.+.+.+.+.X.N +.y.+.! ! N #.#.+.X.W O.+.y.N ! N m m m m o.F X.F +.v F N $.b g F X.F W F W N q u.'.N g o.m X.#.+.#.N X.W X.+.F W o.b W +.N n N P P O.d.,.P :.O.U O.O.N O.#.d.a.N X.X.m X.N v T.W v w V C w 8 p b b b v m b G F v v S v v w q v Z Z v w w v S q w S S Q 0.S v v v b v g v W G G 9 v V q D Z D h q v V v v Z h q q v v g h S h 0.o.F +.D v o.s.y.D h v v v Q D h D S S D q v G m q q F o.G v v G S q F N q h v v v v v h w 7 v q 7 h v h h h S S S o.q o.o.S o.W W W X.X.X.o.! W W g ,.f.n O.U g.U ,.&XP f P.).j &XU n O.P.d.U U #.,.#.#.#.! W N N X.+.b m +.u.m E d.o.o.f.g ~ W o.+.].P.P 1.;.).>.L.*XL. XL.Z.@X6XoX6X2XS.oXnX!.OXM.M.=.L.L.N.*X-XY.W h 0.o.N h.} N X.,.g o.#.! n X.h.a.O.d.a.dXO.O.d.c U f.O.#.N ,.,.N +.X.q.S W F +.v S b z.v W Q S b h 0.o.D V Z Z Z V V q W Q b v h b o.b v S o.o.F S W W Y.X.! K.K.d.:.n K.,.U K.G.T 5.d.5.>.@.3.3.@.K.%XP.1.G.=X=XI.2.2.>.>.>.1.1.1.1.i.,.:.i.O.! K.Y.H.#.o.F b F b o.b W q m +.+.a.,.P d.,.f.i.m P b v F y.+.F F q g ",
"h V 0.0.V v Z h G S Z Z h w v S v o.o.q 9 F Z q S w h v q v Z q Z F Z G Z h v Z h 0.G v v 8.u.V q 8.Z 0.Q Q Z D o.v q Z Q 5 q z.o.q v D m q 9 o.z.0.u.m v 0.Q l.v 8.Q Z o.b q F +.W m m m E W O.U U :.#.P ! #.+.+.f.}.`.o.X.#.o.+.b v W F b F 9 V v v v V V Z Z Z Z D G D v V D G D Z S V V Z D h h h v V Z G Q o.S w v o.q.o.S W F o.o.m W +.W b S S b S S m g S S b m b S F F S W S S Q W b S v W Q S v D Q Q F S S F D D S S o.Q Q o.W b v v D v h F W F S D v V V v v V S V Z v v V S V V V 9.o.G G W o.W F c F i.+.W X.m N o.o.c a.! c ! +.K.d.:.O.:.d.,.@.I  .,.,.3.J.K.d.d.,.#.O.#.,.,.,.+.#.#.o.X.W W N $.W N o.q.$.X.X.q.u.F W X.N +.W X.+.O.! O.i.,.O.#.#.+.+.O.X.X.X.X.P X.+.W W ! W y.+.W W ! W N m X.m E f.K.m g y.c +.X.X.m q.X.m N m b m W j.u.c m g W F g #.f.c a.+.m +.$.s.$.q.q.o.W F b W #.+.N P ! ! O.O.O.O.O.O.P @.#.O.i.#.aX[.#.y.a.$.y.X.f m f W S V w p 8 p V V v F F W F F v v v v V v w w v v v v v v v q w v S G Q S q v o.q.0.D v v 0.8.v G Q v G V v v v V v h v v W v g S W F S F S o.F v v v b 0.h S S Q q.o.S S v q S h h D S o.F o.o.X.F b v v 5 F F v G F q v v h h h v V V S h w w h v h v S V V V G q W W v +.F v b W E N W ! U.#.g #.f.,.U n K.P.K.3.P T ,.sXT ].,.J.J.P.:.O.U O.,.O.! O.X.h.+.W W N c g g y.u.i.#.g P f.o.m E ,.,.d.d.T J.G.=XN.L.-XL.*X*X(.OX@XOX2XoX!.wX2Xm.M.=..X9X*X| hX,X1.y.t.W Q b c +.c N a.h.m E N W +.y.,.N n #.g f.i.#.d.O.P ,.#.,.N #.O.g W N m v W b Q v W Q j.m F S h h q G D v w V V V V V v o.D h S Q b q v b D W F b F o.}.U P `.P.O.O.n ].,.U :.G.;.;.).].,.@. .>.5.5.<X5.5.G.P.P.G.1.1. .5.J.3.;.O.1.H.i.! ! :.O.! O.o.K.,.#.W b S h Z w G v b G N #.a.W X.N #.+.v v 9 F F o.m g b v W ",
"v V o.o.V V Z V S 9 V Q w w S q v v F v v v v F D v V v h V V q q q q q 7 q h V w q 5 h w & 7 w 9 G h Q V w w V v S S V v q S l.o.D o.Q Q q.0.s.D v D 5 5 D v D V D Q Q Q W D Q F F E W O.W E N O.O.,.,.U N ! O.m N X.X.F +.u.+.T.s.m X.G v q.b v v v v V V Z G Q G G G D V V S v v v w q q h V v v v V S S Z Z o.F v V G o.D S W W o.o.S W +.Q W S E Q o.W S b b D D b b W W F S F b b o.W v v v F S h h S D D D m v D Q S S D Q W D W W S b b F v q g b F F v v v v v v v V v Z v v v S S Z G F o.o.v F +.o.v b W y.W m W N X.u.#.X.a.X.X.#.K.a.,.O.P O.K.K.3.1.T ,.d.>.3.P.,.3.d.3.X.U :.a.#.#.#.+.X.X.X.W N +.N N X.#.+.o.o.s.q.b b W F O.P X.#.#.! ! O.#.X.O.+.+.O.O.+.#.#.#.W W X.W P X.! W m m F Q o.E h f S m g g g h E c +.o.W c +.X.m y.o.F N X.a.#.q h.o.W +.#.a.a.+.W q 3 N W X.v b o.o.o.o.$.+.X.o.! W O.O.O.U O.d.d.d.@.O.>.O.#.P ,.#.N O.#.$.a.y.#.N m o.m G V ` t a V V F F W o.G F F v v v v F V v w w w p p p h v w v Z Z S D b b F W W E F D Z S w S D v V w v Z Q G Z S V v W b b D W F F W v b W W v h b b v v h S o.Q h h o.D Q S Q y.o.Q v G o.G v v v v 5 v F v N v q v h h w w w v V Z w w h v h h V G v F V G q G F h j.W b o.#.X.W +.y.f.n ! a.O.,.,.U g P ).).J.].>.).@.3.;.3. .J.d.,.O.+.,.! E ! o.+.c c N F $.y.W m ,.i.i.o.W u.,.m c #.y.:.,.,.J.J.&XG.J.L.B.*X*XeX@X|.@XtX2X!.+XoXC.|.oX8X>X%X>. X#X1.,.y.m S +.o.a.X.X.y.y.E f.N U i.d.! g n O.O.d.f.N N #.X.i.W O.g O.#.P a.u.E W q.F F h W W 0.v S b h S D 8.Q S V V Z C V V S W S S Q W h q v W Q F v b W +.#.#.O.O.d.d.U O.$XM I d.T M 1.G.G. .>.G.G.G.1.G.5.<.P.-XN.;.5.G.;.d.d.>.;.,.d.i.O.n i.i.W W E f.b q v 9 q w 5 p V ` v w q 9 g b h 5 5 F F F s.s.v v Q b h S v F ",
"V V V V v V Z Z h 5 v D v v D S G q 9 F G S v F D Z Z V V S V w w h h w w v S Z u.V w s.w.5 q 0.G o.7 D S v w V 7 Q Q q w Q Q h v v D q q S h 9 S v o.o.q.l.o.o.S V Q o.F Q 0.W g b W +.#.O.E N ,.O.d.d.O.U ! O.+.! N N X.$.o.m o.+.N W b q F b v v v v v v V Z Q G G Q G F S S v V Z D Z S V V S S V v v V V V G Q G S q q v Q W W o.o.W W Q Q W S W +.0.~ ~ 0.S W W S b D S h S F v b o.Q v v v S S v m D S v D v v D W S S D b v h h v b S F S S v g v D F h S S V v v V V v S v v V S S Z G 9 F o.F v F o.W a.+.! g m #.+.#.N $.+.W c +.! ,.,.i.:.U O.d.d.@.#X5.,.J.d.3.3.O.3.d.,.O.X.#.,.O.#.+.X.W X.o.X.W +.N m W +.X.X.o.o.o.F W X.X.! m X.+.O.! ! #.#.+.W X.+.+.+.#.y.y.y.X.X.+.W ! +.X.S m v S o.+.W S E T.s.f f y.s.y.b W X.W g g b #.W m c o.X.N o.X.X.m c N N q 9 m W o.+.U.a.y.X.o.W +.o.o.u.+.m W X.X.O.O.X.O.i.h.>.d.O.O.>.:.a.X.U X.O.#.X.W #.d.3.U O.N 5 G w w a a V V V F Q o.W W W F v g v v Z V v v p p p w w Z v w G Z v G Q S h g v F o.+.o.8.o.8.o.G D Z v Q o.Q D Q Q S v b W W v g b o.b v o.q.v h S q Q W h v Q D h v q m D v v S h 9 h v h q q v F Z v S v v v v v F V V v h w h v V w w w h h h v V V G Z G v o.F b u.b g W +.N b X.f.:.g O.i.m P :.O.M ,.sX].J.=X).>.J././.$X>.K.d.,.#.,.#.! O.:.o.y.N W o.F $.,.f m E N d.`.+.W #.+.g N #.:.d.K.,.3.).G.J.(.L.XXL.rXOXZ.8XSXwX+XS.6X+X2XeX*X<.L.>X&.).P.i.t.m m s.W +.N N X.m g i.i.! #.i.X.U #.#.O.,.d.,.O.#.O.N #.,.N +.+.N ,.+.o.y.j.F F v W S D v S S v D o.8.8.G Z Z Z V V V v b D +.o.h g +.b Q o.F b D o.o.m N U n d.:.P <X>.@.P.). .1.#X1.J. .2.1.>.J.J.G.#X1.L.-X1.;.N.5.,.,.:.O.:.H.d.#.! 9 t.Q k h f f.m q v q w v w V G A 5 5 q 9 5 9 q.b Q 0.h 9 o.q.v v W b v S g h ",
"w S G Z h w v Q h S V v Z h w G v F F v m o.G q v S V h V V h h S Z S v h h h h q v q h V v Z h S Q 9 D S v h S S h h S G D V h o.v Q 0.Q v h q.Q h v D o.Q S Q o.Z o.o.v F o.v F W W E m m W #.,.@.,.H.d.,.i.,.P O.+.#.,.#.! N W W a.a.a.a.X.q.b v v v w v v V D D G D G G D F h v S G o.Q S v V v i w h V Z G V Z G Z v w Z w.S Q o.o.Q W S W m m W Q W S W q.S W Q S b S b g F W b S o.Q b v S W W D Q 0.0.Q D v v D D S S W b v v h v v v v b W D b S Q Q S Q G Z D D D D Z S V V Z Z V V Z F Q o.o.F v b o.#.W W c W a.+.W F j.h.d.#.f.! #.P #.:.O.:.d.K.d.).G.>.3.$X).,.3.d.,.@.@.@.@.O.X.#.+.X.W X.+.o.X.+.N m W X.X.X.X.W W o.o.X.X.N m X.X.! ! O.#.#.O.O.#.y.#.#.#.#.X.y.X.O.#.X.X.O.W o.Q W W W W F S m F E W W m m Q F W X.F m c N +.F N m +.F q W W m #.+.m F +.o.o.q X.$.a.W o.N m u.u.W b X.W E y.X.#.#.P ! ,.i.,.,.K.d.3.:.O.,.} a.,.a.y.O.U m U d.>.J.h.X.s.Z p a a V V V S W W F W W G b v v v Z Z Z Z V V a a w C h w Z V h D D F F F W o.X.W D G o.F w q 9 w v S S v S Q G v v b F S m v S Q o.v o.o.q h +.W S S S o.s.y.S m 5 W y.0.W S Q Q g v i 9 q v F F o.F F F G G G G S Z Z S V v V V v h w w h V v h v G V Z v o.Z G o.v v o.+.b m o.u.+.#.N N O.n n g O.1.5.5.K.#X5.>./.>. .d.@.3.P ! :.i.+.E +.u.Q N g N W b y.h.X.y.y.n W f.O.P #.a.c c O.O.d.).;.5.J.G.J. XXX*XZ.4.|.+XrXwX6XeX2X6X@XZ.@X.X<.L.9XN.%XK.O.t.0.S W +.X.X.a.}.f.+.y.d.O.#.i.+.#.i.#.! ! n ,.#.! a.N W ,.N o.O.m +.P E o.y.m F S o.F S b S S q w V h G Z V V V w w w h D o.Q D h b q.b D W b S Q Q b ! n ,.@.U G.J.d.I G.#X5.>.#X%X;.2.&.B.N.5.*X-XG.).>.G.).>. .<.;.O.d.i.O.O.+.y.+.U.g Q S S Q 9 S q.Q G p q 8 5 8 a 8 5 5 V Z S G D q Q w.V v o.o.Z v S q q v h S ",
"S G S D Q S w h q G V w D v q o.9 v F F v v G o.h Z V h V V h v v v h h h w q q 5 G V 7 w Q 0.q 3 S w Q S h w S G w v G S v G Q 0.v v h v D S 0.q.v h D Q D D q.o.G 8.8.S o.0.S W o.o.W N m W O.O.T :.i.,.,.,.O.U ! m N #.y.#.i.#.N W c F +.q W b S F v v h v V S Z Z S D G D S v h h v S Z S v Z V w w w v S D G V V Z G Z Z Q S Q Q o.o.W m Q E E W W S m E o.F F D D D F S S D W S b Q W b b o.o.Q S S o.0.o.D S S S D D Q D h S D W D F S b h S F S S W Q D Q Z V Z D D S S S V S D Z v v V o.v v G W v v W X.W +.N N #.X.X.m o.m W W P N d.X.O.O.O.:.d.P.].1.5. .>.$X].,.d.3.>.O.:.,.@.O.} #.$.o.W W X.X.W +.W N X.+.X.X.o.o.o.q.W N F m W +.X.! X.#.#.O.! O.#.,.#.#.i.,.X.,.X.X.#.X.X.X.N Q o.Q E m m S E W m m q.y.m g o.F o.$.m X.$.+.g X.q.F +.o.X.a.m F F c q N X.W X.m +.X.o.N a.+.F s.q.o.o.+.X.W #.X.#.#.P P #.#.P d.).K.J.,.@.:.O.O.P X.O.,.a.+.:. .M M @.m F q a a a V z h m S S b N F G F b v v v V Z A C C C C w w w w V V v V W W W W W W E b Q o.q.Q S D Z o.V v v v S G D S Q S v m W o.Q D D h Q +.h b q.o.v S S o.u.0.S m h v q S W S D h v G o.G m c v v G v N o.o.o.o.v h V S S V v v V S V h w V D V q v o.V V v o.F G o.b b o.+.F F $.+.m o.E ! ,.P O.O.d.>.d.%X%X%X/.5.%XJ.3.J.J.].3.P O.y.O.P o.y.W u.o.X.N g N o.m W f.o.N ! o.,.#.#.N N #.U O.P.,.J.5.6.N.Z.>X8X(.M.|.!.6X2X2XnX+X!.rXZ.|.Z.B. X XJ.).d.n E q.S S m g m U f.o.W W O.O.y.d.#.! O.#.,.:.9 X.O.N K.,.N O.N #.#.E y.W W o.+.v W W +.F b b v S w 9 V h V v w V p w w v v +.Q g v o.Q b v v m b F W S v N d.K.U ,.sXP.n 5.d.>.T >.L.J.;.T 2. X).P.%XN.T 1.1.).).>. .>.>.1.,.#.O.o.+.Q S j.D q.8.Q 8.z S V w p 5 > 8 5 8 5 8 a w V A A u.z.G Q D v S v q v w S h h D h v ",
"Q D 7 h 0.o.h w w h h V Z S Z o.v 9 c o.o.c F s.v Q Z v G S h V S h h V S V V D v D v v h q V w 5 o.S 0.Q Q S S V V Z v q G q.G l.0.D 5 h o.v 5 S h q S W S D Q D G o.Q W 0.u.o.W W o.+.+.o.W P U U >.,.>.:.:.U K.K.+.! y.y.O.#.h.f.$.F X.W v W v v F S v v v V v S S v S G Z v Q D Z S Z D D G Z V v w w v V Z o.V v Z Z V v v S o.W W +.W S 0.W Q Q E E W W W F b b W Q S F Q F W S b D F v S Q o.Q S v D Q D D Q Q S D o.o.Q g S W D F W o.o.S b v v b F F S Z v h v S v v v S V S S V v v S F q q F G v v o.o.+.y.N c ! ! #.W s.g N X.! ,.}.Y.d.:.:.:.O.:.,.1.,.>.,.d.d.,.:.>.,.,.:.@.,.#.X.X.+.o.X.W W X.X.o.F N X.+.X.X.+.o.W q.W b W m X.+.+.#.#.#.+.O.O.+.#.+.O.#.f.a.#.y.X.X.+.X.X.X.E m E E E S S W Q E W m m W F S Q b X.y.b o.o.+.g c W c +.y.u.[.$.+.g q N X.N m W N W m F b #.X.F +.G o.u.y.+.X.W X.+.#.O.O.O.! n O.,.>.G.g.3.K.K.O.P @.#.a.`.K.&X5.5.I } B b a A 8 t a V h v m b m b N N F F F b v v V V Z Z V a V w w p V Z D v D D m v n N W F v h G v v o.Z Q Z S S D G D D G W S b S D Q o.o.h g Q o.m b o.D Q W S S Q W S S u.Q q Q s.0.o.q b G o.X.G F F b v 9 m o.F F F q 9 w v v h w h h V V h h v S V h v 8.v v v o.v Q X.m g v m m m F W 9 m +.i.,.i.P.O.O.3.].,.f Y 5.n 1.J.).K.d.,.P O.O.#.#.E m W W N m m b W $.u.u.q y.:.W ! :.i.O.X.X.U O.P } P.3.J.5.N.5.4.*X9X|.@X.XA.0XeX6XnXS.C.VXOX@XZ.N.(.).1.1.d.N k Q Q 0.q.X.+.} #.E ~ o.! #.,.,.#.! ! #.! ,.O.a.d.,.i.! #.d.W ,.#.N o.m o.o.+.b W b Q S D D v D v q o.G V V V V V a V C D Q m g S Q b h m v v S F S v m ! :.n d.jXd.L ,.&X,.>.G.G.5.G.G.L.I.L.N.N.N.*.5.5.P.).J.>. .>.,.a.O.W X.+.o.F v m S Q Q h w C C 9 5 w 7 8 A a C 6 6 C 8 w V w o.G w w 5 V w.8.8.w q S v S Q q 9 ",
"S Z w q S v h o.G q V o.S G o.S G G F N F G F v v o.D v G S w V S q 7 h h 9 7 v h G V v q 5 V v h G 7 V S Q v 5 D w h v h Q 8.h F 9 h S D D S q.S D v S S v D S S G Q S S Q Q S q.o.E E o.#.0.o.n U ,.,.:.d.d.,.n y.K.f.d.! N #.n h.f.`.U.N m v q g v v v h h v v S V v V D S v V F Z S v v v v h w w v V Z G o.o.Z V V v w b o.F o.W E +.W W f.W W F m W +.o.m W v v W Q m b Q S W S v S b v S h D Q D D o.o.Q D o.o.S D q.q.Q S W W v q v o.q.0.W v v S S b v S h q v V v v v S V v V v h v G v v Q o.S g b +.W W #.F m X.m m g `.N ! +.O.#.U d.O.U ,.J.J.G.J.J.1.J.K.:.,.J.:.O.d.h.#.O.,.3.X.N X.X.X.W X.o.+.W m m X.o.X.X.+.F m +.W F o.m X.O.#.i.i.,.#.#.,.d.d.#.X.#.a.y.X.a.+.X.+.O.O.+.W S E E E E E W W E E m m W W S W m F y.W W 9 N o.X.X.c y.+.q W m q m X.X.W o.+.m c N m o.N F N X.q.b W q.X.X.#.+.X.X.+.y.,.X.W U d.d.,.J.d.O.O.O.K.d.`.,.N N N d.5.gX5.O.m b b 5 8 8 a V v v m b W N b b F F S v S v w w V C a w Z q w Z V G o.v h b S b b W W W o.D +.F D q.S F D F D o.Q v S o.q S Q F h h W q.D b S m 9 q F W F W D W 8.o.W o.m D F s.u.v S m b i 9 c o.q.9._ F q v G v q v w w h V v h w h v w h h w h V V h V q.V v v o.v Q q.G g g b F W F m o.N X.O.,.$Xd.3.3./.,XJ.G.%XJ.gXG. .T  .,.:.U d.O.+.u.W g m o.W W W o.u.y.W ! P #.W ! O.! +.N ! X.n X.} O.K.,.G.5.(.J.N.>X8X|..X+XoXHXSX2XnX+XS.eXA.@X.XV.L. XJ.>.d.#.E o.Q 0.u.W X.W h.y.#.g #.,.O.! ,.#.O.i.! ,.i.U X.i.,.i.m #.N O.+.P y.W E S W v S g D D 0.o.v Q v 5 Q G Z V V C V w h V o.h q D o.q 9 W S m b W F v b W P P U ].K.U >.>.J.I 5.=X1.I ,.G.1.1.L. X-XG.T L.).%XJ.@. .@.>.,.P ! #.,.W v m o.o.Q S z 0 w D w w w C 8 5 t > > t 6 8 > t A 5 V 5 w ( C G 8.7 5 G V V 5 q V w h ",
"V h Q 8.Z D Q v h g b o.o.v b s.S S W +.Q v S o.D Q Q S S W Q S v v V V h w w h V V h V D h w S v V Z V V V v q 8.Q V V D S h v v h w S Q V v 8.V S S l.S S 8.v h o.+.v W q.W o.W q.W o.o.Q s.y.m a.#.P d.].d.d.O.n ,.K.J.J.U P @.:.O.#.a.+.o.v v v v v S V h w S V w q v o.Q v b m S v b F g F S G v W o.F o.F 9.+.o.F v v o.9.+.X.o.X.b +.u.N b N +.c v +.b v v V V V V S W o.W D W +.o.b m F F F Q G v v G F 9.W F Q o.o.G W W b h g f b o.o.S q h D v w v V V v S S V h w h V V V V S Z G Q v S o.0.Q v v W o.D F D o.+.o.Q v o.W +.O.P i.#.,.d.,. .d.>.G.,.G.d.,.].,.:.O.P.:.O.#.#.O.} X.+.+.F X.j.+.m +.o.X.W X.$.$.o.W W o.q.q.X.W W ! N U ,.,.O.X.,.a.@.,.d.d.,.:.#.a.f.,.#.#.#.,.#.o.X.m o.b X.o.v W X.F F o.X.b F o.N N F W F N N X.+.W N X.N W $.F N N o.F G X.X.o.m F 9.F X.q.N b F +.X.X.+.+.o.o.#.W #.X.o.U.y.N +.,.@.d.$XK.3.3.@.U &X5./.,.;.1. .M #.d.3.+.o.v 5 v V V v v v m b m N E F W o.Q S 7 w w w 5 A w w Z V Q D o.v Q q.q.q S g b q.W l.F 9.9 F u.b W F +.q b q.W v b F 9 S S b Q W m o.+.Q 0.v m o.F W S v S v Q X.a.s.c F $.a.y.N q q v b 9 G G o.q i q Z v p w p A w S A h q w w h S h h h h v V V h V Q 0.8.S h v Z D o.v w Z S h D 9 $.#.} N g.@.G.5.>.#X%X#X).,XK.,.].P @.,.d.#.N #.o.o.o.S w V o.Q o.W m b X.O.! ! d.d.P O.#.m o.E W W E P W O.O.K.J.N.2.=.eX.X;X+XwX6XwX6X~.wXbX.X+X8X=.@XL.1.9XG.>.3.P ! +.S 0.s.o.v X.+.} #.a.#.O.,.O.:.,.P ,.X.i.X.m +.X.a.c E P m i.#.N a.+.o.b E v g D S S S v Q v 9 S D D Q h q h V v v S g v b S S S F D S F Q +.W m P O.:.O.W ,.@.1.%X>.N.*.%X,.O.U #.).U 5.G.J.K.>. .J.$X3.O.>.,.O.O.O.O.O.O.a.f.u.Q S S D A V z a z t V 8 t 8 w y 6 8 8 8 6 6 6 8 6 6 w 8 V 8 V A t w A a 8 w w 8 w t ",
"w 9 w S v h h g F Q W W W v h W D S v v D o.D v S W D S b F D S h v V v h h v v V S v v S h w V q w p i v V v w v v w v D S v D S h q V S S S S D Q S u.7 q Q D h +.z.0.F S g D W +.b F S S y.+.k o.! W d.d.:.P.].K.K.U n 5.L./.5.@.} K.d.B N $.b v v v v S S V F o.8.G F D G G W X.o.b N N g N v F v G G S G F v F o.o.G F v F o.W X.W m o.y.W o.X.#.F W q.W G D Z S v h h h v W h v W E g m +.b q v F v v G G o.F v v F v v b +.y.f.u.o.m Q s.o.v h S v h S D V v v D D Z S Z V v v v v V Z D 0.Q D o.0.o.D D S v m S Q o.o.o.q.E g o.f.,.O.N P d.P.d.K.>.3.>.P.G.,.H.:.O.U ,.:.#.O.#.@.@.+.#.W X.W +.F m X.W X.W W X.o.X.W X.N X.X.W N N X.#.X.O.#.O.@.@.,.,.:.:.:.:.:.:.,.#.,.#.O.X.X.W m v X.#.N W W g b N W X.m c X.X.v g F W X.W N F X.o.F N X.b m W v m g N c N F N F i $.s.F m F N X.$.f.#.W F W W X.+.m o.F X.f.y.W y.U P ].].).<X).d.%X;. .5.J.%X&./.3.a.#.X.N X.W F V v v v b b N F o.o.Q E D W D m x.Q v G V w & Z V h Z v Z w V V Q S u.S w G h o.F y.c o.a.N W m N 9 c o.F m F W W S g q m E S E W W 0.m m y.S g F g v N q.G X.m F g g q q N ,.+.o.l.q.o.F s.G & w w 5 w Z G G w V S S V S h w w h h V h w w h v w V Q Q G V h w 7 S V S o.D h V q q.j.3.O.3.I 5.).J.,X#XJ.>.K.d.U d.g n P ,.y.#.o.W G o.G Z Z o.V V v c N +.O.N :.:.,.O.#.X.g X.o.o.W W O.:.:.:.;.=XG.L..X;X+X0X!.+X!.6XwX~.:X7XQ.oX|..XqX<.n. X5.]./.n g W S S o.o.D +.+.X.@.I U U ,.:.,.3.P #.P P m P a.#.[.'.! W N ,.#.n #.X.W S +.W m W D D W m Q v h Q Q D S v h S S h v S o.o.W D D S v v D F F X.+.,.,.:.! E P ,.J.2.<.N.| *X#X .U ,.sX#.:.J.d.,.3.,.,.K.d.d.,.O.I U X.#.O.! #.i.y.W m g S V h 7 5 6 6 5 8 > t 8 t a 6 8 & & 6 C V 6 5 w 8 w A 8 5 w 6 t A t w t t 8 8 t ",
"G S v C G v q v S o.W S W E b F v Q Q v h D o.Q S D S v v S S S h S S V V S Z S S Q Z v S S V C w p p p b Z Z V G Q Z V S h q v D q h S v D Q h Q v 9 Q h S o.S S g W D F 0.q.s.D o.F F F S o.W W ! m P i.d.&XLX>.U K.sX). .T K.M @.>.g.d.+.+.F W F v h h V S S V G 8.o.G F Z G v F o.g c N c F g v v F F v G v v F F S v v S F W W X.W m X.#.X.q.+.q.+.+.#.X.o.W G D Z S S F F W b v b m m W q.+.S F o.o.o.o.o.s.9.G F D G G o.g m c m o.E b +.q.F D Q D D Q Q v w w v Z Z S Z S V v v v v S S Q Q Q Q Q S S D S S S D F D F F o.h m o.+.W N #.P d.K.,.d.@.d.3.,.,.O.,.:.1.,.d.#.#.@.O.O.#.#.+.m #.X.F W W +.o.o.W F W X.X.X.o.N X.X.X.N m W #.#.X.O.:.:.O.O.,.,.:.O.:.d.d.,.O.#.O.X.X.X.! W N X.$.N W X.N X.+.N q.W N +.N g X.N F X.X.W F W X.W W +.N m F m N N F N o.$._ o.F q X.v m F N F N #.X.W o.$.+.o.X.W $.X.W +.W N #.O.g >.O.).GX$X>.J.P.,X>. . XL  .K.f.a.#.+.X.N c F m v F W F F W o.o.o.W F F m g h 5 5 v h G w V v h S w D v S h S v o.h v 8.v v b +.m o.y.W +.X.f.$.#.y.o.W W F Q S S W W W W b g 9 g 9 m 0.Q W v q.s.c X.h.`.W N N o.X.n W X.q +.F g m 9 9.s.q.G G p Z ` Z Z 5 w C S V S h 7 w h V V h w 7 w V w h v S D S v w q V v h S V v Z b _ X.X.M I g 5.).5.1.3.#XJ.J.,.g O.P O.#.,.! m W b v G G Z V C G Z S F #.f.i.U O.O.,.O.,.#.N +.y.o.W W O.O.O.O.P hX2.(.eX.X;X0XC.!.m.+XSX7X~.6X+XVXZ.V.V.&.gX XG.). .q n X.o.g D 0.q.a.a.a.h.@.d.P.].P.K.d.X.#.Y.h.y.! X.g X.F P i.+.K.Y.O.+.W Q E y.o.m F v v D v D v v o.Q S v v S D S h h S Q F b b D D S v o.o.Q W ! O.#.O.:.i.i.1.).J.&.L.B.J.>. .:.,.U.g ,.K.d.@.:.d.d.d.O.,.,.P n W O.X.! O.+.u.y.o.F S S v w 5 5 8 8 6 V 8 t 6 6 w > 6 t 8 V 8.A 6 5 a C a A 8 5 t 6 t V w 8 t t 6 5 8 ",
"V G w q D S g v v F F b W W F o.h D Q v q v Q 0.S D S S b S S S h S S V v Z G S S o.D h S G D Z Z V b b V Z Z Z v S V v S v S o.Q h S D h Q 8.q Q h 3 D S 8.G h s.v F S h F F F b W Q Q W W F b f g g N P g j ,.pXd.@.:.G.#X%X#X6.).@.c n ,.U.+.o.W S v V S S S V V Z G o.o.G F g F W q q b c W v F v S S v F v 9.G v q q v G o.F W X.W b F W F q.X.X.+.+.o.X.+.W G Q Q Q o.o.+.W +.o.b m o.+.o.W S F F S G G v o.o.G b v v F o.s.U.+.N u.y.W q.o.F Q 0.o.Q G v v h w v v h v v D Z S V V S Z Z v D Q D S h v S D D W D S S m b F v 0.o.N E ! `.#.d.,.O.J.3.K.3.,.1.,.:.O.O.O.O.O.#.#.O.X.X.X.X.m y.W W #.+.#.y.+.X.W X.o.o.o.+.X.X.X.+.X.m W ,.+.X.O.#.@.O.O.,.:.O.O.:.3.d.,.O.#.#.+.X.O.+.+.o.F X.F W +.o.+.q.W o.o.o.+.W F #.m N W W W W W X.X.N X.N N o.F X.N N m o.o.N _ F 5 X.o.o.o.X.X.c N N W o.+.+.o.X.+.#.o.F F m v +.c L :.P T P.J.3.J.3.5.).9X9XP.#XX.U X.3.h.a.#.o.X.v c F W F S D E W o.o.o.W S v w q w V v 8.w v v v Z q Z Z Q V S q v w S 0.Z F b X.c N W N #.$.b m N W X.+.y.y.E S y.u.W W +.Q y.W W 0.y.o.W o.o.g G o.q.c o.z.m F W N m U ,.f.q.v W [.s.q.o.D G q.8.8.Z 7 p p w V h w h h h S V V V V h w h V D V h w v V S S v S V h w w h S v q 9 X.a.h.,.sX .1.].P.].O.d.].,.,.O.P P W W N W F S D Z v w w V v v b o.i.:.N U d.K.O.O.f.q.X.0.o.W W ! ! O.O.:.%XY B.8XoX8X;X~.+XC.+XHXvX~.wX.XrX(.oXL.N.gX1.J.d.g n O.W +.W h h g F N U ,.P g P } U O.O.O.,.N O.+.c W +.a.W g #.P ,.f.! W W Q F +.W b W S v S h D v h Q D m S v S Q D h v F b v h v Z Q G G G 9.y.W n n ! :.y.~ ,.:.>.;.Y  X Xn  .3.d.#.g ! ,.3.>.@.,.,.>.@.,.#.X.n U #.#.W m b m F F S v h h w 6 5 8 y t w H a t 5 5 w 5 w H A A A C 8 w A [ t w 5 8 A 8 6 t 6 6 8 8 6 6 8 ",
"q Z v 5 C 8.G Z S D F D W h h o.D h q h v v S D D D D F F S S D h S S h h V S v h D V q v S S Z Z V p p V Z Z Z v Z V w h v S 0.S h Q Q h D 8.w S S S 8.h S q v g 3 W 0.S b b W b F Q S S S b b W #.#.O.! n f g P ,.].$X3.,.).,X5.{./.g.,.O.O.g W E S S S S S S G Z S G o.o.o.o.W +.q.b c b g F v o.F F b v G v o.F v b W o.W b b W X.W W F N F +.W N X.o.F W o.o.o.o.Q D F F W W W W W W W ! N v F W F m o.q.F v F W b g g F o.F U.y.g c N b o.S v S W D S v q V V S S v h v S D Z S V V S Z Z D S v S Q Q S q S S D D D D D W o.b o.F +.U.i.f.O.d.d.,.).3.d.@.O.:.d.:.O.T X.U I O.#.@.X.} U N N $.F o.a.X.X.q.o.X.X.+.+.o.o.o.X.F W +.$.X.O.#.X.+.O.O.O.#.#.O.O.O. .O.O.:.,.,.,.i.#.O.! X.X.F W X.X.F X.W m N u.g v o.W #.q.g m N W X.o.o.o.o.X.m N m W +.W W N F m X.X.m X.X.N $.X.N c v W c X.X.W m c m X.$.W X.W F F N W ,.n O.P U U n >.>.$XK.).).%X).L.,X<XK.,.O.X.N c g X.N v F W F F F W o.o.+.+.o.o.o.u.V w Q v w 5 q.v v D q v v Q F v h Q o.W v h o.o.o.F F m m X.W o.o.W N b b m b o.E o.W g m 0.q.m E W o.W m g 9 o.9 N a.j.9 q X.b W q q X.W O.iXj.F v W 5 v F v w G Z Z w > V Z w V h w h h h G V h h C S V w w G S v w w h S G q h D G V w w q v v N h.`.K.O.$Xd.K.&XP.K.U O.d.d.O.! n N X.X.F o.W G G V v v V v V S b W #.O.P O.d.`.#.! a.#.X.X.W W X.! ! :.d.1.>.<.Z.|..X6X+X6X7X~.+XAXwX~.bXbXA.M.8X.XB.L. XG.).>.O.X.g o.q.q.b v +.W m @.M d.].K.,.,.O.! ! ,.,.y.c ! +.+.c P i.n P #.N o.+.o.b o.W W y.0.o.v h Q S h D S v D S v S S v v F S F F F Z D G G v o.+.W N P :.d.H.P d.].5.1.J.CX .M 5.K.,.#.N i.d.O.U :.:.O.X.O.i.+.U U X.X.X.X.o.D v q h h q 5 0 6 5 5 8 u t 5 a 6 w 5 6 V w V t t w 6 w t C V A 6 6 5 8 C 6 5 t 6 6 w w 8 w V ",
"V o.Z w V 8.o.Z S S S D F g g o.S v v D S h v Q Q D F D D S S D S S S V V V V S h V v w V S V Z Z b w b Z G G G o.q.Q v v v S Q h h D D h S Q h D S S D h D h W y.W q.q.Q D g h Q W Q m v W F o.E W N g n ! :.#.d.n j d.).3.G.d.6.<X%X3.I I ,.X.N m m S W Q Q G G Z G G G F G o.W o.+.F N F c o.b +.W W F b o.b F v v F o.+.o.F m W W W o.X.F X.X.X.m X.X.N X.W W o.0.o.F b S W o.m m y.y.m m X.F o.q.o.F q.u.W v W +.o.F G o.q.g #.o.g E #.+.o.F v b b h v V v S V S Z S v v Z Z S V v v V S S v S D D D D S h W D D D D D D F W F F b +.U.y.W ! d.d.O.,.P >.@.P O.d.:.,.O.,.,.N } @.#.+.X.X.X.X.+.W #.y.W X.o.o.W W o.+.X.W X.X.W W o.$.o.X.W W O.O.} O.:.,.O.:.:.O.O.O.:.,.i.O.,.#.O.X.O.o.W W X.+.F X.X.c m y.q N +.c X.u.9 N F W o.+.$.$.$.#.N N N X.#.F F W X.F o.o.N o.X.N W N b q c $.W W +.$.X.N N o.q.X.F F W X.X.o.$.#.,.9 O.K.O.,.M M  .hX1.1.].J.jXK.d.@.X.O.O.O.W X.W N N W W G F +.o.W W D D o.0.S v v Z q S w 8.F S W g b h W W b h F u.q.S h F F F X.X.N W o.N m N b N +.#.#.s.u.W m m m W o.W m u.y.E F +.f.o.9.o.#.N #.+.o.g o.X.c U U.#.g X.+.g v j.o.W v F w V q q w w Z v w S Z V S h h S V w 7 V S V w w V V S V h h v V h w V S h h V v v ` o.y.o.N 9 :.$X1.O.U i.,.,.P d.U :.O.+.+.X.v G G D F v v V Z Z ` o.F W #.:.O.,.O.d.d.#.+.+.a.+.o.+.+.! N ! ,.:.I qX@XV..X+X+X7X7X2X+XwXwX!.wXHXA.V.|.B. XL.9X5.).d.U N N o.o.o.9 g q.W c X.g g O.O.:.d.d.f.d.i.P W m #.#.q.y.! d.X.y.i.! +.W y.F W F F q.o.D m v o.S h D D D Q S v S S v v D b F D D D Z Z G V v m F W O.#.,.U U G.1.I 5. XN.Y >. .).d.#.y.N d.U U ,.O.U X.@.+.#.+.X.N c N o.q.Q v w h V V w 6 8 8 8 r t 6 & 6 5 w w w V 6 w 6 w w 5 6 V t 5 w 6 a t w 8 6 a 8 5 5 6 6 5 6 a ",
"C w p p w w h w h V v v S b v W h Q 0.0.S q v Q D S S F S S S D S V v S S v V Q V V v v S V h Z G V i V G G G G v G Z v S Q o.q.h v v S D D D S D h 9 h v q.v Q 0.F S S y.z.q.y.o.W +.S b o.W 0.m E o.o.O.#.#.P P d.,.,.5.].<X>.I ^.%X).g.g.g.U U P P S E Q Q D G V V Z F v v F b v b b W W m #.b +.o.W F F +.W o.W F b F W o.+.N X.F N +.o.N o.o.+.b W W m X.F b Q q.+.D S W q.+.E E +.,.X.W X.o.F F G N b b g b F F F F o.o.o.#.#.! N W +.F q F b D F v v G D Z v v S Z S v v V v v v v v V S 9 S o.W v h S D o.Q F S S S S b v W F F W W +.! W a.,.N U n O.O.d.i.f.,.i.U O.O.#.U W #.,.O.X.+.o.$.o.#.+.o.y.X.+.X.X.X.o.X.W X.X.o.+.X.X.X.W N X.W U O.#.#.#.#.i.1.,.:.:.:.,.i.U #.#.O.X.#.$.o.W W +.N X.q.N X.N N q.+.q N #.m F W W X.+.+.+.+.q.F X.W o.+.N F c W N F F m F v m N X.y.X.X.j.q.N +.s.a.q.$.+.o.#.W W +.+.+.o.N U d.O.3.d.U O.,.$X@.K.].lX). .J.).].).J.d.3. .g P X.X.N F Q Q F W F b b v v b Q v 0.q.o.v q.F q o.F W v Q b Q Q Q v h o.u.o.W F b c X.X.F +.#.W W X.N m W m g W y.#.m N +.y.X.W +.f.X.m c m +.N q.c m m o.c N X.#.N n O.3.,.,.y.s.N 9 o.b q 5 G v Q w q v G o.5 q S D S S h q h V 7 7 h V h h v w v S S S v h w D w h h 9 v Q G q V S D W y.! Y.:.! ,.P n P d.#.`.! ,.n m P +.o.F S b v V S F S v S F b N X.O.U d.P :.d.#.#.+.a.y.+.+.+.O.P U :. .>.ZX@X|.@X+X:X7X6X7X+X7X7XQ.+X8X.X8X*XL.hXG.P.G.G.,.n N $.W F o.b o.z.+.X.h.X.n ,.U O.d.d.d.#.i.N +.m O.O.X.+.g ! ! a.,.P o.f y.W o.F b o.F v S v Q S v o.o.Q W S S S v h v W m b F D Q Q G A S q h X.#.! P ! U K.K.,.>.). XY <.5.T K.d.#.+.g ,.I O.d.#.W O.O.+.y.y.X.m m N G S V w 5 5 w w 6 w t t r r r r 6 w 6 a w 8 t 5 5 w V C V w w 6 5 w 6 V a w 8 8 A 8 5 6 8 6 & > 8 ",
"A 5 w ` V w Z Q v G S q v F b h m Q o.Q D D S q D m v S S v v S v 7 7 V V q h G V V h v S w 7 V G v w b Z V V V v G S h v v h v v v h m o.o.D D v v v S v o.q Q F +.q.Q q.0.v W b m +.W D +.S W Q F W W N W #.,.O.:.} ,.,.3.%X).%X5.>.*X,XJ.K.).O.! P S S S S S o.v q v o.o.v q F g b F X.F c $.b +.o.W F W q.o.o.+.q.o.F F W +.o.$.F b +.X.N +.o.q.N W F m X.m b o.q.+.S v F +.W y.#.N N ,.#.m +.q q o.o.F b b o.W F F o.q.q.X.y.O.#.y.o.W +.y.v b Q o.v v D F o.V h V Q Q v q V v v v v v S S v S F S S D D S W S v h S D D F Q o.g F F c #.y.m #.#.O.d.O.#.n ,.W #.U #.U #.#.f.W m +.y.X.U X.F o.X.X.N $.h.W y.+.X.X.X.X.X.o.N o.+.W W o.#.+.+.N N #.,.O.O.,.d.1.:.:.:.:.#.O.! #.,.X.W X.W b W F X.v F #.m W c W X.m m X.+.m W W W W X.X.X.X.o.b X.W X.X.m F m $.+.$.o.W o.m m c b o.m g o.W #.a.a.#.X.X.W N #.F F $.q.y.+.N O.,.O.U ,.,.@.d. .d.,.d.=X5.<X).).&X&X)././.3.U n X.X.m v W o.Z v b F W D v v b F b S W v 9.v G o.v b b 0.W o.Q o.+.Q W S v o.+.X.m X.F v o.#.W N F v m X.b g o.y.y.m g E O.+.f.W E m f.h.N W W g F y.F N g N N U g #.d.I @.P.,.W s.y.a.q.s.W v q o.V w v o.8.q 9 v V h h w q V V w w h v h v G h v V S S S v h V q v Z h S Q V q V h S +.T.! #.H.:.d.! m W s.g o.f y.P N N W F Q D S S G o.G S V F Q W o.y.,.O.$X,.d.,.O.y.+.N y.+.+.y.i.:.,.d.;.L.kX(.8X6X+X+X6X+XwX6X6XwX!.Z.eXoX|..XN.L.<.*X].d.K.O.U N c a.F F $.a.c B a.n O.d.P U :.,.f.#.N P f.m W ,.o.N ! O.N #.W N f.W o.S +.W F 0.o.Q S h D v v 0.0.Q S S D D v 9 h W o.W Q o.0.8.G V v q F y.,.P P ,.,.,.j >.#X>.&.>.I G.<XK.g i.W +.P I a.h.#.O.+.N y.f.y.N m o.X.q G A C w 5 6 6 5 8 r t 8 6 8 r t a 6 8 5 6 V 8 C w w a V t 5 8 V a 5 6 6 w a 6 t a t a C t 6 5 w ",
"w 8 p V V w w V V G S q v 0.o.v v D Q S D Q W v h S S Q Q S D S V D v v Q V w S h w h V D G S v w i p b V Z V v S v G v q u.h D b b Q b Q o.h u.b o.o.h q b W b q u.v D l.W b o.o.W D g Q S W W S W W W W o.+.X.d.,.O.>.d.O.U g.{.^.6.J.(.>.J.,XG.L W P s.l D S Z v w w F G G F S v g q.q.m N W F +.N N #.X.c X.+.c o.q.g N y.b q.#.$.+.W N W +.X.N o.+.#.q.F W b b v E +.F m W +.y.! m U N n ! f.F m g q.z.N v F o.F a.y.y.c m g N U ! +.+.+.a.X.X.o.o.N c v o.V w v S V V V h v Z Z v v Z G S W v v Q Q h v o.S m S 0.q.o.S v v W N m W o.+.q.+.O.N W #.#.#.f.d.W +.a.X.W +.#.O.O.O.X.W X.+.,.N X.$.+.W W X.$.u.X.o.y.+.W W X.G G W W W X.O.X.X.W N #.d.O.P d.:.,.1.,.,.:.#.#.#.,.y.#.O.O.X.W +.W q.F N X.c v m X.#.$.X.N N F N X.W W o.F m F F W m o.W +.N N o.N y.y.N +.#.W +.F q o.o.X.m q.X.N u.X.N a.q.X.F m +.W W W y.N #.W +.O.O.,.:.K.O.:.5.@.@.).&X).,.%XJ.5.,X#X5.P @.n ].P G 9.5 Z h v F G X.G F F & z.o.q F G o.o.b W F v W o.b v o.o.+.v o.W u.o.+.$.o.W W o.W v y.b m s.#.o.9 N N y.#.U m U y.#.#.q +.c 5 a.d.#.m q a.j.m N n N U `.d.`.9 >.n n N #.X.#.o.a.o.+.o.N q q Z 8.Z 5 9 h v v h 5 5 Z v w q v S V S Z v V h w v D D v w S D v h S S V w S h q.s.0.f.m W P W ,.u.s.o.9 o.y.m m +.W g W F W Q Q Q D D S S V v m X.y.i.:.,.d.i.:.#.N m X.a.m y.d.#.#.U O.;.<.L.>XQ.6X0X0X7X7XwXbXSXSX0X!.6XrX.XZ.|.L.L.L.5.5.,.I ,.m m o.N m $.s.#.#.a.X.O.:.d.d.d.O.n d.d.n N +.N P #.X.,.W ! ,.W ! y.c Q q.+.+.h o.o.F h D Q S S o.o.D Q D v S v h Q S F W W D D G v q v v D +.o.N P O.O.U >.P.G.T T N.G.P.G.O.n n W +.,.#.N X.$.X.o.N X.X.o.o.X.G F F V 8 5 6 t a w 5 t 8 y 8 8 s 6 6 6 & 0 w 0 C A w z 0 w w w z z 5 A C 8 6 w 6 5 8 V t w w 8 t t 8 ",
"V t V V V w w V G Z v v S S S h q v S S D o.o.D S Q v D Q D Q S S G V V Q S w S v h h V Z D S v Z Z V V V Z V v q S 0.v 9 s.v v D Q u.q.s.q.g F h v b D W F b m +.+.h h W S m v S S 0.o.q.F W v o.o.W F m E N m ! U U :.,.O.@.d. .I >.>.B.(.L.qX=X9XjXO.p.s.l.S V v i v F F F v +.q.W +.o.b X.o.X.b X.X.c W q.N F b F +.X.F X.y.N F X.+.o.W X.+.#.W o.W X.o.W +.b o.+.o.F v m +.+.+.P N :.:.! +.+.q.#.m m X.#.`.g q v W c W v +.y.y.+.+.#.+.W X.N F G G b v v F v q h V v S S h v D D v v Z G F F v v D S h h Q h v m m D Q D h v W F N W o.X.+.y.y.+.O.#.! W +.q.X.+.a.#.X.X.X.#.O.X.X.O.O.X.! #.o.o.q.+.W X.q.+.X.+.+.W W o.W Q W W W X.X.X.o.X.#.O.O.,.O.! i.O.:.,.d.d.,.,.#.O.#.#.+.X.O.o.X.X.F #.F N o.N W m N W W F F X.#.b W W F W N m F q.#.W X.c F W a.j.y.z.s.N W +.N b #.o.$.N N m q.c F y.W N X.m F f.#.q.F o.W q.X.#.X.O.X.} X.P O.O.d.J.,.>.,.>. . .>.J.*X>X>XhXhXLX .P.#.b o.G v v F G G F F F X.s.X.W G G q.o.9 W F b F +.o.F W +.b +.v +.s.W v W X.F m N o.o.F m o.#.X.g #.X.$.#.X.m g n #.y.,.+.q +.W n y.+.O.f.9 9 N y.`.O.q g N 5 #.P O.3.].X.y.q.s.X.+.b v +.W v 5 5 q w v q V v q w w q v D V v S Z V h h w h h h V S V q h v S S V h v S h S w o.q.+.U.E n P ,.+.F o.q.b o.q.W E Q F b 0.W W F S D D D S D Z S N W #.,.#.U O.O.O.,.#.o.+.,.N ,.,.#.#.U O. .*XB.M.;XSX6X:XC.2XwX7X2X+X+X!.eXeX|.|..XV.B.N./.3.O.n O.N X.$.$.W X.o.N X.a.i.,.1.P.P.d.:.#.}.X.n +.a.W m X.N ,.! ! ,.! ! u.m E E F +.m Q W o.Q 0.o.S v F S h Q D h S h h Q S b W D S V D o.o.G Q W W E ! O.O.O.3.P.J.>.Y ;.L.P.:.U O.i.O.W W X.#.o.o.N B X.X.F F G F F N v v w 6 6 6 w t 8 8 t r y 6 8 a 6 8 6 w V h 5 5 w w z 0 w w w w w 5 A V 8 6 a C 8 8 a t 8 8 w w w w ",
"C a t a V w w v G h h S Z w q V v S S v S Q Q S Q Q v S Q W o.D S S v v S V w V V v h V S S V v Z V b v v b v v D v Q 8.S 0.h 0.v v W o.q.+.q g s.D v Q o.v v W 9 5 S v q +.T.'.y.W q.W F b u.0.0.+.W F F W W N n n U O.U P U  .3.3.,X).4.N.Y L.*XL T ! f.m g 0.v v V V F F v v F +.W W N N $.+.o.X.#.X.g X.f.W N +.m W u.m f f.N F X.+.X.F F X.+.F X.N N W N +.b +.+.W E m W d.P #.,.O.O.P P #.g +.W m m m m c a.X.a.a.m W X.f.aX[.a.,.y.W q 9 m N F F N F v v Q S Z Q G o.8.G v D G S S D D S S v S S v h h S h D S q h D Q b v X.W N W W F X.X.+.+.o.+.W P X.+.o.X.X.$.$.W F +.+.#.+.o.! P N a.X.W #.#.F F #.W o.#.X.N X.#.W Q Q W W W W W X.W #.#.! O.#.#.,.O.O.:.d.d.d.,.#.O.#.#.+.O.+.+.o.N N o.N b W N W N F F F F F W X.m W W F W F N o.X.X.X.f.$.+.N +.+.o.y.#.c m #.o.c +.W m g W m c W v m X.[.iX#.F j.q.+.F a.+.y.y.O.U X.X.X.X.N } n O.O.P  .@.@.d.hX%XJ.L L 9X>Xn Y T J.! o.G V 5 w v Z F b N o.q.f.m $.X.N #.+.f.o.F v E y.o.E o.m g s.m E +.m W W X.W b N X.W m q.m c o.W W c y.#.N X.N X.h.#.,.`.O.,.X.N U c #.W c N m U X.W O.,.aXU 9 U d.BXsXa.,.+.! 5 q m m v b F W F v h h q o.q.Q G D S S V v v F D Z v v h h h h v V h q h w v G S h v G h S w D Q W f.! ! ! i.+.q F u.o.b F W F v g F q.Q W S m v b F D V v b m N X.O.O.P O.O.! #.#.X.W m m W N O.:.T >.n *X XQ.;XSX;X6X+X7XvX7X7XwX6X.X@XrXM..X.X=.B.5.G.O.O.N O.X.+.B X.N X.+.X.X.#.#.P.O.:.,.,.d.#.i.P n +.a.X.N W m #.! ! #.P P y.E o.E F u.F F b o.D o.Q v h S D v D S h v h h Q b S X.o.D v v Z G Q o.o.m m +.:.O.@.d.P.>. .>.J. X1.:.:.d.,.P N O.a.s.X.W X.o.q.F G F F S b v q w 5 6 w 8 6 6 8 t a 8 y 6 6 y 6 8 V V 7 5 w V w 5 V w w v w w w 5 V V w 6 C A t 8 t w 6 6 6 6 6 6 ",
"C a 8 8 w w w w V q q V S w h G S D S v S D D S Q Q v S Q D o.D S S v v V v h h V v h h v V v v v w w p v v b V 0.V V o.S Q v s.W F b v F W F Q '.0.D o.Q v v o.Q o.T.o.9 S S Q W h 0.0.Q S y.F o.o.Q W F F W W N m O.O.N U @.n P >.gXlX*XrXV.Z.-XY >.U K.f.W D v V Z Z F F F F b o.o.q.#.X.#.+.W f.#.m X.W E y.N +.m m y.N f +.o.X.X.X.F N F X.F m o.X.W W m X.o.F v F #.W E #.N O.,.,.O.P P ! a.h.m c W W o.g m 9 n +.m m #.+.X.N n W a.y.X.+.N W X.F G X.F v Z v V S V G Q S S G Q D Z D D F m S D v h v v v S Q D h h D Q W F X.F N F N N X.F +.+.+.+.W ! +.o.$.m q X.$.W W W $.a.,.! N P W y.X.X.$.+.W F +.o.o.#.X.N X.$.X.W W W F F E W W E W ! X.#.,.y.i.:.:.:.,.d.d.,.O.#.,.#.+.+.+.+.+.W W X.N m b b F N N F W W F m v c W W N W W X.q.#.N q X.+.q.X.$.m E X.+.W +.U.f.o.u.X.m ! i.O.m U.X.b b b X.+.#.o.X.X.F j.+.+.a.X.N X.W X.#.} O.U ,. .P >. .M >.,XgXDXkX4.B.Z..Xn P.$XO.+.b Z G v v F S v N X.o.9 X.a.#.a.X.g U.O.W m F 0.+.E E g m u.E m E E y.F X.o.W W X.W c X.X.X.c m y.W c g c a.U n #.n X.,.X.O.O.#.X.U &XN N W c W N U O.n O.U g P. .,.O.! ! f.K.W X.q.W o.b h v F G G o.v G Z V Z Z v h v v v V Z Z V v Z V h w h v V V h w w V S S D Q h V h Z m m ,.P K.X.+.+.v F q.G b S o.o.b b o.u.Q Q W S v v F Q h v v b E X.O.#.O.,.,.O.#.#.W N N #.+.W ,.d.:.,.I <.@XVX;XvXvX:X7X7X7X7X2X+XoXoXV.eXM.*X|.=.L.N.5. .:.U O.X.#.B c m X.$.+.o.O.! f.n n T O.,.O.P O.n m O.X.O.X.m O.X.W O.N m +.F o.W F u.S S m W v S S h v D Q S D S h m v v o.b v W +.o.S h w h V G Q F P O.O.O.3.3.>. .>.J.P.G.L 1.Y.i.N n X.a.j.h.X.F o.q.s.G G F F v v q q 7 5 8 t 8 5 5 8 w t 6 t 5 6 t 8 w z V 5 5 S G w 7 C v V S V V V w w V w 5 t V 8 > 8 6 6 6 6 6 6 6 ",
"V a 8 8 8 t w w w w w w h V S G v v v v S Q Q Q S Q S D D v Q D S V V V v V V h V v h h h h h p w q i V Z V V Z v Q S q 5 q.Q S Q W b v q g F W o.F G +.o.F b F v m W q W u.F W W q W F b v o.g Q o.o.o.F v v m W N O.#.O.d.K.,.n n j >.2.9XVXkXM.B. XT ,.`.y.9 h v V V v S D o.F G F q.#.b N m P #.X.W #.N n i.N N m N X.#.+.W W F F W W W X.+.W N $.+.X.X.m W y.m g X.u.W n O.+.W P O.d.K.,.P O.h.X.! +.X.y.X.,.! n h.d.X.[.#.X.U m W #.W c B X.X.X.F F X.G F D S S S v G G v F G Q G D D Z S S D D S v v S v S S S S v h S W F X.F m N m m X.+.s.u.+.o.W E o._ $.b q _ $.X.X.X.+.#.#.X.W ! X.X.$.q.#.+.+.+.+.#.X.o.+.W N X.o.W W W D E E W W W v N #.i.y.,.,.,.:.O.:.,.,.,.O.O.#.#.+.X.X.o.X.X.o.X.W N m N N c m m N W F N m m X.W N F W X.$.X.m q X.o.#.F W m W m W W W u.o.+.i.#.E X.X.o.#.X.9 X.U.X.N W 5 X.X.o.N q.m b +.#.X.+.W U O.P X.U ,.:.d.].3.n M  .&.&.>XFXKXZ.M.*X>.,.f.o.5 A a G Z S S S b v v F j.F m +.c g W W +.X.N +.y.W g m X.m W W W +.W m W W N W +.+.W c X.a.b c X.o.+.n X.`.N g ,.X.,.N X.,.d.K.O.n K.#.O.O.N a.+.#.} P O.$XO.,Xd.U P 9 q +.y.N N #.F #.W v v b b v v s.F 3 5 F F v v G F v v v v h q D V h h h h V V V v w 7 v G Q S V V h v h m ,.O.`.W P #.F v G F S v D Q S S D Q Q o.0.o.b v F o.S S F W O.+.:.,.U ,.,.O.#.#.+.#.#.h.,.X.:.O.P M 1.4.L.mXwXSXbX:X:X7X7XwX~.=.M.8XM.VXL.qXL.=.(.N.P.:.:.N P X.h.#.X.X.F N N F o.i.O.n O.:.U O.,.d.#.P N ! X.O.X.N O.#.! X.N m X.N m E F o.v W W W S D S v b F S h D D h m v S 0.b 9 v D o.Q S v v h S W X.W U O.,./.6.>.>.N.G.1.;.O.,.:.U P O.i.f.+.a.o.G F F 9.o.S S v p w q 7 7 8 8 t 8 6 w w 6 w 5 w 5 6 t 0 z & S S h S h w S S V Z G S S Z v 5 t w 5 8 w 5 5 8 8 w w 8 8 t a ",
"a a a 8 8 a p w p V v w h S D V S v v v S D D D S Q S D S h S v V h h h q h V w v h h h h h h v w w p Z V w w V q S v V h 0.D g 9 v v F g g F v F F F G D F F W S Q F q S Q h S u.b F g h h o.b S Q o.+.W N N W W W O.#.:.d./.K.,.i.T 5.L M.8XrXOX.X=X,XP.N g c q w w w v v F o.W b g W X.c N N #.n +.f.X.N #.,.! N W X.P y.a.m N N W o.o.W N N o.F o.W N N g N W m m #.u.E m i.d.O.O.,.i.f.d.O.g X.X.+.+.W N m U.#.n y.d.N h.! U N N +.a.#.X.#.+.X.F F F F G _ o.Q o.Q D o.8.S D G Q G D Z F Z S D D S v v S S S v S D S v v W F _ F N N m m o.+.u.+.W W E S W N X.X.F o.$.X.X.#.X.W ! #.#.+.W N +.q.o.X.+.#.+.#.N F +.W b F W Q Q W W W W W Q X.g m y.y.#.#.O.:.O.O.O.:.,.,.#.! O.+.X.W W W N F W m F F c N b W N m m m m b N N o.W m N F N N c F X.s.+.X.c v m +.m E W m o.m o.W E n o.E E W h.g q X.v X.T.X.o.o.+.b W c F +.#.+.y.X.W +.U O.O.:.:.d.$X].3.,.Y ).Y 4.(.rXOX@XkX*XG.X.X.5 w 5 V i v v F G F N q.#.c N c m d.N X.d.y.E X.y.W g m y.m u.+.m #.m W X.F v v W o.X.$.m W N N g v #.U @.K.O.X.h.3.a.a.h.h.f.d.N g U N X.a.O.a.U d.:.X.d.sXg @.K.>.O.h.a.U.,.W N a.y.c F o.o.F v h 9 o.F F o.o.g q o.F v v q v v v q h h h V V h w w S S w 5 w G G h Q S v h g W i.i.#.m N o.W q v G S S S D D S h h W o.y.0.D b F o.G Z D X.+.+.#.:.P O.#.O.+.X.W $.+.a.O.X.O.U P g  .*XL.Z.;XvX~.7XvX7X7XvX6XA.V.@X<.eXL.rXB.<.B.(.G.O.O.U O.X.a.3.+.#.X.m m N W i.i.O.d.d.:.,.,.d.N O.#.#.X.N b F #.,.! O.X.N ! N W o.W +.v o.o.o.S S S v S D S h D D v S v D 0.b v v S W G Z C Z v F W W P P ,.P.5.4.5.G.G.>.;.1.P.:.U ! O.! +.s.$.$.v F G F o.F v i i q 7 7 7 7 8 t t 6 8 t t 6 w 5 w 8 w V 0 V 7 V S V V v h h S V Z G S S S w 5 w w 8 8 8 6 8 w t t a a a C C ",
"8 a V t 8 a a w V V v w V Z V w D S S S S v v v v D h S S h S v v w h h 7 h S w h v v v v v v v v i p V V q q v v w q q.o.D h D g v b o.F F q.b 9.F b F F F F W v F W Q v g W D S S 0.o.y.D F g S S F Q o.W X.o.P O.+.#.:.#.,.K.:.H.pXFXG. XV.Z.KXIXJXPXlXO.W c q w w w h v F G o.o.F o.o.X.y.y.,.W ,.f.X.! ,.+.X.W O.+.! +.#.N X.W X.+.+.W N m o.b F b m N c N c E W +.,.O.X.i.i.,.d.d.! ! ,.,.f.#.P n F X.N +.a.N X.+.f.#.a.U.`.d.,.3.d.X.m F X.m m F F m N o.F S Z S v G G w Q G Q D D S F Z v S S S v h v S h v S D D D D F F X.X.X.X.m v o.b o.W b W W E W F _ $.$.X.X.o.X.+.X.W o.+.,.#.X.W X.X.W W o.+.+.+.N F X.W W X.N Q W W W Q Q Q o.W m O.,.! O.#.! O.O.O.O.:.:.#.#.P X.+.X.X.! W N N N g F W m F m o.X.F N m m m N N o.F c N W N m X.#.W W q N N o.W a.E +.y.! a.X.#.o.X.N u.+.o.N N +.o.+.c 5 F W o.W #.F W N $.X.W X.y.X.X.#.O.,.P.h.,.,.d.K.K.G.hXCX4.kX|.Z.AXPXJXUXFXg m v 8 A w w i b F o.o.o.9 c +.a.,.,.a.W #.d.,.E W o.E m m y.W d.W m W E X.+.X.b m F W N X.X.#.9 c X.W q M } @.O.X.X.X.@.3.a.#.@.3.3.#.O.X.n U n ,.X.].U P U J.d.J.).d.].#.i.`.a.y.m m q m X.W g g F o.o.& v o.9.F 5 5 D v v v w v F F v w q h V v w q w V V h h V S S S 8.D D b m O.#.#.n N m m F m i F o.0.Q Q u.0.W o.W o.+.o.W S F D G v b W o.O.O.O.O.O.#.,.i.X.N X.#.y.#.d.d.,.d. .I ).B.B.!.~.m.7XwX7X:X2X6X+XZ.V.Z.@X<.8XV.4.4.>X:.P P U d.X.} X.b +.o.X.o.W E ,.f.,.:.O.3.d.X.#.g X.#.#.X.N m W +.,.W X.#.! W N y.o.W u.S W W +.S S v v S D D m D D v v m D 0.v W F F D Z v v V v G o.W E #.d.K. .>.6.B.>.T ;.P.G.:.O.,.#.P ! y.s.o.q F $.o.G i w q q 7 7 8 w w 5 w t 6 w V V w V 7 h w h V w V S w q w v D V 5 S V G G V v v w 8 w 6 w a 8 5 t w t a a t 8 t a ",
"6 t a t w 8 w 8 p w w V Z Z v q v v v v S S S S v v 9 h S S Q S Z h S V w S 8.v h v V V V V V V Z v V Z V w v G q V w Q v S S F F b q v q g +.g Q v g o.q.W v v F 9 g y.m h q.9 v S o.S o.b D W Q v g v F F m v c +.#.#.,.O.O.].$XT @.N.L |.%.=.M.Z.*.jX&Xg m q v w w w v v S F v +.W F m m X.N X.d.#.P +.W c ! m N W o.+.W W y.X.F F X.+.+.+.#.W m F W X.+.F X.W y.+.E W O.P N a.#.d.d.O.:.K.f.,.N X.N W ! g O.K.P `.,.f.,.N K.d.#.N O.a.+.W +.W c c X.X.m F q.F Z G D Z o.o.v Q Q G G F S S D v h v S v h h S 9 v S v S o.o.b G o.+.$.+.N v W F +.W F Q o.W F o.N o.$.m m o.X.N +.u.i.O.! O.,.u.X.N W o.o.+.q.X.W W W W #.#.m G G W W W W Q Q m W #.o.n ! y.! O.#.:.,.#.O.X.! N X.+.+.+.+.X.W X.o.m o.#.F o.b m N W W W W W W b X.N c W o.W b F +.F W b $.F c g #.h E W g +.W g o.f.N W c F N v u.v m q.W N W +.W u.+.o.W #.c c N #.X.N X.U O.d.a.,.,.,.K.).d.Y (.Y .X| 7.@X%.L.=XlXO.h w w 5 v V S S N F W o.o.+.X.g O.#.g f.,.y.o.E E N m W #.X.g W W u.W E N X.+.X.X.+.X.N E c u.+.y.m E ,.a.,.O.#.U g @.`.3.d.#.,.K.`.d.n W c X.n ! n ].O.,.{.P.3.P ).$XJ.n O.a.X.,.N W F g N b v F q.o.9 F G b v F S v F v S b b V S v 7 h w w h w q w v h h V Q G S D 8.Q S o.Q E o.W c g X.m 9 X.o.v i v G h v q.8.S 0.Q Q W W W E S b G v m W $.#.#.#.#.#.,.K.`.u.O.y.O.X.! f.a.:.d.U 5.| *.8X+X.X!.~.7XvXbX7X+X@XOX|.eX*XM.eXL.4.-.hX1.I n n d.X.U #.B X.X.W +.o.W d.P O.:.U O.#.U f.g P P N X.X.W o.O.#.N ! #.! W m o.m v q.b b S q.Q D v v m S S v D D h v v D 0.h b b F W S g q v q Q +.W W d.f.,.@.>.5.>.T I ;.d.! O.O.O.y.f.d.+.q.o.v o.o.q i b q 7 8 8 w p p a & w t 6 6 a C z Z w V V V V w v v 7 h h 5 h D h D D Q Q S h h 9 A 8 5 t C 6 & 8 8 w t w 8 6 6 8 ",
"t a V a 8 8 p V V w 5 w S w 9 V S h v S S S D v W S S v q b W S S D G D F F S V w v V V V V C A Q F v G F G q.v W S h g v F F b q.q 5 v v v D G Q v 5 G w.D V F D o.v S S h Q S D D 0.o.Q o.Q s.s.g z.o.b g f N q m O.#.O.! i.`.{.FX<X..*.| | .XJX*.5.P 9 W h V v v V Z V v v F v o.W b W W X.a.#.O.N +.N y.$.X.o.N F o.W b F b +.E E o.Q m m o.W o.m W W m W m E y.! g W y.O.P y.W ,.y.g ,.! P y.y.i.#.! #.,.O.K.,.d.d.d.K.O.,.#.#.U X.i.#.N g +.q.b b +.+.+.D q Q F D u.o.v +.F S D o.Q D D Q G v h S S h v G v V V V V V D Q g m W W F F o.q.Q S S Q Q S b D W W W X.W N X.#.O.#.O.! #.O.O.,.+.X.X.W b F X.b W m X.o.N F o.F X.X.W N W +.o.F N N W W N X.#.o.+.#.,.#.O.W X.#.o.#.E O.#.O.#.X.X.O.#.X.! E W W Q W W W Q o.Q W X.+.X.X.a.F y.F c N m o.#.X.o.N g v W +.W W Q F S o.u.W W v o.q.o.X.F v o.q.b o.#.E +.#.! d.U.! f.#.N g n U U n n d.,.3.,.).&XLXkX<.*.7.7.;XIX4.5.9 j P g k S h v F F S W F F W b +.W O.,.i.d.W g #.m #.d.E ! E W o.m E ,.n f +.! +.! N g U i.c N +.N W ! g +.a.#.q ! d.n n y.+.#.i.g Y.m g K.c f.y.X.X.i.i.,.K.K.<X].].>.@./.I U O.,.g.n N #.a.N 9 X.o.v F v v v F +.W o.+.v F Z G G Z V V w 7 V 5 7 v q w S h S v h h V S V w h S S V F v q h F b v v S v v V G V w v Q 9.o.E #.N o.X.F W b v q.b v b N W +.X.,.! O.i.f.i.#.,.O.O.n O.i.U P L ].>.Y |.OX|.KXm.KXQ.6XM.=.=.|.@X@XV.8X>X X&.N.*Xd.O.,.I d.U K.#.N d.f.#.c P u.o.N #.i.,.O.X.,.f.P +.+.! +.d.i.W W ! #.f ! +.W W +.W v q.W S q b S D S h v S S S S Q S v D F S W E g f N W m g b F b m +.W q.b W O.d.d.O.N U O.O.#.i.,.,.,.f.K.m o.S S ' Z 7 5 p 7 7 7 7 7 7 7 8 6 x x w = w 5 t w A V V w q G G 5 Z V v +.o.E u.h.u.g o.o.W S Q z C 5 w V w w 6 a V t C a 6 t 8 ",
"8 w w 8 a V V C w V w w v h 9 w G h q h q h D D b b F b g v F b Q Q D D D G Z V Z Z Z C V 8 8 q S b v D b S o.q W b v v b S F F h q Z 0.G v v V h V 9 v Q Z Z v q S D D v q D Q S v Q Q D S h S +.G j.v c +.y.N +.W P ! X.! ! O.6.g...7.ZXJXqXXXmX*X>.f q V z w w q v Z G Z F G S 9.s.u.F q c #.U.#.N a.#.f.+.N y.+.W o.0.+.o.Q m m W +.y.+.W m o.y.Q +.o.E +.W E O.! W +.,.+.X.m W O.O.W a.W ,.#.N N O.N g n P n U K.,.T O.T 3.@.n g X.i.#.+.f.X.y.W W o.W Q S q.q.b h 0.+.D q.F v v b b v v S V V V S G D D G V V V V S S G Q F m m N E E F b D v v W G S V F o.o.#.+.#.W +.y.O.,.#.O.O.O.! #.W N W W F o.q.+.#.X.W W N F W b +.o.W N F X.X.N W F W F N X.#.o.X.! W o.#.y.o.E W X.N X.o.W #.o.#.#.#.O.! W Q Q W W F F F D W W o.X.F N +.v o.m v W b W X.W X.v +.+.S q v o.W g m v o.Q o.v S D G G o.G G W b o.+.! :.#.N ! ,.n f.N c #.a.X.P O.} a.O.@. .,.,.#X<.4.ZXIXAX.XvXNXJ.n E Q l h g 9 5 v b v v v E y.+.p.! n N ,.Y.a.y.}.,.O.o.m ,.+.m #.o.P ! E m ! n O.#.,.N n #.,.O.,.N ! O.n X.O.X.m m y.f.y.o.O.O.y.E d.P #.f.N y.m g f O.,.N } K.,.U >.>.5.5.n n M g.J.O.K.,.y.#.m +.X.v W W +.g F s.+.F Q S F q w v w p Z C V v w v V V S G S v h h v S Z V w h V V S Q G S D D D V v v V S Z w 9.u.F v W +.W ,.P #.O.W X.b v W v b W o.$.y.o.#.X.N P O.#.i.i.O.,.#.,.,.#.d.,.O.L G. XE.S.tX2XeX8X@X=.L.V.M.<.M.Z.9XhX9X*.N.%X3.U 3.I d.X.:.n N f.f.i.O.! o.P ! O.#.O.O.#.y.y.d.i.,.,.,.,.a.f.P ! y.m +.+.W W W +.W o.v D v h h o.h 9 o.Q h S h Q Q D S v S +.W ! P P N m c m E E b u.o.F F u.u.Y.+.U h.+.q U U ,.,.d.y.i.i.m o.Z V Z a 7 5 7 7 7 6 6 8 8 6 8 t C V A w A a A V w # 5 Z ` G 5 G w.o.v b m g g ! #.n ~ b W o.0.h A w w w & 5 5 6 w 6 y t > 8 8 ",
"C t w 8 t a w w 7 C V w h v w h G h q h q h D D h v W F v v F b 0.Q D D G D S v V v V V V p w w V S v S v h Z 9 S v h v v h v S Q w h G G S V v q o.V w V Z Q v m h m v v D S D D b 0.q.u.s.0.u.q.q.u.g N j.`.W #.! P U ! U P N B @.@.@.^.XX.XXXCXPXd.g Q w w 5 v w w v V V v F G q q F o.$.y.y.#.U W h.#.+.W +.+.+.m v o.+.W W W W m m Q y.+.S m o.W W m m W E y.+.#.i.#.#.#.#.N a.y.#.y.d.N a.i.P #.`.i.n O.].O.:.G.:.O.,.J.$X=Xg.#.,.d.#.#.h.m +.o.+.o.W o.D +.0.b v +.Q v Q o.D b b b b b S v S D G Q o.Q Z v v h h V S Z S E N N m S S b c F v m D Q Z V S F E W W W E ! O.! y.,.O.O.:.O.O.X.W X.X.N X.+.W o.X.m m W X.W X.X.X.W F W X.W b X.F W W F o.+.F X.E N W +.#.o.E E X.E o.o.W +.o.,.#.O.O.W W W W W E F b b S D W W W F v W g W v b o.b b N F o.v S F W y.u.m q o.S g S W q.v m S b v o.G F o.W o.d.i.H.d.O.i.].K.h.W X.`.}.,.O.d.O.,.P U U >. .,. ...XX0XVX.XqXPX5.n E Q h h h h F o.o.F b v m W 9 +.+.+.,.,.,.g m Y.f.d.i.O.i.O.N O.,.#.W ! O.! N U N ,.,.N ! ,.P ! c P ,.#.,.,.#.f.#.O.d.W g i.,.f.i.#.E d.#.n +.f.f.g +.sXK.U ].>.3.d._.,X,X<X>.I K.K.@.`.U #.h.X.o.v q v +.s.b b q.W h o.o.v q q 7 7 w p w 7 w S S v Z G S v w w h S G D V w h v q w V V w h S D S w w V Z V v w v F W N m P #.P #.+.W +.G F +.F W o.X.o.+.W N ! O.! #.i.,.W O.3.d.,.n N ,.U 3.L #XL. X@XoX8XM.8XL.=.|.%.Y N.N.).B.B. X| N.).@.n d.N ,.a.:.U n #.! W o.E ! O.#.+.W P O.,.,.O.y.! W +.! n ! f.! O.i.N O.X.N P q.q.o.u.D W m W h 0.h 9 u.q.q D h D D D D S S o.W +.o.m g v m m m y.W a.W N u.h.a.a.O.,.[.,.n +.O.y.y.d.+.W o.v b w 7 7 w 8 8 5 5 6 8 8 8 8 8 8 6 w 5 t 6 a w V w w 7 V ` G G p 5 V b 9 q N P c f P ! f.F W W 5 5 C z z w & 6 w 5 8 > 8 8 & 8 6 ",
"C a 8 8 8 w w 5 5 V V v v v v D S q h S h h v h v v F F v m F b o.D S S S V v v w w w w V C V V C G v v h q F h v h h V v q w S q.v q v V S Z S w q.Q V V V Z h 0.v D h v Q v Q Q S Q S v h 5 9 T.s.o.o.q.q.f.o.W +.,.#.P m P X.a.a.#. .@./.,X,X1.zXP 9 Q x A V V v w w h v D o.W F +.o.c m o.W N n N y.N W P X.+.f.o.b y.u.W W +.Q m h S o.Q S m o.o.W E W +.o.O.N X.+.N N +.X.#.f.f.y.y.#.W y.! g N ,.O.n T d.O.O.3.d.K.1.G.).].g.,.O.O.a.f.,.m W o.+.W F o.D v Q W D W v h W q.o.F F W Q W W S S D o.Q S S G Z v h v S Z S v v N W ! m m m W F F D Q Q Z S F W W X.o.o.o.#.,.m #.:.! O.:.#.O.o.W X.W m N W m N W m c o.o.W $.b N W X.o.X.F m F N W o.X.+.+.m o.+.o.E m N W X.E +.W +.o.E +.o.,.#.! E E E m m W W F F S F W Q F F G v W v W b b o.b v b W q.F W W S o.0.q g [.o.b F b o.v W Q o.q F F F q.o.m N N P N j ! H.U.O.X.#.a.a.#.O.O.,.,.P @. .,. .>.).5.J.*.>X>X^.,XO.g b S h h h S 5 9 9 h o.+.W W m X.E W O.! O.g n i.X.X.W N d.i.,.N +.d.! P O.O.U ! c X.i.N n O.#.,.! O.,.#.P N ! d.,.O.d.O.O.$Xy.K.,.W O.,.! m 9 f.i.f N h.K.n &Xd.$Xd.).,XXX#Xg.O.d.{.g.d.B X.! N $.W W g v b o.g F g 9 q.9.q o.o.G G G G C p w Q Z q S G h w h h h V D S v w G G V v D Z v v v G D h w F D V w.w q o.j.+.W +.! N #.+.W #.o.G q.W F W N N W W g X.,.#.i.d.+.g ,.d.`.`.! N ,.P 1.U L. .V.OXA.R.Z.*XV. X*XY &.*X*XhX<.;.#X>.).P.O.g d.n X.d.,.3.W #.f f ! N E d.,.#.! E +.i.,.! #.W O.i.,.P ! d.,.+.,.g W P m N o.y.+.q.F o.W o.v Q h h q.0.v Q S S h v Q o.S m S W D b h v m m 9 U.+.y.N O.}.f.,.n a.}.,.X.a.#.a.u.#.q.W g D v 7 8 5 > 6 p 8 5 6 8 8 8 8 8 6 6 6 w & C 8 w 8 V & w V G p > w p V F Q F v W +.N #.O.m o.5 h W 9 5 C z V t 5 w t 6 8 6 t r > t 8 ",
"w 8 8 8 w w w p w w v V V w h 8.V q h S v w h h S h h v v b F v W F S F S v v S C V w h V V V V v G v v V w C v V V C A V w v Z v h D o.S h v V h o.D D Z w h h W S q.Q h h h q.D v D D D o.0.j.T.s.W q.q.W E W O.i.h.a.X.N N W +.S m n P ,.1.T H.f.! k z w 8 6 w v V V v F o.q.q b q.$.N +.y.N a.O.B W U a.X.f W f.+.E y.#.m E W N E X.X.N n n m ! o.E W +.+.+.m N +.+.N +.a.O.+.X.#.y.X.W ,.O.d.O.! O.,.d.d.O.,.U ,.,.1.j ,.$X3.O.O.O.O.d.f.X.W X.W o.b v W g o.o.W F S v S +.W F S S D Q W b b v F +.W q v 0.+.W F F Q Q D v v N W W m m F o.m S Q o.D S Z Q W o.o.o.X.o.+.+.N #.O.W O.#.O.O.N m N N m F X.F N o.F N X.W m X.N N F X.X.W F N W N W X.X.$.#.F +.#.+.E m E W ! m X.W +.o.W +.+.#.X.! P W ! P m E W W W F F D W F v o.S o.F G F F o.v v v G 9.F b u.W 9 S W b W o.o.+.h S b o.Q s.F o.F b 9.W g +.o.O.! ! i.U.Y.X.y.a.+.W +.,.,.K.d.O.,.U O. .O.U n 1.| 4.^.J.g.X.c S S h h q b Q Q b F +.o.N m d.+.n P O.! ,.,.P O.m #.X.g #.O.i.n ! ,.N N O.P c #.! ! P f n O.O.#.#.O.,.#.N N P N N O.,.#.! ! O.f.N P y.! +.O.O.f.P f.Y.O.d.,.J.@.J.M G.,X5.@.U d.,.{.P.3.O.U X.U W c F 9 b G X.q F v 9 o.o.5 w q w w p w q 5 w 8.D 7 V G V h V V v v V V v h V S h h D D S S v Q o.S v G Q V o.8.q.o.W W X.O.X.P ,.O.W +.W F o.b b W N W o.o.W +.O.U O.i.,.P a.,.d.].,.X.f.:.L ,.J.&.E.OXOXR.*XJ.&. X X*.2.<.).,X5.5.&X>.5.>.>.M g.N m #.O.,.i.d.m N +.m P u.O.#.o.O.,.d.i.O.+.+.#.i.,.O.O.#.,.O.#.g O.! m N f o.o.F q o.Q S S h v S S D Q S D S h v Q o.S v D v v D D v v F q h.+.,.P #.Y.i.:.O.K.K.N N #.P y.+.F o.S q S w 8 a a 6 6 8 8 > 8 8 8 8 8 8 6 6 5 V 3 C 0 5 w w v V q V Z w v q G V Z o.G F E m o.! W f.g h G h V ( C C V 5 6 6 8 a 8 t r 6 u 8 ",
"8 t a 8 8 8 w w v w w V V 9 9 Q Q v S Q S h S Q W g q v v b F v W F D Q D S S Q Z V V v V V V V q Z w v A V V w V C Z C V v V V h q S Q Z v v h V G v Q o.h v S S v Q Q D S v o.0.D Q S h S S 0.+.q.o.o.W X.c E #.y.y.,.,.#.X.m o.0.u.t.E P ! P ~ f E Q D 8.( 8.w V D D F F F F z.s.#.W F $.X.9 a.,.U W N f.#.n E #.o.W #.W m m X.E E W E m m X.P N W E W +.W +.N +.a.y.+.y.#.N #.N O.#.W m i.N P O.,.O.P #.d.O.K.O.O.>.J.n ,.J.K.} O.d.,.#.+.N #.X.W +.S F q.v q.W S W o.o.F v v m b b F D F v v h S o.F g b u.+.o.D D Q Q F v W m m m S E F b g v F W Z Z G o.W W F b m E W E ! #.O.! O.! P ! N m N N m W +.W m W W F W F N X.+.X.F N N N F X.$.W F N N +.u.#.+.o.W W +.y.+.m m W N o.+.X.y.#.W ! ! X.O.O.O.X.N W W W F F D W F v 0.F o.F v b G o.v v S v G v 9 +.+.S W Q m v S o.y.v S S o.S o.G 9.G F q.+.o.N E E ! :.y.y.y.,.#.#.#.O.O.i.h.h.a.,.K.O.O.O.,.d.! d. .n g M B X.b D V V S v G g S F F +.q.a.Y.o.W N y.f.#.,.#.P P N f.d.P #.N #.X.,.O.g X.i.N N ,.U N P P O.! n P O.X.#.a.O.#.}.f.h.U.y.,.i.X.O.d.N P y.n +.O.y.d.c ,.`.@.d.O.>.>.].M 5.).5.@.P %X@.,.O.O.a.N #.O.N 9 W q +.q.c v q.o.q v v 9 V V C A Z V v V h D V 9 w Z S v Z V v h h h v v h h q 9 v h q h h Z G S v S Z V v Z o.o.F c P ,.#.O.i.O.N o.W m W b F +.o.X.X.N +.+.O.O.,.d.d.,.a.O.U 3.O.P i.i.P 1.1.2.4X9XrXn.J.>.2.P.;.1.G.U ,.K.d.1.K.n  .O.#.U g.:.X.+.! O.+.i.X.,.f.! ! +.P +.#.o.,.d.d.#.X.#.#.X.P N P P X.P #.P i.#.W W m m g +.S v g Q Q q S o.v D 0.D v D D S D S v D G v v Q Q v c F W #.N d.O.P O.,.:.].d.U #.O.N X.D S v D S w V 5 5 8 t 6 , 6 6 5 8 8 8 8 8 8 8 8 5 D 5 V 5 5 w q o.Z w G 8.G Q Z w 5 q V W F m X.9 ! U.fXq.h h 7 C Q z V C w w w 8 a 8 8 8 5 u 6 ",
"C V a 8 w 8 w w w V V V S h q S 0.S S Q S V Q q.Q v v F N F W F o.F D o.o.D D Q v v V V V V V V w G w w A V V w V C C w w V V h D q q v v S Z h D o.v Z Q v S Z Q v 9 S o.Q Q D S q v v S o.o.s.b o.o.b m y.n +.X.W P ! ,.d.i.X.o.Q S E ~ t.t.O.t.n E S S S 0 w v S S v F W F v b o.#.o.W N #.`.O.#.O.#.n #.#.O.i.,.#.,.i.,.o.o.#.+.X.m m E +.y.+.W y.#.+.+.W f.W +.+.O.O.W m m y.+.O.+.y.N #.N n W d.f.! N d.].O.P :.3.&XO.>.n  .c O.d.O.O.#.X.X.W X.q.W o.j.Q o.v b o.q.0.F 9 v b S S F W F b v F W F F F o.+.X.G F F G G N v ! N m m b S b b S S S b Z D Q Q o.o.W F W o.+.+.+.+.W O.O.P N O.W F W F m W X.F N m N F N W o.X.+.X.W W F N F X.#.o.X.W N o.y.#.+.+.X.X.y.f.y.m W o.W +.#.+.y.o.! O.#.#.#.#.+.+.P ! X.W F F F Q D v 8.v Z Z V Z Z Z v Z G v V v S D W F h g W l.m S o.b W b W b v F o.F o.s.+.+.m m P W ,.,.:.,.X.m m X.+.! ! #.,.O.:.].>.,.,.1.O.W :.,.J.@.3.N F m S V Z G b o.q F W F N m m W O.,.O.O.O.O.d.i.,.O.n #.! N f.,.! #.d.#.N O.d.O.,.O.n P #.,.d.N ,.#.,.U O.,.P O.#.U ! X.n P ,.i.#.i.a.U #.P ! P ,.h.d.O.d.$XP.,.3.K.zX .5.>. . .5.<X@.O.I X.X.X.m X.+.X.'.b W v q m q.$.v v 9 v V V V V w q q v v v v w q V G h S V v h h h v V V D V v Z V v V h v S S v v V S G q q 9.j.$.#.f.O.O.a.O.N +.X.F +.F W +.+.o.W m X.N ! d.K.a.,.,.d.d.O.#.#.O.i.i.O.T I &.-X XOX^ G.3.P.).I d.P.K.P.d.d.:.d.P O.#.X.N O.i.#.O.! ! P O.! ,.#.P #.,.W #.#.W O.,.,.! O.,.a.,.W W O.#.P P a.O.d.#.E o.+.m v u.o.v 9 W Q v S Q Q Q o.D h S S v S v v G S V V Z S v m E #.! N d.:.U P d.O.].,.n ,.,.N y.v V h C V w V & & > > 6 8 8 6 6 w w 8 8 w 8 t V w w.w A h V 8.v w v w Z V q C G G ` V v W F m W m f.s.T.S h v V 0 C w h V w z V 6 t 8 8 6 6 u 8 ",
"a 8 8 w t a p w 5 S A Z G G V V Q h v Q S h D 0.o.F W +.W W o.+.+.W F o.0.Q D D v S G A V v w w A 8.5 5 V V C C V G A w w Z A h q q V Z w w V S G o.w w V v v h 0.Q 9 v S h 0.q.Q v S v S Q v F S b W F F f.n h.N N P P O.i.i.#.E o.Q W W W W :.O.o.m h o.Q S G Z v q q W u.a.9.v N W a.U.+.c X.d.#.P #.! #.U N d.! ! ,.y.,.,.O.O.u.u.X.W #.#.! o.N #.#.E m c y.,.#.W X.y.+.X.f.X.y.! W Y.W +.X.u.N ! h.d.! #.].K.K.K. .3.P %X).>.,.`.K.O.,.K.+.W N X.q.b F u.S o.b S W D W o.Q v S D S b F F S v o.o.b F q.9.b W F F F W W F b m N E m h h F o.+.Q S b G o.G S v b b v b o.+.+.+.X.! O.#.P P ,.E N F N m W o.W #.b N F m W o.b F F W +.+.W F X.o.o.#.$.X.+.#.X.+.y.y.o.o.y.y.+.#.i.+.y.u.+.y.X.O.#.,.,.#.O.! ! W X.X.W b F W o.F w 8.v Z Z Z o.Z V v o.8.V Z V h b W S b o.o.h F v F m Q m W W S D F h q.f.b g P ! P m ! ! W #.+.X.! #.a.f.#.! ! P O.P.O.@.@.O.~ u.U n 3.X.3.m W S Z v Z G v _ q b F +.a.q.W N W f.d.#.U O.d.#.O.#.! ,.U N i.N W ! i.d.X.P ,.f.#.X.! ,.O.! i.! ,.#.#.N X.d.O.i.,.#.! O.f.f.,.#.O.O.].P O.i.O.! #.O.].O.3.sXd.$Xd.3.). .%X/.K.J.K.K.3.{.`.3.g X.y.y.X.c j.g o.b m v o.G G S q o.Z Z Z Z v w V 8.G V S S w S Q h V v v h h v V V 9 h h v S S V G Z Z D G S V Z o.w v v F +.d.i.! O.O.i.O.P #.+.o.o.v v W X.+.+.W X.c n ,.d.O.U #.O.d.O.X.O.#.,.#.,.U 1.5.P.L.*X*X=X1.,.,.n :.T G.].! O.O.i.X.N g ! n g #.O.m N g ,.,.! ! c g ,.a.#.i.,.W P O.X.n n X.u.d.#.P X.i.! X.f.O.#.P m +.m f.u.W g u.W 3 v v q v 0.Q h v h v 9 q S S v v w V Z v q h S W +.! ! i.O.:.T K.:.,.,.X.N N W +.D G V V 8 8 C > 8 6 6 t a t 6 5 w w w w 8 a C S w q.5 V w Z 8.w V V w Z Z w Z G w G q = v v q m m s.o.o.S Q S w 0 C w w w 5 w t 5 t 6 6 6 6 a 8 ",
"8 8 8 8 8 V A ` w v G 8.G S D S q h h S Q Q D D g S Q D F F F b +.W N F o.+.W v v 0.Q h Z G V V Z w V V C A w w Z v w v S Z V h v v V Q v v Q q S G V S Q v w o.h v D o.D h S o.Q v h S D m S o.W v b m m W m W m W W i.O.,.! +.W u.y.Q y.,.! X.n W m g m v q G W v F W v F o.b N X.N W c ,.,.W #.#.n ,.N n ].,.g #.i.O.Y.,.O.! X.N c m #.N X.c X.N c W #.W P y.! N #.N c #.X.X.#.m a.q N y.X.O.P #.O.O.#.,.d.O.,.$XP g O.G.%X@.,.K.@.O.,.,.d.#.X.+.#.X.F W W F F Q v W Q b +.Q b +.o.F D F S D W N F X.X.F N N F N F F b v N X.X.X.m m b m o.o.S W W Q 8.Q F Z S Q b h Q W F +.+.+.o.g X.d.P +.y.o.F F W X.+.$.W X.X.X.X.X.W N N b N W +.$.o.W #.a.X.o.#.X.+.+.+.E +.a.+.m N W u.y.W y.W X.W #.O.,.#.#.! N +.#.#.! N q.X.c F F v v F Q S v F F G h v Q v F F q D F b S W Q W F Q Q W m b W Q W W Q W S F o.+.o.N N W ! X.X.P N m N E N W O.O.! P #.i.d.,.O.:.K.+.y.f.#.@.@.m X.S h C Z w b _ b b F N v N N W +.c X.g d.K.:.n X.P U P N K.Y.N P h.#.K.i.,.N N O.X.N O.g N n N P N ,.P #.N X.i.! O.O.X.i.#.! ,.#.,.g N ,.X.P #.O.U >.,.].K.>.).].I >.G.].lXJ.N.J.>.3.,. .d.,.c h.+.#.y.c W W o.g c v v v o.9.G j.o.Z V V V h V Q V o.S w h w 9 v w S Z v h v Z G 5 9 h S v q v Q G s.q.V Z S v G 9 b Q W o.y.i.:.:.f O.K.,.X.#.W q.F b v q.s.m W f.W n ,.#.O.d.O.3.O.O.P ! ,.[.m i.n T P.P. X=X9XG.].! j U :.}.Y.d.! X.u.y.W P n N i.n ! :.O.i.W y.#.X.N g P +.O.i.#.O.! m d.W N +.! n y.O.W n d.O.i.P N i.X.E o.0.+.m +.o.0.v v D v 9 D D g D h S v h v h 9 g F 8.Z A v v G F X.n #.i.d.d.T ,.gX,.O.! O.O.m b W V V C a 8 & 5 u 6 6 6 6 6 6 8 8 a w 0 5 5 w A o.S h q w V Z S v G Q V 8.S & S q.V w w v v S v v g h +.y.S v S w 8.8.w e.A 5 & A 5 6 6 & > 8 8 5 ",
"a a a a t V A G V v A G V h v h S D S S Q Q S S v b b v b F o.+.b W +.q.q.+.W F S o.Q S Q 8.Z w Z w v w S G V V V v v V D Z S V G Z v v 9 q G h v V h v S q 5 S o.D v S D D S S D Q Q S S S D D b g F F W o.m W #.W g ! O.d.+.O.+.h.f.#.d.d.#.#.P X.N m N m m F b v b F F W o.W o.+.X.y.X.a.y.+.n P O.`.d.#.Y.O.f.O.,.:.,.n X.O.y.,.#.O.y.N +.P +.O.W W #.+.W X.X.N +.#.+.#.W N ,.m O.c +.+.N n P #.! +.#.#.:.U K.O.P P.K. .:.P J.3.M I I q B U #.#.+.$.a.f.+.b W Q v W W v W S g S S m S S v F X.F N N b m b W b m N o.+.X.o.+.m ! E +.y.o.W g F W D S G D v D v Q W W +.W g v W +.f.W N O.N +.+.X.W W W F F F $.+.X.F F W W F $.o.X.o.o.o.W b o.q.N F X.N X.X.u.#.#.+.W E X.o.W X.W #.X.#.+.y.X.,.i.d.,.P O.+.O.#.+.y.X.N o.F W F Q $.Q G o.o.b F 0.o.v v W q.S b m v h h m b S S m v F o.Q F Q Q o.o.W F m E X.E N N ! X.! W W o.+.O.X.+.+.X.P O.:.:.:.O.,.`.f.f.h.,.,.#.N o.D S S C V F _ b c N X.+.X.X.X.X.f.+.O.K.n N #.I ,.}.f.,.d.#.O.,.#.O.f.! #.,.,.#.! O.Y.#.#.+.,.f.! #.O.f.#.i.,.! P #.O.#.#.O.X.c O.O.O.! O.O.! X.J.J. .@.>.@.3.,.>.>.G.G.T L ,XJ.,.c M c P P.d.N a.W o.+.u.v v N i S G v F v 5 V S S S V w 7 q h V v w w V h h S v S V h h v V v V V S S V S o.u.q G S q v v q v o.9.o.N m N P n K.U n O.i.i.#.X.+.F W F +.u.W ,.+.X.X.,.O.O.d.O.O.U d.J.! 5 y.f.i.O.:.d.G.#X=X-XH.K.! U ! U :.O.O.O.,.#.W #.O.n m d.n n #.E +.E f.+.O.d.d.P g N #.O.i.f.O.i.O.i.n ! P #.#.U.,.N N ! P N #.! f c +.E W q.v o.o.b o.D h Q W h S q 9 q S D S v o.k.V w A S S W v F W ,.#.O.:.:.1.$XO.U P X.X.b b Z S w 5 6 t r 6 , 8 8 t t r 8 8 8 5 w w q q w w 9 V S Z G G Z v w h v h w.s.G Z w A V w q w v b b W g v S h v S q z C & z w w w G & > > > 6 8 8 5 ",
"V a a 8 8 a C G Z C G G v h V v w h h v S S S S F D W W b g q q F W W o.u.u.o.g W W Q D D 8.Q q 0.D D v S G v S v v S S D Z D V w v h V w w Z q v V v S Q Z V o.D S v S Q o.Q S h Q o.v h D Q v F g b b N X.N o.#.W f P ! i.#.#.,.f.a.#.,.a.#.#.I m N N M m N b N W F F X.W N N y.+.! i.P O.P U n j #.d.:.! #.P d.P d.g.,.P ,.O.U X.O.X.O.c +.O.O.#.X.N #.a.y.#.#.N m #.#.! #.+.X.N +.W ! m X.i.f.f.i.f.d.#.O.U O.U ,.,.n :.G.g J.g.3././.3.d.h.m W X.X.W W N v F F v W W S W F b D F F o.W F o.W W N N m n N ! y.X.N N W X.+.#.f.i.N E W W +.W o.o.W S D D S Q V G D S W F b W W +.h.y.N W W X.X.X.o.+.o.X.W F X.X.W F W +.$.+.+.X.X.X.o.+.X.W o.q.N F X.N X.W E o.+.X.! W E c W o.E o.E #.o.+.! ,.,.d.,.P O.+.W #.#.#.X.X.q.W X.b F X.F N W N b X.o.+.o.N v F W Q W F b b W o.v F W W F W o.o.m m W 0.o.E W y.+.m n N X.W N m N W W W X.o.O.X.n O.:.,.i.:.:.K.f.f.f.,.3.#.m W D Q C V F ` _ _ F m W X.m N #.O.W a.X.#.O.O.U n g ].O.c U ,.h.U :.@.d.U O.,.:.O.! P ,.n O.#.#.U N n P ,.! ,.P N U h.O.U :.,.#.U U a.O.P a.a.#.K.,.%XK.5.5.>.1.,.>.K.1.>.5.I ).P.%X<X%Xg.K.d.c g +.W X.N W b F v q S o.F o.G i 8.v D Q G D S D D o.h w V v h v v h h w q w h w 7 S Z S v V G 0.q.w G D S G o.Z Z v F F b W ,.d.d.d.:.n n ,.,.N N W b +.o.W X.X.,.m +.,.i.O.O.f.#.d.n g O.,.N #.N X.X.O.O.,.#X=XL.T ,.! ! :.,.i.i.O.y.i.#.E ! o.m E f.m g o.E W W u.,.+.d.h.P g ,.O.N ,.}.i.#.P d.! O.! ! N U.K.! #.! y.#.#.i.m m 0.W +.u.3 m Q q D v h Q W v D v S D Q o.S q h Q v v o.Q D D v F o.+.! N :.d.d.i.P m F o.Q S v V V 5 & 5 t t 8 5 6 8 t 8 8 8 8 w q v v 9 9 v S v v F Q o.D v v h 8.S 3 9 v V Q Z C V p w v S W o.u.W m S S G Q C 0 C & 0 5 w w t > 5 6 6 8 t 8 5 ",
"a a 8 8 8 8 V Z S C G A v V Z v h w v S S Q o.Q 3 5 g S F b b W W E m m W +.W g +.F D S h G o.h 0.o.8.S v F v S v b S b S S S S q V v Z V v S q S V V Z G Z V D v o.q.o.S v h q q D D v m o.o.b b g b b b F m W n P P #.W O.! ,.O.#.#.O.#.,.#.#.N c m N c m _ m W o.F v X.F c N #.P N i.O.,.i.K.:.n d.:.O.O.O.:.O.U d.,.d.,.J.X.N W O.X.#.m a.a.,.#.U m +.a.d.f.#.+.N ,.+.N a.#.q W y.f.y.N X.+.#.O.U i.d.#.,.d.O.@.).].1.K.K.,.} 6.d.O.M I N 3 X.#.#.X.b m N X.D S m D W D D F h v v v S h g F m N W ! W N U ! f.#.W N N W X.O.f.f.+.+.o.W o.b o.0.Q F G D Z Q D D D S S F W +.o.F +.+.W +.,.E g c c m N F m g m N W X.+.#.+.X.F N N W X.+.$.$.+.q.F W o.F X.X.E o.+.+.#.+.W m X.#.P E c o.W X.O.O.U O.O.N +.,.P X.W +.X.X.a.o.u.X.W X.W W X.W W X.N F #.W g N b b b b m b W Q S +.u.0.F b o.u.y.+.o.Q S m m E X.N W #.,.W c g v b N E W W W P O.#.:.:.i.,.:.i.,.#.3.3.g.a.N N S o.C w G ` b _ o.m W X.g m #.O.m h.O.O.].`.O.c X.h.:.N O.a.#.n d.O.d.#.,.X.U O.h.,.i.N i.Y.K.i.d.O.d.Y.d.`.i.Y.g d.#.O.d.#.N n K.d.O.O.,.O.O.P.f d.G.5.G.,.@.3.,X).5.G.lXG.&.1.,.@.M M O.n N dXX.! N q v F W m b F ` b F v 5 S q v V v V S S h o.V S Z h h S 7 h w w w h h h w w V S V S Q Q S h V V V D Q Z V G o.+.o.#.,.,.:.O.1.d.d.d.#.U N F v +.q.N N o.o.c X.#.a.,.#.f.d.d.3.,.d.i.d.Y.#.! ! ! U :.P.#Xd.! H.:.! ! H.i.,.i.O.:.i.O.W ! ~ W l.m f ~ W W o.P u.i.,.i.P N f.#.n O.Y.i.#.n X.d.! X.O.g ! f.d.#.N ,.X.N a.c N Q o.+.+.5 v b q v q h S S S D S S h h S Q D S S Q W 0.F v b v W W W P O.d.K.y.W v v Z o.Q V w w 5 w t w 5 5 8 y 6 6 8 8 8 8 7 7 v Z V 9 9 b W F b F D F F S Z D V S v h w h v w 8 p V V V S F S v g q q w h w 5 0 D 0 C w 6 5 6 8 8 t 8 t t 8 6 ",
"a 8 w 8 w 8 V C V V Z Z h V S w S h S G v S D v Q F v g 9 9 g F f m ! m f c F F o.S D b q S Q v b F o.m m F m W W W W m S W W S o.q.S V v v D S V h v v q 9 9 5 9 D 0.o.S S S S S S S D o.0.o.W v g W W W W c m c W O.d.X.O.! i.O.O.O.O.X.+.#.+.X.m N N c m X.b b W v c X.X.N X.#.W P a.! O.O.,.y.f O.O.Y.P.O.U :.3.,.P d.3.,.@.O.X.O.X.#.m #.X.a.,.W W #.#.#.a.W i.y.h.#.N #.N +.y.! W W O.+.m i.#.P ,.i.X.:.d.:.d.d.O.U  .T ,.} 3.g.I M K.{.,.d.,.X.W X.X.W F Q S b S F F v m q v b v v g g W n N W X.X.X.O.O.X.O.#.y.y.,.+.X.a.f.,.y.o.W +.W W o.D S D S v S Z Z Q Q D S b v o.b b W E o.y.m +.o.X.X.y.f.u.o.W X.X.X.X.X.W N X.W F W W X.o.o.X.#.N F X.N W W y.+.m m W m m +.N ! m W m +.W ! O.X.n U X.M +.#.#.N c X.X.N $.o.y.X.W X.U X.+.X.X.#.O.X.#.U ! K.b m m S W W W S m S F m g q v Q 0.y.o.S b W E g W W $.a.y.X.N N W W W W W E P m f.d.O.U #.,.,.d.,.>.,.,.g.d.U X.S Q V w D F b N N c o.a.F N #.X.,.+.O.O.U #.g.q d.U d.a.,.O.c d.:.O.h.,.a.O.O.:.P P ,.n P O.i.i.O.n #.d.! i.P i.,.P.O.U :.P U ,.a.N U :.O.O.d.g.3.J.5.>.).).J.%XJ.L P.G. .T N.%X&XM  .sX].@.,.,.y.N c X.o.b v G b Z Z v F b & i V v h h h h h 9 h h G S q V Z 7 v V S S V V V V w V Z S Z G S w S v v v v S S h o.9.q.+.O.! U U U U d.J.O.O.,.N F b o.u.X.W #.X.P ! P ,.a.O.,.d.n 5.,.O.N #.f.X.#.#.O.#.d.G.G.1.;.1.! :.! H.:.i.i.O.O.y.:.:.y.t.~ p.E k W W W +.m y.i.,.f.X.n #.#.! ,.K.#.,.N ! i.N #.d.X.P #.O.X.n O.! g d.c N h q.W E F o.v D D h m S h v v v v q q D o.o.Q o.o.W o.b g m m W W m W u.f.d.+.E v V Z G A p w 6 5 w x t 5 & 8 y 8 8 8 8 8 8 w p q v F g q c c q W F F F o.o.o.Q h D q.8.Q S h 7 8 p V V v h q 9 S v h v Q Q C w 5 C 0 ( C 5 5 A a t 8 8 8 8 r r ",
"C a 8 8 8 a V V V V Z C h V S q S h S Q h v D h 9 g h g v F +.q.9 m E m m ! W b S S W D v S S h v m Q m m E m m o.o.W E o.y.+.F b o.v v S V Z Z V v S Z w h S V D D D D Q 0.q.0.Q m v Q o.Q S W o.F W F N W N +.X.O.U ,.O.,.#.i.,.O.#.#.X.X.o.W o.N b v c v v v W W m m W X.P W X.X.O.i.N W n g f N sXH.#.9 P $X,.:.O.@.$X>.U ,.#.X.W W ,.N O.N +.O.X.+.a.#.X.#.n X.,.y.W N +.! i.d.O.m g #.y.,.K.f.#.d.a.O.:.,.d.$XP.>.,.,.1.J.].5.K.5. .,.#.} O.X.X.X.W N N F S q h h b W b D g D D b S F D +.N N N N W #.,.,.X.+.#.#.#.#.+.O.,.u.+.+.W E q.q.G o.D S D S v S D v V S v S D b W o.W o.E N +.o.+.X.F b X.#.+.N X.X.W N F X.X.W X.X.W W X.X.o.+.X.#.F W +.F W F y.#.E W +.m q X.N E m ,.X.+.m m #.O.N O.#.P X.X.a.X.m +.X.m X.X.X.N N ! P ! #.O.#.#.,.f.f.#.! ,.Q W W W o.Q D m +.S g h F Q Q Q E +.+.W +.j.u.S N W X.X.X.W X.X.E F E Q X.W O.O.+.,.:.:.d.d.,.:.K.,.>. .>.>.P #.m D S v S N b b N c X.#.F N #.#.X.O.O.P N n O.M d.P d.N U `.X.a.O.,.].O.#.,.,.O.#.#.K.#.,.#.#.#.O.X.,.K.#.i.! ! K.K.U N X.U 3.{.I n O.,.#.K.].@.3.3.5.@.1.5.>./.,X5.G.Y L.hX9X).$X>.I 3.3.#.d.#.+.+.N o.W o.v q 7 p S S 9.` 7 b o.D S D Q D S S h V G S w h h 7 V V S S v w h V V S V v v V v h o.S V S v S D v v b W W ! O.d.K.,.n U O.n O.K.+.N F b +.+.X.#.X.+.X.n O.a.! ! #.d.d.U ,.f.`.K.+.+.O.W O.d.i.1.G.:.T L W.i.P.! H.i.H.f.O.! y.u.P ~ +.W k m W o.o.o.E n O.f.#.U i.! +.f.f.N O.P #.#.P +.O.#.,.,.g ! O.#.,.! U.m W m u.F E 0.+.q o.D h D S v D S D S S W Q D v v Q E N o.E S W m X.o.N X.u.#.o.o.Q w V A A V w 6 5 w w 6 6 8 t 8 5 8 8 8 6 7 8 w v 9 q g q q c m N W N b W +.+.F v o.D D h v Q S G 8 d p w w V b h F v 5 q o.8.V 0 w S 0 G w > 6 8.8 6 > 6 6 8 t u ",
"C a 8 8 a a w w V V C v w S D h S h Q u.Q o.u.Q g W o.D b G F g m m N m +.a.o.9 F W D F Q W S v W P W N P #.P n +.+.! ! i.K.u.N q G v v G v v h S v Q o.V D w.q.T.y.Q Q Q Q D S Q S S D D v h S q.G W b m W W u.#.O.N #.O.i.O.#.i.O.#.#.F F Q b v S v h V V h h o.F F X.X.X.W n n O.#.i.U d.d.#.Y.#.i.! ].:.d.G.O.T 3.d.].>. .@.,.#.O.#.K.,.f.+.U +.O.X.#.#.#.,.W m +.+.N N X.i.c X.h.h.+.f.X.a.P W N #.i.:.d.d.O.U  .=X$XU  .>.5.g O.g.3.,.X.X.O.,.a.y.W m W q.F 9 h g b o.S o.g F b q v W D b X.X.X.X.#.a.d.3.g.a.O.n n U X.X.m o.+.f.u.o.o.b W o.D S D F V Z G w h V v G 0.W Q u.+.+.o.m +.#.#.y.+.W W +.+.W W W F N W o.+.+.F W W W X.X.o.+.W #.F X.+.W W N +.f.a.a.U.+.m +.+.X.N u.+.X.c N O.O.O.d.,.P X.O.+.O.W $.W m X.W O.O.:.d.,.,.d.,.:.O.d.].P.:.U N m m b m m v h g z.q.Q 0.j.z.z.j.+.y.y.+.+.y.o.v E X.W m c W X.X.W F W o.o.o.+.y.n #.i.d.f.d.:.O.d.>.>...;. .n O.b S Q G v N N m X.F W X.N m X.d.O.d.O.X.`.O.O.3.`.K.].N U aXa.n ,.d.].O.O.,.,.X.f.,.K.i.f.,.X.O.O.#.O.f.#.i.#.N N X.P O.,.#.:.U d.a.a.,.d.K.,.n >.G.<X^.5.G.5.). .gX-X&.1.Y &. . .`.J.g.g.O.O.X.N a.X.b v s.o.9 q p Z p S p & i S v V Q Q S S 8.Q S V S S w 7 V S h w h h w w h S v v v h w h v S q w v q h S v v F +.o.! O.,.K.K.;.O.:.:.d.Y.f.X.o.v F o.F o.o.X.+.n ! i.O.! X.@.d.@.d.#.,.#.y.X.+.P ! ,.,.:.H.P.G.;.W.:.$X! 1.i.H.H.:.P O.O.k o.W o.W k W +.W o.N g N +.#.i.h.O.+.u.f.m O.P #.,.#.#.g X.#.i.N N y.P #.! f.m E W y.F o.o.W q Q S h o.Q D o.D Q g h S D S v D q.E P o.! ! O.P W Q W q.q.b N Q S w a V t 8 6 6 8 t w 5 5 w C w & 6 6 8 8 8 w i v v v g c c m X.y.W N m m F F v q D q S h v D h V 8 a 8 7 w Z G b W +.Q Q u.w.A G w G w C 6 5 6 A 8 5 > 6 8 8 e u ",
"C a w 8 8 w w 5 w w w 7 5 v W v q 3 S o.v S o.v q D Q v g Q o.F E o.o.E Q q.W f o.+.S v o.o.S F o.N N m O.f.#.W o.W P W f.`.a.b o.s.S w V q w h V v G D 9 q Q G Q b v F Q D D W S F Q W S h v D v v +.+.+.+.m W E ! P #.! #.U O.i.O.#.y.W W o.D q S v V Q Q v S W c F $.+.#.#.m ! d.y.! f :.,.P O.U i.! P.P 1.K.1.>.K.3. . .d. .:.O.O.@.K.#.i.X.O.d.,.N P O.#.#.a.N f.U.i.+.m #.f.X.+.X.n f.! Y.#.i.#.d.d.,.d.:.J.K.@.@.g U sX3.{.n @.d.#.>.O.@.h.a.X.X.W N W o.y.S D v b Q v F W 0.W h W y.o.m X.O.#.,.h.K.h.,.K.a.O.N U O.O.N #.q.F W Q W o.Q F W b v v v v F G v D 0.o.0.o.g W u.F W y.E X.o.! $.+.F m F W N W X.X.X.o.+.X.F W W W W E F F W m X.b F o.b b c m i.#.P #.X.m +.y.W n y.+.+.E y.X.O.O.a.,.m O.a.n X.+.+.N m +.W X.X.i.h.i.#.#.O.O.O.K.].#.P i.Y.b F D S v v m S W S b W W W o.0.E E E E E E E W o.#.o.m m o.+.F s.y.0.,.+.X.o.#.P i.d.#.O.O.,.K.,.@.>.>.,.O.g W m S 8.+.v N X.m X.$.#.y.#.N N #.].N n O.d.} 3.N O.! d.d.,.a.,.:.K.,.K.O.d.:.:.,.#.O.].d.,.U :.].O.#.n #.O.i.d.N ].P.O.U } a.P.O.,.#.N X.].K.>.5.>.>.).5.1.%X).G.5.1.j 1.,X#XMXn ,.,.3.g.M X.aXh.,.#.m F b u.0.o.q p S i F ` G z.G S Q q.o.h S q.o.v 7 S 0.V w w.S w q w V C V V V v v Z S h h Z V 9 v S w v Q F v X.y.y.O.P O.,.:.>.O.:.d.:.X.#.u.h.N F +.N X.#.N #.P U d.i.#.X.O.).,.d.O.,.,.y.d.K.,.U O.O.! 1.1.P.;.L L jXY.H.:.:.y.,.W P ! ~ t.E t.o.k ~ y.W f ! ,.! m O.i.O.f.+.#.f.O.,.P O.#.y.a.N +.P O.! ! Y.N O.W d.m o.W m m +.m v v o.W v q.o.W o.m v D v h S D D Q 8.W m ! N m ! m E S o.s.o.g b W 9 8 t t 8 5 5 6 w w w w 0 z A V 6 8 8 p a V V V V G F F +.+.N m W o.F v g v b b v S q S w 9 w 7 G a a t 7 q v w 3 3 Q q.0.8.h 5 D 3 A w V w t w 8 w 6 5 8 8 6 8 8 ",
"> p A a w p w q 3 w v Q v S h S h h S Q 8.Q 8.u.q.G S Q Q V h h v 0.8.h q Q o.h o.o.Q W W W W F W v o.F S Q S 0.W g b D v 0.s.v V Z Z w w v v w D D D W W W F S v b G a.o.v F v G v G 9.o.b F o.Q 0.Q b W q.+.+.+.X.P g y.P P O.O.,.U ,.q.q.h Z S 8.h S 8.W Q g W 9 F +.W W S E b +.O.N #.i.#.#.U d.O.U ,.d.,.@.K.]. .P J.J. .,.@.M d.].P n :.P d.K.O.,.K.M K.O.a.W a.d.X.O.,.X.O.,.n O.O.,.@.].d.a.,.,.,.U U d.d.a.,.,.O.P O.K.+.y.W h./.@.3.J.3.I +.+.q S 8.7 Q Q Q S S Q W F W o.0.E o.o.m o.c ,.f.O.O.}.<X3.:.O.:.a.#.O.O.E W S v v W Q D v F v v S Q o.G N F b h v o.q.o.N m N X.+.O.! X.#.! W W E W W W W m W O.Q E m E X.o.+.O.N N N W W 0.o.W F W o.W b +.+.+.,.h.U.d.+.,.O.X.X.E m ! y.X.X.! W +.a.y.X.+.#.#.#.+.X.X.X.#.W o.o.o.y.o.N +.m N y.f.o.E o.Q v V Q V h Q q.D 0.q.D o.o.v W +.u.o.+.W S y.m E y.y.S Q y.W q.W X.y.+.+.y.X.W +.n ,.U :.O.O.,.,.O.d.d.O.O.! X.W F o.o.F N N m B a.X.N W W O.X.W N U ,.,.O.O.a.d.P ,.d.f.:.Y.].d.#.K.d.O.P.P U d.].O.U :.n >./.O.d.d.O.:.d.i.! K.h.:.N a.U U ,.@.3.:.>.O.$X3.d.5. .J.,.U K.#X>.5.1. .>.>.%X5.,.,.O.$X/.3.:./.#.+.#.N v F v V w.S S q.h D Q b o.W y.Q 8.Q h S h q.9 v D G V 5 o.w w w w w w w q w V V v V Z Z w v F G o.D b F o.c N u.$.! P n U ,.,.:.:.,.,.#.U U a.W O.O.N i.d.i.#.! P ! ,.i.i.,.>.:.:.O.:.,.#.O.O.:.U P U :.:.L. .5.G.d.,.$XT O.O.y.O.X.#.W W W o.F u.E g a.m m E ! ! W ! #.y.$.X.+.a.y.N n U U N K.U ! h.n g ! ,.! P g #.o.E +.u.F F o.v v W W W Q Q W S W o.h h v S S S S Q E W W W S m E W o.Q S v v v v p a t r 6 8 6 6 6 w 8 5 5 8 6 5 w w w G Z q h Z F b v g N F N X.q o.D F F 0.D 5 Q 3 V Q w V z & w 8 8 8 8 a w 7 C V 5 Q k.w 7 3 G w C V V 8 5 p 8 5 > 8 5 8 C 5 5 ",
"8 a V w q v V V 0.0.S Q h D S 8.G h h S S h h V Q 8.Q D Q w.q.Q G S v D Q S Q 0.D W o.o.$.$.+.o.F v Q V v G v D o.S Q G h G q.V V C C v w w h w S v v m D Q Q D F o.o.q.o.F o.o.v v F _ F v v o.g v D +.q.F h W m X.O.n f.d.+.g n O.N #.$.9.V o.V v w 9 S o.+.y.o.N y.+.v S W W o.+.~ U #.,.,.a.:.d.O.U O.,.d.O.3.n U J.J.@.>.J.@.1.3.U P 1.d.U O.d.:.@.O.n K.d.O.N #.,.X.X.O.P O.d.:.O.P.d.3 d.U a.,.U O.d.a.#.U X.O.O.O.O.O.#.W q.W W O.O.>. .].M c $.o.S G C S D W D D Q W S g m W E Q o.P #.#.N n P U O.3.3.,.@.3.d.i.#.O.E 0.G S V S S v w S F F F F F N N b G o.o.X.X.W N +.X.X.O.O.O.O.,.:.+.O.! W E W W P W o.o.W E W o.#.O.X.O.o.+.+.+.o.o.W W o.o.W F O.O.O.U N X.+.#.+.O.+.#.#.o.X.O.W X.W F W X.o.X.+.+.+.#.y.q.#.o.#.F F E F o.o.o.u.o.o.q.q.W b D D h V Z h w Z Q q v Q W o.+.b o.o.p.0.y.0.W 0.Q W o.o.m S +.W +.o.X.#.X.W #.#.d.O.U d.O.X.n I ,.y.O.,.#.! O.N N q 9 N q.q.+.o._ X.#.N N W N X.W +.X.#.a.d.3.d.`.! P i.i.f.O.,.O.n K.].O.T P.;.$XT :.O.@.d.3. .G.J.3.:.O.d.H.i.U n N ,.#.a.,.K.d.:.f 5.].P 3.5.).K.,.@.3.).>.n K.>.>.G.>.@.G.d.3.n U J.>.,.K.}.N c X.F v g q V s.G S 0.S W h g g E +.W Q D v Q S S 9 v h v Z v G Z V p w 8 8 V A v w w w w w V G D S F D F v c v X.X.y.+.W X.O.i.U O.:.1.,.:.@.@.i.,.P ! ,.,.,.O.O.#.,.#.,.d.d.i.:.:.d.d.O.O.:.:.:.O.O.O.O.U O.d.>.1.J.1.>.>.].O.,.X.y.+.X.#.o.W m W v #.X.N f.W W X.W E P P O.+.N o.q.y.#.+.X.U a.O.,.P X.h.U n d.K.#.X.n #.W E E q.F W 0.W F o.W o.+.~ W S S D v S S S S S G Q Q W Q W S S S W D b v q w w w w t r 6 , 6 8 t t w t w w w 5 & 0 V h V S m D Q v b F b F c q W b v v D S Q S 3 h 5 h S w C A w A a C t t C t w A 5 3 S 8.7 V h G 7 a w p w 5 p 8 8 5 7 & > p 5 7 ",
"w p p 7 q V C V v V q S h S h h Q h 0 h S h h h S D S h h S S h Q h q S G h h W W D G F F F N F S S G v v D h h S V Q D 7 h D w v w p V v w w w S h q h D o.o.D q F m v m i F v v o.o.F F m m o.o.Q b S W b E u.N f.Y.! m g #.d.n X.N W m v q G V v 8.S Q t.g m o.o.z.u.h S Q Q Q m m W P P X.U O.:.X.O.O.,.K.O.:.:.>.>.@.U I U d.d.1.d.d. .O.$XG.J.K.d.K.d.G.:.N F X.X.O.#.,.:.:.O.>.O.K.].P <X,.P.3.n U d.,.I U O.O.O.#.,.O.N s.v F h.].O.n 3.`.3.N c b Q G S h S S S Q Q E m m m +.o.E W P ! o.m +.Y.K.O.O.@.,.@.a.h.d.,.o.E Q D S S S S V v v G o.G b v F o.F W o.o.W W ! E #.X.! O.O.O.X.X.! o.o.~ W W o.:.~ o.+.+.o.~ o.o.O.P P O.y.+.o.X.W W o.o.o.o.Q W n W +.X.W X.+.#.W W W W o.+.W m N N F W N m F +.+.X.F W o.o.X.F o.b b W b b W W +.W F F E F b b Z v v v h v D S v h 0.u.+.o.F o.m o.S E Q m m Q 0.W o.S m 0.+.o.o.F +.W N X.+.h.`.O.O.U a.d.O.U ,.! ! U X.#.N N f.o.W X.N m W X.h.#.N X.X.W #.X.U W U U U O.:.a.! O.d.i.Y.,.i.1.:.O.:.:.;.1.I %X].,.:.T ).=X>.d.5.d.d.P.K.d.:.:.i.O.h.,.O.O.K.} ].O.].). .).d.>.P U 3.d.,.@.U ,.d.U ).,.3.U >. .3.J.). .n >.1X/.m N m F q.0.h 5 S h Q o.Q g W g W 0.W W D S 8.Q v v v 5 5 Z v w q w p p 8 w w 8 w 7 w V V q w Z F v v F o.o.F b o.G $.W P O.O.d.H.i.,.d.d.,.#.O.i.X.! ! ,.f.,.#.! ,.d.,.O.#.O.! ,.,.K.].d.,.d.P.:.:.} O.,.:.O.d.J.P.L.5.5.:.d.! d.P #.#.W +.X.F F +.b +.#.X.u.X.m N E E E ! o.#.v $.y.X.X.q.,.W #.X.U N U O.O.I P #.! ! N ,.+.X.W u.W S Q v g g W +.y.+.W W W b h b D D S v S Q Q Q Q S S S S D h w w q w w w w 8 6 5 5 8 t t a 5 t w 8 w 5 5 V V h h V V G Q v q v b W b v #.+.v S Q S D D 7 v V V C w t C 8 V 6 8 > 5 w 6 5 w w V G G 7 Q V V w p 7 w 7 5 8 w p 7 7 & > w > 5 ",
"7 w w w w V v w 3 w h Q S Q h q S h h V S S S S Q S S S z q 0 S S V h q h S v q W F v g q q q q S Z S h h Z V w 7 w S S w w v 5 w 7 w V v w w v G v q h W o.W b v o.F F F F X.N q o.F q m c 9 N h F v g F o.S g W X.,.i.,.N m #.f.f.y.+.F b G q.V S D h S o.E 0.W F j.s.D Q Q W 0.m o.d.#.U X.N O.O.O.:.O.3.P.O.O.].>.M K.K.@.J.P d.d.O.T O.O.:.T n >.,.K.P.d.d.d.j.O.U X.U X.X.].O.J.d.U J.].%Xd.,.U N O.,.d.].#.a.,.} O.d.,.P W q m X.d.d.n U @.K.h.$.0.o.h 5 v v S S W W S v o.m t.:.m P m N P W u.d.X.U :.d.:.O.,.d.,.#.o.W D S S S S S Z Z v F Q G v v G $.o.W b v F +.o.E X.W ! #.#.O.P N E W W W W W ! ~ +.O.o.o.o.W W E O.N N O.+.! m W W W o.o.Q W W o.N W X.O.#.#.#.X.N W m c m W W m m c N W F m N o.X.N c g c N F F F v b o.F g F m F m b v v b b v Z V V v h G o.S m 9 +.u.F v b o.Q y.S S 0.W S u.W h W m f W W F o.N +.o.o.+.X.y.a.,.,.#.#.:.,.d.,.! ! P +.y.W X.N N X.+.X.o.o.N z.#.X.$.X.X.a.X.O.#.#.U U O.@.O.:.O.O.U K.O.:.J.].L 1.&X>.G.G.G.).,.T L >.G. .@.>.3.d.K.i.d.y.f.:.n U P #.3.).,.,.P.d.,.&XBX=X#Xn @.).5.3.$XK.U $Xn J.,.$XP  .n U >./.d.P M g.].h.h.$.v 9 q v Z h v Q o.F g u.g o.+.Q W S Q Q S 0.o.F 9 w Z b 5 p V G A A C V V p w p Z Z v q q N v q v o.q.+.o.N N X.W ! +.! :.K.i.O.O.U n P O.,.U ,.O.! y.#.d.,.f.f.#.X.#.,.O.O.O.,.d.:.} :.d.} K.O.P O.K.:.d.&XP.>.J.&X,. .O.i.n O.#.F X.W b W +.m W $.X.o.E c m E W W W W X.N q.y.N m +.#.X.X.#.X.:.#.U ,.#.N +.O.#.P X.g f f o.v g D b b S h W +.Q W o.W v g b D S v S D Q Q Q D S S S S V w w w w w w w 8 8 8 6 8 8 8 w w 6 t w w t w w S 7 w S S q h D S o.Q D 9.o.b N 9 Q D Q h S o.D G A V C w 8 8 5 6 6 8 5 5 8 8 w t A 8.G G w G v w w a 7 8 7 5 w 7 8 5 w 5 7 p > > ",
"w w w w w v v w h D v S q S h v S V S S S h h h V h V G S h h G w V V q v o.o.v h v v v v v m F V Z v w w V C w v v V V V V V w p 8 w C V w w v D v w v Q o.F g G s.o.F o.G o.o.q o.D q G G q v v W S g m W W E m g N #.X.P P O.#.! W m v v D Q w G h h S m o.o.#.c o.q.Q Q W E y.m o.f.,.X.O.U #.O.O.:.O.:.K.O.@.d.U  .].3.T %XK.G.d.d.G.$X].>.K.>.J.,.L n f d.#.a.U N X.N O.U n U ,.d.P U ].@.K.,.} O.,.O.,.$X} #.#.} O.d.h.i.o.g n N ,.d.P O.]./.,.#.u.S 7 Q S S m S D F m m o.h O.#.m W ! ! m ~ u.y.W #.,.#.,.O.#.i.O.~ ~ W Q G G D S V V S q v v v v v F _ +.W b v F +.o.W X.X.#.,.,.O.! ! O.O.W ! O.W N g ! W P E E E N N #.! W #.+.P N o.X.W W W F b F o.y.,.O.U N W X.X.W X.W m m W Q W b b F o.o.F b F F F b b b F X.+.m b v o.D g W F W Q W S b F b h G Z Z V v Q o.V v 9 +.y.m m +.z.0.y.W W f.y.S u.W m 0.Q h E o.o.b q m N W o.m N X.#.O.O.X.O.:.,.,.#.#.! #.,.N O.9 m X.W W a.a.m +.+.X.X.m W a.m #.a.d.O.X.O.#.O.d.O.O.O.].@.U ,.:.>.].#XY ).=X5.:.K.J.).).5.G.5.5.5.U T U H.d.i.#.X.O.U d.P n U 3.].@.3.$X>.@.>.1.G. .T =X=XU @.K.n J.,.,X,.1.n n  .5.d.>.3./.1XO.,.a.9.v q 7 5 V D Q S q q u.9 W o.o.F S Q D S s.9.v v G o.Z w G G C p w p A ` G Z p q w Z S v G b v v b F G F F N +.X.O.#.! O.K.K.K.G.:.O.d.].d.O.f.#.n X.! ,.O.,.#.! ! ,.,.#.d.O.:.,.O.U O.O.O.P.O.U O.K.,.K.P.G.T P.,XG.O.,.O.n +.#.X.+.F N m N q c X.W W m o.o.O.O.! E E W X.+.#.X.F W X.X.O.#.n #.#.N :.} ! #.#.a.O.O.m c E y.b v Q S D W f m W m b W b q v F Q D F G o.8.S S S S C V h w w w w w 8 w 8 5 8 8 8 t t t 8 6 A A t w z z w V 7 q S S q h S v Q F b +.o.b F q D v S q h 8.G V w 5 V w 5 w 6 t 6 w 6 5 w 8 w w D G w A h V h V V C w w w 5 w 5 w 5 w 5 w V 5 5 ",
"V V p w w h V Z h S h h 3 h w h h V S D V h h h 5 h V w w h V w V v h V Z Z Z Z q h F G F S v v v V q w v w V v o.Z v w v V V V A C C C V w w w v w w v S D b g G q.v q F v G o.v o.D v o.o.F F +.0.o.W F v o.[.W +.O.! 9 N #.i.,.! #.#.q.o.0.G q 8.S o.q.F o.b f.g b W S F S W o.m m O.O.U O.O.O.O.U O.O.,.P.d.U P ,.d. . .1.>.K.U T d.1.,.d.d.,.U :.d.:.,.O.$Xm +.N O.#.O.d.U n ].d.d.].3.<X].d.d.d.,.,.X.U :.U O.:.,.a.d.d.f.a.m ! P.&Xd.P 3.].K.P f F D Z o.Q S m S W W F m +.E ,.,.o.o.W :.o.W 0.U.U.f.#.P a.#.+.y.Q W W S S Z D S S S Z D v v v v m v N F G o.q.+.W W W W +.X.O.O.O.O.O.#.#.! W O.+.+.W m E E E ! W W W ! O.! X.+.O.W W #.o.W W o.F m b W W #.y.O.N N W O.E W W E F W W F W F F o.o.F b v W o.o.o.X.F F F m F h W b h y.Q F W W W W W W S Q A Z V h S D h b v 0.+.F W +.T.S W Q W y.+.g S o.Q u.0.W o.o.u.u.o.#.$.s.`.f.a.O.+.n O.O.,.#.P ,.i.y.! +.O.g W X.#.#.W N y.a.N m o.X.N m N #.c X.#.,.O.X.O.O.} 3.O.:.J.sX3.@. . .J.>.>.2.P.1.N. .d.@.J./.5.G.Y >.G.:.3.T K.i.,.n P X.} K.U O.$Xd.3.,.).<X].gX5.J.3.,.;.3.1. .d.;.1.&X>.).K.G. .@.].].d.} g.).%Xd.U m m v S Q G v D o.h h b y.c W o.u.W S o.Q Q o.F 5 v G G o.V p i w 8 8 w p p V Z V w V G G w G G b v b F G F X.F +.W ! #.O.,.i.:.O.:.,.,.:.O.f.O.#.O.N O.#.X.O.#.#.O.#.#.#.O.d.,.,.1.:.,.d.d.,.d.U d.:.,.O.&X:.).5.L.J.1.O.>.U X.,.+.+.#.N N X.N m m N W N m u.+.W P P W #.y.N W $.y.+.W W X.d.,.g U #.X.O.n O.#.O.y.! #.X.y.f.U.o.F Q h h b N ! W N b N b q v F Q F F o.o.o.V z z z V w w 6 w w w w 8 8 6 5 6 8 8 t y y 8 8 A A t 6 z C v V S h h h v Q D h q 9 q D F b q.u.v 9 v h h Q V 5 w 5 V V 6 w w V 5 t 8 5 6 6 6 w A G w G S h w G V Z w w w 5 w 5 w 5 7 > 5 V w w ",
"v v v i w w V G v D v Z v o.F V w h h V V C V h V G G h w V V w S h h S S w w V h v Z Z v h w h w V q S C 5 V v G Z w 7 w w w V C A C a w w w w w w h v v v v v F 9.v v o.F F 0.q v v v v v v i q b Q 0.+.b m y.a.X.N #.+.K.,.g #.N +.+.o.b G w v Z h h W +.f.h.#.c W W h S S S o.Q W O.#.#.O.,.P O.U O.,.,.J.d. .U J.J.@.).,X>.U P.P.O. .d.J.d.1.>.@.d.d.P.O.U a.j.#.a.+.X.d.g O.K.O.P 3.n ,.G.n :.3.,.d.,.:.,.:.O.:.d.d.,.,.d.c f.h.d.K.d.,.P U ,.#.m W q.G 5 Q S b W o.Q W W 0.+.u.i.i.#.N O.y.S S o.o.X.o.X.+.W X.o.W S E S V V V V S S D D v F G G F F G X.F o.q.+.W W W X.,.O.! O.O.O.O.#.W ! W W +.,.+.O.W O.O.o.O.O.O.O.! ! ! ! O.+.+.+.X.E W +.o.F b G g W #.#.o.X.X.X.F b b F W F m v F F F F F G F v o.W W W F b v g m o.h F v v u.F m v b F D F D W D V V V h V S v h v F h v b g F F F y.o.o.0.S W b S Q b v b v +.G F X.m X.f.,.X.n a.O.d.O.O.:.#.+.y.#.N +.W 9 P c N #.a.a.f.#.m N $.N N W N X.N O.#.:.#.O.O.O.#. .P ,.3.K.3.3.} /./. .5. XJ. .L.).d.:.,.J.)./.>. .J.G.&X,.H.:.i.K.a.d.#.,.P O.G.d.@.d.U d.].5.j J.5.,X/.I 5.#XG. ./. X>.G.P.>.5.O.%X&X).@.,.} } M B +.s.W v D o.m v 0.D o.W X.X.o.#.j.W S o.Q o.v F 9 v V w Z v p p C G ` G a 8 7 w C A G Z v w F G F F W +.+.o.X.F +.W ! #.O.d.H.d.,.,.d.K.,.M i.! ! ,.O.#.f.! f.f.f.K.d.,.,.i.:.>.:.O.O.,.d.:.:.:.T P.O.O.U $X5.#XG.J.>.>.O.U P a.d.W +.#.c N q.N W W m F E c o.W P m P O.y.u.m F +.+.X.N U X.h.d.O.:.d.d.,.I d.d.+.,.N P m W o.0.v F +.v b +.#.+.X.W N m m c b F G N F o.o.Z V t w w t w t 8 t w 8 8 8 6 6 6 t 8 8 t t a t t w V z w h V V V D v v S S Q Q h o.S h D v q F S V 9 S S w V w 7 C 5 z V 6 w 8 8 6 C V t t t V A V 8.h 8.G w h o.w C w V w 5 w w w 5 7 > 5 V w w ",
"5 w v V v v v Z Z G w h q Q V w h w q q h h w 7 S w 7 h h 7 q V q q w v V v V S V V v w q q h V h V w 8.G 5 v V v V w w V h w w 8 a t 6 5 w w w v V V v h h v S 5 F q F q.v q F o.F o.G v v v v S o.F v o.u.y.+.u.m g ,.N #.i.K.#.N #.W W v 8.D v h Q v E +.n W m c q.+.v F W m m W E P #.! n U P a.O.,.h.:.O.O.].,.U >.d.d.>.T @.K.>.T d.O.n 3.,.K.1.d.O.P.d.:.y.y.W ,.X.+.&XO.d.n @.>.3.:.).].O.:.,.d.d.@.O.,.,.P P ,.d.O.O.d.,.U.i.d.,.P d.].d.:.O.N m b Q q.Q S b Q 0.+.Q W P ! +.+.i.O.f W h E y.u.o.Q o.W m c S Q E S E S G S V V V v v h q v G G F F X.o.o.W F F W +.+.X.a.#.O.,.a.i.#.O.+.O.W W O.o.o.#.o.O.O.O.! P P P O.O.O.O.#.y.+.! W N W #.q.W b N W W N m N X.W m +.m g b W F m v g b b v v W o.F G v g g v F F F v q.S Q S v q.q W F S D S v v S v w w V h V D D v F D v W o.g b S S y.F g Q W o.W Q W v D W m q.W $.s.+.#.U.a.X.X.,.n a.d.K.d.U ! #.+.N #.+.f W X.n m O.X.W W N X.+.c m X.m m W X.X.O.O.U U X.O.d.d.).>.@.3.).>.>.5.5.).<.>.<.5.@. .J.>.T 5.5.J.J.G.T P.:.H.:.H.,.n :.,.d.d.K.T O.U ]. .&X%XL #X5.5.G.>.1.G.;.Y >.5. .,.G.P. .=X$X].>.d.d./.3.g.K.n c X.F b D S D h q.o.u.N 9 N o.#.j.F q S S D F q.G F w 5 v q V p 8 p C Z a 8 v w V C v 5 w Z G G G G +.q.+.G F F q.+.#.y.:.d.! K.].d.U O.:.,.,.#.O.f.O.! f.P ,.,.y.d.#.! O.d.d.J.K.,.O.,.,.U P O.O.P.n O.O.K.).L.&.P.5.1. .@.P K.f.n X.+.q N X.q N W g F X.m E E P P ! W ! W m W X.m g c N W n X.,.,.O.O.U M o.#.! y.P ! m +.0.q.b o.0.g g W y.+.W N m c c v W o.o.F G o.o.Z V t 8 6 8 w t t t t 8 8 8 8 8 8 a y w 8 w t t V 6 A Z h w w 7 w S S D D v S D S u.D q W o.S S 9 G q G S 5 q w w A & w t 6 t w 6 # 6 8 5 6 w a A 5 ( w G V w V 8.5 V w V w 5 w 8 7 5 w 5 w C 7 5 ",
"S 5 Q q G S v o.b G ` v S v F q v w v v w h V q w w w w V h h G w w w q q w v V w v w w V o.o.C 5 w w w w w w w A w V V 5 V A w 8 8 t a 8 8 w w V C 5 w w w Q q D S V S V v h v v Z o.Z q q V v b v q.b b o.k t.u.u.P y.N N #.o.a.y.E W g v h G F Z v o.o.W y.N m c W b v m h Q g q.f.O.N O.#.U ,.#.d.O.O.P >.U d.:.3.d.,.J.J. .].,.3.K.d.K.].d.d.@.K.d.d.P.d.d.`.f.X.y.U X.U ,.O.O.d.J.:.O.@.@.,.O.d.K.:.P.n n }.O.d.:.d.].U :.,.#.d.d.O.U :.@.,.:.`.`.y.o.F +.W g g F o.F W y.X.m ,.O.X.d.#.o.W Q Q o.+.o.W m o.W o.o.Q m k S S Z Z Z S S V S G F v v v N G X.o.F F W +.+.o.o.! o.#.O.X.#.,.,.o.+.#.! ! ,.,.#.! O.+.O.! W ! ! ! O.O.O.,.i.#.! +.O.#.F F +.F N X.o.F F $.F B X.F F o.Q o.0.b h v v v F G F v v q S F o.u.F 9 v w S D S h v Z D S V S D V w w S Z V V V V S V v v g W S o.g W o.Q D b v v b D Q +.D h v G F v F +.c #.X.N h.`.d.O.a.n X.O.d.d.,.X.X.m X.! ,.N g W #.y.! #.#.m W F m +.q X.X.N X.y.#.U O.O.O.a.O.d. .>.>.@.5.>.5.4.4.).J.*.*.qX<.J.1.P.).5.G.).J.<.5.#XP.1.P.$X:.d.,.,.X.c a. .3.d.].3.P ,.d.<.1.J.L.5.G.j L lX<.<.>.*XJ.&.N.5.5.J.G.5.@.} 3./.J.{.`.f.#.+.q.Q v h S h v +.+.b F X.F X.u.u.b v 0.h Q o.Q G w w 8.C Z V w w V V 8 w V Z V w w v v q v v S F W o.o.X.o.X.X.#.O.! ,.d.K.G.,.:.O.O.,.d.#.X.O.,.#.! N P i.,.d.#.#.U ,.d.O.P O.,.O.U O.d.O.:.:.O.,.3.K.5. .5.P.5.&XJ.@.,.@.].O.a.9 B +.W N b F X.X.E N W o.W N m ! #.+.o.m N +.W N X.O.N c d.,.U ,.:.O.! m ! ! O.! v +.y.m +.h y.F 9 s.y.X.N m v c q q F N F G o.o.Z V t t 8 8 8 t u t t 8 5 5 8 w 8 6 t 5 5 8 w t a 5 z w 7 h Z S w q o.m o.o.b g v j.o.o.m o.S Q h h v o.G q q Z V = w w a A C 8 6 t t 8 w t t 6 5 6 5 k.0.G h G G V v w 5 C h 5 w 5 w w 5 V h A w w ",
"v 9 v 5 S F S q ` q V V G 9 v G Z V V C V S C w 5 h V S A h 7 w w V Z G Z V w w w v v q q V V h V A A V w w w w p 5 w w 5 w w 5 w w t t 8 8 8 w 7 w w V v v Q w v q q v Q o.v 5 Z o.o.Z v v v v v h q.W o.u.S u.#.u.O.f.! P O.P f.f.o.0.S D V G o.o.b o.X.X.d.#.N m W b b W S Q Q y.t.P P O.U g d.a.g.O.,.O.O.n P.@.3.].J.@.,.J.d.$XK.,.d.,.:.P.).1.d.1.O. .O.:.N #.#.y.X.h.d.h.,.,.,.O.U @.,.@.].`.O.U U P.K.:.$XO.,.,.O.U n K.h.h.,.,.d.:.T ,.K.:.,.O.! +.F v v b W W b b X.y.#.E ,.O.! ,.X.P S k h h m E W W m b m W W S E Q v v v v V V v v G F F F F G X.o.W F F o.+.X.W E m ! #.#.#.#.#.O.X.#.,.#.#.y.,.! O.O.+.O.! W W ! U O.O.! X.#.+.X.y.X.o.N W $.F F X.X.X.X.o.F N F G b D v S o.D D G D F F F v v g F v 9 q G G G u.D o.Q Z v V V v v h v v w q h V V v v v V V V v o.q q g +.m b q h D y.u.o.v b o.q.W F D D F S F T.X.a.y.X.y.#.O.O.d.N O.O.O.#.K.h.y.m m g +.y.h.W y.a.a.a.#.X.W q.c X.m X.W X.a.d.X.n ,.,.n O.P.<X5.>. .L } 5./.B./.5.<. X4.L.(.L.P.J.5.).*X).5.).P.&.L G.G.:.d.O.O.U `.`.].3.>.P.U  .d.,.3.#X=XT T ;.,X=XJ.%X1.G.L.5. . .J.#XN.).).J.;.L >.J.3./.d.+.W N v v S h D g 9 X.f.X.g a.m N o.F F D q g h h v V w q Z C V p 8 7 w w 7 7 w V p v V V V G G Q Q o.o.W F N o.N g X.f.i.P O.,.1.i.d.O.M U ! ,.K.K.#.P O.d.c P N #.X.#.O.f.O.@.U U O.O.O.O.:.P :.d.d.d.,.,.>.N.<.G.G./.@.P d.M :.N a.W X.X.F b N W W N N W N E W m N ! #.#.g F W +.a.+.X.,.,.N :.O.O.h.d.,.i.O.O.E O.X.m y.y.W o.g W g v u.+.X.F F N v g c v v b S F F V p 8 8 8 8 8 t t t t 8 6 8 t y t w 8 5 8 t t V C w A w h V h S G V 9 b o.h v 0.D q v o.Q D 5 h q h S w w v V w w V t w 8 6 6 8 8 8 C t 6 6 6 6 8 V 0 8.V S h V h h V V w h 7 5 v 5 w v w V q h 5 5 ",
"g Q o.b F F 9.F 9.5 i q ` S i ` C v V V V C V 5 7 w w w V w h G V V V V v w w w h C C w 5 w V V w V V w w a V a w 5 6 V w w 8 w 8 8 8 8 8 w 8 w 5 w w V w w Z w 5 h S S S S v q V o.Z v G S h v F b +.F o.q.m o.c N N i.X.#.i.i.m W m S q S w h S D W q.o.P X.c #.X.o.b S +.W S o.+.+.W X.O.O.N O.#.a.X.,.,.d.@.,.>.>.>.,.J.5.M O.P.d.O.:.:.>.P.,.d.d.d.,.d.].].U y.#.X.c U U U h.,.,.,.,.d.).K.O.].:.d.K.G.d.O.K.P.Y.P.].].d.O.K.`.:.@.).1.P 1.K.O.O.N N +.N g N F F b W +.+.E #.N O.P N O.P n W S h h h m F W N m m b S S S S h h h h h v v V F F F G G X.o.o.W F F W X.X.W W N X.O.O.O.O.O.X.! #.:.#.O.#.O.P #.#.#.#.#.O.+.#.X.O.O.O.O.#.#.#.m m +.+.o.+.F o.W X.+.o.F F W b Q S W v S 0.Q o.G G F S v v F G G S q v G D S o.Z S V v V S S v V S V h w h V S v v v V V S V v D F o.Q W g b o.v b Q o.b 9 g o.o.S Q o.v v Q F T.W +.y.X.X.U N N a.U a.d.#.U a.c m c o.N N n W X.,.O.#.! N i.X.h.c X.y.y.X.#.K.N ,.O.O.O.n U @.,. .@./.K.,.,.>.5.).<.I B.>.<.J.1.N.T T L.J.&.>.(.L.1.P.zXP.T O.d.,.9 U O.:.K.d.K.>.d.).,.3.P.G.).).L.).J.;.1.%X9XgXJ.#XP.&. XhX>.J.P.>.Y 5.J.>.@.I W +.W g q S h 0.+.m N X.N c m q X.+.q b y.S S 9 9 v v v v w A V a a a p 8 p 7 w w w v V Z Z F F F G o.o.o.F F F W X.O.O.O.O.,.:.O.:.,.O.U :.,.,.i.,.O.! #.d.i.#.U ,.X.X.N O.O.d.d.:.:.,.d.d.P g O.O.O.O.U :.>.XX .6.).J.3.3.K.@.K.I +.X.+.N X.F W +.X.b N +.W E W ! E E O.y.q #.o.X.s.+.B #.#.U O.O.O.d.d.a.i.O.X.P X.X.N y.t.o.Q m v 9 Q o.W G W W F v v v v v v v V V p 8 8 8 8 8 8 t r 8 8 8 8 w y x t w V t V C t a C w S w V S q v Q S S b W b F o.v q h D S S S s.w.Q Q w 5 z a 5 6 V 8 8 6 = & t t 5 8 6 6 w w 6 6 w w A 5 V h h q w v Z h w w V 8.v 5 w w V 5 w q v ",
"q W v v v m 0.S F i r.q b o.S G v w V V w v V 5 w w 7 5 w w V 8.V v w w q q w v w C C h w z C C 8 w w 8 w t V V V 5 w C C 8 w C 8 8 8 8 8 8 w a V w w w 5 q V w w G Q V q w V V w D h w 8.Q h S 0.D D g b W k W m m N #.P +.d.U.m E m S g D V S S F o.q.#.+.O.g y.o.o.v S q.W k E o.+.#.! U O.:.N #.a.n X.O.K.d.>.,.].sXK.T ;.).P.1.d.d.:.K.$X3.O.).K.d.>.3.].U O.o.#.a.#.W X.,.d.U U d.d.d.d.d.,.].d.H.H.U O.$X,.1.U U ,.K.K.U 3.3. .:.P.d.! i.1.T ,.#.W ! N F X.F v b +.u.+.m ,.X.#.#.#.,.#.W W W S S b m m m X.N v v m S S S V V h h h v V S v v F F F F F F F b b m F X.o.+.X.+.O.P U O.#.O.O.#.#.O.X.#.#.O.N P P P P U ! O.U O.O.#.,.,.#.O.#.N X.X.$.#.W +.X.X.#.o.m F o.v D F o.W Q 0.D Z G F F v v v G o.F S S G o.F q w S V h h V Z S h S G G V v S Z V v V V Z Z Z S S S h g v F b b b u.D v b S v S o.F v o.q.v S 9.o.W c N X.F X.+.#.+.K.U d.`.d.n M X.F m X.m m n O.+.y.! ,.W m Y.,.+.5 m q.W g N U N K.,.O.,.#.#.,.,.P n 5./.5.d.>.P.,X,X6.>.L.*XG.#XL.G.%X,XN.4.,X).*.5.P.1.T ;.! :.].d.#.X.,.K.>.O.K.J.d.].K.G.#X#XJ.N.>.P.hXP.<.>.5.2.#X XI >.,XL 5.).5.;.G.J. .O.U O.,.+.b h S q S +.q.o.N W y.W X.j.s.F b W v o.q q F v v V q w 5 > 7 8 5 5 8 w p w w w V V v v v v v F F W W F b X.y.#.P O.i.d.#.U :.d.O.O.d.f.,.O.#.i.,.O.U #.U N a.#.,.! O.:.:.,.,.O.:.d.,.O.O.P.P.:.O.:.K.#X*XM J.).5./.).g.K.&XU N #.a.B $.X.X.#.+.N N +.#.O.! O.! P ! y.N y.+.W $.X.N ,.m W ,.:.O.O.O.,.#.! X.E +.#.m +.o.+.E o.v 9 u.v S F W W S h h v Z C V v p p w 8 8 8 8 8 8 8 8 8 6 6 8 w u u w 0 t t V C 8 w V h w V Z S S S v v +.b W b v h v q.S D v h S 8.S 5 V C z 5 5 w w 6 5 8 8 8 8 t 8 > 5 5 6 t t 8 5 5 z G 5 v h V w q w V w h w V 8.C w V w C q V w V ",
"F N 3 v F b G c q ` aX_ v ` Z o.w p Z C w w V w w p V V C w w V q i V Z V p w 5 w 8 8 8 t t t w A A V 8 8 8 8 w a 8 5 8 a 8 8 A 8 t 8 t 8 t t a A 8 w w w w V h G G V w h S V w w S w w 8.o.h Z Q F v q b W b W f.u.,.i.N ! W y.o.t.W Q h D V S S h v m m #.#.W o.W W g S u.Q S W o.+.O.W P X.#.:.d.d.n O.O.:.O.:.O.@.J.K.>. .3.).,.3.d.>.G.P.O.,.K.d.G.d.,.d.n U N +.d.K.y.#.,.,.O.O.,.d.d.3. .,.,.,.P U n n &X1.T L i.d.O.d.].O.U @.3.d.d.1.1.i.! d.d.O.U N #.F F W o.+.X.! O.X.W O.,.#.#.#.W m m S b F N b m N m c v m F D D S S V v v v V S v v V F F F b v F F F F W o.+.+.+.+.O.U ! O.#.O.#.,.,.,.,.,.i.i.X.! ! ! ! O.O.O.U I N U O.O.X.W jXa.W m X.y.F X.o._ $.X.v F o.N v v Q D D o.V v o.G Z v w w v Z V v v V v v Z G o.Z V V Z Z v w w Z Z V V Z Z v v V V Z D S S S m v v S b S S W +.v v D o.F v v F v o.q.v F q.o.q m N N m X.d.d.N a.c P ,.`.d.a.a.+.m F m W N #.n X.P d.#.N f.P $.N o.f.X.W #.X.+.#.n U d.O.#.{.J.O.M >.,.>.3.3.5././.>. .L.P.>.L.&.1. XB.&.<.L.L.<.G.N.R R 1.:.O.d.&Xd.,.d.:.O.1.>. .3.K. .T =XJ.| *.n L %X(.&.&.N.).B. X X . .&.J.%XJ.>.B.G.;.K.a.O.W N F F W W S o.u.q.X.W N X.+.N F q.F 9 g W q v G v i V w ` Z V A G Z Z ` p v p w v V v w G F F b v g v W b N X.X.+.h.K.O.O.U U ,.K.:.P O.O.i.K.`.K.,.! ! O.n g #.! #.O.O.,.U O.d.,.,.d.d.P P d.J.O.U P O.MX%XM *XJ.T J.5.3.>.d.N @.f.a.m q.X.W o.X.m m W y.o.W ! E P ! u.X.W +.+.X.o.y.a.U #.3.3.#.U O.:.,.#.#.! +.#.N +.+.0.m +.v g l.h S S F S h 7 q v o.G C V V w 8 8 8 8 8 8 8 6 6 6 6 8 w w w w 0 0 5 5 w t w w V V q 0.Q V 0.Q q F v c F q q F D q.q h S S h 7 7 7 3 z V 5 5 V C 6 5 6 8 a u 6 5 8 C t 8 8 8 w t C w 8.h v w V h 7 S v w S h 9 h w Z G h S q h 7 q ",
"F o.N +.b v m G b b j.F ` F p b w w C V w w V w w p w w V 8 w Z p v V v w w w w w w 6 w t V w 5 A A C 8 w 8 8 6 t t 8 w a w w A t t t t a t t 8 C 6 V C V A V V V V V V v h h h w v 7 w D S w v S S h g F F h h #.o.,.i.N ! N O.o.~ m D h S v G Z h S v m O.U n +.W W v S o.S h o.W W ! #.i.,.:.:.,.O.n K.h.3.O.P ].<XG.@.>.J.%XO.d.:.O.3.:.O.d.K.:.O.].].G.P.].O.X.X.c X.O.@.N O.d.d.@.O.].].@.i.G.&X1.].&Xd.P.d.:.d.].$XK.d.P.,.@.3.d.1.d.H.;.K.O.,.,.O.X.W #.o.F F +.#.o.W W P W ! ,.O.N ! m Q F b b N N N m W W N m v S S S S S V V v v v v F F F F F F b b b G o.o.+.+.W N X.+.O.O.+.#.#.! ! O.,.i.i.,.,.,.a.,.,.#.#.#.#.O.:.O.P U U X.X.X.K.y.y.o.W W B N o.X.X._ F G o.F v v D v V Q Z G Z Z V v v v v V v w V V q h G G A V v V V V V V w v V V Z A Z V v V V V S S V S v +.y.q.v b W s.m v S F v q q q v v o.o.v v o.F q X.F N m N ,.+.a.[.,.O.M O.} c m N m o.X.$.m B N W N #.O.N :.P m N m X.q m O.U N +.N O.d.:.O.#.O.U K./.3.,.@.,./.).>.>.#X=X<.).P.<.G.L.5.).XX<.>. X XP.=X#X;.T ,.n #.U #.:.@.K.].,.).gX).3.J.G.G.B.ZXZX XL.N.4.).L.9X X X%X>.<.L.P.#X).6.6.J.5.g.,.U P X.+.o.Q W o.u.$.N F N q m +.m c u.+.m u.b h b o.Z v Z G A V 8 8 8 w w p w v V p v V V v G F F F v q v o.X.N X.#.X.#.d.O.O.! U O.d.O.X.:.#.i.K.K.d.,.,.d.K.#.P #.g P ! N d.U O.K.d.d.K.K.].:.3.,.O.,.:.5.gX).| hXJ.Y d. .>.U O.} #.X.n #.$.X.W W F N m P X.W E P m P o.y.X.v X.y.X.W +.X.,.d.O.@.,.X.O.O.d.y.+.N P ! m +.f.y.g o.g v l.F D S S v w 5 7 h G A A C V w w w 8 8 8 8 6 6 6 8 u t t z z h h w w 0 t a 0 0 w w h 0.S q o.Q h D F 9 v W o.F q b h h S S Q V S S 5 w w w w w 8 6 w 6 8 y t & , y t t w t t w w t 5 8.V h 7 v h 9 S h w G S 7 v w V S h S w V 7 q ",
"v W +.q.v G v G o.q i i ` p 7 7 V w w w w V C w w w 5 5 7 7 w ` V v w 5 5 7 v C V w 6 w y y w 5 a w 8 8 8 8 8 8 8 C a 8 C a 8 A t r r t a a t 8 C 5 A A V C v S w v G Q S 7 q S w w w h v h h V S D v v W F v g g g ! ,.n O.P ,.~ E h Q S S S q.Q G s.q.X.,.U n +.F o.F F W h h W W E P #.d.h.d.X.O.U N ].K.d.K.,.>. .>.5.@. .G.O.G.d.3.K.,.1.<X].:.,.K.d.,.:.d.,.o.X.g X.,.K.,.N O.:. . .d.K.>.,.1.H.T d.K.K.:.1.,.d.L L d.:.:.d./.J.,.d.K.G.,.H.,.d.O.P #.@.X.q.o.F W #.y.X.c +.#.#.d.#.P ,.#.q.o.S b F W N m X.X.X.m v v v v V V S S V V V V F F F F N N F F b W o.o.X.o.W E X.O.O.O.#.,.#.O.P O.#.,.#.O.#.,.,.#.O.X.X.O.X.X.d.a.3.,.#.X.X.O.c U a.$.N N m X.X.X.F _ o.o.F F F b G v v G Z Q h h v V V Z F V w q V Z w v Z h w w w V V v V G V V V G G Z Z Z V V C V V V V S o.D q S b 0.F v Q o.o.F v v F G v v F v v S F N v o.N W X.m X.N m X.U ,.U a.d.X.N X.m N m q.+.X.a.i.X.X.#.O.:.i.F q.N +.m W #.#.N a.d.d.K.P.K.U O.P ].d.>.K.@.J.G.>. .>.5.J.Y G.G.L.B.<.B.,X*X<.N. XG.1.P.L.;.;.:.n O.a.].,.:.3.n n 3.J.,.d.K. .*XN.4.J.L.B.<.L.N.| *.N.<.>.J.9X XG.L.XXJ.6.g./.3.} P #.a.y.+.0.g S q.o.c N #.X.y.`.j.+.q.q.o.s.v F G o.8.F Z 9.` G C p p V V a w V Z V V V V v v v v F b v b o.$.m +.h.! g O.i.i.,.O.T O.O.#.d.d.#.O.#.,.a.d.d.i.O.O.i.n ,.d.#.,.P O.3.O.:.d.O.K.O.O.P n U O.5.N.XX<.*XG.>.d.,.O.3.,.U O.N 9 a.F X.X.F b N W W m E E P m ! o.+.X.N N #.y.F n U #.h.O.#.a.U ! O.,.,.,.N N W N y.j.u.v o.g b q.o.S S V V h q w z V V V z t w w 8 w 8 8 8 6 5 w 8 z z z z z z z z C t C C w w w 7 S V v h S o.Q g +.g N q.q.v 3 m o.D S q S h h 3 z w t t w 5 > 5 t t 8 8 6 6 6 t 6 6 8 V V w 5 5 5 D 5 h w w q 7 h h h G S h G V w V h G h S h V ",
"u.+.+.q.s.fX9.v v b S i i & i S G V t V C G [ V 5 w w w t 5 5 w 7 w w p p a V C V w 6 6 w w w w t t 8 8 w 8 8 6 5 A V w C a w C t t t t a a w 8 A w G V 5 w w G o.v h G Q V h v v w V A V V G o.S W h m o.o.o.+.E m #.,.n O.N +.W m 9 W h q 9 G v v q.N g X.U X.N c W W Q o.S o.m o.O.P N O.,.,.,.d.3.X.h.O.O.P.n d.d. .,.3.;.O.J. .,.K.@.O.d.K.K.3.].d.>.d.>.O.,.W #.,.Y.O.>.O.d.:.3.K.d.>.,.1.d.G.H.K.].1.$X1.:.1.jX].,.1.T P.J.,XJ. .K.].i.1.! i.].O.n ,.,.O.X.u.a.X.F X.X.n W X.W #.P g #.#.W b v F o.$.X.N m F W b v S F Z V S S S Z Z Z Z v v v v v N F F G W W b N X.+.+.#.+.! N ! +.#.#.#.O.+.O.X.! #.i.i.,.#.#.,.y.a.a.a.g.].].d.X.U X.#.U N g N y.o.W F G b o.s.o.v F b v G v h S h v v b V Z Z Z b w v q w v q V Q V V V Z Z V w v G o.Z V D D v v S S Z Z Z S S S D W o.b Q m +.W o.F o.o.b v F S v v G S v G o.o.o.F o.m #.a.W X.W [.y.N #.n O.,.c c F c c q o.X.N #.O.X.P #.X.j P N a.N y.X.F W O.U m n O.:.#.K.h.d.n ].,.,.&X .@.J.@.P./.j 1.5.1.1.P.5.;.).%XL.B. X5.J.L.;.;.G.:.:.,.,.d.P.} 3.U ].).3.3./.5.1.=X).%XJ.J.=XB.&.J.CX*X<.N.N.L.kX*X X4.J.,XXX>.>.5.].>.U :.i.O.X.f.T.o.W +.N c m c N X.F c N u.0.q b o.Q o.q.G V 8.Z A V 7 7 a C v w V G Z V v v v v v v W o.F F o.X.m X.#.W y.K.:.O.,.:.:.,.,.:.,.O.O.O.d.K.d.,.#.! O.i.K.U d.f.O.d.O.d.d.O.:.d.U  .U J.K.O.U P :. .,XJ.G.1.>.,.d.>.].:.q #.h.N X.g F W m g m E W b W o.E E X.o.W X.o.m o.U.+.n a.W K.d.K.d.N U #.O.#.i.O.O.#.O.f.u.y.F q.v b W Q S S V V V h w V 0 w w 8 w w w 8 8 8 8 8 5 5 w w w h z z z z C S z w V S V V G V G 5 S o.b q.u.5 v W q.b q b S Q v Q q.9 9 5 D z 6 w t w 6 0 t 8 t a t 8 t s t * a t w w w 6 w w 5 w = V z w 5 w w V h h w w S 5 h A A 8.w V w C ",
"F q F o.v g v 9 q q v h q q v Z k.[ a 8 t 8 8 5 8 8 w 8 t a t w > 8 a 8 5 8 w w 8 5 8 8 w w w 8 5 V w p V w C w V w V w 7 w 5 C w w 8.Q 0.h G 8.Q w w w 8.D G v S G Z v b Z G F G V w p V p w w V o.o.v v o.o.S g f.d.! O.#.:.Y.v S S v v W o.F v o.m W #.m m X.W v v G F $.v F #.q.m W #.+.#.O.,.! P a.! O.O.d.O. . .J.:.d.,.,.T ,.5.1.1.J.K.G. .P.K.>.).@.>.1.i.#.U d.K.d.,.>.U K.%X5.B. .9XI ).].].>.U J.].@.,.3.].$XM  .3.1.*X>.<.L $X,.O.O.U P f.O.P 3.@.K.N o.X.m N #.#.F N a.$.N O.N N j.F v F W o.q.F F W G Z v w w v D S v h h S D D S v D S g v +.o.v b W X.N m N X.+.+.W F X.+.X.W W O.@.,.:.a.,.X.#.#.#.#.+.X.#.#.N X.X.O.O.X.W N m P W X.X.#.a.a.y.G G G F b v v F F G G G F v v v Z Z 5 V V q Z V q V V v V V v V h S Z v G h Q h V v S S v V G m S q.s.v W s.S W v E u.S o.0.+.F q.D Q o.F o.q.W W S F h v Q D W +.F m #.u.g c `.#.a.+.W ,.U.a.m m v W +.F B B B X.3.B N X.X.+.m o.F F o.N N f.a.U +.N h.a.U ,.U c K.U I K.,.>.5.>.,.5.G.G.;. .J.G.1.G.L.L.L.1.L.*X2.-XG.N.1.G.;.T 1.#XP.i.1.>.>.=X X;.).>X .9X X,X .>./.%X .1.%X#XlX*.2.*. XqXB.N.&. X<.<.J.n 5.>. . . .:.].U P +.m m o.#.W E X.o.N o.E #.f.! v F G q.q.Q W o.o.o.v 5 w V p w v v v v v S S v h v m F Q Q F S F #.W c c ! ,.,.O.L O.,.O.T O.@. .>.3.d.,.:.,.d.d.:.n O.d.,.#.#.#.O.`.K.O.O.3.>.P 5.=XsXL d.d.O.K.I 1.).>.:.K.,.,.J.O.P U ! N P +.v W q g W b v F v b o.g E W 3 q.X.b P P O.X.N #.P n O.d.:.P P U O.,.:.Y.g ! P ! ,.+.W m c n m F S S z h w h V A w w C Z a 6 5 6 8 6 , 6 8 a a t 8 w w w w w w w w S h S S h D S h h 5 G G 9.v h 9 o.o.h w v h 5 G v q 5 8 w w w t 6 5 8 8 6 8 8 t 5 = & t C C 8 C 6 w 6 A V V w 5 e.8 5 V w 8 5 w 5 w G G w q V z A A A 5 V a 8 ",
"Q v q 9 v v S G Q o.o.G S v S S C w 6 6 8 8 w 8 w 8 8 w t t 8 w 6 8 8 6 8 a a t a 8 w w w 7 7 w 5 w 5 w w w V w V w V w 7 w 5 V o.D D h Q D Q h D D 0.Q o.v D W v v q q S o.G V V V a a p 8 w V q F W v h F o.W 9 +.+.! #.! g m o.v q v F v b W a.f.! +.i.! m m v F o.o.c b g o.m N m #.a.O.X.c O.d.,.,.O.d.i.d.d.U P K.1.5.1.1.P.,. .,.G.G.1.>.).J.;.>.$X .U @.K.d.K.d.,.d.1.).1.G.%X2.G.2.*XL.5.@.,.d.>.>.,.@.d.].d.].>. .G.zX XY N.Y O.P d.,.Y.X.i.:.O.:.I K.f.#.X.N F X.o.o.a.y.m g q.y.W X.F F +.W S F v D S Z S V w w v V S S S S S S S S b D S g g F G v N W X.o.X.W W X.y.+.X.o.+.+.+.+.,.:.,.,.,.:.X.O.h.,.#.#.X.X.$.o.O.O.O.X.X.X.O.#.a.a.,.+.O.X.X.N W G G F F b b F v F F F F v v v V Z w C V q V v V G V v V V w w v D D V o.v o.v D v v v q b o.X.q.E o.+.g E f.W T.+.0.m W E m g h q D q.o.o.Q g S v D v h S m Q o.W b X.a.o.m X.h.+.X.+.#.W m W W v b X.X.#./.1XM 3.#.@.+.X.X.X.X.W F X.m m o.m W a.W #.O.n d.h.a.@.3.,.@.3.3. .M K.5.5.5.G./.<.2.1.L.N.1.L.L.-X1.1.P.L Y G. X;.#XP.P.N.;.1.G.#XP.N.J.L.*XJ. X5.5.).K.T G.G.J.L.9X). .5.L.hX*X*.*.<.I B.XXJ.).&.5.>.,.5.d.$X,.:.X.F b N W +.u.h.m q W +.,.#.n E o.W o.+.W W W b Q V h V V w w v v v b S S F F F b v v D o.Q F b N W X.+.,.,.O.! U :.,.O.O.:.>.@.G.J.J.d.3.3.:.O.O.O.:.:.:.3.,.O.,.a.,.O.@.>.G.$X=X%X&XT O.,.H.K.]. .d.1.U ).K.n ,.O.U U N n N X.v o.W u.z.+.D S D F o.h Q q.b T.+.W W m X.f.O.n #.P O.d.,.O.O.O.d.d.:.K.n :.#.i.,.O.P m m m m W S S V h w h V S C V a V a p a C 6 , , 6 8 6 5 > 8 8 w w w w w w v E v S S h Q D D S 9 v v o.D G S S S S G o.0.w.w 5 6 V a 8 8 a t 8 8 y y t 8 t = 8 C y 8 6 t t V w z w A w t w 6 e.a 6 C 8 8 5 w w V Z V q w V 8.5 5 e.w 5 5 C ",
"0.q.V w Q V 5 v Q o.o.G V w w w w 8 8 t w 6 6 w 8 6 6 8 w w 8 6 t 8 6 6 8 C a 8 V t w w w w w w w V 7 w w w V w w 5 w w w C V o.o.+.0.b F S W v F S Q v W h h 5 G D v v Z G Z i V p p p p w w p w S G S v b W o.F o.S m +.o.m W W v q v F v c v +.#.N X.#.X.O.X.W G X.o.m W c W y.W N a.y.+.a.X.i.].d.:.O.,.O.:.K. .,.=XP.#X%X).%X,. .5.).J.G.K.1.3.;.1.). .>.K.d.:.$Xd.3.K.U ;.N.1.P. .J.2.N.-X,XK.K.].J.3.J.).>.sX3.>.3.3.,.G.G.>.-XG.P.,.d.,.f.N O.O.d.K.1.].a.N c N o.X.+.s.+.#.N c X.X.N o.F b W b v S m W v V S S v w p v S D Q Q Q S S S D W D v v b W W F b N X.X.F N W #.o.X.X.X.X.o.#.X.I X.#.,.d.h.a.O.N W q.#.+.a.j.X.X.X.X.X.X.#.y.y.a.y.O.N N N m W G G F F b F F v v v v v v v N v V v Z Z v Z Z V Z V w V Z V V h v v h Z w G v X.F F v v _ q.$.+.y.m o.+.h +.y.o.h o.m W m W j.W S W o.F F D v b h D S h g g o.S o.W b o.y.Q b +.N F q.+.c c +.o.b b W B c N } N @.a.O.+.X.W +.F F m F N X.a.W c U.K.d.,.N h.&XK.I J.3.O.).J.>.>.lX).J.).).qX5.;.N.#XL.G. XG.1.2.P.*X;.N.-XP.1.#XG.P.P.P.P.;.1.).>. X2.B.9XXX XJ.jX=X .#X%X#X%X*X&.&.J.L.9XL.<.L.mX(.(.<.&.,XI  . .3.].d.].,.U m F W o.y.s.+.m +.N W O.O.W P #.E v v F F W W v v h v S V w v G D D W W F D Q o.F h q S o.o.F v N +.,.+.X.X.O.#.O.:.:.O.O.,.,.>.:.>.>.5.d.J.,.U } d.d.O.:.g.d.O.+.+.#.d.d.} >.gX).>.1.>.U O.`.O.&X>.5.1.U d.K.O.,.O.! P ! O.O.X.m W v W +.S S S u.0.0.m Q o.g q.q.m W N W f.#.g O.N O.,.>.O.:.,.:.:.U ,.n #.O.#.i.O.N W X.N m Q S S V h w h h V p w 5 7 8 7 7 8 > , 8 a A A A A 8 8 w w w w V V h S h S v h D b h W o.9.v F F 9.G 3 3 h 7 5 w w > G 8.6 & V a $ 5 > > 6 6 5 & & 8 y C a t t t t z 0 z 6 t 5 0 0 6 H t 6 t 8 6 5 w V C V w 5 w S w.Z S 8.5 7 w 5 ",
"7 w 5 7 C p 7 p V V V v w 7 5 5 a t t t t 6 5 6 6 6 6 6 8 8 6 6 t 8 6 6 8 8 8 5 8 w w p p w w w V C w w w w V 5 8.C A p w w 5 w Z Q o.W D F D F b v D v o.W Q v G o.o.G v w v F G V 8 8 V C p 5 V V Z D V v S D o.F q f F N m o.9 v F v b o.W g c W N P N n #.a.o.X.X.o.b o.m X.s.N c #.X.W d.#.,.K.O.O.O.:.O.).3.>.P.%X1.5.G. .G.d.d.J.J.K.).%XL 5.1.,.1.@.d.P.d.:.P.P T d.5.P. .1.5.&.=X).L.9X;.>.@.U Y ,.J.J.).&X,.n @.K.>.,.&.4.5.>.jXd.9 P i.#.,.O.i.].1.O.h.o.N X.o.N m F c X.o.F b c N y.o.b b v F +.F F v S Z S V V V V V S G Q Q D S S D S b S N N W o.+.b c F W N N o.W F F W W W X.#.:.@.O.,.#.,.a.X.O.X.$.y.o.F F F N W W X.o.O.X.X.W O.o.P m n m N G G G F S v S F v v v v v v v N w V V C V v V C v A Z v C Z Z G V S S v G v o.F N b G G F o.$.X.N y.F o.s.m h o.W m u.o.+.m W s.u.+.W S v S Q Q F h F F v g g o.g o.0.m v o.0.0.q F +.X.W W W N b c F #.X.N X.} #.N X.c +.y.F X.j.s.X.N N X.q.N W d.X.P P.d.d.,.>.>.,. .d.`.3.5.J.%XG.G.G.>.J.N.L.G.P.P.#X*X1.Y 2.N.G.2.L.G.&.G.#XR R Y 2.L.N.-XN.2.mX*XXXhX<.&.<. . .>.%XG.J.,X<.&.N.L.*.<.L. XB.).kXL.n  .G.5.).5.J.].:.K.P.f.X.+.o.W F W W E W W m f k o.o.E E v v F F Q o.S w w v V V v V G D W Q W b b F W S h g b o.o.W b N +.#.X.N N O.#.X.O.O.O.O.,.d.1.d.5.5.1.3.,.U g n J.d.O.,.,.,.#.,.+.,./.K.P T ]./.>.@.G.,.1.&XO.d.G.;.I ,.,.:.H.,.O.N N ,.f.i.W +.+.v v b v o.0.W b F b o.0.b +.u.q W y.! X.O.X.,.! O.O.O.U O.,.i.i.O.i.O.d.#.#.h.#.X.y.i.W m W S S v w w w w h w w p C C p 7 5 > > 6 6 8 8 6 5 w 8 a V V V V S 9 m v D S h S v g D o.9.` G F G q.w S 0.S h C 0 8.V t A t = = t a t t y y t t w C V t 8 8 t a t z 0 t 5 t 5 w w 8 A a 6 8 8 5 5 5 v V w 5 q v V w v Z o.5 8.s.D ",
"C 7 w p 5 8 A A w w w 8 w 8 8 8 w 6 5 6 w 8 6 6 6 5 5 6 6 8 6 5 6 6 8 8 8 6 6 8 w w w V V w w w w C q w w 7 w 5 5 & 7 w V G G 8.o.g 5 b o.o.b b 9 v +.F W b q.u.v F G F w w V G Z Z V a a a p 8 C p h V V w w v G F S Q o.b q g 5 F o.F F o.+.G #.u.+.W c q X.X.v X.$.+.q N m q.$.m W h.y.O.d.U d.).:.,.,.>.U J.>.L >.J.5.*.5.;.;.K.).1.>.J.P.d.>.J.1.1.>.@.;.@.O.3.G.P U n :. . .#X;. .%XN.N.<.;.J.J.>.,.J.J.,.P.j ;.1.G.G.T G.*X X1.>.jXd.f d.i.i.d.O.,.K.1.T f.#.X.W X.W F b N F N N X.X.W X.u.Q Q F o.q.S b S S S S V V V V V v v S S D D D S v h b F F b N #.N m W X.F W +.X.X.X.o.o.X.X.+.O.:.X.#.#.O.a.W W X.#.+.N N N g X.W E E W X.E m m W W m g c m F F F F F v v v v v v v v v v v v V V V h w h w w V o.Q V v h h D v m v h D g W b b b F W F W X.N N q +.y.m W W g u.X.y.W a.i.o.b b F D D Q W W Q +.v S b v v h o.g D o.D h m o.y.v q.u.F v W E q z.q.q.y.X.X.@.#.3.B N q #.y.N N y.a.N m N W #.W X.h.d.N d.@.d.).,.J.@.>.5.3.3. .5.>.G.6.6.5...(. X1.1.N.P.P.N.N.N.N.&. .N.1.T *X-X;.1.T R &.T -XB.2.P.L.4.L.N.).%X .5.].%X1.G.5.&.B.B.(.N.<.9X X*X&.*X X>.J.<.L.1.>.,.). .>.,.U m X.#.+.m g N u.m #.u.y.i.U.U.#.y.o.+.o.W W Q F D V v h w w w v h m F S v h v v b h v S W W D G g X.#.+.X.X.X.P O.O.O.O.O.,.,.1.G.G.d.d.d.3.>.U g d.,.:.#.N } O.d.#.#.a.3.} @.).$XP.I @.,.,.K.,.:.,.j g 3.d.O.,.O.! N P +.y.+.m o.o.S Q W S +.o.F v m b o.+.W +.u.q ! y.X.X.#.#.Y.i.,.,.O.U O.O.:.,.U U P ! n g f.+.+.f.j.o.F W S v w w q w w w 5 5 v Z C 8 w 8 a a a a t t t t 5 w w V v v h h g b b W W b o.W G v i q F o._ i 7 & w Z 7 q V > A 6 5 a a 5 5 a 8 6 > & & 5 5 5 8 y V 8 > 6 t C C w t 0 A w V t t V a 6 8 8 6 6 5 w w 5 5 h v w h h D q.h o.u.u.",
"8.C 8.e.w 8 C 8 8 8 w 8 8 8 6 6 w 5 > 6 w 8 8 6 6 5 5 6 8 8 6 6 > 6 8 a w 8 8 C w w w V V w q q w V q w v w C w G V G S V V w V 0.m 9 F F F b +.W N o.b F g F W o.F v v V Z V V w G [ A w 7 w V V w 8 V C V V v Z Z Q 0.o.F v v v v v F b b W 9.s.q.W W N N #.N m F F F c X.m o.+.o.#.K.f.y.d.O.3.{.J.d.,.3. .>./.Y  .G.%XN.L.%X@.G.G.;.,.).P. .1.5.1.#Xd. .>.K.d.J.K.d.gX).P.n f J.n n L.N.-XG.5.G.5.1.d.1.;.>.3.4 K.].1.3.d.).9X<.N.J.d.U N :.f.,.:.,.d.1.1.d.X.X.N c m o.#.+.W N m N W X.F m o.W +.W W Q b D S S V v v v v v S h h h S S D D W S v S W G b v X.N N X.o.W N F +.o.o.+.+.X.W X.n ,.P X.:.O.a.#.N W X.N v X.$.F q.o.S b S E F m m E W F m m W Q S F F v v v v v v v v v v v v v V h V h v G S S h G G V h h h F v v v v D q F v o.W X.F N W +.X.N m u.W N a.W W o.X.y.n +.d.a.o.v W W W o.W S W 0.b S m b F v Q S h S Q S S S S 0.+.W v v F F m m q v W X.#.f./.X.b +.M a.X.F F g N c N +.o.,.y.N d.&X,.d.N d.$Xg.g.d.).,.,.%X .5.5.,XG.J.%X>.L.N.2.L.P.G.1.2.P.J.-XJ.2.G.-X1. X;.;.kXgXL.2.j G.L I 5.*X).L.N.J.G.>.].G.>.<.J.j N.*XB.(.hX>XCXL.@X(.B.| n >.G.&.G.G.d.<XG.d.1.! c c N o.+.F m m q m E #.! g P E o.W o.o.S S W F D V w w w v v w q v S F S S S F b v b F D F W o.b o.+.W W +.+.W :.,.,.:.O.#.:.,.>.1.3.d.J.K.P.K.P d.:.d.:.g U U U X.} O.,.>.>.J.5.J.L T ,.d.#.:.:.O.U :.O.:.d.:.U X.O.#.X.W P E F S m Q F m o.W +.D m v v b W o.+.c N N N #.#.N K.,.,.,.O.O.:.:.P.].i.! ! O.W ! y.O.o.y.u.o.F D h h w q w w w w w w w w 5 & > 7 5 5 6 6 6 8 8 a 5 w V V V v v v v F v b b m o.o.v F ` b F b F v V V G C 5 w V 8 = V a = & A C # C V t 8 w y V a 8 t a a V C a w z 5 w 6 A w V t 8 6 8 > > 8 > > 5 6 6 5 7 p h q D q.0.o.g W E m ",
"& > t C y 8 6 5 8 8 6 6 8 8 6 6 t w w 8 w 6 6 6 6 6 6 6 w w 8 6 6 6 w t w 8 V G w w w v v w h h w V w v C V G v V w G A Z A V G W X.F q.F F N y.f.W W N $.m b v 9.D v F Q G V w w Z A Z 8 w a V w a a a C A A V w w w w 5 q v V S v v v b F G W X.F m W W +.d.N X.N c m m a.N m O.#.X.X.O.O.3.O.} >.>.G.5.J.G.(.*X).L.N.).*.*.N.5.>.;.1.J.).J.5.;.1.5.=X5.>.J.,X:.j I j P.].$X1.G.jXP.>.5.>.;. .;.>. .3.#X).J.#X#XG.#XG. .5.DXlX*XN.-X=XG.d.,.:.`.K.i.d.,.O.;.>.+.+.X.m c b N N F N W W m b W W m v E b b W b W Z S V V v v v w v v v v v S D Q Q Q W D W W W N N N F W W W N N +.W F W X.X.X.X.a.sX,.O.,.N W X.a.#.o.W m N F v o.Q D b m b S W v D Q F S F Q W F F F F v v v v v v F v v v v v v w S v Z q.G G w S V v S S v F Q Q Q Q q.b +.W $.X.X.W N X.#.+.N f.y.N y.a.W y.X.+.f.m m N X.X.o.q.o.F W F m o.o.b F v b D v b Q w z Q S S G v Q D v v S F D D o.S W #.+.X.X.} X.X.#.} h.m +.X.N +.F +.,.N W ,.#.n O.I ).,.:.P d.d.K.K.5.J.,X).P.).*X5.B.XX<.*.&.1.*X-XL.N.;.G.1.-X).N.G.=X2.;.T Y =X XL. X1.gX-XN.N.L.;.5.&.N. .N.9XP.J.#XhXN.L.9X XL.ZXkXqXL.@XZX>X<. .J.MX,X).P.U >.T O.,.,.#.F q q m X.X.m W +.P W ! m W N m m F W m b D F v v w h V V V v v b F D W Q Q Q S S S D D F W o.W +.o.m m X.+.! O.#.,.,.#.O.>.,.G.G.d.3.d.J.d.,.:.d.O.d.@.n :.N m F U } :.>.>.J.1.G.>.3.d.$X,.,.O.3.,.1.O.O.K.i.X.O.#.i.y.X.! o.W F F +.D S y.o.m h g g q v 0.u.o.m P n m X.P P #.! O.,.:.,.i.,.#.d.O.n P W E X.+.o.W o.W F F D h w 7 7 w w w w 8.G C v w 5 5 8 A A A A a 8 w w p V V V V V V S v N v b m c F F q _ s.` F q S b G 8.Q V 5 5 5 5 8 5 6 t t > & 6 8 8 6 > 5 w t 8 a t 8 t A H V 5 0 5 w 0 V 6 t t 6 & 8 > & 8 > > 8 8 8 6 7 w w w 9 0.W m m a.O.P ",
"a A 8 > y 8 & t t 8 8 8 8 8 8 8 5 6 8 t w 5 6 w 8 6 6 8 w w 8 6 t w 8 8 8 6 p G p w w w v v V G q V w v V v Z w w q Z C v v q V F X.N u.$.a.F b m 9 c m W 9 v o.v v v G G V V V p p 8 w V A C 8 6 t V t 8 V C V A V C v q w V w w D D v W s.q.v W X.+.#.P P #.m W W F F m #.N X.O.d.O.X.#.,.a.>.].>. .).3.;.>.). .,XMXN.(.B.L.L.J. .T J.).5.1./.J.J.>.J.>.J.J.3.K.,.lX1.K.3.,.J.L 1.J.>.>.5.;.G. .1.5.K.<X).;. .;.>.;.#X%X>.zXJ.5.J.G.>.d.J.U ! O.d.i.:.,.J.J.:.P W X.X.X.W W X.+.W X.X.F o.y.q.q.F b v W +.b v D Z S S V V v w v S D S v v S Q F Q W S b W o.W X.X.W N N W X.X.o.F m F X.+.+.#.K.BXd.O.d.P X.y.#.N F +.X.F F b h S Q W S v S D W Q o.D S m v v F F F F v v v v v v F F v v v F Z h D v S 8.h q D Q S v G G v h b b b S o.q b v X.F W F m X.+.X.+.#.#.f.+.N a.m N m +.c N X.X.N F +.Q F o.W v Q S b W v v F g h Q z S Q V S 8.Q h S S v S Q D h +.F o.#.+.X.X.X.3.#.X.M h.B y.X.m X.N X.#.N O.`.d.U J.@.d. .J.K.@././. .5./.>.gX,X>XJ.4.L.(.B.<.<.G.#XL.G.P.G.L.N. XG.5.N.9XG.N.9X1. X2.1.).&.J.L.;.N.B.;. X&.5.G.#XhX XL. .>.5.N.*XrXB.eX@XZ.*X XL.L.L.6.I Y P.,.J.@.).).d.O.N g o.y.X.F +.y.#.N +.N ! f.Y.K.f W F W W S S F v V V V V V V v w F b b S F D W W W S S F D F W Q v X.+.W F X.P g N W #.#.O.O.>.d.3.5.,.3.J./.K.3.>.,.N @.} N d.n h.a.X.N U  .3.%XP.5.5.,.U ].:.:.T ].P n K.d.#.#.#.P N y.h.a.#.X.v h F y.Q S +.S D F F F g q W o.q.W O.+.! c g d.,.O.:.1.,.,.,.O.n :.#.N +.#.+.a.y.+.o.F b b S D h w 7 w w v V w V w 5 7 w w 8 a 5 8 t t 8 8 w w V V V v w v V Z g N N o.X.m N c 9._ F 5 b v F q w V h w w 8 6 V 8 w 8 8 , 5 r a w t t w 8 V V t 6 t V t 6 6 w w w 0 D z A 6 z V t & a 6 > t 8 8 t t 8 w 5 5 q v D F 9 X.d.#.j :.",
", r r 6 6 8 r 6 d t 8 , , 8 8 8 w 8 6 6 8 w w 8 8 8 8 w w w t a 8 a C 8 6 q w w V w q V V v S 0.Z v Z v v Z D 8.q D o.5 v Q 5 v +.q.q.F g G o.b b v 9.W F W v o.v F b v w v w q w w 8 C 7 Z a 8 8 8 t t 8 > 5 8 w a V C Z C V v w F v G F v $.o.X.X.y.+.O.a.#.N +.X.N N X.N N #.m X.&X#.d.$XP K.$X,.G.G.<.B.J.6.Y >XB..XXX| B.XXN.5.J.>.5.G. . .5.5.).#XY J.J.>.Y #XgXJ.>.T P.J.#XK.5.n P ;.). .T 5.N.).J.;.>.N.G.#XN.J.5.N.&. .(.).G.T G.P.P O.! f.K.O.O.d.d.O.N F X.#.+.W F W b W W +.#.m g $.F W W W S b b S v Z D S V Z Z Z S h h S Q S S S F b v b F F F F N +.W m +.+.W +.+.X.X.X.X.W o.#.,.,.O.X.#.#.! +.O.! F F W W F b v D D S S V V Q Q D S Q Q S S S v v v v v F D S v v v v v F F F S S v g v F S h F S S Q 0.q.o.D v +.F F f.q.v X.N o.m +.m X.y.h.a.X.B N #.o.m N h.+.m X.m c X.+.F W b S b g S v h S h D Q h v m V S C h w z V V G Z Z Z S V V S g s.v m f.X.X.,.#.@.#.h.#.X.a.W N N X.#.X.X.#.,.$X>.>.].@.J.].,.K.J.K.>./.J.Y NX X XL.N.5.(. X>.*X&.N.P.;.;.N.=X*XL.;. XP.G.;.P.gXG.>.;. X-X-XL.1.j L G.P.T N.2.P.9XL.&.B.N.<. X XL.Z.|.M.<.@X XL.4.%XL.&.<.>.<.MXT @.3.d.d.P O.m u.o.X.+.F X.y.W +.+.f m #.N o.o.b F m F W h b h S Z S V C C v v W o.D v m F F v S W Q Q W D F F W W o.+.#.+.W f O.y.X.P #.,.O.K.1.>.3.K.$XK.P ,.} ,.K.O.n U #.K.N X.d.O. .G.J.#X,.,. .,.d.! d.O.O.U P.#.d.`.#.O.+.+.X.W X.+.+.b D S S W D S W F b v 0.+.v F +.W F O.#.+.#.,.O.,.O.].:.O.U :.d.P ! #.#.O.W X.+.o.o.W b v F G S v w w w w w V V w w 5 q w V V 8 6 t t t a w 7 C v v h h v S v q m m X.#.X.v v $.` b Z ` S p p w w w w 5 5 6 w t 8 t 8 5 5 8 6 > > a A w 6 t a w w A w w $ t 8 t D D z 0 V 8.H w V a a t 6 8 8 & 6 8 6 & > w v w h q E [.h.i.! O.",
", r r 8 6 8 8 6 6 8 r r 8 r 8 6 t w 6 6 8 8 6 6 a t t t t 8 8 6 5 8 V t w w V C v v v v v v V S Z D v q q v Z V o.S D D q G z.q.S v m g 9 q F F q v o.+.Q F h v v b v v V Z V q V w 7 G 8 C V C C t 8 8 t a w 5 8 w w V V V V V v o.v F +.b N o.s.#.X.X.W #.a.#.q.o.m m X.W n n X.U X.9 n O.n <X3.J.J.>.5.J.G.<X>X*X4.B.*X|.N.<.%X5.).J./.XX>.J.>./.Y Y ).MX5.>. .>.1.1.J.1.].P.J.G.T O.MX&X1.>.#X).#XJ.J. X5.;.5.).N.J.1.N.).,X<.J.P.>.,.d.! ,.O.O.:.,.:.>.1.d.X.o.X.N m b W o.v q.y.o.+.X.F o.+.+.+.+.Q D F F v Z D S V C C V S v v S S S S S F S S F F F F b X.o.N m N N F o.X.F N F F N F X.O.O.U P O.O.! +.+.o.o.W F N b S W Q D S Q D S D 0.Q V v v S D Q v F F v v F F v F G G F v v v v S b b F W W F b D F b v b F Q o.Q h b E m m +.#.q.#.N h.f.q.W N o.N c m o.X.m N X.F X.a.q.N X.m W D v Q D q v b b +.D D Q S F b 5 z Q G z w h S S V V S S S Z o.h W o.F o.#.#.a.} } @.f.#.X.a.#.X.N W O.W N U P  .g O.:.P &X&X$X). .)./.J.,X).).J.).>X,X(.B.(.L.L.=X=X5.N.).1.;.&.L.=X=X1.2.Y ).N.L.=XL.L.L.=X-XT 1.FX=XN.;.1.*X,XP. X9XXXN.(.qXL.9XB.Z.eX8X|. X X<.B. XN. .;.%X>.U K.J.d.).! U #.o.q m X.W X.X.y.u.f.W O.u.! W f.q.q.F m S b +.V Z S V V C C v v S D S b b F W Q W S v g v W 0.o.F v g v F +.y.P #.#.N g N O.O.@.>.J.J.,.d.].$XJ.>.O.#.U N X.#.aX#.X.#.@.d.%X#XT >.O.>.O.O.i.:.T U L ,.U O.#.! O.W W #.$.W m v S W F F o.o.W o.9 F b m v v o.W +.b W #.+.W O.,.i.#.].,.O.U T O.P ! O.X.E m W o.s.F g F o.W F G h w 5 w p V V w w 7 q w w h w w 5 8 8 w V w w C V V V v V Z S v +.X.N B q q v F v q v V w 5 7 7 p a w 8 w 6 6 8 6 8 8 8 8 r 6 * 8 t t 6 5 8 6 & A w & A A C > 6 t 6 5 w t w 6 w A t t 8 8 a C 8 8 8 8 8 8 a w 5 9 h 0.[.+.g 3 9 ",
"6 8 t 8 8 8 8 6 > 8 t t 8 t t 8 8 6 6 6 8 w 8 w 8 8 8 t V a w 6 w V C V w w v V q v V v S Q W b V Q q h v v Q q o.o.Q s.Q v q.q D v S W S v Q 0.h S S D S h S S F v v v Z G V w A w 7 ` V C V A 8 t 8 6 8 C V 8 V p h w v v V V V 9.v F s.G g +.W W c X.X.N +.g W X.N m +.#.X.U O.n ,.K.K.:.U d.5.J.>.Y 5.>.j J.<.&.5.N.|.@X<.&.>.5.5.N.5.J.#XG.M /.5.>.G.>.M J. .J.P.G.%X#X).L 5.5.,.G.jXd.L >.<.J.=X%X>.&.N.N.=XhX).=X).).).J.Z.B.J.1.d.K.i.:.f.a.d.d.,.O.:.d.P X.o.W m m m m X.y.+.m N W X.#.b b F F S b v v v Z D S V V V v h S S S S S D S F D W D F F b b o.N F W b c N X.o.W N F W F N N +.y.+.! ! E m W W ! W F m v v S Q D v v Q Q v v o.D S D W D F S F F F S v F F v v F G G v v v G W S b D W S b m F Q o.o.W F D W S g S o.m m +.+.a.#.c X.O.#.O.N $.+.X.o.#.X.F +.F N N o.X.N o.m o.F v 0.+.h S Q v +.W S D F W S w z D Q S h h D S v v Z D V D 8.Q b j.X.B #.#.#.X.X.X.a.X.B X.X.+.N U O.O.O.O.U :.K.d.>.M J.).,.J.Y 5. .M /. XN.L.N.). X<.| 4. XL.G.2.G.hXL.L -X;.N.G.1.1.P.&.&.=X<.L.%X=XG.G.>.P.G.%X>.G.=XE.L.%X X5.Y *.XX9X*X.X8X@X@XOX|.*X.X4.*XXXB.6.5.J.5.G.J.).@.:.].,.,.+.F c N m c o.+.#.W W P O.f.#.n W F +.E h g q D S S v w h V V w S S S F S S F W h S Q Q D S S S F v v F F b F +.W o.X.N m W ,.d./.5.>.>.,.J.J.:.d.>.N n U U U O.W X.d.g.:.3.J.>.>.J.;.).d.P ].O.3.,.#.i.#.,.W ,.X.m v +.q.X.b b F W W W +.+.Q o.b y.+.F h b 0.o.+.F O.y.+.W O.#.#.O.K.O.U U T U O.#.+.o.E N W o.0.h 9 v S h q w w 7 5 8 V V w 5 q w w h h h h w 8 w 5 w V V w V v V V V S D F m $.$.o.F G o.o.F b b F G a p V C w t t t t w 8 6 6 8 8 6 6 r 6 , A a w w a a 8 6 A A 8 6 & a C A w w z A V w w t 8 5 8 t t a t & 8 6 6 t a 8 w q 5 q v q.v h b q.",
"6 8 8 8 8 8 t t 6 t t 8 6 8 t a 8 8 8 8 w w w w 5 8 t t t t t 8 w V V p w w v v h V S S D Q W D w Q q o.8.v 8.v Z 8.9 q o.V v G V w v W S S S v h Q h S v q Q S F v q q v V V v Z p 8 A 8 C V Z 8 C A 8 8 t V w C V V v v v V V v G v o.s.W b q.F q.W d.f.+.a.q g W W N O.,.,.y.d.g :.sXd.@.K.>.J.>.Y >.,XG.I ).L.L.,XXXB.N.*.| 5.,X5.).6.L %X .G. .5.,XJ.5.).%XN.P.N.Y >.G.=XG.1.@.K.d.P M O.3.,XP.>. X1.T gXhX5.%XG. XG.P.).;. X(. XP.J.P.f.,.,.d.H.d.:.,.G.P.! F F X.W m c c a.X.m N F m b +.W W o.o.Q W F S v S S V v V V V h S G S S Q Q D F D W D F b F F F c X.s.o.N W W X.F N F X.X.W N #.i.,.! ! P m E N N b b v v b S S S h h Q Q S S Q S S Q o.Q S v F F F S v b v v v v F F v v S G W W S m b W W F W +.u.u.+.W W W h y.o.S u.+.m #.q X.! X.W X.X.g F X.W W X.N m W o.X.m N c m o.b F F v o.o.m W o.g Q b b D b W Q 0.C w V G S C G G v V Q G v v Q Q o.j.o.B @.#.#.#.@.X.a.+.B N F O.U O.,.,.3.,.O.3.lXK.d.3.d.<X3.Y 5.#X5.5./.N.J.%XB.L.L.M.4.B.XXL.-XL.;.P.P.&.L.P.9X#XN.1.G.-X,X5.L N.*X=X5.L.G.Y ).G.N.&.L *X9XL.%X<.5.CX9XL.CX@X.X.X.XV.M.@XOXXX>XN.).%X<.N.P./.G.,.U G.].! P m F X.+.c c y.+.X.m E m m #.i.E F F q.o.F b g D S v h h v V V w Q D D Q Q F S F Q W S b m S D Q S v F q.q.W b N N F X.+.+.+.i.K.5.>.1.3.,.d.P.K.O.>.U M :.,.O.O.B X.a.@.P >.G. .G.>.I ).i.n H.U 3.:.#.O.i.,.f #.,.W m W o.X.W o.F Q W F o.+.Q Q F Q S F m g Q o.F W ,.y.O.O.O.P ! U O.U P O.,.O.,.i.y.+.W N F F b W W S v S S v w 8 7 8 w w w 5 w w v V h h h h w w w w V w q v v V V v S D S m v v b F X.o.F v p w V V 8 8 t 8 w w w t t t t 8 t 8 6 , , 8 r r 8 > & 5 8 5 5 8 & V A 8 5 a a w 3 z C w 6 t w 5 C w 6 > $ > 8 8 8 > 5 8 8 5 8 V uXr.S Z 3 5 5 w ",
"8 6 6 6 6 w t C 8 t a 8 5 6 w t t t t 8 8 6 6 6 8 a C t 6 6 8 8 5 w p p v V Z Z Q V v D W S b W v W g u.q.g +.o.0.Q v 9 Q o.q G v h h h h S S 9 9 D V Q G h G q V v v v v w w w V V p C 5 Z V 8 C 8.8.V w w w 7 h v v v V V V V v 5 G q.G b W o.o.j.! +.#.,.[.! N X.U n W #.O.O.:.U U d.5.>./.d.J. .,.K.%X XN.J.L.B.2.<.N.L.*X X(.).<.(.(.<.(.5.).L ..)...| ). .L.<.N.%X9X<.G.J.,.L :.,.O.d.,.d.P.| <.N.Y  .L.*X*.*X).).I &. XN.2.J. XJ.O.P #.,.#.d.f.,.! U :.d.d.N g b F c v X.y.N b +.$.F m m q.q.+.+.o.W b v v S V h h V S Z h S S V S o.o.S F F D F b b F o.N c +.j.#.W X.W N N m N W X.W N N O.O.P W ! N W W E N N D W W D b F v v o.o.G o.o.G v v F F G o.v v v S F b S F o.F v F v v v v b W W b F q.y.o.+.+.o.W W W o.+.E U.+.g +.a.+.,.N +.+.#.O.n U N m F F N F m v F F G F X.F N o.i v W v b m v W S v F h W o.v F 0.w.C q v V v v S Z b S o.` b v F g u.o.F W } 3.a.X.@.X.a.h.+.+.+.X.X.:.,.@.#.>. .U d.,.@.5.5.G.,.>.J.%X#X X X).>XN.4.|.(.L.XX(.L.J. X=XG.1. XL.1.1.P.T N.*XL.-X>.).XXhX).J.5.5.j 1.P.T G.P.G.=X2.;.J.*.4.qX XM.VX|.*X-.=.8XZ.M.8X X XY &.N.&.5.J.P.J.>.T K.&Xd.#.N W F N c X.f.W W +.f.y.g m i.y.u.+.+.F v m h Q S v v V Z D C v Q D W o.o.W S v Q F v v S F F b q.G b o.+.W F o.F W X.+.O.W X.#.>. .@.@. .>.d.d.@.d.,.O.d.d.:.a.,.y.#.X.,.`.K.Y >. .1.J.O.:.d.U ,.O.O.N d.i.q W a.a.+.N b W W F W o.W D o.0.W W b S h F W F 0.+.F m W #.X.W O.O.! O.O.O.U O.,.! O.o.o.X.F b v v 9 v S S S D D V 8 8 w 8 7 7 5 q w w h h w w h v q w w w v w q V v S D S b S S v o.v i v v q w V V w w 8 8 8 w > w 8 6 6 t t t 8 r 8 6 6 r r r 8 C a a A A C A 8.A 5 5 V A 8 5 > 0 C C 0 6 V V 6 t t C A 8 8 8 5 8 8 8 t 6 > 5 V C 6 & a w A V t ",
"8 6 5 6 6 8 t A 6 t V a t w 6 5 8 w 8 t 8 w w 8 6 t a 8 5 8 t t w V C V V Z Z C G w q S W b S o.D Q v o.W 9 Q q.s.v q.+.S o.g 3 Q S h q 0 D Q z q S V V h h S h h v v D F v q q w V a a > Z a 5 C C V w w V w 5 5 q h v V S S S v 3 o.q.q v W v N o.m m m X.K.X.#.O.m n +.y.O.U U ].O.@.&XJ.Y 3.;.;.$XJ. .G.L.&.-XL. .&.2.*.<.>.J.5.J.L 5.MX5.4.4.%X*XJ.<. .#XJ.qX XG.J.-X<.J.G.>.>.:.d.&X].f O.<.Y CXB. .>XN.hXL.hX X*X .I B.Y L.*X*X#XK.3.K.Y.,.#.,.d.O.n I 1.a.N g W X.b m W q.X.F m v W X.c W F S m b b v h v V V h h V Z Z v h h v S Q Q S S S F S F F W W W N X.$.X.N F F N F F F X.o.o.W N +.O.P W O.E E o.Q W W Q Q D S b G F F G G F o.Q D F D G F D G F v v F F b S F o.v v S F b v F b o.o.W W +.o.b W E F W o.+.+.+.W o.+.! N a.h.N h.! c W #.g X.y.v F F F o.G F X.v m v G F v G i b o.D b v v W v S F h Q o.q v o.D C V C v 7 q V v b F ` G F v F v a.b N X.M +.@.] @.N #.f.#.+.+.P X.,.,.O.@.3.,.K.,.sX,.G.).L >.,X5.5.G.>.N.*X XY &.(.4.*.|.(.(. XL J.CX*X2.2.-X*X9X1.1.L.2.kXlXN.L. XN. X).P.<.N. X=X#XT 1.G.;.=XJ.N.N.L.kXAX8X@X>X-.%.V.=.M.8X@XhX XB.(.%X).&.Y 1. .f n :.:.P m o.W m q N a.+.P X.! O.E P +.E Q b F m h v q v v h h V Z V v v v F W W Q Q F v v v S W o.D h 9 9.G S F W F F o.X.X.X.X.W W X.#.&XJ.3.d.5.J.].P.d.K.d.,.#.O.:.d.O.#.#.O.d.K.5.L  .G.lXK.O.].d.! #.,.#.N h.i.N X.+.y.+.N b o.W v W +.Q D +.q.Q F W 0.W S W +.u.W u.c c #.+.N #.K.#.f.d.K.O.:.O.g N m P N b b v v S 9 9 S D h 9 q 8 8 8 7 > 5 7 w w w w w w w h h 5 w w p V w w G S D Q D S S S b o.v F o.G h w A A V t y t C a 5 t 8 6 5 6 8 8 6 6 6 8 u s u < , 6 6 w 8 8 > 6 V C 8 8 5 a w V V D z w z V t t V 6 8 A [ A t 8 > 8 t C C 8 > > 8 5 5 6 a & 6 > & ",
"w 6 8 w w w 8 V 8 w V a t w 8 5 5 6 w t t t a V 6 w w 6 w C A C C A G C V V v w S h g v D D W Q S W D S v h S F o.v F v 5 b 0.D S h 0 w q h S S z z S 0 7 S V V v v v F Z b w w w p p Z 7 Z a 7 p w q w V V v w 7 q h v v b b b v q q.o.v F F v W N W +.X.X.#.O.#.+.U X.:.:.O.O.d.].O.P J.3.M ,.U  .#XJ.T L.,X%XG.1.1.1.L.L.<.*X X,X,XY B.hX;. .I J...I ).B.*X(.Y N.L.5.).L.P.I ;.d.G.d.].$X9 L J.L <.f  .CX X*XB.N.Y *XN. .L.&.B.L.&.;.G.,.,.#.P N U ,.d.,.1.K.W W W X.X.W m v +.W W m q N +.W W E F F F W D F v S S V V V V V S S S S G D D D S S S F W F F b X.X.F m N m v N W X.X.W X.+.+.X.#.i.#.P ! O.E F W W W W W F b v v G F N G F F X.v N X.o.o.G N F G F F G G F b F G v v F G F G o.o.W W o.W b b F b F W +.q.+.o.D N m o.+.E +.#.m X.c c X.d.N X.N g v h v F F v v G v q F v q G v b Q F W D v D v v D v W W q v Q v Z A Z v q w v v S F F F F F F u.o.X.o.W N X.N N 3.} } #.X.X.X.X.O.:.O. .,.K.P. .U ).@.>.>.L Y %X6.5. X X X X<.<.<.@XM.*..X|.*X X;. X=XN.;.2.1.2.;.N.G.lX=XG.T L. X*X(. XI Y -XG.G.-X9XL R 1.T .Xj &.kXhX*X.XM.|.*XR.M.=.=.oX@X(.&.4.(.L.>.L L  .G.].).d.3.1.! m o.N m c q W #.E W f n o.o.+.N m v W W W W h b V v v V V w w v v W Q S S Q D v o.W S h g h S W v F G G F S F F F W X.X.X.#.y.a.M I >.3.U P :.J.d.d.d.,.U N O.,.O.#.O.X.O.@.>.3.1.G.=X,.O.].#.P ! ,.O.n #.! O.W F W F b W +.W v F o.W F o.q.Q S b Q m m m b Q b s.X.W +.O.+.i.i.#.K.d.K.O.:.:.j N m m m v b b S u.F v D G h q w w 8 7 7 5 7 w V h w w w h h h w q w w v V v h G Z G Q F b b b v 9 9 v F G V w w t w t 8 8 t u , t 6 5 5 6 8 8 6 r 6 e u s r < , 8 a C C 8 8 8 V $ t 8.8 V a C 5 w 5 5 6 6 5 6 w H w > > & 5 a A 8 a C a 8 8 6 6 6 r 8 u # , 6 r ",
"w 8 w t w 8 8 w t t w w w w 8 8 8 a V a w 8 6 8 a a 8 8 a A A 8 V C Z V V V v w o.o.D b S D S g q S o.v v Q v 9 9 u.D v S 9 h h S w C ( S 0 h S 0 w ( V V ( w w D w 9 q v v V V w w 8 A p Z a p Z Z A A V w w V v v v v v v v v F G q.G W q.b F y.m W #.! m m +.W #.,.#.O.n n >.). .d.).J./.G.1.G.;.N.N.>.1.L.,X9XN.J.;.L. XY *X*.B.L 6.#XM M )./.J. .5.,X>.G.5.J.*X*XL.L.2.J.<.;.T 1.O.T MXK.U I *. .J.9X,X*XN. XN.I hXL.Y ,XhXN.-X>.>.J.>.:.i.:.i.,.O.:.d.:.n ! #.+.m g N W b b g +.T.q.N X.X.q.o.W F b b v h v S G Z S V V h Q D G o.Q S S Q b b F W W W v g F o.F g F b g b F X.o.F N W X.W X.+.E g P o.W W b E W W F S b S b G F F o.o.o.o.G G G G F b F o.o.G G _ G N N F o.F F W W b F +.q.m g W Q b W z.+.o.W F F F F D W q.m g W v f y.P +.X.q m B ,.m X.o.F F o.o.v v o.F v 9.o.v G v q h h Q W h v v v o.D Q Q S Q o.G A V v V Z V h b F F m v G G F T.g 9.a.N #.#.} U d.O.U #.+.#.#.a.,.:.O.P O.J.J.@.%X#X#X). .=X*.4. X*.<.qX9X(.*XN.2.@XL.B.*XB.B.N.5.L.;.Y G. X X2.2.kX1.N.G.2.*X>X,XL.>.*XG.&.1.1.;.T JXL.L P.L Y B.9XmX9X|.L..XY eXoXZ.SXVX.X|.N.&.L.<. .L.J.5.5. .@.J.O.n O.,.+.W 9 N q.m g N #.`.y.+.+.E u.U.W b W m g h q S o.D D D S h v F S +.+.b v W W v F Q +.o.S v b W v F G v q v F o.b X.+.+.#.,.i.:.J.>.>.K.P.d.O.g d.#.a.d.U n O.O.X.+.3.`.sX].,.@.$X,.O.! K.}.,.i.! f.,.N +.N d.+.#.F h b W o.b v m W S b o.0.W b S v q W o.v o.j.X.u.y.N m i.i.f ! d.O.,.N #.d.O.W F m h g h v S S Q G v q w V V 7 5 , 5 8 p v V V w w V S S h w v v w v Z V h V S D G F v v v h V V p q w C C V w w a t 8 u C r 8 5 5 5 8 t r 6 C r 6 8 e 6 6 t 8 a C a 8 8 t t w.V 8 5 V > 8 5 6 V C 6 5 V V w V 5 5 t t t 8 & 8 t 8 > > t y 8 > 6 , u > s C C ",
"6 8 w w w w w w p w w w w v V V 8 & 8 a 5 5 a a 8 a V p 8 8 V ` o.o.o.o.S v D 0.Q S q.w.v v o.D D v Q 0.D Z S 7 h S S S G S h S q w S V 5 w V V w 5 V G w q V w C V V V p p V Z V V 7 C A p V 8 a 8 [ 8 w A 5 w w V Z V h w Z 8.v F h G G o.v b F q.X.F a.c X.W +.E #.d.:.U  .>.#X5.lXG.P.,X1.2.Z.M.XX>X@X8X*XL.V. XL. Xn.4XB.L.G. . XI 1. .;.#XJ.f 3.J.,.$XK.;.1.).5.;.,X$XT =X5.G. .L 1.J.d.G.;. .P.*XL.kX*XL.&.eX2.2.*X<.>.L.5.5.L >.M :.K.P U $X,.n :.d.d.O.:.! W W #.W 5 F w S G +.+.b v o.o.o.X.F F D S v D o.h v Q D D v D Q Q v S Q W v W D S v b W F v Z Z D D D Z S b v F W b b W o.+.o.Q W E E W E W m S m m W E m m F v W o.v b o.F b o.N m q.o.v F F G G N F o.X.N X.X.E m E #.,.,.#.#.,.n u.y.o.#.f.y.F b +.+.F b s.+.o.+.W v b +.b b o.0.W b S v G q v F v F F 9 v v v b F F G G D m m D D S D o.v o.D h S S h v Z q V G w v G F o.v q b +.9.X.N F F +.+.W g m `.! f.,.N ! ,.#.O.P sX>.@.O.@.sX>.gX/.,X>X4.4.L.Z..X8XeX8XrX.X4.*XZ.mX&.>X(.B.(.<.5.N.Y Y  X X5.*.;.-XL. XG.T G.P.L.5.,X*XT lXK.3.,.U P.P.5. XJ.;.J.>X XmXeX|.Z.rXZ.=.8X(.N.B. XB.;.>.I 5.P. .>.).,.n :.1.d.>.d.P +.F o.v c N q m +.F u.Q 9 W t.~ o.W +.y.W g v q.b m b S S h v S F g g +.o.g v g o.q g Q V h S Z G G F F b b F N m X.X.O.i.O.O.d.3.@.d.K.X.X.,.W ,.X.#.O.:.n U >.#.U X.#.O.O.:.:.d.! ! P E y.,.+.i.O.E i.i.E +.f.W X.g +.W o.W E s.h F q F s.g +.W W f.o.m N m +.y.y.f.W +.f.P E m E S E W S m W v F D & q v G q w w V V w 5 w a 8 > 6 d 6 8 C 8 8 V V V w q w V q q v G F q v G 5 5 w V v q v G V w w V w 5 5 6 6 6 6 6 6 5 6 8 5 8 t y t 8 6 5 6 6 8 8 5 5 6 t t a 8 8 w V V 8 V w w V t 5 5 C w 6 V A a A 8.w 5 6 w 8 w 8 6 > 8 5 5 a $ 8.5 6 w 5 V w 5 z w 0 ",
"6 8 8 8 8 8 w w w 5 5 v V p v Z Z 8 8 p 8 C A 7 7 8 C Z V p p Z q m G X.F v v F F q Z o.V V Q G 7 v Q Q w w Q w.v h 7 q S S h w V V Z C w V C w w 5 V A w w C V w p p p w w p V V V 5 w w 5 w 5 C 8 A 8 7 Z 5 p V v w v V Z Z V v o.v o.v v o.j.W +.+.W y.N X.N 9 #.N ! K.>.,.,X1.J.L. . XV.&.OX*XM.VX(.Y 4.=.eX*X.XR.OXY  XB.B.L.;. XL G.G.;.T L 1.P.@.:.i.U d.#XJ.K.J.J. .n J.5.1.>.G.).P.5.3.5.>.P.%X*.L.N.V.OX X&.2.%X-X).J.@.>.Y 5.,.,.O.@.d.,.j O.d.W P U :.! N c W F q o.q V G o.Q v v o.F F m v b W Q D D o.h v Q S D v v F Q Q o.q.0.W +.F v b S v g q S V V C S S S S b W o.W F E W W E E E W W W W E E W S S Q W m S o.F W o.F W +.F W +.F b W W F +.b N F F N m m W N ! #.+.O.! U P O.O.:.k #.X.N E N o.W E +.+.F m 0.Q S S o.u.o.h Q S D S v v D D 9.G o.o.v v v 9 G F v v b F S v Q D S S S S D W 5 v v v D Q D v o.v v Z w v F v V F F W F b N X.b F W E y.T.d.m ! #.#.! ! P P ! T O.K.T K.<XI ). XI ).N.4.>XB.Q.KXR.Z.A.Z.rX8XV.|.>XY >XXXL.J.N.mXj  X Xn <.B.<.P.&.N.L.>.P.=XN.). XL.G.f J.d.,.G.3.$X].J. XL.N.).9X5.B.Z.|.oXrXM.-.mX>XXX).6.5.U K.G.3.>.;.).%XI ,.#X;.M L 5.T ! v o.F m X.m m v F o.S E 0.E W g c N X.q.s.q.W v m b S S h v S W o.+.f.y.o.u.+.W v W Q v v G S F F F F F F F F W X.P  .d.d.,.K.,.@.3.d.#.#.a.+.a.q.a.O.,.O.,.,.d.+.+.,.,.i.f.f.f.i.f.+.W o.o.s.O.,.O.:.O.m O.O.u.K.E ! m u.u.W o.W s.+.o.o.m y.X.f g m #.d.! O.#.! ! N u.T.o.P S 0.q.Q Q W S S S h S v G v V w V V C C a 8 8 8 8 > 8 d 8 8 C 8 8 p p w 7 q w v q g v N v q v F ` o.o.F C C C V A C C D C t t z 6 8 t t t 8 8 6 & 8 y t > & 6 a 6 8 w t 8 6 6 6 w w a V C A C w & w C w w A A V C t w w 5 8 w 6 w w w w V V w 5 8 8 > A 8 A & w V 0 z w h z w G ",
"6 8 w w 8 8 w w V w w V V q 7 v Z V C p p G ` w p V Z Z V p w 7 v F 9.q.9.G o.o.S w w Z G Z S G h V v w w w V Q V V w w C S h V V w p V w V V 5 w w V C w w C V V V V w w 7 7 7 V C w V V w C C C 8 V 5 5 V 5 w V w q w V S v q q o.b q.N v o.u.W m +.N X.#.#.W o.i.! #.:.@.3.>.<.).L.<.R.Y &.-XV.%.qX8XoX>XV.kX*XV.L.@XY L.L.B.J.Y  XJ.*X5.;.G.P ].).,.K.1.L :.K.1.P.J.>.J.G. . . .;.T I ;.5.5.;.T G.=XN.L.V. XZ.V. X*XL.L.%XJ.@.K.5.O.,.d.P ,.K.,.N ! :.! :.y.,.#.+.m S W S 8.V o.0.q.0.F F u.v m b N Q o.F h D o.v v Q S S h S S D Q o.o.W F Q h q S F g q v V V V V S S Z Z b D o.Q F F b b E W W o.o.o.W E W o.W F o.Q S E o.b b F F W W b W o.W F F F o.9.+.X.X.q.#.W W $.N X.+.! P P W ! i.i.K.O.i.,.W o.f X.+.W W Q D F S D D D Q o.Q S D S D Q F D D m G v D G v v F v o.G v v F G F v S S m h h v v m S S D S v S v 5 D q q w h v F v g b X.W m g b o.q.u.q.S E f.u.f #.P #.d.,.O.,.K.O.:.:.3.).J.5.#XXX&.J.4.<..XZ.B.eXR.|.Z.Z.kXVX@X.X.X&.L.4.B.B.L. . XhX5.L.L.j *.kX>.P.1.L N.J.<.).L.>.=X5. . .K.d.@.>.1.5.N.*.>.G.gXL.B.B..X|.Z.qX@X>X@XhX>X^.J.>.,.:.:.O.:.d.O.P U :.@.:.O.:.O.#.g F W N X.W v q.s.q.S y.y.l m E X.X.F b b F F h v m S S h h b m #.o.X.S W q.v q v F v 5 q v q F F F F G G W W i.y.O.O.O.! U >.J.d.d.d.a.i.#.$.+.#.d.X.#.O.>.O.,.W ! O.X.O.O.P P m g n u.f.E E #.d.O.m g m y.#.f.Y.O.! ! d.K.y.m o.s.s.o.b S +.E f m N X.X.m o.i.y.#.o.U.$Xu.o.E u.u.W S S S v h q Z S 8.Z G C A Z C C C a w 5 5 5 8 a 8 8 C a Z C V p p V C Z v b F b v v v F ` 8.` V V G G v C C C C C V t V 8 8 w t t 8 6 6 t V V t 8 w C H V C C V a a a V w 8 w t a V 8 5 a w 5 6 5 & 5 w 6 w w t V w 5 w V 8 w w C A V w 8 A > A a A 8 A C w w w S z 7 e.",
"w t t t 8 8 8 w V V v v h w w w 5 p Z V p p Z Z Z V p w w i i i b v G F o.v G o.Q V h Z o.S h S S G h w S V 5 7 w G G S V w h G w 7 w w w V V w V w V V w w w w w p p w w w w 7 7 p w p w 5 C C Z w a 5 5 a 7 w v V V V V v v v F v v o.b o.v F j.X.y.b g +.W n u.W #.i.d.].P. .9X5.L.<.&.L &.&.8XZ.=.V..X@X8X*X*X|.*X4X<.L.n.N.-X1.=X-X#X;. .G.).=X].].].d.d.,.T U 5.5.;.J.J.M I P.,XJ.>.#XgXK.T  .N.qX X*X|. XR.V.N.*XP.L.*X .].K.,.g g :.,.aXU U ! O.P N :.,.O.:.a.! F W v S V A D G W v v W F F b F o.o.D h D 0.V V Q S S v D S m S S v b F D h h S F v v F S V V C S S Z S h b F W F F S b Q W W o.o.Q W m W Q S S Q W m S W b b m b b b b b b W o.W W W F X.N m F o.X.N m N W ! m n P O.#.O.O.d.P #.X.E W m y.#.b v F W o.Q S D o.D q v 0.D S Q Q Q Q W h v c v v v F F F G F v v v F F F h v v h h b S v Q v m S h Q 0.S V w q w v S G D F F F W X.W W X.F W Q o.m E d.u.d.! O.i.O.P :.i.:.J.,.zX5.U DX5. X).Y | L | >X X=.oX8XOX8X*XV.@XL.*X XL.&. X X).9XDX(.&.>.B.qXmXL.N.%X X XP.T <.N.N. .%XJ.U n d.BX).5.#XgX).<.6.B.DXhXqX*X8XoXV.M.qXB.Z.XX4.#X%X>.U O.d.P.&X].O.1.U n U G.3.O.O.f.N m N c N o.v F G S g Q 0.S Q S m N X.b q F z.h v S F S h m S o.+.E E W +.q.q b D W S h v V v v F F D F F F N P O.O.O.U U @.d.d.J.d.,.,.#.X.+.X.#.K.,.d. .@.O.O.U X.#.#.+.O.N E y.y.! :.~ f o.k y.d.f.y.O.O.g i.#.m #.,.O.y.i.E o.W +.W m +.o.N m W o.E g n #.! :.#.W +.+.W o.o.u.o.m h v v S q v G 7 V G 8.C C C C a a t 8 5 > 8 a C d 8 a V a 8 w w w v V v v F W F F F G G v V V v V Z Z v V V z z t w w w t w 6 5 6 8 t t a 8 > 5 8 t t w t t 8 5 5 8 t t 8 w w 6 w w w w 8.a w A V & & 8 5 w w z A w 5 V t 8 w 8 V V w 8 V b.C 8 5 a w 8 z V w 5 C h 3 8.",
"8 t a a t w w w 5 v v q q S D S v v G 9.9.Z G q.v v q q v V Z G 9._ o.F q.o.q.8.o.Z V Z G v q V w A S V G V q V 7 S G V w 5 5 V V w w V w w C V w p w w w w 7 w 5 w w w v C S V w Z V C v 7 V w Z a V p p v w p Z Z G G G G D F s.q F F q 9.c +.a.F #.! m a.#.! #.i.H.! ].zX,.#X%XL L.&.2.-X XL.L.*X|..X*X@X@XV.Y N.V.N.<.N.&.L.L.J.).&.;.J.P. .K.,XK.@.O.:.1.3.1.1.P.=XG.L T d.T 5./.>. ./.%X>.1.J.L.*XB.L.V.V..X8X2.L.L.2.,XJ.3.c :.#.O.,.i.`.,.X.f.iXY.#.#.f.P ! i.! m F h q V C v V W F b F +.W v v W 0.q.o.D 0.S S Q S S v D b v S S S F Q Q Q W F b b b v V V C Z S S v v v v b F F F E W W S m m F E m m E W m m W W m S W W W W W N N X.b m F o.X.X.X.m +.a.a.+.$.a.y.O.m P ! O.+.#.O.! i.#.K.#.y.,.+.+.W u.+.m v F W Q 0.S m Q Q v v Q 0.Q D b h D o.D F F v v F D v v v v v v g v v F h S D D D D D S 0.S S S v Q 0.Z G G S v v v F W o.o.X.X.+.+.o.W m m m #.y.X.,.+.i.! #.,.O.:.d.,.J.@.].jXd.J.%X .Y B.N.,XqX X8XM.|.OX@X@XrX|.%.Z.<.B. XL.<.*XL.<.B.Y I *XL.&.*X XCXP.&.;.1.&.&.L.L.,X(. .../.>.5.).@.Y ).qXJ.<. XJ.9XL.L.L..XoXoXZ.qXZ.N.XX).>.} O.P :.,.i.G.,.f $XsX].,.,.K.d.,.K.X.m N v v F v D q D S h Q o.W F c F u.s.o.o.s.m m S W S m S W W W N o.o.+.s.o.o.W D D G S v S v b F F F F N b W X.O.O.O.:.1.3.U >.:.@.#.X.+.a.W W a.,.,.n  .,.O.U X.#.#.,.i.O.,.H.f.E ! W m U.O.d.d.U.d.! P c ! W N +.+.n O.#.X.+.m o.E m a.W o.m q E ,.+.X.W ! i.y.+.+.+.y.s.+.o.S S Q v h D h V S 5 w w Z w w V C a 8 8 8 5 5 t C C a 8 8 V V v p V Z Z F V h F Q Q Q o.Q G Z V C A Z p w V V V z w w w w w t w 8 6 8 u y a t 6 5 6 w t w 5 6 0 6 5 5 w w 0 8 w 8 w V C A A & w C C A G A w V V 5 5 w 5 & C w w w w w w 8 6 5 c.8 5 8 8 V V 0 C C 5 z z 3 D ",
"w 8 t p w w w w q V S w w Z Q D g 9 5 v o.q 5 i F F F F Z F V v _ v G b 9.v Z v Z V C Z V w w v V V w w V V w w w V h h V w 5 7 C w V V 5 5 p V 5 w w 5 w w w w w V V w h C C h h G A G Z V G C V a V V v w w p Z v h V o.o.G v o.9 o.+.q o.c q.X.F O.y.#.f.y.y.#.,.Y.U  .d. .).L | kXL.*X9XG.kX*XOX@X<.M.@XV.L.*.*X@XN. X*XL.CXL.N.N. .L 5. X5.O.lXK.j J.&X@.@.J.).P.#X/.;.5.#XgXJ.;.;.3.).#XJ.G.%XL.G.Y ;.L.-XV.qX X*X X2.%X%XU O.[.y.X.h.`.U W m E ! +.#.W O.X.U ,.! h F S V V Z S Z o.o.W o.W W W o.0.q.o.S D 0.S S Q S S v S F D W D S b b D o.o.F F W W v v V V V V v v h F b b F F F W o.W m m m F W W E W W S m W W E W X.o.X.X.o.N N +.X.X.W W o.+.o.X.c #.a.W c N X.! O.O.O.! X.+.O.! #.P y.P ! E W m F o.W b D D b S v Q o.W S S D S Q D D S h S W v F F q q F F v v v b F F v v v Z S v S Q W S b b o.Q Q Q D D S h V G S h v v b W F o.+.X.N N N N o.f.W W +.o.,.P O.,.d.d.i.f.K.i.P. .>.3./.). . .CX). XB.|.qX.X9XkXV..X@XM.M.Z..XkXB.B.XX*XhX9X XB.N.*.>.*XJ.>.FX<.j >.9XP.N.-X). X9X*X*.4.<X{.%X>. .<.>X>XN.(.qXN.L.Y *.Z.@X@X8XqX8X9X(.,XZX..>.jX#.#.Y.}.d.P U ! ,.i.i.U O.U P a.+.m W o.b v q q.S u.u.S Q ~ m o.y.a.#.W b F W S b S D S S S W m m E +.m g o.+.o.W b S Q S h Z b b F F F N N m y.X.O.O.,.d.d.U U @.3.,.O.O.y.f.X.N #.#.,.P ,.).,.O.O.U N O.,.#.P W W E i.f.O.i.K.u.E O.! N ,.h.! #.O.N P n #.E ! X.W +.m c ,.m +.E q N ,.#.+.N P ! n m E m m m F v h W 0.S q v v q V V G w V Z w C C w w 8 8 8 8 C C a a w 8 V V V V Z G G Z S h v D Q o.G Z Z Z v V G Z w w C z V z w w w w 6 6 6 8 t y a t 8 w t A A V w w w 6 t V t V C z 6 a V C A A V a V a w w w 8 w a V V w 5 5 w 8 5 w w t V V w w w w # 5 & 8 C 8 w A 0 C A 0 h V 9 z ",
"w w w p p w v v V V F G F v b D o.o.F X.q.F g _ W X.o.o.G v h q ` S q.F w.v G Z V w V V w V Z w A w 5 w w h w 3 h V w w C V w w V w w p 5 5 w w 5 p w 5 V V w p V Z V w w v v q 5 v w v v w Z V v V V C p 7 w b v w 9 g F W F v g q W z.m c F X.a.h.+.f.,.X.n P U P :.:.n P J.J.<.4.kX XP.;.L 5.N.B. XZ.XXXXI n L.9X*X*.*.<.&.<.qXL.N.J. .T N.N.3.,X&X,.jXDX3.3. .G.>.>.5.J.).>.).1. .G.%X/.3.3.J. X>.J.<.5.|.8X|.B.L. X9X9XJ.O.d.}.'.q 9 X.}.y.W o.W q F f.$.y.y.! i.+.m W Q D q V V v F S m F b G o.9.q.+.S q S o.S v S V S v b W Q F b S b g S F D W W W W W S V V V V V V V S v m F E F F W o.W m S W o.o.Q W Q E S o.o.W o.X.O.W W +.N m +.+.y.X.W #.+.X.q.F q.a.X.N W +.+.a.y.o.N m W +.+.d.! a.W X.o.+.F F F S D o.S h S q D 0.W v v S D h v Q D S D D g v v q 9 F F v F b F G G F v b F S h h D D v v D q v v S o.Q Q o.g F v 9 S D b W v W o.W m m N N g `.E g X.+.U.Y.,.f.d.:.U P P T d.d.n } g.g.J. .lX5.(.4.B.XX| L.L.=..X|.&.*.(.9XqX*.Y <.5.B. XN.5.N.<.&.N.J.N.%XCXP.CXMX1.1.N.B.N.L.4.B.(.6.J.).5.J./.*XB.<.(.4.B.>XV.|.@XrX@X@X=..X8X>X6.6.>.MX$Xn f O.`.f.P a.O.P O.}.f.f.i.i.y.d.m E q.v q v v q Z S b W S W F o.#.W g g F +.S b S F S m S Q Q X.X.#.E g W W +.u.o.F o.o.D 8.v S S S F F F N N g N O.:.K.P.,.1.,.K.P.:.#.d.y.a.#.a.,.P.d.).).G.d.d.:.! #.a.,.N o.Y.f.,.O.P #.#.O.P :.i.#.d.d.,.,.#.P O.P ,.U X.P O.#.m m #.c E +.F W F b +.W :.u.N W +.E E v v m v F o.S h S S h G Q q.V A o.V C a 8 8 a a 6 5 C a 8 V 8 w Z q q q w w w w w v v b W G V v V V v w v p V V V w w w 0 5 w w 6 6 6 6 8 t t 6 & & 6 w 8 5 5 5 w 6 t w w w t w & V V C A V w 5 8 k.A w V a 5 w G 5 5 8 C A A C 6 w w V C V a w w C 5 8 a t & # w w w D z h h 0 C ",
"w w V V V V V V v 9 m 9.0.v v +.g X.W c c q 9 F m N F F F v v v b q o.9 Z & v V V q V V 7 S o.5 5 q A G q 7 V V 5 V V w w w w Z V 7 w V w w V V 7 Z V w C C w w w w w 5 q V C w V G V V v v A V Z G G G V w V G q i v b b b G o.F W q j.m 5 a.X.#.f.c #.O.N P ,.O.$XU ,.K. .G.G.CXL L ;.G. XlX X2. X2.(.9X XqX9X*X>XqXB.5. X XN. X*.Y 2.<.%XgXN.5.I J.d.,.d.@.).5.G.J.=XG.>.P. .>.5. . .1.>.,./.%X).T  X*XL.n.<. XY *X XN.*X .T n #.y.a.`.q W a.X.F o.+.a.X.9 a.a.! i.y.E W D v w G o.G F v v F F F b v S W o.Q v Q h h S v S v v W W v v W o.W o.S F o.o.v v D G Z V v V S G Q h g g b F F m E o.W E E Q o.W E W Q E S o.o.W o.+.+.N P #.W n O.! a.#.! ,.+.W a.+.X.m m P W W N +.#.y.o.W W X.o.+.g X.m m N W g W W b W Q v h D q.v 9 v D b v D v S D v h D o.W v Q v v F b v G v v v F F F v m S q q D D v b 0.S Q S v W D S 0.G o.F h Q o.b b m F W W X.+.+.W c '.m m f.#.i.d.U i.,.U O.U ,.&X .,.d.d.>.%XMX>.&.&.J.*X9X(.<.(.<.XXqX>XqX>X(.kX*XL. X*XL.L.*X2.4.).Y *XZXB.N.*.L.>.*X2.1.=X;. XB.8XB.(.J.| /.4.| 4.6.B.4.XXVXM.*.rXXX|.V.M.=.M.@XAX=.hX(.f  .@.:.`.`.n U Y.#.P i.,.:.,.q ,.d.O.d.Y.N m q.h q D G o.Z q F F g o.o.v c +.y.E v b S m b b m m S o.o.W m ! Q Q +.v S u.+.h V D Z Q v v v v F F W X.N N :.:.U :.G.,.d.>.J.).>.:.d.+.O.X.#.O.J.d.d. .T O.,.,.O.,.d.y.#.n N N W y.O.O.d.i.! O.:.#.i.,.f.O.! :.K.! ,.O.a.N ! X.m ,.a.m g +.W F v v q.o.P ,.E +.y.E W F m Q D b D D D o.Q o.q.V Z v S w C V 8 5 8 a 8 > 5 V 8 8 V p w Z V v v v v v V V F v v W D h h S G Z w 5 w C C w w h w 0 8 w t w V t 8 8 8 t 8 6 t w 5 6 w t V w A A C 8 w V V 8 w w 8 t w w w A 6 w 8 w w C a 6 V 6 8 t w A H 6 w w w V A A V w V & 8 5 5 a w A z 3 z C w 0 0 D ",
"5 p V b q v G v o.v q o.F 9 b o.E m 9 N y.a.y.m b b Q o.F S Z v p i i p v p p w Z V w p w w w V V w q V 7 5 A V w C w 5 w 5 5 C w 5 w 5 5 C w w A w 5 C V w Z w q v G q.o.q 9 G q q v v Z 5 v V V V Z 7 w q Z Z G F g b F W +.v W q y.F 9 W N +.O.X.O.n P ,.O.n ,.i.O.O.$Xd.U ,XP.<.;. .J.G.L G. .).L &.L.*X%X,X>XL.4.4.XX(.qX>XL.<.XX<. .J.5.>.J.5.>.3.d.>. .,.>.5.).).5.J.).1.>.T  .M #XG.>.lX%X>.). XL.N.8X4XV.rX4XB.L.P.>.@.i.q m +.N c c X.+.+.y.+.N +.a.U W #.i.a.W v D v v V S v m W o.W b o.o.F g v W 0.S S S S v h h v D v F o.Q W o.Q D D W Q W F S v S v w v S Z V h g v W Q o.o.o.o.o.W m N W o.O.! N o.O.! X.W W o.+.X.X.m #.X.a.X.U N X.O.O.,.#.N U #.h.`.d.X.W O.+.+.! +.o.b F v E E E E W W W W q F S v S D S V D Q v q S Q D v S q v 9 g Q v v q F D v q v F v G v v q G v F v 0.s.q.v h v S D S S 0.q S D D v o.v v g b o.b N m o.N +.O.N #.W f.N c #.q.X.,.! #.P P ,.U ,.@.d.U K.J.5.g.gXG.5.&.*.L.<.&.B.<.<.N.*.L.>X*X XZXL.<.&.=XL.*XhX XL. XN.N.N.L.&.J.N. X;.L.J.T &.1.J.B.qX4.<.*X5.;.>.M ;.>X4.(.qX>XB.(.L.XXB.rXmXZ.rXeX.X<.>X5.>.>.n g d.,.j n d.d.n i.i.n O.].d.! ,.Y.K.n m g v v 7 V V q V q.o.g b #.m 9 c o.s.q.v v v v v S S S S S +.W W Q m o.o.D Q o.o.o.G Z Z h h S Q F g c F X.O.d.:.d.,.K.).@.M 3.3.@.a.#.#.,.W @.3.@.).5.P.n :.:.:.d.:.+.h.+.f.! Y.H.i.,.i.H.:.,.i.#.,.i.O.O.P U ,.P.i.! O.P H.P n O.O.X.q g F +.q.o.D D o.W X.E P W F b F b S b h v G Q D V S V h V G A h A w 8 8 5 8 a > p 8 p a p w w V v V Q v v F v v h D Q v 9 9 h V h V V h p V w 5 C C V z t w w w 8 t y y t 8 8 6 V 5 z V 0 5 0 C D G C w z G A w 8.w w 8 5 V 8 w t 5 5 V A A V a 5 w & 5 A V 6 G 5 A V 5 w w 5 V a 8 & 8 w 8 G w w z w 5 h h w z ",
"w S ` ` v v G G F _ F b b o.q.W X.+.P O.O.! +.W b S W G V S Z v b p p v b b p w V w w w w w w w > w w p w w C 7 p A V w V w 5 V 7 5 V q 7 p 7 w w C 5 5 V w w w Q v 5 q S h q v S h v v D q V Z ` G G 7 w q Z F v G b G o.W o.b o.N a.W q W W P g N #.P P O.@.,.d.d.,.,.$XP. ./. .5.N.5.1.G.G.R &.J.P.qXL.4.*.&.*.L.XXXXXXN.*XXX2.J.).,XN.I N.<.>.>. . ./.).,.>.G.G.G.;.>.%X,X1.G.d.G.P.#XI  .5.#XJ.*XP.<.&.OXeXN.N.*XL.T N. XJ.#.+.F $.#.#.j.+.+.W o.X.g c X.#.P #.i.y.W b D w v V V v S W Q W F W W F b W +.q.D D S S S S D Q Q v F o.W F F b W W F S b F D G V Z G Z v h v S F D W Q W W W W #.o.W W W X.W W E O.! N W X.o.y.X.X.#.X.a.X.#.N U U +.,.,.a.a.X.X.O.,.a.a.#.#.y.y.#.W X.o.m W F W E E N F F S F W F q q Z Q V h h S S S S v S o.D S Q v v W h v q v F G F v v v v v F v G v G G q S Q S v D Q S v h o.h Q 0.0.0.o.g v v X.q.W X.c X.W #.#.! ,.! f.X.g N N n ! ! a.,.n :.:.d.d.3.3.5.#XJ. .).5.5.L.L.5.B.L. .*.*X<.NX X4.B.>.<.B.qXhXkXN.9X*X;. X XqXL.I L.L.L.Y 2.T ).*XG.G.G.G. X&.*.qX>X..4.%Xg.).,XI I 4.XX.X*X.X|.| Z.VXoXZ.@XrXN.L. XP.>.J.O.U O.K.P.,.:.,.U d.i.n n :.O.n d.P.! W m D S V v V h v +.o.F X.N F +.y.q.u.q.W F S S S S S S S E y.O.o.o.m W o.F D W W D Z S S o.D S F b v W y.#.#.i.>.d.:.d.,.G.5.G.@.U 3.d.a.y.O.O.d.@.K.G.L.1.d.:.O.:.U g n X.#.P d.i.i.:.i.i.d.d.O.U i.K.d.,.#.O.d.d.O.O.#.n :.! P O.O.y.f.v v S W W F F Q m m g f m b v b b S F S S S S S D S S S C G G v 5 > 8 C 8 a V 5 7 7 8 a p w p Z Z v S V o.u.o.G Q W S v S D S h V S C h w w w w w 0 0 w t V V t t t t t 8 8 8 8 5 5 C 0 5 S D C A C z z C D V w & $ w V t C 8 w & w 8.H w & 5 A G A w w C w > w a A A V a w w w 8 V a A 8 & A V w C C C D C w h ",
"q V 9.9.S q v $.v +.q.m g X.+.N #.y.O.O.W m o.W v b Z V v A G w V p p p a v p w w w 8 w w w w w > A V w p V C 7 5 w w w v w w V w w Z V w w 5 V 5 8.w > A V 7 w h v q h S v h Z Q h v q S q V S V v Z q V V o.G g +.b b X.N F F m N $.X.c W #.N d.f.].d.O.O.U ,.O.,.1.:.1.1. .>.N.5.>.G.T T &XG.).L.=X*XL ;.G.N.<.).*X X X4.(.B.>.(.B.L.N.L.hX X>.J.@.Y J.#Xd.d.G.5.5.,.5.$X). .T 1.@.P.K.;.hXJ.1.;.1.<.J.L.4XkXL.9XV. X,X-X,XG.X.h.W f.].a.K.N +.U a.].h.@.O.#.P O.i.#.W W Q v V V S Z F S F W N N b b D o.o.o.0.o.Q S S S S D D v D o.D S S v W D F S S S D G S G G Z V v V D o.Q W F F W W W X.X.W X.O.o.+.#.W o.! E W W W #.`.d.a.U O.@.d.a.O.X.O.O.O.,.d.3.,.#.@.:.,.#.O.X.+.+.F o.o.S W F W W F b b b b b S D v h V v v Q h S D Q D q q Q q q S v h S h v 9.F q v v c F 9.v v o.v F q F G h v Q Q S Q o.q Q S o.v Q D S S o.v b F X.X.N +.N X.! #.#.U O.N f.s.W X.+.O.d.f.d.].n O.:.O.J.>.J.I J.G.M 5.G.J. .). .5.*XN.L.*X).ZX<.<.N.6.I (.).). X*.-XE.;. X<.*XL.B.9XJ.N. XN.2. X X1.G.G.G.N.4.XXXX5.J.g.5.5.5.#X(.XX(.4.*..X4.B.Z.@XSX8XeXOX8XXX*X9X%X@.d.@.).gX$Xd.d.i.T d.].].U O.d.U O.>.].:.o.S S v V S Q Z v F F F o.N m W o.+.s.s.+.W W D D D S S b m o.E E S g v b S F W Q Q o.o.8.o.D v F F F o.y.+.U O.U 1.:.d.>.>./.G.,.3.K.K.:.#.O.U ,.,.K.%X).P.G.1.,.3.@.N U X.W O.i.,.i.:.H.,.d.i.O.:.i.H.Y.O.U n ,.,.:.].d.K.,.O.N ! O.m +.W v h F D V v F F N g g b F F W F F D F v h v Z o.v S Q V C A h 7 7 V A a 8 8 & v V V Z v w q v G v D S Q q.F b Q D S S G Q S w V V C w 8 w 8 w w 0 5 0 w a t w t 8 8 8 8 8 r t w 7 C w 5 V w 5 C w 7 h V w 7 7 G V A a 5 w t A 6 V A A w > 5 V C w 6 w V a V A C C A C w w w 5 5 5 5 8 6 > 8 5 5 w z w V w 5 0 ",
"G q q F q.q.v v G F W N F W c N i.#.n W o.W o.b v v V w w G [ w p i w w w w w w w w 8 a a w 8 t w 8.V q V V V V 5 w w w w V V V V w C C w w 5 A w 8.p w A V w v q S Z S S v v D o.w v 9 S v V S V V G p Z v v 9 F u.b g X.N N X.c m X.q.W W #.N X.P O.O.O. .P :.:.1.].d.>.5.G.P.#X%X%X,XJ.:.d.:.;.N.9XN.Y %X%X<.). X X(.(.*.N.<.| *. X X).hX<.I /.9X).,.G.3.P  .5.>.G.#X).d.5.J. .P.;.,.5.G.hX>.>.<.1.L.qXhXeXeX X*XqX*X>.I >.:.,.a.g X.d.X.#.#.O.} @.d.,.} @.K.O.P #.,.o.o.D D A V v D F v v b F N b F W Q W D 0.Q D S S S S v v v D o.D D W S F D D W D F b v G V v v Z G D S W S m m F W W W E W o.+.+.o.+.+.E X.W W +.X.E O.:.,.d.,.,.,.} U :.O.O.O.X.#.d.3.@.@.#.:.,.O.W N E W F +.+.S F v W E F F m b v v v S V S V w V w.S S S D Q S h S b S D D D Q D D G v v G o.F b G v F o.v F q F G Q S Q Q h D 0.q D q D v o.D S F D v o.o.F m b f.W X.O.O.O.! O.X.X.f.+.X.#.+.,.i.O.`.O.O.O.U d.,.$X>.5.).5.J.%X,X9X9X<.>.L.N.N.5.,X5.M >XB.XX(.9XkXP.,XB.2.N.G.;.(.XX X9X,X .<.hX-XL. XG.;.1.N.G.(.(.(.5._.).U 3.J.@.5.#X,XB.<.4.4.4.qXJXVXqX|.8XCXZ.L.4.I 5.,.,. .P :.,.:.,.O.M K.$XP.M K.].j d.T ].:.! E W v S V G G w q m F X.W m m N o.y.u.W W F F F S S S v W y.X.o.+.E W W D Q o.+.8.o.8.8.v v S o.+.o.W W ! m P M :.:.d.,. . X5.3.K.d.d.O.K.h. .,.1.5. X1.1.N.G.d.,.} } #.X.N d.d.:.i.:.H.:.O.! ,.K.O.! P.1.T j O.O.O.P.U P.:.#.n P :.P +.+.F v W Q S v D m m g q v v g b o.D b b v h V G G q v Q v w V w A V a V 8 5 5 > w w p V Z Z Z G Z F o.G v b q v v S Q Q S v v V h V C z w w t V z w w w w w w w w 8 8 8 8 8 r w A 7 C S w 5 3 w w w w h w w w w 5 & V a 6 w w t A a 6 6 w V V a A 8 w V w w 8 w C w w V 8 w V 5 8 5 5 8 8 w V 5 w V z w h w h D ",
"v v ` o.9.G q $.q.N m m q.y.B N ,.W g W 0.o.Q v V V V w 8 A A 8 w 8 8 8 w p p p w 8 8 a a 8 w t 8 Z 5 7 V 7 w a Z Z C p 8 a V 8 C w p w p p w Z w w w C V 5 p w Q D g 9 v v g v Q g D g W W S G V v Z w F v F v G s.m c +.X.W o.W N #.K.#.N X.N ! N O.:.:.,.:.K.,.,.P.J.5.).P.J.G.#X/.M U G.1.d.R G.=X>.5.=XG.>.4.N.).XX(.I 4.N.kXL.L.*XB.<.f >.g  .>.5.#X).d.).1.,.d./.J.,.G.sX1./.J.5.d.5. .T 1.J.P.%X*XP.V.L.eX|. XL J.9X .,XP M n O.g.#.P ,.} 3.K.g.,.>.J.<Xd.P #.a.+.W v o.Z v v Z F v v b F F G W Q Q Q Q v v V S S D S S v v W o.W Q o.W b F F W W D F S Z V w w S D D V F b m b F W W W W +.y.y.+.! P P X.X.W X.#.+.X.,.3.3.g.3.@.3. .@.@.O.,.5.3.,.,. .U @.>.:.#.O.X.X.N W b o.o.S W b b F F W D F S v S v 7 h G Z v Z q S S v D Q Q Q o.Q S D D D F v v S F D G G S v v v F v D v W G D h S S q Q q.h o.v Q S 0.o.Q W Q v F X.W F ! U.P W #.#.#.#.#.#.O.h.+.W O.U I I U :.3. .@.3.d.G./._.5._._.4.).>X).n &.P.L.N.1.L.MX4.6.ZX*.4.5.B. X5.E.2.;.P.hX X*X>X XN.j n >.Y G.N. XP.G.G.1.N.).(.L.<./.%X>.g.K.g.5.N.>.Y <. X4.XXqX>X=..X@XeX@X-.L.(.J.).3.P ;.>.).J.>.,.>.d.5.G.#X .N.,X1.1.T K.! ! W o.Q Q 5 h C v q b X.X.m W y.u.o.W W v F F S S S S S m o.y.E O.y.o.+.W Q o.+.o.Q D V v v v N o.+.o.W N X.! :.O.,.! O. .P.%X;. .,.O.a.d.d.a.U @.1.G.,XL.P.G.J.J.,.} U X.} N Y.H.:.:.;.W.T L n :.K.O.L i.:.O.U :.T O.K.L :.,.P.O.n O.o.f.o.F D o.o.S Z o.v N N m b v v F o.G S F G G Z Z Z q h S w q w q V w 8 w t w 5 5 A v w V Z Z v w v v o.W b F v W v D o.Q V w v S C Z G D V w t C 0 0 w w w 8 t V 8 6 8 8 t t 8 8 z 5 S G V h w G w V V h q h V S w > w w 6 a w w w t t 8 w w V C a w w C t w w 6 A 8 w a 6 8 V 5 5 5 V a > 5 8 V w V w 5 w 0 h G ",
"5 F j.9.F q 5 a.W y.f.N N +.c W X.W m +.+.F W V Z V C a w t a 8 p p 8 8 w p p p w 7 8 8 8 8 w 8 > 7 > p Z 8 w w C a V p 7 a Z 8 V 5 w w w V w p V 5 7 G w 5 V w v b v v S v g S S q o.h F D b W D V Z q v v o.Q v o.m N #.o.X.F N c #.f.X.m P P ! P :.O.L n n O.,.L &.1.L.#X<.I 1.P.%XJ.=XgX:.i.K.%XP.T J.1.>.*X XL.L.).>XJ.>X9XB.(.&.kXqX(.&. .).G.>.3.G.5.>.>. .G.J.5.5.1.5.J.d.;.5.J.5.>.g #XN.1.N. XB.N.<.N.OXkX X5.&.j &.G.U U ,.,.J.J. .@.n  . ...3.5.>. .P.P y.a.+.G q o.V v v V b v b F v b F W W F D o.v S S D S S S S S F o.o.F W o.D F F S b F D Q o.V S Z V h h v Z D F F W W W W W W O.#.,.#.X.! W h.a.+.O.#.X.X.,.`.g.g.O.M 3.>.).g.@.O.@.@.@.>.O.@.,.,.:.O.X.O.#.X.X.b W W S o.Q m b F F D F S S v v h v Z v w v 9 Q o.v h v D o.S v 9 v S h v h F F v q q v F F F v F v F v F v S v Q D v o.0.h u.Q 0.S 0.o.Q S s.m c m W o.N X.W W ,.,.#.#.N N d.h.O.W X.X.O.O.:.U ,.U @.d.d. .} ^.J.J.^.| B.#X,X1.hXhXN.N.J.).4.| 6.^.B.*X*X%XP.=X9XG.*X-X-XP.L.*XqX>XY N.9X5.5.2.L.L.G.N.;.N.L.5.).N. .K.$X>.,.].d.>.I 1.L.B.Z.XXM.M.%.@X8XVXL.M.&.L J.G.O.:.I 5.=X5.&.&.L <.G.n  X%X;.L.-X5.1.G.! :.m W Q C w w C V i b X.F F N X.o.W o.o.v W E S S D D D F W o.n m o.W W F F W Q o.G D S S G F v v b F X.X.W X.d.,.d.O.O.I ).L.>. .@.@.J.].:.O. .U >.J.gX*X X2.2.5.d.,.#.X.O.O.[.U.:.! W.1.;.O.O.O.1.i.,.1.n T d.i.O.,.H.,.! O.1.O.P :.y.o.Q o.o.o.D h w v v W X.X.o.W F o.G G G o.8.q.G v V V v v v w w w w w 6 8 A 8 & 5 ` C w v V v q 5 G v b b F W v S D S S S V h h h C C C C t 6 6 w w w w w w w 6 6 8 6 8 8 u t 8 6 5 7 G h 7 S S V w V v 7 5 h V V u.C V 8 5 V t t 5 8 V V w w w w 5 w w V C C V V C w w 8 8 6 8 5 a 6 a w 5 w w 8 5 w w 0 w 9 3 0 ",
"G m N c q.a.9 F g s.}.m g X.g +.N E b o.o.v D S C w V V w 6 8 8 a p w 8 w w w w 8 8 8 w w 8 w t 5 7 5 a p 8 V > 8 5 w w 5 a Z 5 p w V w w Z w 7 w C w V C w C Z q m D o.o.v h o.v q q.g v b h W w.q.9.v v 9 b v v o.W o.+.X.o.m m c f.#.n ! ! O.:.O.,.:.O.,.:.d.P.T  .G.=X*X1.>.=X5.>.,.,.U j U K.$XG.1.=X;.;.).J.5.| M *.*.B.*.4.XXn *.4.*X).5.%XJ.5.>.@.d.K.1. ./.).G.5.,.>.5.,X .1.).>.>.n ).P.1.G.hX X X@XeXOX<.2.kX;.<.PX,.&Xd. .O.>.,.K.K.)./.@.I 5.(.5.,.3.P d.y.Q o.h G V C S v v S F b v v b F F b S D S Q Q Q S h v S D W o.Q b S W S W W D F F D W o.V Z G Z V v V D D D W W W W o.o.W W O.+.#.#.#.y.U.f.,.,.y.X.N O.O.O.g.3.} 3.n O./.@.U } } O.@.O.@.3.d.:.O.U W W X.X.v F Q S o.o.b b b b S S S S q Z Z V v w w v h Q Q S h q h D v S q W Q S Q F v v F o.W v q v G F G v G v F v S o.o.D D Q D h Q v D q o.u.q.o.s.N m m W +.m m ,.#.d.#.O.O.n n h.#.N U U X.,.O.d.U >.>.>.>.K.M >.4.,X^.^.J.(.).<.>.N.Y f &.%X,X).5.%X..J.^. XG.L Y 2.1. XG.L.J.L &.N.>X<.<.L.L.L.1.N.N.G.1.;.).,X;.>.#X1.>.).,.d.$X>.@.I J.%XL..XqXZ.qXrXeXA.V..X*X(.L.MX&XP.d.G. .*.N.kXqX2.,XL.I <.XX<.&.2.&.L.d.O.f.m v S w G t C G v v N c X.m g c b o.+.b o.W F S S W W W W #.E ! o.W +.+.F D W Q G Q Q o.G F v v v F W X.P U ,.O.d.O.,.:.5.<.J.1.@.d.K.P.K.d.). .U  .L. XE.T T >.O.O.#.X.a.#.K.H.i.! I.;.G.d.d.1.,.d.G.1.:.1.&X1.:.K.O.O.U j f U :.d.f.N W o.o.Z h w q 9 v N m b W F v m b G G S Z 8.G w v o.V q C V w C w V V A A 8 $ 7 w 5 q v Z G o.0.Q v b v v F q v Q S h v v h w h V w w w w 5 6 w C w w w t w 6 & t w 8 8 t t t 8 w q S w 7 S h 9 V w 9 7 w h w w 5 # w V C A 8 5 8 8 w 8 a V w 5 V G C 8 V w > 8 w w 8 w t 6 5 5 e.a C a A e.A a z D C C D z 0 w ",
"c N $.b $.a.c a.B X.$.9 X.U.N q.b v 9 D o.S D V w 5 w V w > 8 t V p w 7 7 7 7 5 a 8 8 8 8 8 t a w p w 8 > 8 Z & 8 8 a p 7 a V & w p G V V A w 5 5 8.V 5 A C V G s.W q v o.b h b S g s.v v b h o.w v o.S Q F +.o.+.y.y.y.X.W y.X.O.O.$X+.f #.O.O.i.! U n O.d.@. .].:.:.J.*X X5.%XN.1.&.N.1.G.=X1.P. X;.&. X&.<.&.9XZXCX X X(.*X<.kXmX*X X<. XI J...>.J.G.@.J.$X>.5.).).L.G.>.G.MX=XY >.%X1.).,.I 5.5.=XGXL.N. XZX XeX9XL <.L.j #X].@.n &X&X>.).d.5.%X,X(.J.>.*.5.U n f.#.W a.F G G o.G v v S S v W S S D D S b S v D Q D v v S Q S F Q D h b W S Q o.o.o.Q D S m D V V S Q o.Q S S F D D F F o.+.+.#.+.O.#.#.,.i.#.#.#.a.f.,.U O.3.3.`.K.O.J.P 3.3.O.@.d.g.d.@.n M O.,.,.#.+.W m b F h D Q S Q W F b v v v v S Z S D h q D o.S w V v g v D v q V h S h Q D 9 v w o.F v G F 9 v 9.v v G S o.G q.q.v Q D v S D D S u.Q o.q Q 0.o.v W F +.o.+.y.#.,.d.,.d.O.O.,.O.3.&Xa.X.,.#.#.d.O.,. .O.J.,.T gX@.{.| NXB.6.,XJ.*.<.J.5. X X5.L.J.<.M ,X..4.*.NXCXDXL.-X9X).N.kX=X9X*X<.(.B.N.2.<.P.5.G.).-XL.N.9XL.9X5. .J.,XsX . .K.G.=X1.;.<.N.qXJX(.M.Z.FXeXrXOXM.<.<.G.5.gXG.L  XgX*.L.hXL.kX-XkXL.2.-XL.T L J.:.:.[.E S q.G G q w Z b v F v b F +.+.b v b g o.W F S S S W W b +.F F F v W o.+.+.o.G S S F D v G o.o.+.o.W N +.W O.N O.U ,.,.G.5.%X3.P d.d.,.,.:.$X .L  .(.qXCX*X-X#X,.} #.3.d.#.,.,.:.T Y.R ].1.G.P.,.T O.@.O.O.P.! d.gX,.O.d.O.n i.#.N Q 9 g b S w w V V h o.X.b N o.o.v v v G F 7 7 S Z w w q.V 5 Z Z q G w A G G A 8 5 G Z Z Z Z V v F o.b v W F v v v o.8.Q D S v w h G V w 5 w w 8 z C z 0 5 w A A t 5 V 8 6 8 w t t 8 G 5 w V S A h v 0.w 5 v G V w w V 5 V t w C 8 6 w a a w 5 w C C 5 C w > V 8 5 A 5 8 8 a G a 5 a V 5 C p 8 C 8 a w V w w V h 0 w ",
"a.X.N #.a.+.N m m X.q.9 F s.v 9.v h V C V w w a C a w 6 5 6 w t q w V p 5 w V w w w w w w w V V w C w 5 w w w C C C w V w V p A v 5 h Z w w S C v 5 5 w S V h h 0.q D S h G h q Q v q v w.0.w V o.u.g 5 o.F m U.f.! U.n n #.#.n ,.dX[.#.+.o.o.y.i.! j ! K.g. .3.G.d.:.J.J.5.%XL.B.*.hX XCXxX*XV.R.=.*.Y (.B.N.4.B.9XN.9X&.<.).5.L.L.J.&.&.gXlX .T >.%X>.].). .,.J.6.L.N.*.*X<.L.=X9X1.:.1.P.O.O.>.G.>.>.5.J.,XL.5.%X%X*.N.>.N.).G.d.d.g.J.d.>. . .P.P.L.*X2.P.5.>.3.,.#.#.+.X.N q.F F Z v V G w v W D v D D S S W F S S m v b Q W D F D W D F F b m v m S F m h v S W F S F W W W v m o.0.Q Q y.y.! :.d.#.#.i.,.d.,.:.,.5.d.3.>.>.J.{.J. .P O.d.d.O.X.a.a.X.W +.X.X.W W W F F F b F F b h h v S b F S h v S S h S v g v S D S v F v F D v S o.S G F w F F 8.v q S S v v D o.D q b 9 o.o.b g o.v b W h Q W q W D v +.s.S D b 0.s.F g +.N W `.Y.:.&Xg @.>.3.I >.BX`.d.O.O.O.K.U d.P P <XJ.;.1./.P.*.*X4.(.(.(.XXZ.kX>XeXCX8XV.rX<.=.| (.Z.4.|.(.(. XhX .>.*XN.L.*X>.(.N.9XMX;.Y G.P.G.*XP.;.R %XG.N.<.5.9X<.L.hX XJ.T J.*X;.L ;.).N.5.J.L.9X*X>.9XhXY L.&.&.*X*XN.B.G.P.).L.I G.1.kXL.=X*X-XN.G.G.:.d.:.,.E +.F F S v g F o.v i _ b F W Q F v v D S F D W Q Q D S W v Q +.G F W v o.N F F m N N q q.q m $.o.W o.W h o.o.#.O.U #.O.>.,.U ,.d.O.d.,.f J.3.3.G.G.<.hX,XP.>.>.:.:.d.O.d.K.K.n O.P.:.,. .@.6.5.>.J.K. .I d.O.n d.].d.i.W X.X.X.F v S Q h h h h S Q Q S v v b W F v F o.o.$.F F q ' S S 8.> w 5 Z S G D q w G V w p 8 w G q F F v m N #.F +.F v G w 5 G o.G h w V G S h Z V h q w w h w w 7 V 5 w V & w w.V w w 5 t C 5 w V h w h w V G h 5 w w w V V w w p G p 7 p w C p C G V V Q Q w V a w 8 8 a a 8 w C Z 8 8 8 a p 5 q h p w q w v V 5 S V h v 5 G ",
"g.@.] } O.#.+.o.N N o.Q F Z V V C V V C C t w a w w t a a w w 6 7 7 w w 5 w V w 5 w p V p w w w w p w V A Z w w w w 5 v w C V A S v V D h q h h 0.Q S S V h 9 5 V w V 7 w 8.S w V 8.Q S G V h V q o.S v o.E P K.:.N K.i.! E i.,.K.{.,.m ! y.y.y.E f.i.P @.3. .L ].d.U MXG. . . X*X*X|.^ @XS.OXOXeXxX|.-.VXVX>XkX(.L.<. X;.P.L.N.L.L. X XJ.L.G.T J.).K.P @. . .,.*XN.L.J.<.*XL.9X9X&.L K.1.Y.f.! O.5.@.>.J.)./.5.4.&.&.*. X5.B.*X5.#X{.@.M  .;. .N.n P.N.&.1.G.&.>.3.3.@.X.O.+.+.X.b v v w V V w S Q Q S Q Q D D F S F F b v F o.D F F W Q o.W W Q W S m v v b S W Q o.Q W E E W +.W S o.y.+.Q W ! ! O.:.#.,.:.! ,.,.,.,.3.3.5.d.>.5.^./.g.>.U n ,.,.+.+.+.o.W F X.X.W W F F F F W W W D S S S D F b v v m v v h W F b m b b v h G F G G v v S b b F w S v o.F F W F v h m W o.+.F F y.v 9 b q.g W S v o.o.b Q q.F Q q.F Q g b o.S q X.X.X.U.d.O.g.d.,.M 5.5.G.gX:.U P d.J.P.>.).J.U >.5.5.;.P.5.I FXB.I M.;XZ.M.@X=..X(.Z.OXVXeX|.Z.eXVXVXeX(.L.B.(.N.N.(.B.B.L.L. X5.L. X2.1.=XG.N.;.Y 1.1.=X X X9X<.(.9XlX X2.L <.5.L.-XG.&.1.>.U J.gXG.5.%X>.j B.%X>.kX*X=.kX*XL.&.L ;.;.G.L 1.G.-X1.2.1.J.1.d.d.O.,.! #.W W m m c m F v i F G S S W W D D Q 0.o.D S S D W Q D G o.0.o.o.+.o.X.m m m n N O.X.$.X.$.$.o.D D S S W W +.P N ,.#.d.3.@.g.d.O.i.O.1.].d.>. .G.J.*XlX=XG.5.,.:.d.#.d.P.K.#.,.,.U #.3...>.g.>.@.@.} d.].,.U d.Y.d.d.#.F m N W D V h S S S h V S Q S g g v b F F o.9.F G b F p _ b b 7 5 ` p v w v q D 9 v S v 5 & Z V v o.o.F o.! W +.a.q.o.8.G V G h w w V S V S D h V V C V V V V w p A w 5 7 5 8.5 5 C G p w V w G Z V w 5 5 & & A v V V w w w 5 p p V 5 > 8 w V Z 5 w 8.C 5 7 G w p V a w 8 8 C 8 8 7 7 p V p 8 v v v w w w q 5 5 w V q 5 V V V ",
"f.a.#.} X.+.o.N m q v 9.v 5 G w A V t V V a w t w w a V V w w 5 V w w V 5 5 w 7 w w p w w w w V Z w 5 w V V V w V w 5 V w V w V w v v V V h w V 5 7 q w v D G D o.Q Q v D 0.S S w S & 5 S D D 5 h Q Q F W W W #.f.9 ! iX`.N ,.#.K.h.,.P O.f.i.! W U.d.j P 5.^.5.].Y.n <Xn >.Y (.B.mX4XZ.eX=.V.L.|.Z.Z.M.|.@X@X-.L *.%XhX&.<.;.J.N.L. X,X9X XJ.J.M 5.K.d.3. .K.K.1.&.(. X<.L.=.%.&.).).G.:.d.y.d. .,.>. .G./.5.G.).L N.>X*XL.*XN.>. .>.g.G.,. .T %XN. X2.N.P.N.G.3.g.g.,.X.X.X.o.F F v q V V V V V Q S S D D S S v b F D b b F +.S b b F Q o.Q W +.+.o.W b b D o.W W W W E m m b Q W S W +.+.W m f.H.O.P O.f.P.P.O.,.,.,.>.,.d.J./.J.d.3.,.>.O.} @.i.,.W W y.+.b X.W W W G F F F F S S b S S S S W b m b S v h v b b v v b b S S v v V v F v v S i F b F q S v S b b S S m h v F S 9 F W D h W v 0.b D Q W b h o.b v F F q.v b W u.F #.#.+.y.X.f O.jX$XU J.d.J.%X3.O.P P.K.:.@.d.5.M n 5.J.T %X*XI _.N.&.| (..XXXCXB.eXB.M.@X|.@X.XZ.L.|.@XZ.Y *.eX(.B.*.*.L.(.). X,XmX9X).5.2.L.N.P.1.;.-XL.G.&.N.XXN.(.L.Y Y 9XL.%XL.2.T 2. XI G. .).gX5.J.=XL N.,X9XL.9XL.*.N. .J.).<.&. .*XgXkXN.;.B.9XB.N.L.K.d.X.#.X.#.N N c m c q b b i b D v g m F D S S b b v v v v h g v o.o.G W o.+.q.a.W N W N P X.X.m o.$.F S S D Q F b E ,.E N a.3.N n I a.:.O.d.O.O.:.,.,. .).>XL.gX,XJ.,.>.3.).J.d.K.d.P.K.O. .,.g.>.g./.g.@.,.,.a.h.:.O.d.f.i.f.a.X.m b Q Q S h h h v v S S D S F W F v q q q c b b q F p S 7 q C 5 V 7 w v h q W q v Z V 7 & V V F q.o.F #.X.m X.q.q.W A G Z w 7 V Q G S V V h w h v h w 7 7 w S w w 5 w p 7 A V 7 w V p V V w 8 5 5 w w V C w 5 5 w w 5 5 V A G > 5 8 p 5 & C w 7 w V h v S C 8 w a C p 7 w Z 8 p V V w 5 7 p p w 7 w V C V w > V p w w p A p ",
"N X.+.#.a.y.+.W b q v Z q q S S A V w w t t 8 w a t w 8 w 8 w w C w w V w w w w w w w w w w w w ` 7 5 w w w C w w V w Z w V w V 9 V h w S v w G S Q Q V V S S v Q Z V Z Q w 3 G 5 Q 7 V S h w.Q 0.Q F b F q.u.o.U.N n `.f.! `.O.f.6.d.#.! y.+.m +.O.i.d.K.>.I n P.].,.].I L.).qX|.>XL.V.4XV.4X9X8XM.V.L.<.*XJX9X XB.N.L.T N.).,X(.*XL.B. XP.<.5.5.G.K.d.>.>.J.G.N.N.*XJ.&.L.V.-.<.gX XO.i.Y.#.P J.G.&X)./.%X).,X5.&.J.(.L.5.J.&.J.P g >.G.>. .>.G.%X;.T 2.T 2.&.3.d.g.3.#.X.X.X.F X.v q Z Z v G h S S h S S v S g m D D b v F o.W F b F Q o.o.W W Q o.o.Q W Q o.S m S W E m m m S E S S Q 0.o.m ! ,.O.O.K.K.:.:.O.,.1.:.@.>.3.d.>.G.{.].g.>.O.O.! #.+.N W #.q.F W W W W G G F F W F F F D Q W D F D F S S D F m v v v b b S F D q S v v F v i ` q F F ` i b i v W D Q +.Q b b Q 0.q S 0.u.b o.+.+.b o.S v D g F h h S S u.W Q o.o.c W y.y.f.a.O.P {.3.>.#X>.G.5.K.d.U d.,.n @.>.K.d./.).G.P ).*XJ.6.B.(.N.9X8X>X X4.eX(.OXeXOX@X<.Z.Z.*XKXkXB.(.*X(.N.N.XX,X XN. XJ.*XL.2.L.J.L.G.L.2.1.G.1.P. X>X5.<. XN. .N.qX XT Y -XG.j -X).=X#X%X/.*XgXG.>. XL.).L.B.B.>XI &.<.L. XL.;.N.=XY <.<.T N.*.B.).K.d.X.,.O.+.N N c b v q b v i v F v h v b b v g b S D Q o.W F v v 9.o.F o.+.o.+.s.X.W #.#.X.W B c X.G i v v S 0.b v W f.#.U d.a.,. .3.K.,.:.i.U :.,.3.3.,.J.J.>.,X9XG.>.1.J.#X).;.d.,.).K. .:.>.>.6./.>.@.@.3.@.K.`.K.h.U.a.X.X.+.X.W W S v v S h h V D Q Q S v o.q.q.o.W +.$.o.S S i _ i p 5 p 8.5 w w v S v S h v o.Z V S 6 5 F v o.W m W W W #.#.q.9.o.8.` p 7 8.w.S h V h 3 G Z V h w w h S C w 5 w G C 5 w [ p 5 5 7 p V w V 5 7 w w C C w w.A V w 5 7 C C V & 5 a A a > w w w w 5 h 0.Q 3 Z 8 5 p C p w w w p C C 8 & 5 V w 5 5 w C A C p 6 a w ` G 5 V w ",
"o.X.X.a.y.o.F F F Z o.5 w C 3 D C V w w 8 t w 8 V t w w 8 w w V w 5 w V w V A C w w w V C V w 5 V q V G V V V 5 5 w w A w V w A h G V w V v h G h S Z v v Z G S q h h D Q 9 9 8.V o.w Q S 5 8.G Q b v v S u.z.q.+.U.+.o.g +.jX,.K.3.3.I n ,.O.U K.U 1.].,X>.*.4.:.:.$X#XP.1.*XCX|.%.<.|.rX4XrXR.@X@XV.Z.L.L.qXkX2.5.>.%XJ.G.%XN. X9XL.<.J.N.>.).%X>.3.@.>.).@.U 5.5.%X XB.B.L.L. X<.N.G.,.,.d.n J.Y /.).3././.J.>.N.<.Y XXJ.N.).5.,.>.,.J.].#X).P.J.G.P.T  . XT ,.>.>.@.@.@.+.+.W X.v q V V w S v S S S Q D S D h b W D b b F W +.Q F F W o.o.o.D F F W Q Q Q W W E W o.o.W F E m W Q E W +.y.o.O.O.! y.Y.d.! O.,.3.3.:.:.3.d.3.>.d.).).d.O.O.,.! ! N N W X.X.F F F W W W F F F b b v b S S S S m W W b b o.Q v S F S b m v m b F o.F v D v q X.v F v G v o.F G o.b v S F D o.u.q.Q o.h S S o.b F S +.v b y.Q o.b Q +.b o.D W F W g b q.a.j.].h.O.3.U 1.$Xd.%X>.1.:. .,.>. .K.,.5.5.,X5.<.<.5.5.XX>X4.4.8XFXB.*.B.|.>X(.8X@X|.B.M.@XZ.L.CXqXN.B.*.XX*.N.hX*X X(.*X<.B.<.5.9X X<.P.;.;.P.;.T P. X*X X XB.L.XX).2.L.*X<.<.).L 1. .G.,X3.1.,XL.&.1.L *X%XB. XN. X*.>.>.<.).*X(.N.%XB. XN.2.L.&.5.1.,.,.O.d.O.#.W X.c N v q v V v b v F D D F S b m o.Q F S S W o.o.F 9.o.F 9.q.o.o.+.m m +.y.#.X.m X.o.G N D h q Q b b W f.,.W ,.,.#.@.d.h.,.,.:.U K.K.,.@.3.3.G.%X9XhXB.<.B.J. X XT ,.@.5.1. .5. .5.J.].>.3.O.,.@.O.@.#.a.a.+.N F b F W D h q h S Q D S D o.o.F m v F D b v v v q F ` F o.i b w Z V V 8.G h D S F g v o.F V Z 5 5 G v W W m c m +.+.W Q 9.o.Z Z V 5 V S v h h w 7 G V w h V V S G q V V A Z 7 5 V & q w w w q w V V h V V w w w q k.V 5 5 w V w > 8 8 a 8 V 8.V 5 o.5 5 G Q w 5 5 Z w 5 w V w 5 5 V 5 & 5 w w w 7 w 8 8 8 w w 6 5 w a 6 A A 5 a t ",
"j.o.F W D h v Q v S 8.5 V 8.= C V V w w w V t w w 8 8 w 8 8 w w w w w w w V C w Z V w 5 w w V V w w v V w V v 5 w V w A q w 5 V h Z S V V S S Q Q Q G V w w w q 5 D S V V v G G o.h & v S w Z q g v D D v F 0.+.s.U.Q f.#.#.K.P /.>.3.I @.K.O.! ].O.d.3.(.4.,XMXJ.1.sX5.=X>XZXkXmX4.Z.oX<.<.OXOXZ.L.B.rXB.*.B.&.| N. .G. . .,X).B. XB.N.L.<.>.,X1.U 3.,.,.$X .5.1.>.L.,XqX4.2.Z.*.2.J.1.1.i.P.d.$X .5.$X).,X,X5.,X>.B.%X9X XXX<. .M M >.G.G.>. . X).hX*X5.*XP.P.3.>. .U } O.+.,.+.o.F v S V v V S S S S Q S S Q b F W D F F F F o.W S b b S W W 0.o.F F W Q Q W o.W W +.+.W E E E Q o.E E o.+.+.U.,.! O.,.! O.H.,.d.,.:.,.d.d.,.d.5.,.@.O.O.,.a.,.O.W +.+.W F W F F F W W F F F v v v v v v v v v D D v b Q W v S b m m b S S S v F v F F q v G v F q v q G F F W b v S W Q W W v v F v Q v v q b D o.v S q.o.D v Q +.h W S W S +.F N $.+.#.`.f.O.K.d.3.3.@.<Xd.3.:.,.3.3.,.).@.).J.,X5.=XCX*XN.>X>X(.mXVXZX>X@X*.@XB.4.@X|.mXqXoXeXM.%.Z.4.Y Y *.qX<.N.>X4.J.*XL.N. X XJ.L.J.<.G.T 2.9X1.;.G.2.N.>X9X<.J.5.*.L.&.J.B. .P. XlX>.<.lXJ.jXlXN.9XP.<.CXlX).XX*.<.*.L N.(.L.N. X(.ZXPX9X<. XCXJ.B.;. .:.O.,.O.,.O.O.m N v v F V v F h F Q W S S F W W D S b S S b m v F v F o.+.o.o.#.F P X.+.#.#.N F G X.o.o.v 9 h D W S +.#.N X.O.M N @.O.O.,.O.O.i.,.O. .d.,./.MXXX>XN.<.L.B.(.%X4.B.N.5.>.1.G. .G.5./.5.].} @.d.N M m N F F F F S S S S S V V S Q S h v F W X.o.u.u.q.o.G F v 9 i F v F 7 V b G Z G 8.v 9 q.o.g F h D D v q & p G 9 W 9.F v c X.W m v D Z w 8 V C 7 7 S V 7 7 S V w 7 V S v h h w S w w w 5 w w 5 v h h C V w V 5 V V w V v h G w 5 5 h q 5 q 7 G 5 8 a A A w G S 5 h w.o.5 5 V v p p w 7 5 w w Z 8 5 7 w w w 5 8 8 8 6 5 > & & 6 a 8 5 6 t A t ",
"D v q g S D o.q.v q V w V A w A w a a w w V V w 8 w 8 w w 8 w 8 w V V w w V V > A V w 5 5 7 V G w V w 5 w Z V w V V w Z w v q w q h S S v S G S w q w V Q 8.q.u.w D w q 5 w D 5 v h Z G w w Q o.h b F F v q h D [.y.q `.].#.n P 5.>.5. .3.].T :.d.@.P.>.G.<.^...1.;.1.j I ).XXN.(.(..XCX.XY N.n.eX>X.XAXL.*XFX*X;.2.<.P.#X,X,X*.5.B.<.*.5.<. .>.J.J.>. .U 5.@.].%X).L.L.qXB.M.|.<.L.<.M %XsXP.:.K.,.U 3.)././.G.*XY J.*X XL.(.j MXJ.;.G./.5.1.G. .J.).5.>.P.I 1.G.3.>.>.O.O.O.,.#.X.W G v S Z V S S v S D v h S b S F b b F F b S S S m v v m S 0.o.o.Q W W W W o.E W +.+.W S E E E W W W o.o.o.! N ! ,.+.P ! O.,.i.i.:.:.d.3.O.O.O.,.d.d.d.O.P i.#.+.#.#.o.W W N F F W W F F F F W Q Q Q D D Q D b b D D b v m v h h v F W W D v q F o.F v V G v G v F q F v v Q o.+.0.0.0.W v b h W 0.z.Q D o.b F v F D b S v g v F h o.F W W v m c F N +.}.U.n h.J.O. .g 3.d.). .G.d.5.,.5.T G.5.J.>.P.G.2.Y N.| | qXB.M.>X.X(.ZX|.*.(.M.>XXX.XmX*XrXZX*XL.B.<. XL.>XqX5.>.5.&.*.5.J.;.T L.*X;.;.&.P.2.G.-X=X*X X*XB.XXN.<.%X%XL  XMXhX .L.1.L 5.J.].P.G.).>.*XB. X*XL.*. X4.4.L.N.4.N. X*. XN. XN.<.5.>.*X4.;.3.>.,.O.d.#.X.F N v v D v v G g S F m h v S D F D W o.o.W S h F q q F F F W o.q.#.,.X.N X.+.N m N o.o.F F D v m +.b U y.X.N U @.a.a.U #.#.m #.:.O.d.:.,.@.J.J.L.*XZ.Z..XV.L.rX X(.*XL.>.N.G.1.;. .G.,.$XP I O.`.a.#.X.N N N v D S S G Q G S S S h h v m m X.#.F v v F F F F G q S i i 5 F V v w.C w h h s.o.v W F o.Q v 5 & v D 9 F o.X.F n N X.#.Q F G V p ` G V V S v 7 w S G V S Q G V h h h G 5 5 h V A w 8.Q w 5 C S w V h 8.C w S w 5 S V S 8.8.w = 5 V 8.5 w G G p q 9.w V 0.8.S v S v w V v q 5 w v w v Z G Z v h v w 5 6 6 8 8 8 6 6 8 8 t > > a t 8 ",
"D G S V S S h 5 8.0 5 C w 5 A t 5 w a 8 w w w w w w w w w w w w 5 w C w w G G 5 5 w Z A V w w p q A V w 8.s.G w v w 5 V V o.Z G w w D G w w h 3 v q 5 w w q q h 0.S 5 V h h 8.w S 9 h q 7 G G q b v q g m h h D k.s.g W W O.O.K.3.6.g.n I ,.P K.G. .5.&.).J.XXL G.G.#X,X..B.4.eXL.|.L .X*X-. XL.@XAX X9X X X).;.&.;.P.1. .J.).6.<.B.*.Y P.MX=X>.1.5.f  .).$X>.>.&.).L.<.kX*XV.%. X>.L.J.J.@.,.O.g.$X} @.).5.J.gXL ).<.j ).L.*.N.I >.G.5.5.K.].#X>.P.J.=X&.>.J.L ,.5.g.J.g.,.,.a.#.N F F h v G v S S V S S h q v v m v h v F F v b S W W S b S F b W o.o.W S m m W m F +.y.o.W W W E E o.0.y.0.+.! P #.,.U #.K.K.#.i.a.#.O.O.O.P ,.,.,.:.:.:.#.:.O.O.X.X.o.+.X.N N F F W W F F F g v S b v h h v 0.v v +.+.h q F D S v m F D S v G v o.s.o.v G F 9 F G 9.G o.S v v S b g h b b g b o.Q 5 v D +.Q v h 5 Q o.g F S v g v v q.b S D F G v N q m h.,.U d.O.U $X,.>.K.K.f >.,.5.3.d.3.;.J.P. X).L N.XXXXeX&.N.(.>X8XM.%.8X(.&..X(.8XeX>XqX(.@X*X*.&.*. X<.5.L.).J.1.5.N.B.N.qXgXN.N.;.j P.P.-XG.G.1.L. X4.ZX>X5.N.(.&.J.J.,X2.5.L G.hX;.;.,X;.L.DX .1.(.j 5.*XB.Y N.B.N.N.B.*X9X,X>.9X>XL.4.L.J.I  XJ.J.].g.3.>./.a.W ! N v b G v h Q b F b g q g b S b h g g g h v m o.q v o.b v o.+.N +.i.X.g m W m F o.q.o.h W q.D 9 $.b P h.,.N N n O.O.g O.,.N f.W f ,.>.T >.,XG.%XkX*X*X8XM.Z.eX*X(.rX X>.5.1.5.1.K.,Xd.sX,.O.N #.X.N m c F _ v v S Q Q S V V S D Q o.o.F c B X.o.F v F G F G o.v G v i q 8.Z q G 5 q s.q.+.g o.F +.l.o.v v 5 5 G q b b N o.N c N a.o.q V V w A 7 Q Q 7 3 V G w w q w V h q w S 5 0.G C V V 8.o.v G V w w q 7 A 5 G w & C w & A V 5 5 w w w v C q A 8.w w 8.Z w Z 8.w.G h v h 3 V V q 5 w G A w 5 w v v G 8.Q V t t 8 t t t 8 8 a > a a a a & 8 ",
"S o.Q h 7 z V w w z V t w w t V w a C V w 8 8 w V 8 8 w t C A A A 5 V C > w A > p C w w V C w 8 C 9 w 8.h v w.5 D o.Q q 5 V o.V Q G S h w h S G 0.Z V h w h V w 7 h w v G 7 0.8.h 9 V q q v 9 h +.+.h 5 h w 9 v w v q W q N #.$XK./.{. .,.{. .>.>.).>.<.4.5. X X&.*XL.&.B.B.4.qX8X>XV.|.@XB.L.L.B.|.|.B.B.L.L.1.P.G.=X5.n ).5.XXJ.>.%XL #XFXJ.P.1.5.].U M @.].5.). .L.L.*.(..X<.=.*XB.5.).).&X&X,X).J.jX%X .5. .>.5. XN.n 4.>XL.9XG.,XG.#XhX&X>.G.f J.). .5.G.J.>.G.J.5.g.d.#.X.+.X.N v g h v Z S S S Q S h h v W b m F F b F W S W F b F o.D g W W D S F W Q o.o.X.W E ! X.W N m N E X.X.o.y.j.d.d.i.,.#.#.#.,.O.i.O.P #.#.#.f.d.:.U ! O.O.! O.i.O.X.#.y.+.X.o.W X.X.W F F W Q m h v D o.Q W D W D q q D v g o.g o.W m S v h D W o.Q W Q W F o.g Q v b W o.q.h W v q F Q o.j.u.h Q b v g h F v v W F q o.u.v 9 o.5 Q Q 9 v z.F v i c v c m m q n #.q } d.]./.J.sX@.K.]. .J.@.).>.G.>.N.qX%XN. X>X&.B.Z.B.eXeX|.@XZ.>XN.|.(.N.B.@X.X XB.*.B. X5.,X).T /.G.).). .XXL L.qXlXN.&.-X-X&.Y 1.-XG.-X;.(.N..XL.(.4.J.XX X X X X XlXMX X#XCX].>.<.1.I %X).| >.L. X9X9X*X%X(. XkX*XN.<.I XXXX .4.N.).B.<.,XG.J.).,.n U d.P c q v S F v h S o.v 9 v S m W S F F F S b b b G G q G W g X.X.W F ! +.#.+.+.+.+._ F N b v h h W F W O.#.d.,.c O.a.m N X.! f.O.y.P :.,.U d.&Xg.<.<.<.8XM.A.rXrX@XOX|.2.(. X .5.K.,.>.J.].d.! c N m F o.G q w G v h S S S h S 0.S S D o.X.m N $.o.8.G G q i q v w.q h V 5 q G w v w S D q h W W o.g W g S w.q 5 V q.u.q.h.9 i.n `.+.b Q 8.Z p V w w h S G S h h G w 7 0.v h w G h h V V w h S h V w w V S V V C V V V h V S S S V w Q G q V S V C p Z q i S 9 S V q v Q S 5 9 o.V v q 9 h S V w D o.V q V v w A A w w 8.a A V w 8 C t 5 6 6 5 5 ",
"G Q Q h w h z w t z V t w w t V w w w w 6 6 w t t a t w 8 w V C Z w Z G w w A V = A 8.5 5 V p w S V v v q q S h S 9 h o.o.V h h w h h h D 8.D 9 D S G G S G G v S V V w V 3 h h Q D 8.G S Q V Q F b g g h 5 5 w 3 w q F W U.#.j 5.4.J.@.3.#X3.d.J.*X<.J.9X6.*.| &.L.<.N.qXqX>XqXM.4.%.Z.*X*XhX>X(.Z.(. XN.T T 1.G.L 1.=X=XMX5.>.).L.L.<.L.J.P.&.3.3.K.>.,.G.].>.L. .B.>.N.*XM.Z.B.(.L.).5. .J.K.g.K.).J.MXsX .J.9XJ.<.5.N.(.*XXXI ;. .1.#X5.J. .J.j G.gX#XG. . .d.g.5.5.d.>.O.,.#.#.$.X.F v h h S V S Q Q S S D b F F S F o.o.F m W Q F W o.Q S v S W Q W W W Q W W W E E P E W o.O.O.+.o.X.o.#.P O.,.i.y.#.O.O.O.i.+.W O.X.W ,.i.:.! O.:.#.#.,.y.#.X.+.#.+.X.X.W W N N b b G o.F v v F Q Q D S v S v v o.D v F S F v g D Q S v F S F F S S S S o.+.b F D b W h S S F q.W g F S 0.S v u.u.v F 0.9 b o.S F o.D +.q.+.0.b W S o.G v q q q q m N c U #.P d.O.P ,.&XJ.U J.<X5.P.5.%X#XG.CX XY 2.>.*XB.B.qX9X@XqX.XB.M.B.VX>XqX@XZ.8X XB.M.4.<.4.6.4.>.>X,XMXG.5.%X,X5.B.XX X X>.N.5.L.1.1. X=X1.L.N.N.N.XX(.(.M.(.*X5.5.<.B. X).N.J.P.).DXCXI L.lX2.).XX<.B.kX9X2.&.4.B.*X9X4.<. X&.N.CXkX>X<.N.(. XJ./.J.3.>.g.h.#.O.+.X.F v h v V v Q Q S S S S D Q b b W Q b v S o.o.F o.o.v F b X.X.X.X.X.X.W N m v v m S D D S o.q g O.+.X.O.,.X.d.c X.+.P f.N i.P U O.U d.].5. XL.V.8X|.8XwX+X8X2XeXqX>.Y 5.3.K.3.:.,.3.:.U m m b F F v v v V S S Q Q G S S Q 8.S h F o.X.N N G G v Z v Z v V v 5 v D h v G V v v F S 9 9 m E X.m u.o.D G & 5 u.q z.F W q.Y.U q.o.D G ` G Z V V V S Q G V w h V S h S w o.G V w 5 7 w h G Q V w V G G V 7 w S w w w h V V h w 8.h S S V 8.G w q v o.V v S V w.V w h D D v h S & 9 V Q Q D D D q S V v G S h C w 8 5 A 8 C 8 w 8 A C w 8 8 6 8 ",
"0 w w w w w z z t a V a 8 8 8 8 8 w w 8 8 w a V 5 8 V a w w V A 5 5 w V 7 5 w C w 5 p w C G w G w V V q v v w o.D V S S v v v w S G S 7 h o.G 7 w q h V h h V q D h D w Z v S G h w V w q h q v W v h S w 5 5 w C v 9 v m X.! O.3. .J.K.J.).;. .>./.Y 5.hX>X*X X2.N.&.(.kXeXeX>X.X(.B. X X*X9XB.(.@X*XL.5.N.G.H.K.1.1.].d.d.G.XX9X5.2.XX).>.%XJ.>.5.K.>.U  .G.d.P.).4.2.*X*XM.|.FXkX9X,XJ.g.{.3.@.>.G.P L ).5.>.N.%X%X5.| >.L. XL.J.G.%X%X5.=XP.>.L ;.).{.J.3.,./.5.5.J.d.@.O.3.O.#.#.o.F v v v S S v S Q Q D D S W D h b +.o.b b Q o.W W Q Q D h b W W W W Q o.o.W W o.W N W #.W E E X.+.o.o.+.+.#.#.#.O.X.X.X.W +.X.W o.X.W +.O.~ ! O.:.#.,.i.,.#.O.! X.+.X.W b F W X.W F v v W m h S W D S v b W F b D F h h F F W W b F Q D S g b W b W 0.W W F h D W S o.0.v v F q.Q q b v S v q S o.v F b s.S v g v o.b h v v S q W D o.o.G S v v 9 c m c g N c X.O.d.d.U $XG.J.%X>.@.1.L.N.&.hXhXXX9XB.4.*.OXVXeXmXkX|.(.Y B.@XqXmXQ.(.>X*XL.4.B.).J.6.L.5.).5.J./.).J.5...XX(.J. XN. X;.P.2.Y ;.P.1.L. X<.B.>XXX>X XqXmXZXZX X<.L.N.*.J.>.I  .sX<.>.=X=X<.).Y *.>XXXL.L.L.9XL.(.qX%X&.j 2.*X X X<.4.L.(./.(.G.5.,.3.3.#.#.#.X.v g S D D v F +.o.b b Q o.Q h h o.o.b v W o.o.F o.o.b F F N F N N X.,.#.X.m N F F D o.Q S F F o.O.N W X.N X.a.g N X.N f.N #.W N N @.d.g.,.P.5.L.*XoXVXrXoXS.2XR.*X X .3.J.d.d.:.U N P N N q v v v v Z G Z D Q Q S S S S S 8.S h S +.+.X.F G C 5 V V o.V v w h G Q D S S G G Q W Q o.o.o.u.,.m q.s.l.u.7 9 o.q.uXq X.y.#.a.g m b v w V p 5 5 7 h h w 5 w V S S h h 7 G S 7 8.S V V V G S 5 S S G Q Q G S S V h w h S S V h 8.h V h S 0.G w Z V S w V F v D v v v v m m v h 0.o.o.o.D v v Q h S W Q o.D v V V V 5 V V A 8 V 5 Z G A A w 6 w ",
"G C C S C w 0 w a a a a 8 8 8 w w w t V V V t 8 5 8 V a w w w V 5 w w V V 5 5 G Z = 5 w ` G 5 G w h G v S D q o.Q Q Q v 5 w G G G o.D q 5 h S S Q w q V v h h v 8.h Q 7 h w 5 w Z V V V S D Z D y.c g S w 5 8 w a w V Q b g P d.`. .3.3.>.5.5.G. .J.).5.L.hX,XN.L.L.<.XX*X(.8X@X|.B.L.|.L.*X9X<.M.(.B.&.&.J.P.1.d.$XG.G.d.J._.<.>.j >. X%X X<. .1.J.].3.U P ,.K.J.9X>.L.hX X.X|.V.XX9X(.>.5._.3.M n >.sXY g 5.Y <.N.J.6.N.>X9XN.*XT P.G.L >.G.5.3./.5.,.5.5.d.@.J.5.J.].J.>.O.,.#.#.$.X.b v b F Q S h v S D V h Q Q b q g W Q b W Q o.W F W F b b F W F S F o.q.+.X.X.+.o.W X.y.N m E o.+.+.+.,.a.,.+.X.W W W W X.O.X.X.o.o.o.+.U W ! O.O.O.#.,.#.#.+.U W +.+.W F W X.X.W F v v D b v S S S v S S W F h v S b v D D +.o.h v o.W o.v F W v Q u.Q S S b W W W 0.u.S b h F F F o.v b Q S q b S 0.v S 9 D Q v b F o.o.g +.+.F D s.v G F F b 9 q m g N +.,.O.P d.$X,.G.J.d.P.1.>. XL.N.*XL.%X9XB.L.@XM.eXrX|.eXmX.X@X|.CXB.kXZX*.(.6.(.B.<.4.(.N.<.J.).#XG.J.]./.,.5.L ).*X XJ. .N.).-XL.T R G.L.P.*XJ..X>X.X.XN.@X@XkX(.*.4. XB.Y n N.zXj M N.>. .5.N.(.L.lX>XN.XX<.J.XX*.*.(.N.N.,X%XB.>. X XJ.).).).).^.J.5. .@.g.d.#.b q v o.o.S b v Q Q g v +.+.v q h W o.F F o.G D S D F N F X.m N N N O.f.f.#.N X.o.F D Q D v 9 v W P N a.K.a.X.@.m c m F y.+.X.O.N P a.d.>.@.;.>.). XV.eX+X2Xm.V.*. XhXK.d.P.:.:.O.n g m N m g m S v v V D Q W o.D h h S Q S S S D Q W b N G G V 5 v v o.v w v Q G S Q S S 0.V v 9 h q.o.m N m f W +.u.q.9 & v '.z.b s.W ! #.m F Q F v v p w C S S V h V G w.V w w V w h h w G h h V S Q Q h V v h V C V h h Q V w h S S S V h w V h w S V S o.Z w q V V q q m S S v h q v Q z.Q h S o.o.0.u.v D W W D S S S v Z 5 w V V 5 w h G G Z A v w w ",
"z 0 w V C w w V p w p p p 8 w w w 8 w 8 w t w w V V a t w w 8 5 w V w w A w 5 Z w V G w w V 5 v 8.g o.W v F q g Q q v q.o.v F 0.q w V Z S h h v w.q 5 Z D h w v 7 = v 5 S 8.8.w.G S h v Z D Z v +.q 9 h w 8 w 5 t C V q m #.#.n >.M O.d.G.P.).P.%X1.,X>.L =X X*. X XL.*X XZ.>X.X|.Z.*X*X).hXCX%X4.4.4.N.5.1.1.H.L K.,.O.,.5._. .| B.J.Y >. X>.Y >.G.d.d.,.>.U U 1.J.N.(.XX X@X|.|.eX9X(._.%X5.@.>.J.d.#XM  .=X%X*X&.5.*X X X).Y >.;.-X XP.#X&.T 5.#Xd.,.J.K.5.P 5.5.J./.5.,.,.@.d.d.a.+.E b v b Q D V v S S v g Q S v v F F G W Q Q W F W Q D b D W W D F D o.q.#.X.W X.X.W W X.+.+.#.y.#.+.#.y.X.N N W +.#.! N y.#.+.o.W E W E P W ! O.! ! o.#.+.#.+.W ! #.+.X.o.X.N m b b F W b b b S v h v D v b S v v W o.D Q v S D b Q o.v q.F W F q b +.m o.0.q.Q F D S S S o.S v h F +.q W W W S o.q Q D v 9 o.u.o.Q D W W g +.o.D S 0.9 w q v i q v m c c q X.#.U n U U U J.J.). X).,X<. X X&.L. X<. XqXZ.eX@XZ.*X*X(..XXX8X4.>XeXB.^.N.B.L.N.4.J.N.<.J.5.5.5.5.K.>.U 5.J.5.J.N.<.<.&.G.1.P.G.;.;.2.;.J.(.XXXXXX@XZ.9X8X9X4.(.qXL.&.5.B.J.=XM 1.%X#X).L.*X*XL.kX X| L.<.MXL. X*X&.;.9XJ.1.>.5. X5.L 2.N.B.XX).6.3.5.g.].`.f.X.v S Q Q v D v S F q v o.W g b D D D W o.Q G F G D F b v b W o.X.P X.i.y.X.c N F F F G D b T.+.E X.N n U O.X.B +.m c +.W s.o.y.X.U ,.,.} >.@.,.). XV.8XoX2XoX%.*XCX).J.K.h.X.O.X.m m N F m W F W o.S q v o.o.o.o.S S Q Q D S D o.Q v q q v V V 7 V w Z w w w Z h q D D S 8.D o.Q +.s.o.n P P y.'.j.q.q.Z v G G W +.y.o.i.g W F W G V w 8 C C V w w w q w V 7 5 h V V h S V z h h z h S S h h Q 8.S q 5 h S Q h q h S V h 0 0 h D h w h h S v G F V v v v D S v S o.W v b +.q.v q W u.u.+.o.h v F W S S F D S o.h v S Q w S 8.o.V q h w w S ",
"7 5 5 w z w w V w w 8 p p p w 8 a w w 8 w w C A w w 8 w a V t w 7 V 7 5 C p 5 w V C p V A V p C 0.q v S v b v g +.v h Q +.o.F q S q w G 8.G h w Q 7 7 D G v w w 0.Q 0.v S h h h V v 5 q h w w 3 b q 9 w h a 8 > A 8 w q o.:.O.n O.O.,.d.G.P.J.>.%Xn L.5.&.9X-XG. XB.L..X@X>X@X(..XQ..XB.<.L.L.5.*.(.*X%XL.K.P.Y.K.&Xd.O.3.4.,X,XN.qX5.<.>. .>.J.>.J.3.3.>.>.U  .J.;.,XL.2.XXB.V.qX>XB.| 4...g ;.5.@.].&XY #XG. .6.5.,X,X*.&.B.4. XCXY j 1.1.;.#XJ.>.U @./.).3.>.G.<.5.G.>.,.d.:.,.i.y.#.o.F v h D D S S S S S S S v S o.+.o.G W Q W S D o.+.o.W S D Q o.o.o.o.o.#.+.X.X.O.+.X.W +.#.y.y.+.! X.#.O.U m N O.#.+.! #.X.o.o.S E W m W ~ O.O.! O.o.#.+.#.o.W W O.o.X.c m b F W W F b v v S F v h S Q S S Q o.F D Q b S S D W D o.o.W Q F W F g S +.F F Q q.W F o.S S g +.q.o.v F q.S h F o.v o.q W g l.S v v F o.F S 5 b S 9 o.m g S w w v v q m N g N m d.d.d.3.,.>.,.).J.G.P.5.J.Y *XI B.qX XXX*XL.M.rX8X4X>XoX.XXX|.*.XXXXB.>X*._. XXX).(.).L.L. XG. .5.J.,X#Xd.P.%X<.<.*. . XN.G.1.G.1.T Y 1.;.N.(.(.B.(.8X(.mXqX|.<.N.*.f  . X>.,X].;.%XL. .;.G.*X9X&.<.XXB. XMXI L 2.L.2.L.=XL Y N.9X,XN. .).J.L.(.4.4.J.g.5.].3.,.+.F v v S Q Q S S D b v b v b o.o.D F o.o.F v v o.o.o.o.v v W X.X.W ! +.+.W m N F F F F D Q b q g ! o.,.,.+.N c a.X.F y.F u.#.i.O.U O.} } d.@.>.1.L.L.rXOX+X@Xn.eXkXJ.1.O.a.W X.X.X.X.X.X.N W b D o.Q h S q.F X.o.o.D D S v S S S D D S v v w p w V w V v V v G h h Q Q h V 9 v o.0.Q f f ! n +.#.W F o.S 5 G S o.F X.W m N N c v v w 5 8 V G S S Q 8.Q S V 5 h Q h 7 w S 7 Q S D S h h h 0 h S Q S h S S Q S h w S S z q 9 S S D h S Q h V v G b v F v S S v q m q.u.Q b D +.Q Q o.o.S v v W W 0.0.W b S v F Q v D D q.D W Q D v h S v q g ",
"e.8.G D C z w 5 w w w p p p w 8 t V V a w V C A w 5 5 w V C C V w C V w C A V w G C # C w.V A A v v 9 v o.F F W W W S 9 q o.W 3 o.V w h S S V h G G Q G S Q Q h v S S w v 7 S h Q 8.S Q Q S Q v m N v w V a 8 6 8 & V 0.T.O.O.O.G.P.:.n U 1.J.5.>. .P.*X-X*XN. . XB..XL..XqXZ.Z.qXXX@XB.J.*X X*X*.XX*X5.>.P.K.:.i.:.P P J.>. .|  .*.>.*XL.<.I >.G.=XJ.3.@.J.d.].J.).=XN.&.Z.Z.4.4.4.(.4...I ;.gXDXP M ).U @.n 5. .(. XJ. X9X9X*XL.lX1.P.9XL.T &.%X>.>. .>.d. .>./.&.>.J.>.>.d.:.O.O.O.O.o.W b h v G Q D S S W Q b D o.o.o.o.W D W F F D Q o.o.Q S S F W o.o.o.o.X.#.#.X.X.#.+.W O.X.X.O.X.U W O.a.#.X.} X.X.+.+.X.m W o.W o.0.W ! :.+.~ ! #.+.#.#.O.O.+.X.W W W q c N o.+.o.b g S v b S S S S D Q b Q +.S b D b g W +.Q F b S o.h W o.Q W o.+.o.v q E F D o.S o.q F Q 0.D S q.+.F o.q.v 0.b u.b W D D g g F Q z.F u.q.h +.v h Q G V v b v v N q c X.K.N P X.d.&X>.>.>.>.L.>.J.L.*X5.qXqX-.=.XX|.R.OX@XeX*X.XqX@XeXB.>X>X7.XX6.^.XX5.4.J.B.<.5.G.>. .J.>.,.,.3.d.<.4. X*XL >. X9X X1.2.N.1.*X).*XXXZ.%.M.XX%.B.=.N.&.&. .4.CXmXI L G.1. .L 5.L. X).hX*XXXVXqX X*X1.lXgXG.;.&.G.-X&.;.J.J.G.1.-X;.(.(.7.6.).3.@.P.} ! W W S h S o.o.o.F F W S v D o.o.D F D Q W b v v o.G W +.b G m N W X.X.X.O.o.o._ G o.W S D o.g b W N N ,.O.q X.X.X.o.+.+.+.q.o.+.X.X.O.}  .3.O.>.T L.XXrX@X@XoXZ.N.G.J.:.N X.F N X.X.X.X.F W S v m D Q D Q o.N N W W S v v S V h h V S G D S q a p Z w C V G D Q D S W Q h w v V 0.s.Q m #.K.i.#.m b q.j.8.5 q l.q.W F c N #.W W S v V Z Z V w 7 w V S V h w V h G w w 9 V 5 h h S S h S ( Q h q 3 9 S Q S 9 D h h S G S h S S S D z Q 8.h S V G 9 v F v v q h F 0.u.q.W S W E Q o.W m m W q.u.y.s.u.S m E m v v q b g o.D v h b v F W v 9 q ",
"V v w w z V V w w w w i v v 8 8 5 w C A V w w w V a w 8 w t w w & w w 5 7 V v 5 w w.q w h 5 G 5 5 o.5 v l.D h Q 9 9 h b q q v v 5 w w 9 9 h S V v 8.8.7 & S o.7 S 8.Q G 8.V s.8.5 v q S V 7 S h F q.D 5 7 8 5 8 A w h 5 o.d.$XY.f ,.:.U d.].K.;.>.,X5.T  .&.L.).>X.XeXZ.(.8X4.(.XXM.<.Y &.J.<.J.mX>XB.>.>.1.;.P U i.].d.K. .@.J.G.I L.>.Y CXG.>.1.K. . .,.$X3.1. .lX>.1.4.&.qX4..X&.B.*XqXZX_.} /.GX . .J.).T >.L.>XB.N.kX X&.L. XY N.=X1.L.I L <.@.#X1.@.).G.#X X| >.#XJ.,.3.>.J.,.O.! W F b v h Q 8.Q v S D W W q.#.F v F W S F F D W F F W Q W m v b W +.+.+.m +.#.! U +.+.W y.+.X.X.! N N N N X.#.y.#.X.W N o.N o.q.o.+.0.m ~ O.o.W ! #.+.o.#.o.X.+.X.b m F +.X.b v b F W W D b v S W D S v F q v D h v +.0.v W m h D S 9 9 h 0.u.o.Q W b b o.f S F F b 9 F S g 9 D S g W D s.h g v u.5 o.u.o.o.o.W s.s.h q b h o.b v b s.q.F i q i q N F c W g #.h.BX/.P O.>.Y 1.L.,X<.5.*X<.).Y 4.L.B.kXL.mXoXZ.8X|.(.qXZ.N.*.I (.*.(.ZX>X*X| | B.5. .;.1.%X5.].Y U 3.J.@.).*.;.lXG.5. X<.N.Y N.=XN.P.5.%X(.4.I B.>X4. XN.(.*XCXCX).&.).GX1. .G.$X .5.).%X5.(.qX XN.(.L.<.L. XJ.5.Y L 1.G.gX1.1.L.-XL.,X<.| >X*X4.J.).J.P.,.! P o.Q v h S 0.0.F m W E W s.q.F g b o.W S b o.F o.v v W v G N N X.+.X.W W +.o.N b W W v D q.q.v g c g c U O.#.a.c X.#.E f.+.m N X.#.:.O.X.O.>.J.>.%X*X X.X@X.X*.&.K.U n f.v F N F X.W N F o.W W S v S Q E g W N N F v v G w.V S V h 7 9 w h w V V G w Z V G V S v h v S S v Q q v W c g O.,.K.,.P ! #.o.S 5 q l.F z.F g fXm m W b q w F V 5 A V h h h w w w Q 5 h v G 7 S Q G S S h w V S h ( Q D S Q o.S 5 Q V w h v h S 8.9 S G h Q Q h Q 9 W v F v 5 v N F z.iXU.E m W y.W o.+.W E W +.q.y.Q o.Q g m o.o.o.G F +.S q.q.F S b g q g q h X.",
"5 h V h w h V V Z w V G z w V w 5 V w p w 5 w w 5 w w w w 7 w w Z G o.w 7 w w 8.v h w 5 h G V 5 8.V A w v Z 8.9 7 Q v Q Q o.h S i F q v o.o.Z 5 uX5 w h C o.q q.V V q 7 w w v 0.v 5 w h 5 v Q w v F F v q w w q o.D 9 W W g :.i.P i.O.j ].3. .J.G.;.G.).>.>.G.B.>X<.L.4..XXXL.N.M.J. X| N.(.J.#X>X^.6.>. .5.).d.J.J.J.$X&Xn O.>.].1.P.).;.>.J.>.#X1.>.d.d.5.1.>.3.5.5.hXI Y ,XB.L.5.).4.)./.>.5.Y K.c >.).@.5. .5.J.L >.&. .<.L. X| *XXX5.N.>.=X . X*XY L J.J.G.L.<.B.6.&.>.1./.@.} @.N q.o.o.q v o.Z v W o.F X.g +.N g ! #.E W m F Q W b b F o.b N N N W X.X.W N X.X.N N o.#.+.X.X.W N N W W m +.a.y.X.W o.+.o.+.v W W +.q.b W W D F W Q W o.#.o.q.o.W W b b W F b S F S v v v F S v h h b Q +.o.v b b D W b Q D g b +.v g q.+.Q q h V 0.v v F g +.o.o.g W b F m W 0.u.m F T.m g +.G G o.` G c g F v g o.0.S g b g v 0.Q b o.v Z 7 o.q c F o.#.g X.O.n 3.d.n 3.1.&.J.2.<.G. XI ).B.<.4.<.).,X<.|.M.OX>X|.|.L.Z.B.Y (.XXN.>XhX(.N.B.>.6.(.<.5.#XJ.).<XU >.;.$XP.3.%XJ.>.J.G.N./.&.5.5.1.J.3.>.G.1.hXL >.>X(.XX*.|.B.J.=XJ.U O.d.P ;.>./.G.Y <.). .L L.&.Y >X X<.*XXXB.N.J.%X;.,X X1.L B.(. X(. XN.4.B.*.5.#X3.U i.d.:.o.~ v g o.S q.v Q +.m ! f P k o.E E o.v W Q o.v v o.W v F m N N N N N N N E F F W +.0.o.W h S W S m E +.d.h.f.O.N O.,.O.X.+.,.O.:.P :.U U J.5.5.>. X,Xd.).>.O.:.X.m b F h W o.F F F m v F q.v q b +.o.F b i ` ` i p Z Z Z w q o.V w A w w V q v v Z Q v v h S W 5 m W y.S o.q 5 y.sXK. .5.5.;. .P.K.+.W 9 7 w.S i G Q 0.F q.g g v q v v q 5 A w.G w 7 w w V S 7 v S q S o.v h v G Z w h D 8.9 S Q V 5 3 w.S q o.D q w 9 S W Q Q Q D h l Q 9 W q q G g g W a.`.,.P ! O.,.! K.d.n U #.f.#.#.X.+.D g m 8.8.S V 9 G Z 8.v w i V v v v V v v v ",
"h S S h q q w w S h z C z z z z 7 p 7 w w 7 w 5 w w w w 5 5 w C w w V w S G h G h V V V S S h 7 0 V e.w 5 7 G w S 7 q Q 5 S Q v F _ q i G G Z p & 5 w.o.w V w G V V v G q.G 5 & Q G w.s.D v G o.q q q q i v F F W 9 m m P O.O.d.#.i.d.U K.P.K.>. .Y 5./.>.| 5.(.B.Z..XV. XZ.(.*X*XL.L.<.%X*XJ.).%X_.>.3.G.>.3.).U >.K.&X=XO.:.U d.;.1.G.,.K.=X#X>.G.G.>. .O.,.5.@.>.<.J.).kXL.<.&.J.gX)./.>. .>.J.J.J.g  .&X5.G.MX).<.#XL.&.Y *X X| L.XX(.L. .&.L L >.2.1.2.&.J. XL. XL.5.J.J.J.@.n I O.f.N F S h Z Z v F F m m ,.X.U X.! ! W N m D o.o.W F W o.W N N W X.X.X.X.N +.q.+.o.+.X.N #.+.W N W +.o.F N o.+.X.W +.+.X.$.N X.F W X.m X.o.W D W W D W o.D Q F b D S v b S b b b m v b W b v v v S S S b D h S F W o.b F D v o.+.b v v v q.V V V o.v v v o.b v 9.W F N a.W m t.f.W S b g +.W 5 v o._ F v o.Q o.S q b +.W u.0.D Q b S 0.v F > i o.a.c B c n n P } J.].1.;. X2.P.*X-X>.<.*.4. XL.5.B.L.XXZ.|.4.oXoX|.rX>X8X@XN.*X*XL.>XqX XJ.4.4.<.XX*X>.5.5.&XhXU @.T 3.T 1.J.1.5.%X/.1.5.K.G. .T >.;.>.P.].d.P.,XL.&.4.Z.>XXX(.5.O.:.d.`.K.j  .,X5.1.MXgXB.N.).Y L *XXX<.4.qX>XN.&.4.L &.5.2.N.B.<.(.4.|.,X5.J.).#XJ.} O.P ! O.y.y.W S Q m W S +.m N K.P U U #.! P P g v W o.G F o.o.G W F W X.X.W P N N o.S S o.Q m E f.0.o.Q W W W W o.f.O.P ,.f.! P d.#.O.n ! ! d.#.O.>.5.J.3.].<Xd.a.! ! X.W b Q q.+.D G v v o.o.F F v G W m v N F v S Z p 5 p Z p p G 5 5 G A w V C h h V 7 V w.Q q g h W b E g E W o.` b m U @.;.<.L B.).J.O.X.o.5 & G ` Z Z v S o.g 5 g F v N G S q w w w w V v q 5 D h q v S W S h S Z v S o.o.S w o.s.q 5 0.o.V v 9 G F v o.W +.Q S h h Q Q S S D v S q.b m f.f.+.K.f.K.K.:.O.n @.@.n U U O.X.f.W m b Q Q S h v V w G 7 p p V Z q i i w b F S w ",
"h V S v h v V V V V w w h w h C w w 5 w w w V 5 w w w w 5 7 p Z w h S v D G w V V V V S V V G 8.w C 8.p v V o.q G G w h h S v F G _ i v o.G o.o.V V C w 5 A G h S V w w Z Q 0.l.S q w D D h w v ` V i p v v v v s.N m n j ! H.Y.$XK.&X].d.d.).>.>. .>.).,X{.J.G.4.@XL.B.qXXXXX9X4.5.).B.(...&.%XG.%X@.>.J. . .K. .>.].].Y.:.1.j G.G.5.,.1.G.G.1.n P.#X1.>.5.5.d. .5.N. .I J.N.L.L. XP.G.,X/.d.M  .P ,XK.K.&XT 5.%X1.5.G.N.N. .*X(.N.(.XXJ.<.*.&.B.&.2.G.P.1.;.*XN.1.P.N.5.).J.5.U @.3.O.y.y.q.b S V D W F W X.m f.c N a.#.! #.N m m W W W W W W o.N m X.o.X.X.X.W $.q.#.+.+.X.m #.o.W W +.q.o.N m W o.X.o.$.+.W +.W +.W N F m X.o.W Q o.o.Q Q o.S F v m Q W m b S b S S b v b W S m v m F F v g Q F Q S F o.v v o.b W v o.u.h q q.G G V 8.D o.Q g m v F F $.X.F m f o.+.+.y.b W b o.F o.9.X._ F F q Q q.S +.u.q W o.W W F Q +.q N $.F q m N h.m U X.O.>.U ,.,X=X=XP.P.G.L.2.1.5.<.*XL.N.XX(.B.(.mX|.rXoX|.rXZ.B.(.M.(.B.6.).).(.4.*.J.<.5.). .5.J.$X$XT 5.:.K.).>.1.1.J.%XG. .5.G.5.>.J.#XG.>.1.K.O.>.J. X XXX(.L.J.%Xd.d.,.n ! BX).#X%X&.L.MX>.N.L.(.N.B.XX XZ.Z.mX X<.&.2.&.&.N.>.(.5.&.8X4.M.*X4.B.XX%XG.U ,.i.,.d.U.i.! m g Q D F +.g P P.n :.d.d.y.o.W W b S G o.G b W o.F c m ! X.! W ! X.y.W W +.o.m W s.0.Q W W W m m W y.i.,.,.,.P c N O.#.O.X.m X.O.:.n @.,. .,.K.O.n ! P ! W m W o.W W 9.o.F W o.F b q G o.b q g v v p G Z p 7 7 p 8.V V 5 w V V 0.w V 9 v S D D h F Q W +.+.y.o.y.u.o.9.a.#.@.3.J.4.| B.G.,.,.j.f.5 > 7 Z Z Q Z q D m v D Q v q v v G V w w v V v w q G v v S b F h q V v q v o.Q q v h S v v Z v Z w 5 v h q D S S Q Q h h E Q S h 3 W b v W X.y.a.K.K.i.d.,.U :.3.g./.:.O.O.K.+.U m m F o.W v g h 5 w 9.S ` F b 7 7 i w 7 p ` Z 5 ",
"q h h h v S G Q h S w 9 z w 7 C w V w w p w C w 7 w w V V p p p V S Q V h v w Q S V V G S V G w.w w C w V w v 5 q D h h o.Q b q.F _ b ` 9.F F F V V v 8.G w A v s.k.w.Q V q 9 v Q h 3 q G Q V S v q 7 v F F F F +.K.#.Y.:.g f.n Y.:.K.$X>.n >.J.d.3.@. .3.5.5.5.=.rXV.V.kX*X.X*X XB.B.B.,X(.J.*X<.%X@.} >. .>. .3.3.].,.! O.G.n O.5.,.>.J.P.5.,.I ).J.O.d.).J.J.d.G.>.P.>.N.kX .P.9X XN./.5.).>. .3.$XzX].,.P.$X1.).). .<.qX*X).L.XX(.XXL.>.N.*.L.L.L.2.1.G.5.P.G.5.).L.B.).(.J.>.J.K.@.#.f.u.b Q v D W N X.y.X.a.n P i.,.O.#.W m m F D W W W W +.N m W o.W W X.W o.o.W F X.X.W W W W o.#.$.W m m o.q.#.+.+.X.W W W o.X.W F b F D F D Q o.Q Q o.b F b m W D b F S b F Q Q S h h Q D b b S F S b W D Q v m o.D F Q W +.q Q l.v o.v v Z w S v G F F o.X.F W u.y.W ~ y.u.b E +.b b v j.q.m v G s.s.j.W D F h W o.q q b b o.o.W Q g c b X.o.X.c a.a.O.O.I 5.K.K.#X .#XgXE.L &. X X&.<.L.J. X|.*.M.;XOXB.rXoX.XeXN.N. X|.XX(. X%X(.*X4.<.G.>.| 5.Y G.#X5.:.T d.n U P.5.5.J.)./.>. .#XJ.3.>.G.].).G.5.:.&X;.5.,X4. X.X9XJ.*XJ.].d.n d.$XlX).>.G. X X1.4.N.B.,XqXL.L.*XXX8XN.L.B.&.G.-XL.5.L.B.4.eX(.4.(.(.(.(.). XK.d.K.,.i.H.,.#.#.E u.+.o.y.#.:.H.U P ,.O.O.P g E q S F o.o.v W 9.F g m W O.X.W X.+.o.o.W W o.0.+.W E W W o.E g m W c #.,.X.+.i.#.W ! +.+.X.N N W #.I O.@.U X.#.X.m W N X.o.E F F v F s.j.o.N N F W W b v G D v w v q Z G Z w 5 V k.w V q 5 q Z 0.7 v q D G v q q o.F W b g W u.u.F F 9 F h.d.5.3.>.G.>.P :.h.h.a.q 7 5 Z Z G 8.q v v v S S q c F o.G A C V w w v Z V V q D o.v v D S h q h v v w q S Z D S Z o.D V D S o.Q S o.o.S S Q D h S S k m 9 +.P X.U.,.! ,.d.d.:.1.:.U ,.,.>.,.I #.,.h.O.X.c W W v h F D v V i G q V b p i v b i q i V p 5 ",
"v v h h h h v V w S z 0 z w 5 z w C w V w w C w w w w p C C V w w h G h h S V w.S h V o.Q h w V w w A V C 5 w A G w Q o.g q F g F o.N o.o.q q q S h 5 0.8.q Z v v v g v o.+.S v o.+.F v D o.Q D q q w v F v v v c +.g U n n sX].d.O.O.d.d.U >.<X&X$X3.@./.,XJ.I <.VX|.V.|.V.B.XXB.V.<.&. XJ.J.J.5.J.>.@.@.>.d.M >.@.K.U M O.P. .T 3.,.,.#X%XJ.J.3.P.;.n ,.G.5./.3.>. .J.L.L.lX2.N.9X*XG.J.>.J.>. .%XK.P.,.@.,XG.P.hX).;.J.*X,X>.B. X5. X*XJ.N.L >. X*X<.1.-XP.G. XN. X XN.<.>.J.K.5.:.,.,.O.W +.F h F o.N X.#.X.,.d.,.#.a.#.P ! W W D W o.o.o.o.+.F N X.o.X.W X.W W W N N W X.o.F W W X.X.W F N b +.u.u.+.W W o.W W F F W W W F S b b D D F F W b D b h v v v D F b b W o.W v g W W D F S S S F v v W v F q.o.o.h o.s.q b 0.9 9.v V o.v F v D S u.F m N F m X.f.m f.X.n E N W F c y.X.v N o.q.F F o.o.F b F W q.F W b +.o.g b W m 9 $.F N B X.3.O.d.P >.).J.d.T j G.G.R 1.lXlX).<.&.B.qXB.I (.mXM.7.@X(..X0XN.(.B.Z.(.B.(.(.<.N.J.5. .B.>.>.>.G.J. .Y >.).T M >.J.5.#X%X/.5.>.=X,.>.1.5.J.).J.>.1.P.1.%XZX| N.8XqX5.%X5.J.d.#.}.J.sX5.J.hX).P.FXJ.J.L.,X*X<.N.8X4.|. X>XL.L N.qXL.L.L.*XN..X*X(.(.XX(.4.6./.).5.J.:.,.i.O.O.O.N m o.m X.i.O.:.P.O.K.i.d.,.! y.E W F o.o.F +.q.F X.X.#.#.+.W W X.E W E m W 0.+.E Q W W o.W k m m W +.o.$.f.s.y.#.W N m m +.q.+.N W N N X.X.W X.W F b W O.W ! W N m y.a.W N W o.9.o.v h Z G V w p p w 5 w C v p G Z 5 v V v V w V 5 G q.g q +.Q v v b v g m +.! g s.v X.K.d.,.d.J.>.>.@.g.a.N N q > 8 e.A w Z h D m S b v v S F G w w w p w q v G v h 5 S o.v S o.Q D S Z S v v v V v h S Z v h q 7 h S S v V D v h S S k S S k m X.c O.iXK.n O.d.,.,.O. .I  .G.>.,.O.U h.,.N c U.E o.W v h W W v G 5 v w Z v w v A V w v v q q v ",
"S V V V V v V V w V V h w w 0 w w C p p w 5 V w C w w w p V V w w 7 w w S Q h S S w 7 h V h V G V w V w o.w V 8.Q V G S v 5 v b G o.v N D v v D 0.Q q S S v G 5 +.o.v 9 g v v S v b v q m o.W 9 V Z Z Z F S v g m N d.@.@.3.O.d.).].O.O.d.J.>.).J.J.,.@.G.<X/.I .XVX.XB.<.B.Z.L.V.>XXX4.L.4.).).).>.@.3.>.5.5.U  .@.].,.O.,.G.O.5.G.,.,.P.P.5.G.,.d.>.;.d.3.>.3.>.>.>.L P.).N.).&.P.%XJ./.>.>.M ,.3.3.G.K.J.>.L  XL. .1.*XN.(.N.N.(.<.B.).<.<.| L.-X%XN.N. XP.-X X<.L. X5.>.>.(./.G.@.>.O.,.#.,.F b W +.o.X.X.U ,.].d.O.d.i.W O.W W S F F W o.o.X.X.X.X.+.+.X.X.W W X.X.W W W W +.X.W W N N W +.v W +.+.W F W o.W o.m v b F +.W W F F W D S S D F Q F v v v b Q Q S v b D W F S v S W W F b m v v v o.W W o.S S q S W q Q q.q S S Z 0.D o.Z +.o.m v W N W m X.+.q o.g X.y.m +.u.N o.F X.X.g b X.5 b F F q.+.F o.F W F y.u.g v W o.N a.q q X.U n O.d.@.@.5.G.).<X1.G.G.P.1.1.N. X#X..>.9XXXN.>XeXXX|.|.Z.|.(.4.Q.Z.N.(.(.XXXXB.(.4.4. .#X>. .>.G./.1.>.3.P.K.J.1.5.;.P.P./.).1.J.;.>.G.P.G.G.5. .1.j ).%X9XJ.N.B.XX5.%X . .@.d.3.3.J.1.5.1.T 5.%X*.N. X*X XB.B.Z.<.B.).L.N.2. X*X XN.<.*XN. X>XZ.(.).N.6.B.J.).J.d.1.3.d.:.O.U n W U.f.i.K.:.d.DX:.,.:.,.O.N F v W S F G F W o.F +.X.X.#.+.W W X.W E E o.W S Q f.W S m m W W S h +.s.q.G o.q.o.b F b W F 0.o.Q v v q q o.o.F o.W o.b m N N N W ! X.#.W m W o.W F v D Z w w a a 8 8 8 8 w V w 7 V V q 8.S w G h v Z v F v Q j.+.v b W o.f.X.m n ! X.W X.X.n n P T L >.d.K.#.N F 5 5 8 ` V q C S v S G b v G F i q w w w w w v v w V Q w w b v b h D o.o.S S o.o.S v h q Z S 5 5 q D G Q u.8.D 0.Q S S l k Q D f g n ,.d.G.O.n O.d.1.,.;. .L  .).5.$X&Xd.,.! #.! y.o.N b W W b v v S 5 V G w.Z w v A w w V V q w Z ",
"V v V S D S S G w h C z 0 w z w v Z w w w w V w V V w w w w w p h w h q V S 9 w V w 7 w h V S 8.w v w > Z v v v 9 h 9 5 q.F F j.F o.m v S S o.o.9 o.s.q.v 9 v 9 v +.+.W F b v S W v v b S +.+.q q h v h F q.q.W m g :.N d.,X3.NXd.J.P U >.d.U ,.$X$X$Xd.P >.,XMX@XOX@X|.-..X|.M.B. X4.Y B.<.6. .G. .>. .>.J.@.3.,.,.&X3.3.>.>.,.>.;. .>.J.G.5.P.O.:.,.d.P.K.1.@.3.g.5. .hXlXG.&.I 5.,XJ.5.} } >.&X3.,.d.%X]. .5.L.;. .5.,XL. X9XB. XN.N.B.2.N.%X-XJ.N.;.2.1.2.). X5.).-XL.(.(.%X/./.>.@.O.H.d.i.o.+.o.#.,.O.O.#.,.d.,.O.,.d.y.o.E S S b b b F F F +.#.o.X.+.+.X.W W X.o.X.W W W +.X.F W F N F X.b b F F b F G o.b o.b F b b +.E Q W F D D S F D W Q F b F F F o.W F S S S S F Q b b S F S b v h D v W F S S q v v F v h o.q.S b F h v v o.F o.F g X.s.X.#.#.a.W W o.W +.,.E m W y.#.m m c 5 W z.f.o.m m m W W m m W m +.f.E c m o.5 X.j.U.m c U ,.O.d.K.].<X/.>.U P ! P.1.).9XCX*XN.*.).>XXXXX(.;XXX4.B.XX(.(.>XN.&.*.*.6.G.4.6. .@.5.%X..5.;.G.gXJ.3.,. .>.5. .>. ./.5.5.).>.>.J.>.d.P.>.;.G.).>. .CXP.B.*.*.-.qXB.%X .P I $XK.d.).$X].<.5.,XP. . .%X*X X>XL.M.(.N.(.*.L.*X9X X X>.<.(.<.*XXX4.;X@XB.XX>X*XqX,X .>.,.3.K.K.d.d.n ,.#.P O.O.O.K.K.1.d.d.i.+.F W S v v v b v v W X.N N X.+.X.X.+.W W W +.o.E Q u.m S S m m W W b 9 G D q S q.q.o.S G u.G o.v S v V v i o.o.o.s.W o.b m E N N P N #.O.P N $.+.b v v Z V w 7 d a 8 7 V Z v w 5 7 Z q G 9.v q Q o.q u.q q o.f.q.v F N o.#.h.P n g #.+.a.y.#.O.O. . .U ,.,.,.+.$.q.q 8 7 7 C V V Q w 9 h q q o.o.V b V C a w h C V q Q 8.v h b h h q Z V v v S G D S 9 s.w.V w G q.5 Q S h Q S q S h ~ E h S Q k g P :.zXK.O.G.3.1.J.T  .J.%X5.;.G.;.d.h.I n ! `.a.! E m N W W b b W q.V G v G V S 0.V w w V S v h V ",
"V h h V V h w h w 7 V z 5 h D z S A w p V p C w 7 p C C V w w w w h S w 0 w 5 V w V o.0.8.S w 5 w r.x.V Z V G G w.h F F D q b 9 F $.m q v v F v o.v q q q G o.o.g b m b o.q.W F u.W y.q.g g o.o.h V h 9 h +.o.g a.h.K.J.sX).c U U n n d.d.J.K.lXlX5.,.J.g.J.d.L &.=.eXrXY L.).B.4.>XXXN.B.I 5.J.@.5.G.g >.%X@.J.3.3.].@.;. . .J.>. .@.G.J.,.;.1.1.T I T 3.#X).>.>.).J.>.&. .lXJ.).&.>.L J.).3.>.>.J.,.@.K.K.>.;.1.>.L.I B. X(.).L.L.N.L.,X*X).,XL.<.1.5.L.L.;.G.L.1.P.L.J.).(.(.,XB.Y d.,.,.O.K.,.y.! U :.@.@.K.d.O.O.#.O.i.d.N m S F F b b b F v +.q.X.W +.+.W W W W W F F W o.X.F F X.o.W b m W b g v b F F W q o.W +.W v W v S v v v b v b F S F v v W W S D S D o.o.F v m D o.F v h m b m v W g v g g v h o.S s.s.+.b 9 F u.z.o.D F u.o.o.F o.v N c W g X.,.N m o.c m u.E m g N c o.j.q.E 9 W m y.U.o.+.f.#.y.d.m m #.W N m c m N +.#.n h.g.`.3.hX<XU .. .M O.i.K.].1.lXzX2.>.%XL.N.N.&.&.M.9X>X&.Z.>XB.(.XX9XB.6.4.>.6.>.>.G. .5./. .,X>.3.%X@.>.P.;.>.G.>.,.1.<X3. .J.>.>.>.I J.hX). .,.).P.5.T &.ZXB.B.V.=.n (.%XK.P ].@.1.5.G.).G. .>.&.).Y  X XL.9X X|.(.N.9XL.*X,X XN.N. .%X).Y .XZ.B.(.XXB.(.XXXX>XJ.6.P.d.3.K.J.3.d.O.,.d.:.d.&XP. .K. .,.,.,.+.g F v F v v F q q 9.y.X.W +.#.X.! O.m E W S W +.W g m y.s.o.g h S F S w w G o.h h q.S V o.V 0.D Q v v p 7 b w V q.h W v W #.#.O.! N P ! ! +.y.+.F G o.p 5 w a 8 8 a w v w 5 w w q v v F h G b q o.v +.v W +.+.W g m o.f.y.,.n #.#.d.d.y.N U d.K.d.J.d.d.#.O.F F $.v > , 8 8.V 5 o.Q S Q w 5 v V 7 7 5 V C w w V Z V o.S 9 G 0.h v W o.5 3 V Q v w Z w o.Z Q V 5 V v ( z 5 Q S 9 S v S S S Q Q k W U.BXG.T ).-X1.5.5.<.;.J.=X1.I G.J.K.O.c d.K.,.c #.g W X.m v o.q.q.Z V w.D G h w h v h h v S G v 9 ",
"h V v h v q 7 h V V D w C Q h C w w V w 5 V ` w A w w w q w V p 7 V v 5 5 h V w h 7 V 7 5 h v w.G w G v q v w v v 5 q.F & o.s.F S b 5 S +.G o.g u.q W o.F u.$.W '.g T.m 9 y.9 +.f m E +.k +.,.y.j.b W uXq.X.W ,.N M ,.,.M @.<X,XDX1.P.G.P.K.9 1.1.,.U J.K.d.L 1. XN.*.L.hXXX<.L.>.P.L.,XT G.J. .3. .%XU ,.,.M $X).M L 3.d.d.3. .].K.T G.#X5.,.T >.;. .;.d.P.G.@.P 5.J.J.1.*X X<.9XG.N.lXjXY ).{.@. .>.K.K.>.>. .<.). .%XhX>.).kXL.| &.&.| J.*XqX-XY &. XP.N.J.N.G. XL ).5...XXJ.*.).G.5.;.O.1.P U P P O.O.I @.3.O.c K.h.#.P O.X.g S W Q o.o.E m W X.W N W o.X.W N W W N F o.X.N o.W F X.+.X.F F o.W D W o.o.D b F W Q Q D S F W v S S v v S F b D o.Q b v W o.W q F v v o.o.S D v m v v b F F b F q 9 b W b v S S q h F D 0.y.S G b m o.9 b F m #.W 9 f.y.+.O.N N +.i.P y.N P +.X.#.X.#.y.X.}.! $Xn N f.N ! c W P f.X.#.a.y.U.X.,.U.a.a.O.d.O.c d.,.L >.J.DXDX$XK.$X=XY.n ,.>.1.>.XX(.B.>.<._.(.&.N.qXB.4.qX| ).,X<X;.G.5.>.@.).). .P.G.L J.].L ;.5././.1.>.5.5.5.d.).5. . . .1. .d.P.G.5. . .5.).J.B.XX.X X8XoXN.FXJXL d.lXM 3.;.).P.5.5.>.5.P.N. X,XL. X>XB.<.Y 4. .B.9X,X%X>.Y  XqX X5.4.B..X| B.4.M..X9XN.9X4.B. .>.,.@.@. . .O.L >. .5.5.Y =Xd.,.O.i.a.g g o.F F G b v b b X.N g N +.W N X.m m E o.O.E m E W #.X.X.#.g f.F v V Z G G V V Z Z Z C V v v V C C = Z w.V o.s.9 v 9 +.a.O.X.P N #.N #.#.+.W g W w 5 p w 8 d 6 8 7 v 5 V G 5 s.5 v v D v v W F W g +.+.c +.B X.}.h.X.g ! O.U :.O.W O.9 O.{.U n `.K.O.c c o.q.o.i > > a a C o.v w q V G D Z Z b 7 5 w V w h w w Z V q G 8.0.0.D 0.G q.G Z o.v 5 S D G w q G o.S G D u.h Q h h Q S m g t.o.k y.H.i.O.J.5.>.=X&.T L.L ;.J.N.;.N.=XgXn d.X.O.! O.m n #.n F X.j.a.a.F v o.b g D h 5 v v v S Q F q g W ",
"w v h h V V V G w h V 0 z D 0 z w w V p 5 w C w C w p p w p V w 3 w V v V S V w V w Q D S G V 8.q > Z Z V G v v v q 5 F a.F q G u.q.v v v 9 v g b g +.o.v X.F m N g f.O.g P g +.f.#.+.Y.#.O.P m +.#.N o.! #.m n O.B @.J.,.@.,.} d.,.>.@.1.1.O.,.L ].$X].! O.1.P.<.B.2.B.-X2.>.MX5.1.T #X>.).J. .P  .).@.#X$XY >.3.K. .>.).$X].U 1.J.J.5.U n J.lX1.;. .,.J.K.G.,.3.5.5.J.>.J.).*XJ.9X).G.%X .J.gX3.@.d.K.3.K.,X$XY MX,X>.*.L.>XN.4.&.L.*X*X X<.*. X<.).gX XN.1.&.P.9X1.%X).N. XB.>.4. .G.J.>.,. .O.:.O.O. .@.J.).K. .d.#.O.P ,.a.u.0.W h g b W E N W N N F X.X.W F W W F X.+.o.X.+.W F X.o.X.W W Q W S S F F S b S W Q W F S F W b F F b b F F S v b D W W S b S F o.D S o.o.b S F S b S b v g q v b W Q S g v W o.D S S F Q W h o.o.F +.b o.X.o.c a.y.X.9 +.f.i.g N P q W m N W y.+.X.,.,.m #.f d.#.X.N g f.a.h.X.`.+.X.+.X.a.P #.X.N ,.N n c ,.,.{.G.g.5.^.6.J.,.T ,.G.@.G.1.#X5./.>.*.G.).*XJ.(.L.>XB.*.>X>.3. .).5.{.{.3.M  .<X5.5.G.J.5.3.%X .5.)./.5.5.J.G.J.>.T ;.#XlX%X>.n 5.J.P.).G.>.5.6.*X XL.L.Z..X@XN.N.L.<.).hXJ.>.5.#X>.>.hX%XN.hX XL.4.5.XX8XL.<.XX(.,X9X<.N.,XJ.9X,XL.&.<.B.(.XXB.>XXXL.L..X| &.L.).G.G.,.Y @.5.U d.@.>.5.MX,XL P.>.U ,.d.X.X.+.v q b o.F F W G W F N W #.X.N W #.o.o.+.o.E E ! W o.X.W o.m y.b v v v V v w w v V V V V v v V Z V G G V v v S +.s.v W X.X.#.O.! i.X.#.W m g 5 v w q Z a d a 8 a C G w 5 G V o.o.v q q N F N F o.W g g c s.s.h.d.+.U n O.O.P O.n :.dXh.O.,.,.g.].U W X.+.9.o.G S 5 > w p a C h G S Q o.Z w w b S w V w V o.G v w v v Z V m W v b w V S v V D D D q w q q v v q 9 S Q h h S l.Q 3 Q W y.E ! $XY.O.).kX9X&.5.&.I Y ).N.>.>.1.P.G.I :.,.N ,.P f c y.+.N X.N o.F W g q S v q h q q S D o.D h g q q g ",
"v Z V h V v v S V V C 0 h S 0 z v w C C w w w w w w V V w V C w h h h h h h h V 7 7 V V v h 7 w o.b G S i V i q q o.9 F a.g B +.v S m W W F +.q.m W u.o.W +.o.+.`.f.n n O.O.:.:.:.U ! #.P f.f.N d.f.N N ! P g ,.K.d.{.<X,.n O.d.g K.@.T T  .P.:.n ,.U U n i.pXY.lX#XY >.gXP.I >.>.3.1.&XT O.:.,.:.$X$XT d.G. .>.@.].Y >.).>.5.>.P.>.,.1.d.).P.J.J.1.>.G.J.5.1.d.3.>.5.%X5.;.>.P. X%X .9 >.5.J.,X]. .J.d.P d.5.L  XL.5.5.L. X X X XN.N.L.XX X5.B.>.2. X%X1.;.2.R >.).>.5.J.L.B.B.*.&.| 1.N.>.>.O.P.].P.>.@.3.J.J.3.} 3.O.a.#.+.y.+.o.F b m W F b W W W F X.X.X.W o.X.W X.o.o.o.+.$.X.W W X.X.W X.Q W S m v m S S S F W W S S F W F W W F F W D F b v b o.Q b v D W +.W b D F v v F m b W W b v v b b b S F b m v W o.F b D Q F S v F v b m F m W q N ,.#.P i.O.n U +.#.W a.,.O.N K.! U U :.O.Y.}.n X.O.O.,.K.O.d.! K.#.,.f.O.d.f.! ,.O.O.U d.K.P.].<X@.} >.4.n 4.1.n O.G.K.K.n d.>.G. . ./.%X#XJ.| *.*X_...J.J.>.3.,X3.@.>.@.@.).].J.J.3.,.1.>.).Y 5./.J.<.4.6.>.;.P.).J.3.5.G.1.>.P.G.1./.K.,.G.J.qX4.Y L..XOX*X2.Y Y N.).).d.M ).1.>.G.5.>.>.J.J.N.N.*XqX*XL.N.(..X9X X4.<.>.N.%X=X XN.<.*.M..XN.Z.(.(.B. X2.>.*.<.>.5.5.>./.%X].J.>.).). XJ.Y >.J.1.,.! +.`.X.v v F o.F b F F N W W W +.X.W X.#.o.X.o.+.o.+.y.X.W +.W O.E +.b D V v h h q w v v v V V V S Z D Q q.Z v o.W v W s.b ! O.U U X.a.W F o.F v F v G v v A C 8 8 5 8 A G V & G G h u.o.q.G o.N q F N f.m W X.a.,.#.q n N P :.@.U O.n 9 `./.X.X.d.`.,.c m N v v i b S 7 & 8 a a w w 8.Q G V v q 7 w p C V w V o.G v w V S o.v h W v g q v Z v q S Q h Z Z o.0.o.Q Q Z 5 h q.Q h 0.h W W g n ! K.}.d.i.1.2.N.Y 2.N.2.P.=XG.d.P.G.;.T  .i.i.P #.N X.y.d.N P +.m N m X.N v F F v v F o.+.Q j.0.v W q.Q F ",
"v Z V w h h h V S S S w z C 9 h V w V A V w w p w w V w w C Z w S w 7 w w w h S S h V V S S V C V 7 w p b o.$.o.v v q q 9 5 X.X.v S W +.o.F W o.N N m c N N m N N i.! ,.i.n U O.! n ! #.O.}.iX#.O.#.@.3.,.P U `.`.O.} :.} M I } I <Xd.,.T g 1.U P O.O.K.,.! f.:.L n n :.].].d.d.G.d.O.K.O.O.#.U n ].K.:.K.J.,.3.).). .>.J.>.5.G.5.;.P.).].=X,.P J.>.>.G.d.;.1.). .>.G.,XN.<.>.N.L.L.hX=X5.>.,.5.d.@.).J. .J.;.d. X>.<.>.L.hX,X%X(.N.5.B.>X*X<.J.N.P.*XP.2.N. XP.;.5. .Y 5.L.4.).B.XXXXJ.5.J.#X).J.J.K.3.3./.G.g./.d.).g.].a.N m m b S W o.o.b q W W W W X.X.W W q.X.X.o.o.W X.+.+.o.X.X.X.X.W W Q W W S b S D W S S F F S S F W D D D D W Q W D Q F S F F b D +.D W F v b S v v b h v D W b m F m v h h b W F h v Q F v o.o.F Q F +.W o.q.#.W +.X.q n c N d.! n W #.#.W O.,.+.N O.n #.! #.U ! O.d.h.,.X.U X.n N ,.d.O./.$XO.X.d.O.f.,.n @.<X$XU ,.J.3.>...;...hX%X>.>.U ,.J.n 5.>.P.d.>.5.5.;.>.M ;.K.#X3.,.J.3.:.$XO.M @.U O.].K.1.=X#X .G.#X5.>.5.J./.B.5.6.<.G.&X=X&XP.1.J.J.G.).1. .J.J.>.5.5.>XB.=.Z.L..X4X*X-XN.| 5.P.J.$XJ. .5.P.T J.%XJ.5.N.L.9X9X X XL.N.(.,X(.).L.>.%X-XL.N.L.%X(.<.*.M.| N. XL.).).*X X XJ./.).#XgX#X,XG.>.9X X<.G.9X).=X$Xd.B F y.5 o.G G F c v F F m X.W N W X.O.#.W W W X.+.#.y.u.+.W y.o.W X.X.W o.Z V v v v v S v v S S Z Z D D 0.S F o.o.+.q.m o.c W #.#.X.X.a.v D Q v 9 q q q Z V A a 8 a w p Z G Z w G V q 0.5 j.#.X.c g f.+.m m y.a.d.X.#.X.P X.O.:.O.@.,.U K.P.d.N c X.y.X.+.W v m v S v p 7 ; p a A C w Z Q h q v V i 7 5 w C V w w w w A V S o.D D o.b v h D D h h V v w v 9 h S q h S v S 9 m o.m W 9 #.W ! O.:.K.,.n @.P.T N.;.<.).5.).5.G.%X&X1.n  .d.d.#.N ,.O.f.f.P c ! $.c N N $.o.m m N v c X.#.X.N y.X.m #.a.W m ",
"q V h q h V V S V h V w z V 5 w V w w V V w w V w w w w 5 V C w w 5 w S G V h h G S h V S S G G G Z F ` G F v 7 q.9 9 v N X.F +.+.W F S b b v F u.q.X.+.#.W m X.P ! U U O.! :.$X$XO.i.&X$Xf.d.,.U @.d.} n @.{.{.g.@.O.,.d.3.#.X.M d.3.J.d.U d.P.d.! U d.,.n #.U ,.,.P.K.U O.d.U :.d.#.i.W X.#.O.O.H.U O.P.J.>.>.].3.5. .@.%X(. .1.>.).J.5.J.;.;.>.O.:.1.>.;.G.<X>.g.G.L.<. X%X XG.1.G.<.L @.5.g.>.J.].J.>.d. .LXJ.<.).1.*.L.B.).(.L.L.L.,X%X*.<. X=X9X).N.P.-XP.).P.N.&.P.(.4..X4.Z.(.5.;.1.N.J.#X5.G.5.d.J.;. .G.>.3. .d.,.X.W +.W S S F F b g N N N W W W W W $.X.W o.o.W X.#.X.o.o.o.o.X.X.F W Q Q Q D W Q Q S S S S S S S W F S S W Q Q Q W Q o.W v v D o.+.D D F b v b F b D v h m b h h v h W o.F v v D o.v o.W S o.W v S v W F N #.X.n N m m i.N N f.i.#.W X.X.m c X.,.,.:.,.K.O.,.O.! ! n O.d.O.U ].dX:.{.}.K.{.$X,.U O.,.U L O.].$X].J.>.>.g.J.I } M >.G.g./. .d.%X>.,.P 3.d.>.:.O.@.d.).K.@.3.).3.,.d.:.K.O.O.f.O.+.Y.:.U P.].>.5.P.J.5. .>.J.J.5.6.6.G.5.>.G.d.;.@.>.>.5.;.;.).).5.G.(.Z.B.@X*XOX Xn.<.*.N.&.4.J.>.).5.).G.;.5.DX*XN.L.N.<.5.N. X*XZ.|.<.qX9X>.N.*XlX,X XJ.L.XX(.B.(.L.2. X XL.L.). XJ.).J.N.3.).&X>.J.).L.XX<.4.L.L. X .d.P.+.W F X.F v F F v b o.W N o.O.W X.X.O.#.X.X.X.X.+.#.#.+.#.X.,.#.N ! X.+.D S b S b v b F S F F D D D F F E m o.#.m W a.f.#.c c O.U.U.X.+.v G Z w q p Z V Z v C w v ` A G C A Z 8.S v o.o.9 s.o.W c c f.X.q O.d.y.[.,.#.h.#.,.:.d.,.,.3.I K.>.>.O.N N W W X.F F F o.G p > , > 8 8 C [ V V C w w V Z V w p 5 V V w q 5 w G D v D G W W v W q G v v o.Z q G 0.V Z o.D G o.D Q h 9 W m c f P f K.]. .d.].>. .P.5.).&.Y ).;.L 1.G.P.d.:.d.,.n f.P f f.i.o.W c N #.#.c W N X.F +.X.! W W #.#.P y.y.X.X.y.#.m c ",
"h Z V w V S V h h h z h S D 0 C w w w w V w 5 V p 7 w w 5 w V w G V h S S V h h q w 5 h V w V w 5 5 7 Z F G q.o.v X.$.m a.z.m +.o.m S F o.+.F F c m N +.W g N W O.! d.].sX$XU U O.j n n ! n U U >.| J./.d.3.d.M d.K.`.].P.h.h.].O.1.3.).].,.d.&Xf.O.O.U ,.,.i.O.Y.:.,.O.P K.iX#.N f.f.#.c q W +.H.K.O.,.,.O.} >.3.M ).G. .J.4.5.5.>. .T 5.J.,.d.>.,.,.>.@.>.d./.5.).J.J.2.%X*XL.P.,X>.;.,XBX/.>.,.K.@.>.d.3.f hX9X .>.).(.| L %X*X).L.4.B. XB.L.N.P. XP.L.G.N.1.).P.J.;.L.L.N.B.L.<.B.(.(.J.1.L.,XG.J.3.G.).>.4. .M @.M #.#.#.+.+.W S F W W F F m m N X.X.X.X.+.W W W X.X.X.o.#.W X.+.o.X.o.X.F D W Q Q Q Q Q W Q W W S S S D W F b S W o.Q W W F o.o.b m W o.D D S D S g v F v F S v v b S D W F W W S v v b D v W W F Q W b b W o.+.X.a.+.X.W U N h.f.d.#.#.O.X.+.#.a.N X.O.O.P O.! f U ! i.i.).K.&X].:.O.h.9 N O.O.U O.d.d.O.pXK.G.K.P.O.>.d.,XJ.)._.5.<XJ.6.5.).,X5.J.].G. .3.,.d.:.O.d.i.G.i.3.O.:.&X,.:.K.f.i.N N y.W a.`.P d.G.U ;.3. .G./.5.4.J.5.4.6.5.5.>.P.P.G.5.>.).1.>.>.3.J.J.G.P.XXB.B.*XOX X9X X XY *XMX*X X6.4.>.P.).>.L MX X&.5.<.(.<.&. XXXB.|.4.).XXJ.B.L. X X*X XL.N.<.L.eXN.2.*XP.L.L.J.&.<.L.).).5.#XMX).5. X X*XB.L.4.j G.j >.d.,.y.X.y.v v G G F F W v F +.#.#.,.+.W +.W ! X.O.#.y.#.O.#.+.X.,.N W O.+.F F D W D S D o.W D F F D D F F j O.O.O.i.:.O.h.O.m m U d.f.} X.V A w w w Z r.r.G V V 7 w G V p v C h G 7 v q.o.s.a.N X.X.m X.M #.d.#.X.}.a.N U X.O.>.K.J.3.d. .g n 3.3.O.X.N m F F v v v v p w 7 > 7 > d 8.G Z w h V V w 7 p G w p w w S C w v 8.v S S b b v o.v G V S 8.Z w o.G v S Q G S v h S W k m f N n g O.].].@.K.,X5.1.&.Y 1.5.>./.>.>.].O.P ,.K.h.,.N E #.W f.W ! X.X.U #.+.m y.X.F N a.,.X.X.+.@.X.I U.#.X.#.#.X.W X.",
"S o.D h V S w 7 V h C V G D w C w V w w C V 5 w V 5 7 V w w w w 8.G v w h h v h w V w S S w S v Z Z q b q 7 G v & o.$.q b $.F v y.S Q W +.#.c g m X.X.+.W +.`.a.G.,.K.P.,.P j P O.G.d.g ,.P.$XK.jX4. .Y @.M >.J.a.O.P O.d.,.+.i.).$Xd.d.d. .! T ! i.jXU.H.y.U O.! ! P N N +.a.u.#.+.g v W b b g n U ,.].,.,. .,.d. .#X,X/.>. .,X>.K.;.O.G.:.;.).,.G.5.@.>.G.G.@.d.J.J.%XG.L.1.>.,XDX5.>.5.5.>.4.3.).M ,.K.].I ].).N.>.<.).L.<. XB.B. XB.5. XL.N.5.N.G.L.P.N.1.G.G.J.N.L <.J.XX4.M.| 4.B.B.<.T N.N.>.J.<.G.,X_.<X^.4.{.g.a.#.O.m W F F Q o.W W W m m N X.X.W X.+.F X.o.X.W X.o.o.W o.+.X.X.o.o.W o.Q W Q Q Q W S o.Q Q W D D D Q Q F S W o.Q D D F W W D F F F F S v F F q h S g m S S v S o.o.W Q m v S D S v v b v S S S W Q S F g N v W b ! c Y.U P :.d.n O.:.m N X.h.N N N N ! d.,.i.&Xd.H.O.&Xh.d.3.X.9 ,.a.O.X.d.d.a.}.sX].L :.d.O.:.,.`.).M @.J. .M _.g.<X_.).G... . .P.3.<Xd.].d.O.,.O.n j L d.1.K.:.:.i.N n n m O.m #.N O.$XP.L ;.P.1.d.%X%X*X(.6.G.XX#XY j 1. .5.&X5.J.J.>.5.P.5.>.5.P.4.@X*X|.-.^ -XFX4XB.L. X<.<.J.J.;.@.)./.j 9X=X X&. .qX).<.*X(.Z. X X4.(.kX X1.5.L.J.<.2.B.L.L. XN.L N.L.*XP.N.2.L.G.J.L.;.1.].1.P.L.B.mXhX>X).5.#XK.J.,.O.X.N c D F G Q F W F 9 X.X.X.+.#.X.W #.W W ! X.+.,.#.X.#.,.m a.O.X.#.W W o.+.+.W F o.q.W F N m F W W P U :.1.d.H.1.O.X.n U O.I X.X.B o.Z A 5 5 8 8 G Z G Z G w w V q 5 v S h q 7 0.D Q $.N c F +.O.#.#.#.X.U N d.:.O.U U O.@.J.d.>.d.,.d.G.K.U n O.F W o.` F b v V G [ 6 & , 6 a A V A w V V w 7 7 p p C C w p o.o.V w G v Z v m F v D Q V G G h V Q V S S S G o.S v D u.m 9 9 m `.O.U jXsX].d.J.5.I >.1.1.J.lX%XG.:.].].U P d.d.#.O.#.f U.f.y.P ,.y.+.m +.+.W h.#.X.X.U U c n U M n O.,.c n X.n n O.} ",
"h D S h S D h w V h V h D V 3 w w Z w w G A 7 w V 5 w Z V 5 w w w w w v S G S h h S 7 V V 7 S V q v w Z v 5 b 9 s.v 9 o.v b h.b q.h g 9 v o.m W q.#.N B g a.aXO.h.P n ,.i.O.! 9 #.P.P.O.Y.d.O.n g } 5.>.{.>.I M O.@.d.].K.U X.}.n ,.g n O.#.K.! i.n O.4 O.d.T f.P +.N X.U.u.F q.v v 9 v G 9 v o.#.P U O.n ,.O.@.d.J.,.5.].G. .<.%XsXU  .).>.O.G.O.3.1.O.5.&X]. .g.>.4.,XL.4.*.N.J.1.L ,X).G.).5.#XlX5.J. .1.>.*X>.P.5.>.J.L.P.9XJ.J. X1.Y J.).5.J.5.>.>.2.T  .J.P.=XP.L ..).CXN.N.B.*XZ.2.N.1.P.N.6.*X<.<.*X5.6.6.| /.d.#.#.a.X.y.o.D F b b N W v v m F N c c N W $.#.X.W X.W N W o.o.W W o.+.o.y.o.W W Q Q W S +.o.Q W Q W W W o.W F o.o.Q F S o.D F Q W m b o.F v W W h b Q m v W D h h F S q v b Q 0.Q h v o.o.m S S h F o.v +.c W b W F y.W c W O.O.d.O.K.N X.m B #.c X.,.h.! :.n ,.dXd.K.O.M d.,.U O.c d./.}.O.P.&X:.I U N d.].&X:.O.U @.M g.<X%X .>.<XM  .M M  .J./.P K.>.O.f ,.d.T d.,.U d.! K.#.O.#.#.f N m X.m F F j.P ,.n O.1.:.3.d.K.5./.).>.I B.,X,X>.>.zX1. .$X .>.,.I G.gXK.>.1.5.|.eXM.%.L.R.B.N.j ,XL.N.).G.%X,X/.P.5.5.>.=X .).J.L %XN.5.mX).B..X4.*. XB.>. X5. .1.5.>.>.<.(.9X9Xn T  XCXL.<. XgXJ.5.).N.5.).1.*X XB.9X XL.B.5.).P. .d.h.W $.u.o.F F F b W W g o.F c N X.W O.h.#.#.O.! ! X.U n #.i.g h.y.#.a.P X.+.#.+.W N o.u.F b m m N F W P f.:.$X$Xn n d.O.n } X.m #.a.m F v C 5 Z ` G w.` V Z o.S V o.V V S Q D 3 v '.9 F N N W c c N U X.O.U ,.O.U c @.@.3.,.:.g.:.P ,.3.d.3.,.n P a.F F G b i p V Z b w 6 $ 6 a C p 5 p G Z w w V G a > ` G V v G G S S 5 q D v m W v q o.9 Q o.= S l.h S G S S o.S F s.y.j ! n f K.:.MXsXsX&X,.>.G.6.L.&.-X*XhXJ.>.T ,.:.K.d.P g O.#.g ! Y.u.f.+.X.N ! m X.+.X.`.+.m X.N } M M ,.X.X.].O.g X.,.n P ,.U ",
"S S V 9 Z q V w.0.D h q 7 V S w h w V w > w A V V V w C p w C w h h v h 7 h v 9 S S S V v w 7 5 v 5 q.5 F F F W q b F q W W o.v g F q.b W F q.q.u.q.W F m X.y.9 n g N g P }.}.d.i.O.i.aX$XX.! N 9 +.h.N ] f.X.+.N #.h.h.X.9 `.#.`.a.m N i.f E n O.O.i.i.T G.>.].,.a.#.+.a.9.S h V V C C Z A A G G X.f.a.+.B h.d.).d.P >.,XG.L L.<.).J.M ).G.P.:.d.O.K.d.i.K.,.>.,X>XXX>XL.CX*.DXDX&.N.J.%X;.j ).J.L.1.J.;.<.<.&.1.G.G.G.L.2.;.L.>.5.:. .].$X&X,.K.n T O.K.d.,.T >.>.<.| I Y qX|.Z.Z.L.4.<.).G. .|  X|.).N.B.>.J.;.K.1.d.K.,.i.! N b b N m c N +.X.F W X.F X.+.X.W X.#.#.O.X.X.+.O.P #.#.E X.y.W O.W ! #.u.#.W m W E F W Q W D F h Q u.b S u.Q +.o.v F +.D b W F Q S h S S S S S S W Q W S S S S b D h S D g b o.Q W b m b b m v N q #.O.W ! q +.N q X.i.#.U g m f.N X.W f.a.+.O.#.W P N d.O.N g +.q X.].&XK.+.#.K.dX}.O.a.n N N i.a.#.+.y.#.#.y.d.&XX.g g.d.&Xg.X.+.a.O.P O.:.U >.K. .U #XP.;.].#.q.s.s.+.v v W v F G W Q v S u.U.X.d.c d.K.P.J. .#X).(.Y (.N.,X5.P ).J.#X;.5.5.L.L.G.J.5. .kXlX.X8X|.AXM.AXAXB.4.L. X .P J.)./.P.5.&.6.>.5.5.XXG./.G.T 5.).5.>.<.2.L.*X9XT ).I I 5.d.,.>.O.:.$XJ.;.Y >.%X).hXL.).<.&.>X(.4.&.(.XXXX4.4.6. X5.4.XX5.).@.O.,.g ,.m b b b W #.#.o.#.,.o.O.,.#.X.O.P /.:.U O.O.:.U a.d.#.+.+.X.+.d.O.y.a.#.X.+.$.+.N X.X.F F F W W y.g O.P N /./.@.} 1XX.$.'.G S o.G w 5 Z w V v o.0.w Z s.o.h v V o.v o.G v q.q.g o.g c m X.X.c a.#.a.g X.d.n :.d.U &X:.,.H.T d.K.,.W m ! +.o.F v F v V q Z V Z w C 5 5 C A 8 5 V Z Z V V v p Z 8.o.5 h l.D w s.0.D D S S h q v F v i v o.h G F q Q q.o.v c F W b n N U ! :.K.].G.#XgX-X1.G.1.&.N.#Xn.=XN.1.1.G.>.sXO.O.d.P n #.a.! a.m X.f.i.d.:.n ! ,.O.! #.X.P d.n n d.O.f.d.N P O.+.O.X.O.X.W ",
"S v v w Q q h o.V h h h w v V 5 5 5 C A w p V 5 V V w V p 8 Z w S v V v h S D h v h q q h V G o.S F aXq.q.F b o.q v F 9 N m F m v g b q o.+.+.b F '.q.g g q o.`.f.#.a.y.+.#.i.`.! O.P W ! #.K.+.+.9 c _ _ X.X.+.h.N } a.h.X.h.X.m v F #.T.W ~ o.! y.Y.sX#X).&.;.g.a.@.N X.G v h w w w 8 8 w a a 9.X.+.o.#.X.h.O.@.U >.;.P.J.&.MXL.6.>.L J.Y 5.d.].:.:.#.i.i.U O. X0XeX>XB.@XL 4.&.>.1.G./.U ,.K.*X(.N. X X,X X1.&.1.#X-XG.G. X#Xd.H.K.d.].d.d.P L 9 P n :.K.].d.5.J.%X).9XN.%.4.>X.XN.| >. X X5.(..XZ.L.N.B.1.J.J.1.M O.].].K.,.O.W F W N m W #.o.W X.o.X.+.q.+.O.U X.O.O.O.O.#.,.O.#.#.W W +.! +.O.O.#.#.O.W X.X.o.o.W E W W W W o.u.S D 0.F Q F S W W S F F v W S h S S S S Q S S W D S S S D S Q m W o.h b W D S b S F W D F BXf.+.m X.a.m W ! m X.! N ! X.#.X.N a.O.X.m X.K.d.X.m f #.+.i.a.f.,.f.a.f.].a.N c U #.#.a.U #.g b o.+.X.$.#.$.y.N [.K.y.K.U :.g g j.a.N X.O.O.K.K.sXlX).>.d.L.g.a.o.F F v q q v v o.G F o.o.Q o.y.o.y.W h.X.d.O.n 3.G.J.*.kX(.5. .U ]. .5.J.).d. .1.<.&.N.4.,X9XeXrXZ.rXY <.B.*.5.J.&Xg.>.).{.).5.J.(.>X6.*.| 6./.#X#XG./.].d./.L.B.G.G.).L 5.j T f :.&XY.,.i.H.P.%X%XL.L.5.9X*X<.&.4.>X(.L.B.>X(.>XXXXX(.(.6.B.n  .zX<X).P.U O.P S b m W #.+.! X.o.W X.,.#.X.O.U J.>.>.3.O.1.3.3.:.X.O.#.W X.d.d.d.y.X.U F F N +.m c X.X.v F u.'.Q ,.+.M @...B @.} i $.$.5 v S q F V S q q.o.v v v D o.Z S o.q.5 $.N _ s.o.m q N N +.W X.+.X.K.O.,.n O.d.:.P.K.d.d.d.$XK.O.K.:.+.W E W W S b b Q v S v o.v V p w > > 8 Z A Z C v p V Z Z V v V 0.o.o.0.v Q '.o.h v W o.Q v q q F 9 9 9.o.9.W v u.o.F W y.a.+.m U j j O.:.:.K.=XgX9XL.2.N.N.n.I.E.n.4XL.1.;.L.-XK.>.>.O.n O.,.n ! ! m g P X.U ,.#.a.h.,.O.O.! P P P.:.n n #.n P #.P m #.+.W E o.",
"V h Z G w.w 7 h w w V S v S S w w 7 p v w w V w V V w C V w A w S h v v h S G V V V V V v h w q v 5 W 3 q 9 v o.v v F v o.b N S s.s.j.o.+.b b 9 9 b W +.b g b g h.+.#.+.! W N y.#.f.X.m g O.#.9 z.7 7 q.F q X.B N W /.`.O.9 g 9 +.y.y.9 f h m W f.y.P ,.:.>.1.d.a.a.X.c b v w q A G ( G G G 8.9.S v g g N m +.g n O.,X . .). .J.J.>.>.5. XI ,.1.G.:.:.i.Y.d.U 5.=.Q.eX@X(.Z.<.4.L.J.5.5.=XK.J. .L.<.&.L.L.*XG.&.;.;.P.P.;.N.P.>.1.:.,.,.d.>.K.O.&XK.].@.O.O.O.n ,.n J.L.B.4.<.(.(.J.N.B.XX XL.).*X.XB.L.>.4.>.1.J.5.,.O.O.U U f.#.W E W E N W +.W m N W W o.+.! #.X.U O.O.O.#.#.,.O.#.#.W O.+.O.#.#.,.,.O.W W +.E +.+.W F W o.o.D +.u.W S F v +.b o.o.S W o.D v S v m S S W Q o.S S D D S S Q Q S W v W +.b b S S b m S W W W F W q c f N #.m m X.! y.X.m +.,.y.#.W a.+.#.N N X.N m N m a.y.f.U.n X.d.U g #.h.`.a.U X.O.X.X.h.W g o.+.F W +.$.q.K.K.O.U X.g #.O.h.m m X.m N ,.:.O.O.:.,.,.3.d.d.y.o.F F F F F o.v o.F v G 0.o.F q m m N ,.q ,.P {.5.>.).<. X4.<.P.;.%X .>.1.5.J.1.).*X*.>.>.<.B.VXeXoX!.=.=.L.B.N.4.#XJ.} 3.J.3.5.).*XkXL.<. .6.=XG.>.>.K.).,.5.P.J.N.<.G. .%X5.).,.@.O.U O.O. .P.).J.>.N.J.>XL.4.L.*X@X XmX>X9X(.|.Y *.<.6.J./.>. .@.@.:.P.K.U P P N N W y.i.O.O.#.#.#.d.d.:.:. .,.@.,.5.>.,.d.d.,.O.:.y.O.X.a.h.,.@.O.#.#.y.d.#.+.W m N o.q.q.y.m +.,.X.#.3.3.} X.X.+.o.o.G w V w.s.0.h 8.8.v S 0.o.v h v v v v s.i F $.m +.X.m X.y.X.O.#.O.d.O.O.n O.O.U d.O.P ,.K.i.:.H.f.f E W W Q W S F o.G w V S o.w v C a w 5 5 a G Z w v p v Z Q D v q q Q D v q D o.5 v h v S S S S D W g q q.o.W b W y.N v o.s.a.X.m ! j U K.P.d.G.).=X XN.N.L.L.I.N.2.P.kXN.2.L.#XN.1. .U U #.`.d.9 h.d.K.#.#.i.P d.#.a.a.#.! O.#.#.,.i.O.,.O.,.! ! i.P m X.+.W W o.",
"G G 8.D o.h v v v h V S h V G Z V w w 5 5 w C A V V w C V V G v V h V V h v D S q h S G G S V v F 9 F v +.W W +.b v F W j.o.W W g b +.F F v W W q.v g o.W +.s.v m X.+.c N a.#.#.+.#.N #.X.+.+.m N v m a.X.B #.N #.N N 9 g ,.f.O.,.f.}.#.+.u.~ u.U.u.n :.i.O.G.h.W X.F v F S w q 0 w w w w w V Z N o.X.W F N ,.O.K.P.lX3.>.%X1.>.>.>.J.).#X;.G.;.,.3.1.G.#X1.;.#XB.M.>X@X(.%.B.XX X4.*X<.5.,.n >.*X(. X9X%XgX XL.1.L.-X X1.1.G.1.G.,.d.G.P.).gX,.].,.).P.].d.P.&Xd.U ).K.L ..).,X(.B.4.(. X<.L.CXL.Z.Z. X*.5.5.>. .;.).].$X].O.:.,.X.E W X.W W O.o.W +.#.+.+.y.#.,.O.O.@.:.:.#.#.o.! O.#.+.+.:.,.O.#.i.i.#.O.X.O.E W o.o.o.o.+.9.o.o.W F Q W b W S +.E m Q o.F D S S S S S W Q Q D D W W D Q Q Q b W h W 0.W W W Q W W W Q W D b g N i.#.O.y.W W W X.K.f.#.#.X.X.`.X.P f X.X.W N X.O.y.#.f.W N N d.N X.y.f.K.+.N +.W W #.+.W +.g W a.q.N m X.X.X.#.c q :.,.n a.`.jX! O.f.W a.}.#.d.d.U O.&XK.O.f.c v F G v h v o.v G S v G o.G F F X.X.X.d.O.`.P.BX3.1.=X<.<.&.J.=X1.,X>.;.>.>.L.N.<.9X4.<.J.B.B.@X@X|.%.Z. X>XB.>XN.#X/. .3.].J. XXX).>XL.J.5.L.=X/.K.5.5.g.,.G.;.1.L.-X,X5.).G.1.sXK.:.pX$XO.:.&XK.@.@.#XgX,XJ.B. X9XN.L.VX XM.>XeX4. XJ.<.>. .lXhX<X<Xd.,.P.U ! O.W P ! #.,.#.#.i.,.,.h.h.d.d.>.,.>.,.,.>.>.O.,.d.a.,.d.y.#.:.P.d.,.,.O.X.X.O.f #.K.h.f.h.#.q +.X.a.a.X.X.+.+.9 $.X.q o.q.q v o.Z S D v v v h q D V q G o.S v N o._ s.o.o.U.m N o.#.#.y.#.U O.g.3.:.K.:.P ,.O.P ].$XU i.$XO.P W W o.o.F m S Q v q V h Z w V Z A p 7 5 8 V p 7 Z V v V D D F F S Q Q o.o.S v h Q S h q h v W o.W F b q.b b F u.X.N b F W F N W f P d.K.1.,.;.T G.1.G.-X XL.G.<.N.-X*X;.2.-XP.I ;.n U d.h.d.,.P #.! O.N n n g ! O.,.O.X.O.#.f.d.#.P P H.:.#.P P O.o.X.N E +.o.E ",
"G Q 0.w w w Q D h w v v q w V S w h V C A C h h V v w V v w G h V V Q G h h D G G G D S V S G o.b q F h v 9 q S o.b S D l.0.o.Q b v b q S h b g q D 3 5 W D W u.X.'.iX+.N #.X.X.W m 5 W g g N X.m q.+.a.$.m X.N B X.a.O.N #.U f U n #.i.i.o.f +.t.o.g W +.n N g v F V v Z Z h w V C S S S S G o.q W N F m c X.O.].3.d.3.3./.).).,.,.d.J.d. .d.1.G.P.>.;.G.1.;.L.B.4.@X.X(.&.B.XX(.B.gXN.K.P.>.).L.<.N.L.N. X2.1.&. X#XP.P.;.;.=X .:.J.1.;.;.J.f >.L d.5.d.;.>.J.f P.K.d.5.5.J.(.B.^.6.(.L.<. X*XN.B.L.).<.).L.>./.J.J.U :.].K.}.y.X.! +.#.X.W X.W W #.#.X.X.,.,.:.@.:.,.,.#.#.#.! ! ! #.y.,.#.,.O.#.,.,.,.#.+.+.#.X.X.y.a.$.o.9.j.o.f b u.u.W g F F g g W F v o.W W W W F F W W D F F S F D D W W o.b W 0.o.+.+.o.o.Q o.o.o.W F y.X.m q g X.N c W E f.h.#.X.m E W g X.m +.W N m g m X.W f.y.f.U.&XX.N O.,.y.X.W c O.m W #.O.O.#.#.h.a.F W X.W N X.X.,.].:.g P ,.U ,.:.n n ,.d.,.g d.,.n ! W g N v F W W b g g v b F F W o.F b o.+.N +.m X.#.,.d.P.@.G.%X5.P.N.<.5.5.,X .T ). XL.).n  XB.<..X XV.@X@X.X%.L.|. XN.,X6./.J. .G.$X/.L.(.B. X5.N.4.J.%X/.K.5.5.).d.>.).N.2.B.). . . .J.#X>.@.$X3.M J.).J.>.5.#X#XN.J.P. X*XL.*XrXL.L.*..X(.8X(.6.).hX>.>.,.,X).3.].:.#.i.y.X.P U ! U ,.,.#.#.d.d.3.d.3.d.d.>.>.d.,.U U d.d.:.a.h.a.O.J.J.J.K.d.O.O.,.P.,.O.O.! W y.].U d.h.,.E E W g m N v g o.F q q.T.b h 0.l.s.q.o.9 S v m o.o.W +.G F +.X.N a.f.g W $.a.K.h.X.U ,.K.>.3.].3.P ,.d.d.K.Y.i.Y.d.9 #.+.o.W F v g q g q h Z 7 v w G C V 5 > 7 p w p C Z V V S F F G o.Q D v v v 9 9 o.Q D S D D v h h F o.F o.E +.X.y.N X.X.N m N N U P K.sX).T R ;.;.&.;.J. XG.N.B.B.9XE.2.1.N.1.;.,.U L :.P.,.n P i.#.O.n ! ! ! d.f.O.,.O.,.d.i.f.#.g ].d.O.#.O.f O.N +.+.E b W o.F ",
"9 h 8.V V V Q w h w v S h w h h v C C Z G V q w v w 7 v w w S w v v G G h q V D Q Q G S v h h v Q v h q v b o.q.q.F h g 0.D F S g g S v o.Q u.u.g o.+.u.j.q.+.F v W W f g g 3 q h.U.+.U.W +.#.#.q.r.F o.a.N B X.N B q X.a.h.3.,.d.K.:.n j #.E o.T.s.o.W +.N o.G v Z V w V C V C w w w h h v S b N +.N $.+.X.O.a.P :.d.,.,.K.].3.:.,.,.K.K. .>.3.G.J.&.1.-XL.n.*.=.B.>X.X(. XN.B.*.J.N. .5.1.5.L L.| &.5.2. X&.2.N. X1.2.=XG.R P.>.K.%Xd.;.;.$X5. .;.$XG.G.G.].].U d.U @.@.d.)...L B.B.(.L.%XhX2.*XXXB.J.5. X5.Y >.J.P.,.d.P.1.O.#.X.W +.+.X.W ! W W +.+.N W #.#.O.@.:.,.,.O.O.O.#.O.! o.i.#.! #.,.:.#.O.#.i.y.y.i.+.o.q.y.o.G F q.u.W o.q.W F F o.b g b W F F +.Q Q Q W F W S b S S b S S S b v W +.b S W S W Q Q W W W W Q W F W E m N #.f.u.X.o.m +.+.N N N +.m m a.+.u.X.N m f.a.a.o.y.N m N W N O.n q N y.`.#.].X.U O.#.#.K.X.a.y.o.$.#.X.N m ,.,.,.O.d.J.K.:.! O.,.#.#.a.f.P N u.f.m b q.o.o.F b b G W F b v b b W W v v o.y.X.f.W +.U.i.d.P.@.d.#XP.P.1.,.5.3.L.>.&.N.L.B. X .kXXX*.<.L.B.rX>X*XL.B.4.<. X).>.5.>.U 5.3. .I <.N. X4.4.<.L.5.5./.5.>.J.5. .9XN.Y  .J.5.&.;.).P.].%X$X].J. .@.>.>.d.J.3.L 5. XG.L.9XFX XOXFX|.>X XL.&.&.&.).,XJ.1.&X%Xd.J.U ! ,.y.O.U ! O.O.,.,.O.O.,.3.,.3.1.5.J.>. .K.d.@.n d.d.:.d.K.K.d.1.5.J.).K.d.J.P.,.:.:.,.:.O.#.d.M g.d.+.W o.0.m S h o.j.+.o.a.X.b g Q o.o.F Q F D o.o.W v 9 h +.o.a.X.5 N a.W X.N #.a.`.f.n U g.3.@.,.K.3.U >.d.,.P f.K.,.,.P m Q F b b b v v v h Z o.q v V G v w > > w v w p G V V S Z F F F Q o.q.u.Q Q 0.Q 0.v v S Q Q S v v W o.v E Q y.m c W X.F N N X.F c $X].=XsX#X5.1.>.2.G.L.1.*.>.G. XN.P.2.G.1.T U :.1.,.:.,.:.O.! O.N P n a.d.O.d.! m +.! f.Y.i.a.N i.K.,.i.O.#.P ,.W E W o.W v b o.",
"h 9 G G G v S 5 V h V G V v V v A G w w S v w Z V v w v w w Z w h q v Z h w v V 5 w V S V V S Z 3 9 g D 0.0.o.v o.D b 9 W m b v Q Q 0.F D q v m +.F F Q g S y.9 F c g m z.`.q.'.b X.c f.W #.W N o.q c X.+.+.+.h.W U.h.sXh.P U 3.g 3.U n j y.o.k W S q.S o.D v q V A z w V C C D h h h S Q Q W S v F 9 o.W c f O.! ,.].a.d.$X3.O.O.K.d.d.d.O.@.>.5.1.&. X9X|.R.V. X@X@X|.N.>XI <.&.%X,XG.1.L 5.G.J.| <.B.<.).&.N.-X*XG.G.=X#X&. .;.5.5.>.1.;.%X%X;.,.%X,.I L >.5.BXa.X.h.} g./.;.I 5.N.6.&.L.FXL.*X*XJ.).J.J.&.>./.J. .@.#XgX&Xd.,.O.O.#.#.O.O.#.d.,.,.,.#.,.d.i.:.@.@.:.,.:.:.O.d.i.O.O.i.O.U ,.i.,.#.O.#.i.a.y.i.f.a.o.X.o.X.m m s.q.q.W g F W +.F F W X.o.o.W W W D S W Q W b b b b S F F b v S o.b b S v F W D S b b F W F m g N +.y.y.+.W b X.N o.F c W X.o.j.+.#.c F W +.y.o.X.o.W s.X.N m m U d.a.a.U.,.m U K.y.a.X.#.W g W #.$.+.,.a.y.d.h.$Xd.,.,.J.n g d.j U d.U n o.W U.b Q j.Q h S S v g q g b W F b v F F F W F b W m X.X.c m y.i.O.].:.d.P.d.@.@.)./.1.&.G.1.Y <.5. .<.kX XB.L. X>XL.L.L..X%.N. . X XN.G.>.5./.5. .&.N.B. XN.J.N.).>.G.jX%XY L >.#X<.N.G.P.9X,XN.>.%XN.&.n I %XlXG.@.3.G.K.P.P.I G.P.L.2. XDXL.-XkXL.(.@X XL.>X<.L.4.L.%X9X#X5.5.d.! :.,.O.:.d.1.,.:.,.:.@.3.3.,.5.>.>.).N.&.G.J.J. .,.3.,.3.d.K.].d.J.J.5.1.1.,.>.K.J.>.U U O.:.>.3.].d.O.W E Q h q S 0.j.W F f.c g W z.q.b 5 D Q b b D S q g W +.v $.F X.f.#.N m X.a.+.a.,.n X.,.,.,.,.,.d.G.,.d.:.:.f.i.#.K.f.! E b b F F S D Q V Z o.V G C G V p q 5 7 p V V b G Z S D W D F F v S 0.S S 0.m 9 S v m m v v D o.W Q k E W o.g N #.W m N X.X.N N $X<.1.%X%XG.2.>.N.-XP.2.<.5.N.P.L #XN.1.T T O.O.].G.O.U ,.i.O.N X.P ,.].U.,.O.g g O.P d.f.#.d.O.Y.j f i.m W O.N W E F W F m b W ",
"T.h q 7 w 5 S V G h v S V v S S V C q q Z V w o.A Z v C v v G v v q h D Z S S V Q Q Z v q w V D 9 o.0.o.v q v v b F W v o.b b v o.b b m u.0.o.v v u.S 5 g b o.+.W W m g o.W g q.#.X.q z.+.#.F X.q.q $.$.c X.X.X.a.[.n O.P N O.O.:.>.n P.H.! m Q Q S s.h Z Z V v w V t w C D S Z S S S Q 0.q.o.W b +.N s.+.g q a.`.9 n U d.,.9 f.#.dXd.g N :.,.:.P.1.&.).L.*..XqXXXB.&.N.<.hXL 9XG.T P.>.5.>.;.gXP.N.>X9XG. X5.*X2. X=XP.1.;.T R G.5.5.).hXJ.J.G.P.G.gX).>.L 5.zXK.N N `.&X%X .%XI 4.XXqX>.&.hXJ.5.(.(.qX*XB.>.gXG.%XJ.K.J.;.d.d.K.a.,.,.i.:.i.h.a.O.! X.X.#.,.O.,.@.U O.,.d.,.,.f.d.! ! i.O.! i.:.,.a.:.,.i.,.#.a.[.`.X.F y.a.F v +.b F o.F W g o.F W W F +.+.g S F S S W o.Q S m m S W W W S v S +.F F W S Q o.o.W F F W Q W W q.+.N b m c X.+.N F y.X.N #.X.b v b s.o.+.W W o.F v m c a.$.#.$.n N a.#.X.+.+.#.X.y.#.y.c y.h.m X.+.o.X.#.a.U.aXU @.n  .O.,.I ].f ].$X! P #.#.u.W q.Q S Q Q V V v F o.o.W W W W F 9.+.W o.9.o.o.N j.X.m c +.K.X.f O.].>.T :.d.<XO.1.I >.>.<.%XN.Y J.L.&.9XkX XL.M.(.L.*X| 9X4.B.J.4.5. .5.,X).5.lX9X(. XB. XL.).MX5.>.>. .>.>.,.5.,X9XJ.G. XL.-XhX).Y T  X,XJ.<. .).=X].d.G.L J.=XkX2.n.CX-X9Xn.>X>XkX(.4.>XN.hX X XJ.5.G.P.G.J.d.d.d.,.d.J.d.@.@.>.@.@.5.5.>.<.5.>.%X).<.G.).,X>.>.>.>.>.O.,.$XL.P.L.G.J.#X%X].gX3. .3.d.I n O.,.g.U P E k Q D ( u.h 0.$.5 X.h.N g W v b 5 S F D v S F v o.+.v F m q a.+.c a.X.f.h.N U :.O.#.I n U P g :.P.3.:.f.K.P N u.#.n +.W W F F m h v F v v G G 8.Z A V w w 7 5 v 8.o.v w.o.v F W Q W F o.v Q v v 0.S q Q D D S v h v D m E g W E E W iXf.X.N X.} m X.d.J.<.5.P.1. .G.,X1.,X-XG. X X<.2.P.=X;.;.R U ,.$XG.d.:.! ! P P #.d.N i.a.+.#.P ! ! d.! i.,.P f.a.O.,.! +.N O.N E E o.W g g W Q m ",
"9 V V q w V S D S q h V v o.0.h D D Z Z S S V v q G D q q h w q V G o.Q V h S o.q.V 7 w h h h V D S h h S S v q & u.l.S v W v 9 V h Z D v S D q v Z o.o.Z v D 9.o.W q F b v +.W v F F 9 9 q q q.g X.X.a.#.N 9 X.+.N g @.d.P O.d.P.1.1.O.,.n W 0.S S 9 G V V v v t t G V A w S G Q m 9 o.[.m m W v W o.+.X.F +.o.c ! f.,.W c n K.dXF m W +.O.G.>.G.P.L  X9XM.9X-.*X<.2.&.B. X XN.%X5.5.5.1.P.$X=X>.N.N.L.P.L.-X-XG.%X X1.&.G. X;.L *X%X5.%XJ.P.;.<. XJ.L.J.T #X .$Xn U >.MX,X5.,X*XB...L.XXL L.-XN. .L.5.>.J.5.>.M #X5.5.;.j 1.T d./.d.,.].3.P.:.d.#.O.#.,.,.,.3.@.>.,.,.:.@.:.,.O.d.:.U ,.i.O.O.#.I 3.d.:.@.#.K.K.y.X.N N N N F X.m c W +.X.b c b #.W +.#.+.q.c o.o.+.+.W b F +.F b b b m b F W Q o.W h S 0.0.b W F b v b F Q o.F g q.o.v v b s.j.o.W o.W G F v W W G q.v F N F G u.o.b +.u.q.q.g X.N N a.#.N O.#.g m c c X.W ,.+.a.#.N g O.d.g n d.3.U >.).).d.P.U ,.#.! a.o.E h Q D v S D S D S N o.F W +.N N g o.U.W W b F +.+.X.+.u.i.O.W X.,.Y.O.f N ].sXP  .M @.1.P.>.J.).T #XP.,X*X<.).(.M.<.Z.XX(.L.L.L.J.).I L.>X%XJ.<.XX4.*X(.). X).J.#X .3.@.).>.n <XlX<.*XN.5.B.L.).*.XXN.I ).>. X>.I >.FXCX5.*X,X>.*.*X X1.I.E.N.n.N.(..X4.qX<.L qXL.6.&.I >.<.<.jXG.>.K.J.].,.5.;. .5.5.>.G.J.>.<.*X2.5.2.*.N.5.).5.>.3.5.>.3.3.Y P. X<.>.J.).=X%XJ. .>.,.T  .>.P M M 5.O.g k S T.) m l.s.c N #.K.+.u.W v W q.o.v S W o.b W q.F m c a.m y.a.q O.+.W aX,.U d.P n ].lX#X>.>.U  .O.$X`.Y.d.O.m g b W o.W g v Q b q S q Z 8.Q C V V Z V G & 5 G w h Z q o.Q v v s.o.o.D h v v S D v D Q D D S h o.0.q W W W m f m +.y.N N X.m 9 @./.@.=X XN.G.N.L. XT >.;.5.T I 5.G.%XJ.lX,.T d.G.&X,.,.i.P U ! O.f.#.! ,.,.#.,.,.X.! ,.+.,.n ! `.,.P X.a.9 ! y.g W E W o.0.o.b h v S ",
"3 w v v S S v V G Z o.Q w w V h Q V w v D Q S w Z V w h V w 9 v V v v V S S V V h v V V V V V h v S S v h h S S u.Q h h S q v z.w.k.x.s.D Z o.o.D D G G Z v S Q v W X.u.o.v F g v F o.v 9.'.+.c h.$.q m N X.U y.y.q q ,.O.P O.n ;.L T O.Y.u.y.Q S D 7 Z v w w w V w V t ( V V q h v f.u.m g f.W q.W v b $.f.+.m U.+.m f m W m +.W q W W ! P d.O.d.1.>.%XXX<.N.Y *XI.L.L.XX X*X%X/.*XlX5.>.#X1.J.5.B.N.).P.1.1.;.P.P.L.P.G.P.,XL. .>.).%XhX<.&.=X9X5. X#XI n ,X/.j @.<X .>.J.<.L | B.XX).CX5.j J.>.>.5.J.5.G.).G.1.>.G.J.G.;.1.gXd.g.a.O.g.O.#.} ,.,.X.O.a.a.,.3.@.@.,.3.,.:.,.d.O.d.,.O.O.#.#.,.O.P a.K.h.d.y.h.a.+.W W W N N N W X.X.X.F N X.#.X.o.m N N c +.o.W W W W F b F o.b F F F m F F W W W W W W Q D m S F D W W D F S u.g v v F +.F W o.v b G W 9.z.T.T.s.o.q.F +.W N W q.W v G W b F f.`.#.m W m c +.X.N a.f.,.+.X.#.m d.O.,.#.O.K.n g :.,.U U  .Y n ,.@.K.d.! X.O.o.h W S h V V V S W F o.b m W N X.a.+.+.g #.q.W v o.+.y.y.O.P #.U.g 9 n i.y.P ! O.O.U U n  .>.K.G.;.,XP.J.5.4.%X(.(.L.|.>X*X*X*X X,XJ.5. XJ.(.>.&. XL.%XB.J.L.*X*X).5.{.J.,XJ.Y J.N. XDX4.>.*X9X).>X*X .&.DXN.2.I %XY <.B.*.&.*.L.kXqX4X2.L L. X^ *X4.B.V.@X(.N.<.L. XJ.| 5.>XJ.B. .5.].P U G.). .>.5.J.B.J.J.5.N.(.L. XL.J. X).N.J.5.1.,.5.J.G. .N.*X X%X*X).J.>. .U  .@.Y @.J.d.>. .M 9 P T.0.3 Q h Q F F h.f.#.j.z.+.b b F v g g g m E +.o.g N o.q q y.s.B U }.[.9 P O.U :.U J.#X>.>.G.j  .G.d.i.:.,.,.W m F q.g b v F +.F h W G o.Q S v v v v 5 G & $ v v v 9 q.G g b v b 5 W F v D v h S q q Q h v Q Q 0.o.q W S W E k m W N N U X.N } K.g.n J.L.J.<. .N.-XJ.n 5.=X1. .P.P.J.T P.1.d.].G.K.,.K.d.P ! ! P O.! y.iXi.g #.P q f.K.,.O.a.d.#.O.O.! d.N N E c +.#.o.+.+.Q b h v S ",
"V V w w V v h Z o.V V D V V V w Q V w v D Q S h D v q h G D V D h h h v V V h w 3 v D V h v v w S Q Q S h h h h h v v Q q.Q h h w G o.Z V h S o.G S v V S V v v v v v o.F v F v F o.s.W F s.$.v c m X.f.W m n O.Y.,.O.d.O.O.].$XsXK.,.U :.O.W h S Q 7 Z w w w w z C ( S G h D F m +.j.v F W W b 9 W [.u.m W o.T.v v W $.s.#.g v W S q.F g c ,.U ,.U ].=X).G.T 1.*X1.2.<. XG.5.&.>.>.).&.5. XY %X4.5.<.).P.2.;.T  X1.2.L.1.2.P.1.>.&.(.6.).N.*.,XXX>.J.J.%X).5.Y MXT >.5.%X>X>XDXDXB.&. .>XqXG.I 5.K.d.).K.5.%XJ.).#X%XJ.1.2.;.).).J.).3.K.3.@.,.3.J.,.>.J.K.3.d.3.3.d.d.3.>.,.d.K.G.K.d.O.U :.d.d.O.g./.g.d.O.#.+.O.+.+.$.X.X.X.X.W F b F X.+.o.F F m X.W g F o.W F E W F b F W b b F F E F E W S m m F F v v S F D W W W F b m +.v F W F o.G W +.o.+.+.F b G W o.b v o.W s.a.q.b W N v F F b X.c X.U N X.X.X.d.a.O.X.y.a.+.#.U O.].n I U n ].,.U ,.,.,.K.<X<X<XX.:.a.a.W c X.W v W S h V S S D W W +.E N o.X.#.+.E X.c +.o.E W }.o.f E U.T.o.q #.W u.f.o.m g W U M U M ,.,.3.U J.BX%X>.;.G.=XJ.| 4.(.B.*.*.B.B. X| B.XX<.(.6.L.N.).L.|  .L >.*.5.G.5.@.).d.>.>.).).,X>.N.%X XXXL.(.*X(.B.| >XM.N.N. XhXFXFXkXZX&.Y 9XkXL.5.2.N.*X|.*X>X*X*XkX(.*X(.N.&.4.XX(.J.%XJ.%X<.;.1.5.5.&.*.5.L.J.B.(.L.B.*X*XL.<.L.,X).9X%X5. .5.).).L.G.*X).L.L.5.3.>.U >.J.K.G.d.:.U c M O.P.K.X.m m f g m q X.[.h.m g m h h F W +.f.m f g h +.u.m N F q y.+.X.,.c N K.N ,.P P K.O.3.G. .<.#X .:.d.d.,.P n X.o.m m Q g b m W o.b g S D Z V h V V V w V q.v 5 Z o.o.F b F F o.#.j.N W g o.u.v S l.y.S 0.S Q q.0.Q D m D S E E m E E g O.n g } d.>.>.5.N.<.L. X%X*X XB.J.N.J.G.G.G.>.>.U O.:.d.d.:.:.H.K.,.n O.#.P #.y.#.,.! P O.,.d.$XO.X.n a.i.g P ! P y.+.W o.+.o.F o.o.W S v h v v ",
"Q S w h Z V V Q G w 7 V G D S V D D D Z V V S D w D v q Z o.G v h S D S w 7 w v w S Z v q w h h q q q h Q 8.Q m h G S h S 8.S 3 5 h q w Q G v S S h h V S S V V q.F v F G o.9.o.o.F u.o.q v F W X.q q X.N +.X.W f i.U O.K.O.O.P.J.K.H.,.+.W S h S D 7 S w V A G V D 0.S S h o.y.+.W X.q u.q.f b W v q.F +.'.W b 9 v +.+.o.F v +.F g S h F W f.,.O.g P.].K.J.@.P.=XI.1.G.=X5.1.;.gX5.N.1./.#X>./.5.N.5. X X1.N.N.-X1.5. X1.;.P.1.J.L.).<.N.J.&...N. X*X .4.N.N.J.*X*.*.M. X|.M.XXZ.>X X X<.&.gXJ.d.#X].].P.J.#XG.G.,XP.).P.1.-XP.K.3.K.3.d.d. .J.@.g.>.U >.,. .@.d.J.J.J.3.>.,.d.).d.K.P.O.P ,.d.P.,.g.g.,.@.U X.O.+.+.#.#.o.X.o.N W W F X.$.o.b F W W +.+.F W X.o.W F W W F F W b F W W W F S m W b h v v h b W o.Q F b b b S W v v +.q.W b W o.F F o.+.F v b v F G o.o.v v m g F F F W o.W o.q.m O.#.#.a.+.U +.h.#.g X.O.N #.N c d.P O.,.U ,.>.U ,.,.>.3.J.K.].@.#.N +.X.m X.c b W S S Q Q S Q E N +.o.+.y.o.+.m N u.W o.m m #.X.y.f.a.W f g E +.W +.g q +.W N W g N #.U.#.X.M d.jX].>.>.K.&XG.5. X9XL.<.4.%X X X4.B.XX6.B.*.L.4.9X*XB. X6. XL.B.(.3.>.).d.).5.G.<.<.&.J.<.|  XZ.<.L.B.M.V.VXV.Y Z.@X|.|.OX|.V.CXB.<.L.hX%X;.kXN.8X@X.X XB.*X*X*XL.(.N.6.).XX*X%XI <.J.G.<.&.%X5.&.*.J.B.6. XL.L.*XL.B.4.L.hX).9X9XG.&.G. X).). X*X5. . . .3.5.$X%XJ.>.:.:.U n >.d.U U U  .K.d.q X.+.m X.f.#.n +.o.W E F g 9 m f 0.f.v f o.+.a.g c `.#.#.dXU.O.n d.O.n O.3.3.U Y >X).N.d.#XJ.,.$X,.m W y.q.W S W F b b b v v F h v h v C Z v q o.G q 5 V v F o.q m N W X.y.q q v 3 q D o.Q h W o.o.0.0.D v Q q.Q D W W F ! X.m P n n  .d.M Y *X,X<.<.B.L.L.<.L.=XN.<.J.J.,.T @.,.@.,.O.O.O.! K.i.O.P O.i.:.i.f.i.P ! ,.,.i.d.,.! ,.O.,.#.U #.P P O.f.+.O.+.b W o.W b h h v v v ",
"h h h G q.o.V Z h v S Z V q h Q D D W F b v b S q D D h v F v q V S D S w q h V Q S S S v w w V S h h h S D S q u.S h S S h h D Q G w w o.G w w V V V Z Z C V Z W v G o.G F v q G 9 b W o.q.W g u.m g X.m #.,.,.#.K.U O.=X].,.d.P O.#.+.E E W W v G 7 V q V o.o.Q S D q F N +.X.+.5 y.q.o.F o.o.v F T.W g S 9 F o.D D v b S g Q D q S S 0.W +.W W c +.a.#.O.X.,.G. X-X*X=X;.L.=XMX%XJ.G.5.).=X .N.L.).,X%X5.B.J.N.1.G.P.1.1.-XG.N.4.<.>X9XL.N.B.I *.>X*XB.L.ZX*XOX8XA.^ Z.8XA.M.*.>X&.<. X%X,XJ.P >.K.>.>.J.>.>.N.N.&.P. X>.G.*XJ.d.K.3.3.J.>.).J.%X).3.5.d.5.J.3.3.d.J.d.5.5.J.d.O.d.K.:.T ,.d.,.} 3.3.O.O.X.#.O.X.X.X.X.N N X.c +.a.#.W W X.X.#.+.+.F W #.$.+.o.W W W W N N F F W X.X.W F N m W W S v b Q o.Q o.W S m v b D Q F v v G o.o.o.F S v v v m G +.o.9 q G D S F o.F o.G Q o.G F G W a.a.+.W U m c n N O.X.d.+.c O.W c O.#.O.d.d.:.d.U J.&X].G.@. .3.#.a.m X.+.N o.N m F m S o.o.W W X.m W W O.,.W W a.#.a.W #.W N X.u.W c m E W E m +.g F b b o.b N +.c m N y.U X.+.! d.,.O.@.d.K.K.%X%X%X<.L.*XNX).B.XX<. X%XN.*.L.4.>X X4.).6.(.<.G./.5.J.&X3./.,.5.hXlX).B.4.Y B.eXqXM.Z.KXrX|.@XM.=.S.2XZ.M..X@X=.N. XXX>XB.L N.XX8XV.L.Z.M.Z.4.*.B.XX4.4.>XXX4.>XB.(.).).9XXX*X*XB.<.L.B.M.XXZ.@XoX<.(.*X8XhXB.L.*XL.<.L.).5.>.$X,XJ.1.1.>.3.>.K.P.:.n P U U U ,.,.P ,.g.>.3. .O.K.K.,.#.+.! N E m c N +.X.W y.+.f.f.c c +.o.+.y.N X.#.N N P N :.P n 3.J.J.K.@.1.XX<.).$Xd.O.d.Y.i.W m o.0.Q h W v v m S W o.o.v v V v v v w 5 Z v 5 5 q v v F F q 9 W N m 5 +.0.D o.Q o.0.v h v Q Q v h S o.q.Z D o.o.F W X.N n K.$X1.#X5.G. X9X@X|.Z.N.<.4. X .J.).J.5.>.,.@.,.#.P.,.O.d.! O.y.O.O.O.,.y.:.,.! i.! P d.#.n O.d.a.f.! ! ,.P m X.N f.o.g v v j.W S v h v V V v ",
"V S V Z 8.G h v h S V V S h h D D b v v S F v q q v S W Q b h W S v w h V S V h D h h S Z h q w Q Q S w 5 5 7 q Q q h Q S 7 q V V v q 7 w q w V v v V S V w w V q 9 o.o.v q 9 v v v v q G z.0.9 b W #.h.X.O.! #.f.O.n O.O.:.P.d.h.i.P m f m h S v Q w S q v Z D S Q t.m W N X.N N N f.+.X.m D o.W b +.v g W v W S b W F Q W 9 q q.Q o.D Q g b G q.X.N X.N m F m T G.N.G. XI 1.L.%X5.5.-X5.5.jX5.*.L.XX9X-XN.J.J.&.1.1.1.2.1.L.2.N.N.&.,XXX<. XhXZXhX>X XL.Y N.M.M.S.A.+XSXSXZ.7.;X.XZ.<.&.%X%X].g.J.<X/.).$X1.J. X1.L.&.>.J. .L.K.)./.g.3./.5.).3.5.5.>. .@.>.,.d.d.J.J.d.5.3.J.K.3.d.K.1.O.:.,.O.I 3.d.,.,.O.#.#.O.X.N N m N X.W +.+.X.N W X.o.o.o.#.W X.y.X.N W W F W N m b F X.o.+.o.X.W W W b F F S W +.o.b F F F F F F F F W v 5 v S G o.v o.F F F v F F v 9.G F q v S G 9 G v F F v v F v X.U N m N U W W N N X.a.#.N O.X.@.O.a.U O.d.>.K.P >.,.3.G.G.1.,.X.#._ N N m F X.v b m F o.W F W f.W N m ! #.W W h.#.#.c +.X.! +.X.N m m W X.W m y.W +.+.F b b G o.W X.c X.X.y.+.X.O.W U X.U O.K.5.<.J.I <.J.,XN.*.>X&.L.9X(.<.(.9XqX*XN.(.N.J.<.5.5.>.5.K. .J.d.L XX).J. XqX9XZX@X8XZ.-.M.M.M..XtX2XrXKX8XA.|.M.eX2.*.*X9X,X>XN.qXL.L.*X=.L.>X4.M.=.4.4.B.).4.<. XL.<.<.>.L.B.*.XX(.*.B.B.N.>X|.>X|.Z..X.X.X9X*X X*XL.>.<.J.N.<.P.%XJ.J.P.J.K.3.U O.O.O.P P O.,.K.O.M 5.3.M 6.,XJ.).K.g.#.P P g u.+.m m W ! W +.K.#.o.W +.o.g m #.W N K.f.U d.P.,.O.P.O.5.).@.J.).N.&.9XP. .>.:.n ! o.N m D W S W v b W W o.+.D v V v h w v V v q v Z 5 9 o.W v F F N X.X.q.F s.h v Q v S 0.S h D o.S h D o.F v S Z o.0.G F F n ! K.%X5.gX%X*X*X XVX*XL.(. X%XN.<.G.5.d.1.&.3.3.:.#.K.O.U d.O.N :.! O.! O.y.! O.P O.+.! W O.i.K.i.N O.N P O.g P #.g W W F o.F +.F b v v S D Z V ",
"Q o.S h V S v V V G h w G Q v v b v g v F F v q h b S W o.S S +.V v h V G G S h v h h V V v w q 9 w h q 7 h S Q S h h q 3 q S w q 5 w v w w V G v w w h w w w V G v o.G v F G 9.v G G 5 9 o.G F $.X.q N ! i.X.O.O.N :.].,.O.K.:.#.X.N $.W Q h h h Q v G v v v v m +.H.O.P c X.O.m 3.X.B q.v v D o.b v b W o.Q Q S D Q v v S v 8.D D Q h D F q.s.q.o.G N N o.X.c O.G.T ;.%X;.2.T gXN.J.9XJ.5.#X#X&.L.(. XL.5.L.J.N. XN.N.P.G.1.;.*X*XL.L.| >.B.XXY J.9X*XkX<.| 8X5XtXtXbX!.6XbXbXvX(.>X*XI G.P.@.g.3.,.J.).>.P 5.L.L.*X&.1.lX X%X>.).5.3.>.J.d.3./.,.g.K.>.>.d.>.J.J.P.K.G.1.1.G.K.P.P.G.i.O.T :.,. .3.3.,.,.O.O.f.,.X.X.X.X.X.o.q.X.m N X.o.X.X.W N q.+.+.#.m c N F W W N m N X.X.X.X.W W W W X.S F W o.Q W S S S F W W W D S b v F v S v q o.F v v F F v F v 9 v 9 v 5 v Q q.F v q v v v o.o.v +.O.#.,.+.+.+.X.#.c n U X.#.X.X.N U a.,.,.d.:.P J.J.>.@.J.).J.,.m _ _ B b b c X.m F E E E N m ,.f.X.W N X.#.W X.X.X.y.c X.X.O.#.N W o.+.o.W m m g F F b g F u.o.G G 9.G q.$.q.W +.X.X.X.X.m N d.@.5.*X>.6.4.,X).B.>XB.L. X(.&.<.XXN.(.<.N.J. X).J.5.G.5.3.@.).#X).).&.4.B.J.*.4.VX8XrXV.%.rXKXS.3XtXrXrXrXeXAXmX@XN.&.XXB.| (.N.B.V.@X.XY |.@XL.>XM.4.XXqX(.4.9XB.N.Y  X(.).*X(.4.|.*.4.N.4.XX|.8X|.@XoXV.Z..XeX>X XB.&. .L. XN.5.).d.3.J.J.].].d.U } O.N W a.f.P O.,.@.5.%XB.| B.^.g.d.U m o.q #.o.m N X.o.X.+.E W d.u.X.g 9 y.y.`.h.h.,.M P I U d.&XU P >.g ;.&.lX*XL.Y 5.].g P O.+.X.F F o.0.W b W o.F W D g v V v h v C A Z h v F 3 & Q F q F u.#.N m y.m q +.5 S z.l.S v '.o.0.Q D 0.Q v V ` G G F N F W N ! O.d.;.=XG.R. X.XkX-.%.B.L.,XN.).5.I >.1. .3.d.,.#.d.O.n O.#.P i.P ! ! O.:.W :.i.O.d.y.c #.`.#.,.N N O.#.O.! i.+.c F o.o.q.W q b v v S D D S v ",
"w G D V Q o.G S v q.0.m S v q S 9 h S F b v b b v +.o.g g b m h h S Q o.D S v V S Q G V h C C h v h h h V S w 3 S h S S q h h 3 S w C o.V w w 5 V w q w v V Z o.9.q F v v o.v v v F v 9 v D v 0.m X.m N N O.! f.d.d.O.d.Y.:.#.,.#.X.g W g v h 8.q Q S 0.F G b g E W #.n N N O.} U B N #.o.q s.9.G b g W o.b v h W Q Q S Z o.V o.h D o.h +.0.0.F G v G i b s.o.F n G.T 1.=X1.G.;.P.5.G.2.>././. X5.).J.1.;.>.L.N.G.).;.1.-XG.;.&.J.>.N.L.4.*XL.*X(.Y  X4.L.*XL.@XSX-.F.KX3X2XeX@X;XVX4.L.| L 1.>.).3.I $XgX .>.%XN.J.5.N.). XP.L.>.=X5.J.d.).).d.{.@.5.).,.>.3.P d.G.J.K.J.d.G.P.;.G.d.,.:.T U d.g.O.,.@.O.,.@.@.K.3.X.X.X.+.+.#.+.X.X.+.X.W +.a.#.N +.X.N N g o.N F X.X.W N W #.F F P N N N ! O.#.o.o.q.+.b S 0.E W W W E F S b v F b o.F v o.g W S S h 9 h F v G G 9.v v q F 9 F v F F v 9.q.m F N X.X.m n U U ! g X.X.W O.P +.N U U O.O.d.$X,.O.P.].d.>.>.>.@.N N _ c F X.q X.N o.+.X.m g m d.#.N W X.+.#.W X.X.O.i.N y.a.X.N m ! #.W m m W +.W o.b 0.+.F 0.v +.m F X.a.F W X.m m X.$.$.N m d. .>.). .5.>.).4.<.4.J.J.B.>X4.L. X*.).4.4.B.J.J.5.5.%XG.5. .d.5.>.L.B.*X%X X<.%.|.L.8X8XS.8X8XS.C.KXwX6XtX6XwXVX=.>XY I N.6.XX<.*.8X9XN.<.8XV.|.=.N.(.XX8X(.*.*X<. X<.qX*X X9XN.4.,XN.4.6.*.L.J.qXL.OX.X@XeX|.Z.|.Z.N.<.2.).). .1.].J.d.d.5.).).K.n I h.g.d.i.n #.O.d.O.} 6.| | 6.g.g.d.c c u.m S O.X.o.i.y.+.+.#.N c m a.`.O.N Y.aX}.h.,.U P a.]. .K.jX:.U G.n <.DXL.P.J.U n :.#.N c c g q g b F v W W g h S q D G D Z Z Z V q s.F G 9 5 S S W 0.Q v v b q.m +.g 0.z.W q F b b v D D Q o.h v s.w.` v q q W ,.O.O.).MX XkXOXOXn.M.>X&. X9X<.XXL.L N.>.>.;.>.P.,.,.,.d.d.! O.,.P Y.U ! O.O.! k ,.! ,.O.P i.Y.i.P O.O.N #.#.N ,.#.P +.f.+.9 q W F v v v V S S v w ",
"h v q Q Q q h 5 S +.q.v g T.[.g W +.F v 9 v q.X.+.g W m c W m m E ~ u.m m +.m h S v V S v V V 7 S V G h 7 w v 0.w Q 7 Z V G 8.S l.V 5 v D w q V q D Q v v S S q S 3 S o.o.o.q h q q.q.S u.S h Q W f.y.W m W y.! +.d.a.#.#.#.! m o.D h w v S D D 9 q q.9 u.b v +.+.f.b c z.$.9 F y.$._ F $.q.X.q N B B +.N m q.q b o.g v D S D h v b E X.W F b F o.G D S h v F v W #.K.K.K.P.,.L ,.>.<X;.1.hX .I ,X>.,X*X5.;.J.#X,X1.>.).#XP.5.Y J.*XXXJ.J.L.XXqX9XB.qX>XM.@X.X=.rX+XJXKX.X6XrXeXVXOXM.4.<.*.*.>.<.%Xn <.N.<.L. X1.;.N. X*X X5.).G. XL.5.1.>.J.1.K.5.3.$X,.d.>.O.>.K.K.5.3.5.N.L.5.=XJ.d.d.P O.#.#.O.O. .M } 5.g.a.#.X.O.+.X.X.X.X.X.} M N X.+.X.a.X.N f.uXX.q a.o.g m m X.O.a.N U X.P N X.U U :.i.#.N X.+.P X.W X.N c +.o.c F $.X.m c n W X.N g b W h 8.u.Q u.o.q S q v v i G o.S o.i S v q F b c X.#.X.W q W N z.m y.X.b y.y.U.,.} P :.d.O.O.h.h.,.i.d.:.! ! X.o.F v v F G b c W N f.P g ,.,.K.N U a.,.n N ,.#.U X.,.a.+.n c n O.f.m N q.b m F X.g X.b g W v W X.o.N N +.m #.N o.N b X.X.m N o.P.>.G.{.>.} ,.5./.4.5.*X6.n 9X6.<XXX(...5._.>X6.>.%X(.4.5.Y J.).*X XL. X*XeXrXR.rX@X|.R.+X-.AX!.JXyX3XyXKXnXwXwXA.oX4.<.4.Y <.*X<.&.&.4.eX9X*.(.4.XX>XXX| >XB.B.(.B.*.<. XXX).J.P.,X%X5.T >.d.G.).(.(.*XB.(.>XVX.X>XXX(.*.5.<X@.#X;.T >.gXlX).G.:.O.M 3.K. .O.O.U T d.>.@. .6.J.4.^.%XI g o.U.S S W W 9 X.#.y.W #.U U q n U } <Xd.b X.m ! X.#.:.U P $X,.1.K.Y.i.J.5.J.).&X`.! ! #.y.m 9 N +.W W W S Q q.+.v h W o.9 q 0.q.v h o.c q F q 5 v G q.v S S Q m h W b b o.W F +.q.#.q.v +.W g b F F o.v q o.W m +.U f  .%XqXXXL.n.9XR.V.N.*XN. X-XG.2.2.>. .n 1.G.I d.1.:.O.,.n n K.d.f.! P U P ! #.#.}.X.W +.f.m N +.E ! E W +.+.E P N X.o.E v g h q S w w v V w w w ",
"Q o.D D v v s.'.y.m E o.g 9 E f.q g q m F g c 9 W N +.X.O.U g i.,.:.p.P m +.Q o.8.G G Z p V A Z w w Q o.o.G w w V Q V G w V V h h w w v v v V Q v S V q q v v w h v Q v h o.o.v w h q q u.Q v S W O.X.d.y.N W +.m O.X.N W X.N b Z Z C v h v D 8.W S W 3 +.v b q.c X.F q c N F F F X._ m c m F X.X.N m +.N m q.v g o.D D v 9 b W o.X.X.X.F m F +.+.b F o.o.Q o.W g W ! O.d.K.,.,.].<X#XI 1.MX%X .5.5.%X1.5.J.J.5. .@.>.@.Y >.G.>.4.B. X).6.B. X X(.XXL.B.rX*XZ.CX-.xXeX6X.XA.8XeXM.Z.8XmXqXXXL.5.2.-XL.J. .J.*X-XN.&.T  .N.P.G.-XL.L.G. X).5.#XgX>.1.d.$Xd.d.1.d.d.d.,.5. X#XL.N.J.J.d.d.K.d.X.X.#.O.,.,.O.O.,.,.a.#.O.O.+.X.o.+.X.X.X.X.+.3.a.#.+.#.X.W q.+.b m F c X.m c g +.W d.:.O.X.U :.:.n d.,.P O.+.X.#.+.X.+.m m F X.o.B #.@.O.X.U W o.#.o.Q S Q Q m S h Z ` S G S i F b o.G ` F S S v v s.y.+.F +.m X.m m q a.q.F +.c c #.d.3.U U O.O.! ! ! O.O.P ! o.E v V Z D W W W W $.5 N X.y.h.N U #.U N U O.,.#.N #.O.X.U N N O.d.c y.F W +.c m +.m m v N F X.a.+.X.a.,.g m +.h.N F X.o.o.G F G o.#.3.%X<X,.} d.%X#XY J.jX#XM 6.).(.B.6.6.<X6.;.6.>. .6.B.%X>.>.XX XB.V.L..XrX9X|.Z.eXOXSX8X@XA.KXHXyX~.D.~.3X3XoX+XeX8X|.L.L. X&.N.N.4.N.9X>X*.*.| | 4.>XN.*X4. XB.B.mXB. XZX<.4.J.,XP.>.K.K.O.@.G.).@XqX(.*X@X.X4.>X(...J.).3.J.f =X5.R  .d.jX$XU d.@.@.>.@.,.:.d.@.@.P ,.G._.g.5. .O.N O.P o.S v F W 9 E y.a.g c I n I 5.d.J.].+.b u.+.,.X.X.U O.f U P ,.H.Y.H.1.@.U f N +.N N o.y.+.o.#.X.m F b v h h v v m S v S F b v S S v o.b ` v 9 F G o.q V S Q v g Q F W X.N c m N c g F o.F m X.W m W T.o.D N W ,.O.U 5.*X,XL.V.V.rXR.B.2.L.G.-XL.G.L.1.2.#XP.1.J.J. .=X,.n O.:.1.].O.#.O.#.i.i.O.P W m #.T.+.+.W X.g m E m N o.o.E W y.o.m g v S v q V w w v V v w w ",
"Z V V 9 9 h h v b q v W S g m u.v F v +.a.b c N g X.#.O.d.#.f O.O.W ~ m n ~ ~ q.+.o.o.Q b V G G Z v Z V V Z v G w V V S 7 S h G 5 v S h w S Z v Q D S V S S V v 0.D v S S v S q l.Q v h 0.D D v m m b s.u.c b X.v W F m F W b b v V V w w w S D D F m v j.b W W +.$.q.F c s.x.c G o.o.F c v o.s.X.m m W m m +.m b W v F W h b Q f.N 9 n #.q.X.b o.g v +.o.G G W y.O.P i.[.d.:.$XP.3.n J.gXJ.G.).5.1.5. .P.J.<.5.J.3.%XDX,XB.G.#X6.4. X*X5.B.*X(.N..X4.*.|.*X8X8X=.VXeX@X|.V.|.=.<.M.@X8X(.L.B.*.P.5.9XDX X%X X%XG.1.N.J.=X9XG.N.&.L.P.P.G.J.#XP.].P.>.O.U O.T 1.d.d.3.G.).).J.L.J.;.K.d.O.O.n O.,.#.d.K.3.>.,.3.3.@.O.O.X.X.o.+.O.X.X.#.3.3.#.#.#.y.+.m N #.o.g N X.f.#.O.N ,.O.U U K.K.n P d.J.O.O.M O.O.X.#.X.+.y.W m F o.$.c X.O.X.U m m E o.b g m m S W S W v w v o.F F 9.S v 7 F b S 9.S o.9 c N F o.m #.+.F v y.X.c X.W +.W h.d.N N O.+.W N W o.E m W o.b v h v v W o.W F m X.`.O.q U O.h.f.n c d.h.c f d.a.m 9 c #.d.#.N g +.W ! +.n m +.m N N N N +.a.W W c #.y.f.W m N N +.q.o.F G X.W U ,.,.O.K.<X$X,.U >.MX].J.%XG.4.J...J.J.4.4.XX4.*X>XNX5.L.%XB.N.qX XL.|.|..XOXZ.-.M.V.rXeXxX^ SXKX7X~.~.3X~.m.^ HXrX8XkXB.Y L. XNXmX>XXX>X*X(.*.(.B.(.mX(.(.4.XX@X=.|.M.*XZX5. XG.1.T L ,.].&X].G.%X*X*XL.8X>X(.DXZ.B.B.J.>.I &XhXCX;.2.*X#X#X1.U d.:. .:.,.d.:.T 1.,X#X#X).%XJ.g. .N U #.m g m u.o.z.z.y.N ,.,.}.sX,.@.>.@././.q g U.i.O.n O.d.n K.].T P d.$XL :.K.K.N N ,.X.o.o.W v g c q m s.W F v q v o.o.S g o.o.v g W Q v o.b G v q V V S Q 8.8.q.S q b g +.y.y.y.f.a.X.F W F m F +.W m F v b o.X.m g n d.>.<.*.Y L.L. X&.=X-X XL.L.*.2.;.N.-X5.T ;.i.d.,.:.O.:.,.n g ,.,.! O.P m o.W X.f.N q.h.+.X.N o.X.W W N N X.X.W X.E W E v g v Z G V w w w V p w 7 ",
"w q o.Q q.z.o.D h Q o.b F W m g b q.N F o.q c q.O.y.#.P ,.d.O.n W W o.+.+.+.0.u.D F Q o.Z Z F V h h o.Q Z Z V o.D S Q S 7 Z 5 V w S Z v v G Z q Z v h Z G V w q 9 5 3 D Q h o.D o.v D v S v o.S g W F W D b o.F S Q F v b b v v v v w v v v v w v S v o.[.W o.b T.q v s.s.G F F b b v v v v F F N m m F m N X.N F b g F q.W F o.! P ! ,.+.N b X.W v b o.G v F b b g q N W m P U n @.P J.%X>.5.).P.1.1.&.P.N.N.5.%X>.1.qX,X<.<.,X).L.(.L.B.L.XXXX>X>XZ.(.|..X8X=.|.=.oXM.=.VXVX|.B.V. X*XL.*X9X XCXN.5. XL.G.L.9X X5.<.N. X X<.N.).hX).5. .J.%XP.U T M @.].=XK.K.J.d.1.5.J.G.5.J.P.,.]./.O.O.#.f.i.O.,.J.5.>.3.d.O.O.X.O.o.o.+.+.#.O.X.#.a.,.O.X.a.+.W W E W +.X.W W #.W ,.#.a.O.`.,.d.K.>.n P  .O.:.O.d.d.,.,.U W +.X.+.X.N X.X.#.O.X.O.+.+.W N 0.E +.E m E 9 g o.S F 9.F S 9.q 9.` 9.F v v 9 v v X.#.+.+.c $.#.b g X.X.F F m W X.+.+.+.#.W W #.W W o.W m F W m b V F F F F F b c q.}.y.N y.,.X.c f.h.+.W N N +.f c P X.X.W N N X.X.m N +.W m N ! W y.N n #.O.W O.X.f.c m X.W X.F X.o.X.F F F F g #.,.M O.I n U O.,.<Xd.J.,X5.5.G.;.).(.<.4.*X5.J.*XqX .4.9X9XL. XB.L. X.X@X8X8XeXM.eXV.8X|.M.m.!.m.D.tXnX~.A.Z.|.OXOX>X*XhXZX@XL.>XXX(.B.XX9X4.&.(.XX>X<.(.).>X8X@X=.XXqXZ.N.>.j n BXLXd. .].O.5.(.(..XB.@X.X(.8X>X@X<.*._.$X$X&.lXkXN.5.#X1.G.;.>.O.:.H.d.:.;.J.G.).5.J././. .@.5.,.X.+.W F +.q.N U.[.#.q #.d.,.d.} I  .>.5.@.f.E #.! d.K.P.d.d.d.T 1.$X$XY.n ! d.K.O.#.f.Q S h m b W F m N y.b v h h b D S q b b S F D D D D G c F i 9 v h V w V S o.W W s.q.g N N N X.W m m v m b F X.W N b o.0.y.$.y.X.n >.>.5.B.<.L.<.L.L.N. XB.1.1.5. X1.&.#XT T P.G.,.O.,.! O.i.,.#.#.N g W S W f.+.F u.u.+.W b N F X.o.+.#.o.X.+.o.F W q b W F v g v S C V V p w w w w ",
"A G w.C w V 5 q V D W D b g b u.v q.m c X.N W ,.}.,.#.i.O.i.P.O.P W ! ,.#.! W o.F v v F Z G Z v G S Q D D Q S Q D h S D v 0.v o.v v V V Z G D S D v h Z Q S w q Q z.l.u.D S 0.9 v S s.o.D D 0.9 h o.Q S S Q q.F b D v q h h q w v Z G G G S S Z W D g F u.b q.+.b W Q o.o.F b o.v v h v b S S b W F W W F W W W m N X.+.#.F m #.,.#.y.f.a.X.N W W X.o.W v b G v N X.o.F g i.iXN <XsXsX/.g.3.3.).5.N. X<.2.P.9X&.Y >.<.*.N.).).J.).%XN.>.).(.V.XX(.B.-.>XkXB.|.qX8X=.oXOX|.VX8XM.L.XXkXMX,X,X9X X X*XJ.(.9X XJ.<. X2.>.N. XL.<. X-X X<.-XG.5.5.J.gX,XK.J.sX$X:.U ).d. .>.).).5.*.G.>.;.K.d.a.U.,.:.O.:.3.>. .@.>.} O.O.#.#.#.+.+.a.#.#.,.a.,.#.#.y.U P X.P m W +.#.O.O.n #.a.h.a.O.d.>.O.K.d.@.J.@.:.O.,.a.:.+.m n X.X.#.o.N X.X.+.O.X.o.+.o.W m c f X.E Q y.W q.q.G F 9.F D q.v q F v G F v q.a.j.q.X.F #.N #.X.s.W W o.X.m q W $.X.W $.y.N c W m g v F v v S D Q o.9.o.F b W o.X.b +.,.#.,.+.+.m h.u.m E #.! c m P X.W N N ! O.#.W N N X.X.N W W y.y.#.W +.f.+.,.#.U.N W O.X.+.+.N N W W m v W 9 n #.d.iX#.K.GXP.K.d.,.K.).3.5.6.).J.J.MX*.j L.<.<.N. X*XN.*X*X<.<.L..X|.|.@X@X%.M.VX|.rX8XeXA.A.S.wXKXtXZ.S.eXxXJXxX@XOXOX@X.X*. X@XXXN.L.>X%.| (..X(.<. X8X*XY 8X*.B.L.N.FXqXMX>.%X%X,.,.,X .>.4.Z.9X(.Z.M.Z.*.DX>X4.#X).5.d.>.L.<.*.N.*X .T 5.1.1.1.f.d.#.,.).P.-XG.J.5.5.P g O.I g c F F o.N m y.! N O.K.P ,.U O. .3.&X/.d.K.#.d.O.,.3.d.1.].G.L H.$XP.P.:.:.X.U n #.d.E m b S F F b N W F b v v D W F b b S g g W o.S v F G m G V 7 w h G ( Q S Q S m W b $.q.X.N N N W q.g F X.N m W W g b W W q n U  ./.,XL.N.>.P.N.N.E.R 1.T ;.2.G.*XJ.G.1.:.K.d.1.$X1.Y.O.N X.a.f.X.q o.q.W Q j.q.S 0.F o.W v b +.W q +.q.+.o.q.o.F W b v v v Z S w 5 V Z C w 5 5 8 a ",
"C V Z v V o.o.q.S v v W W S W +.v o.c W j.j.i.O.h.N a.jXf.X.K.:.O.#.O.#.! m W W o.b v S F ` o.S s.D v h S o.S D S v h D S 0.D 0.v S D D v w v Q o.V w v S V v V h h 9 h D q.u.v s.q.l.Q Q Q q.q w Z V G G V G V v V h q v w q w q Z q.8.Z V o.u.Q F h v b v o.W v z.q.9 F q.W b S S F F b b Q q.W F o.F F W m F X.X.#.#.q.+.m +.K.O.c ! f.U.#.m F o.+.b g F o.N o.m g W g N `.O.n q X.n } {./.<X>.;. X).5.N.9X<. .%X>XL. X9X.X<.L.*X4.*.*X X=.|.8X(.@XkXL.%.Z.OX|.rXOXAXPXJXJXDX X9XgX X5.>.4.(.*X9XJ.N.*XN.J.*X XB.L. X*X).5.%X2.5.T  XJ.L.1.5.=X#XJ.@.d.d.K.K.3.5.1.5.). XN.2.>.N.>.).K.:.f.! O.O.,.3.>.@.@.U O.>.,.,.#.#.#.+.@.#.#.#.,.a.a.y.O.+.X.W W W W W N ,.h.+.d.a.d.a.O.jX&XO.d.3.U 3.,.,.U X.O.X.#.N N #.X.X.#.y.a.N W X.X.W m N E X.o.o.y.o.W ! m m W v v G F G q.G v 0.F G v 9 o.F b N W +.s.W y.+.`.q.N X.+.N m #.F X.F F o.F v v W g v D v q v S q.o.F G q.u.+.F m F +.X.c m y.U.#.W m X.+.m g N #.N g c #.a.#.m X.P O.W P X.X.y.U `.W f.#.m [.W O.N d.h.`.W m X.#.N m W o.N N X.+.X.P f K.#.U P :.K.O.).$X].G.>.J.*XJ.4.kXB.Y L.*XL.L.qX*XY |.*XN.Z..X.XZ.Z.L.V.rXJXZ.n.%.rX8X6XeXAXJXJXKXSXxXeX8X8Xn.=.E.Z.4XJX X>X9XXXM.L.>XB.@X*X.X>XXXXXXXN.M.>X(.Z.B.4. X).G.N.%XJ.).O.J.-X(.6.Z.eX|.B.M.@XOXeX.X9X,X| } 3.(.@X| >XN.L  .N.G.P.).;.O.,.:.i.;.G.kX9X%X5.J.3.d.d.O.#.$.a.$.a.X.W ,.U X.O.d.U ,.O.J.@.M @. .,.n :.jX].;.L 1.).,.=X%X#XG.i.1.1.O.O.,.,.,.o.m u.o.b g q q N o.W W S F Q Q D Q q.F S F D W D b v X.v o.S 5 7 w S z V h W W W u.+.F X.X.W W b m W m o.q.N g W +.v h o.u.F m O.K.BXK.5.5.;.-XL.;.1.1.2.T N.1.5.5.G.G.d.:.,.O.P 1.].f.+.+.F b b g S u.8.v h Q G Z q.F G G +.F G b W F o.o.o.+.o.F D v h h v V V S D w V V w 5 w a A ",
"G C w C o.Z V 5 0.G G G S Q W 5 c c g o.d.y.,.X.O.P i.sXK.U ,.U ,.K.i.i.#.! y.#.+.F F W G o.o.F W v Q o.+.+.h g o.0.b o.m v g v G o.o.D v w h S Z v q q w v v v l.S v o.u.s.0.D o.v S h S S q.o.w p w G A w v p w V v w V p w v w V G Z V V o.u.S v S b v W F v u.S 9 S q.h & S v v S v h q S 0.S b W m b W c X.#.+.,.O.,.a.W #.P U ! P W +.#.+.X.W W m v F o.v $.F 5 o.$.q X.y.N X.`.} N sX{.I <.2.G. XL. . X). X.XZ.Z. XZ.<.N.J. XN.4.@X|.M. XB.<.8X8XV.rXKXVX8XeXM.V.L.*.B.L.N.).N.>.5.N.L.lXB.&.L.).*X>. .J. XL.N.&.<.N.<.L. XXX&.G.>. X%X,X>.>.d.>.3.,.J.,.;.J.L.5.N.L.L.J.4.#X%X].P.g.d.d.O.:.3.,.;.,.5.@.,.3.a.:.O.+.+.X.P O.:.O.O.,.a.#.X.:.O.U ,.,.U P 9 +.h.+.d.@.O.O.:.P.>.U K.].3.3.K.K.:.>.:.,.d.#.#.a.+.#.#.#.a.X.+.0.+.o.O.O.+.#.n W P W W X.,.+.o.o.v F S v D v q v v F G G o.o.F +.s.j.h.b +.o.c X.W +.u.W g g v G D v b F v v Q V Z Z h w V V 9.v 9 v u.z.+.c q b W o.o.y.y.m m o.y.E g E Q m m E o.Q W W W E ! n O.X.U #.O.d.,.d.#.i.#.! i.P P ,.,.n U X.a.W X.F N X.X.F F W g #.f.9 +.#.,.g ,.P P jXsX,.O.P. XL.J.*.L. X*XB.L.|.9X|.V.<.@X.X4.N.L.L.L.@X8XL.|.eXR.VX8XHXeX+XM.Z.L.Z.R.OX|.M.Z.OXF.=.@XSX5XY (.B.L.N.4.|.XX*XL.B.N. X XL..XB.Y =.|.>XhX9XN.N.L.B.G.2.hX1.;.N.>XB.B.qX.XZ.Q.0X|.(.>X>XN.J.&X6.*.@X4.*X*.B.*XN.P.G.G.U U :.U :.P.>.1.5.).J.J.@.,.O.I +.B N v N o.N O.X.#.c P O.U :.&X&X5. .,.d.O. .#XJ.P.).%X XP.5.;.-XgX#XT H.n O.`.f.X.g g u.+.m D q.+.+.o.m v v h g g v F F D Q o.W F F W o.o.v Z v 5 5 5 h Q 8.Q 0.F v W m c b F o.q.X.c m X.X.+.F c X.y.F q.m F F W O.O.@.L ).CXJ.J.1.;.P.1. .T 5.1.P.1.d.j ,.,.O.H.:.j i.j.+.o.S D Q h D h w v G o.C w v o.F v q.F v v s.v G F F G F v F q w V V h h Q w.q w w q w w V V ",
"q V w o.o.q F v Z 9 v G q b j.U.X.N N u.#.N y.K.i.K.#.U U O.d.U P ,.O.#.O.P #.W o.W +.9.o.o.W b D S o.S g v S u.q F 9 o.b v Q o.o.o.D V Z Q Z w o.o.o.o.o.0.8.o.9 v s.S 5 D v h Q v 0.q.u.h S o.v Z p V V w Z p w V w w V w 7 w G V w w V Q o.8.F g F h g y.W m h D Q Q D S v v o.D F W Q D D Q S m W v m o.N u.N #.U.#.X.O.O.`.! O.! N N ! W c y.F b W F W G v 5 s.c v s.o.$.X.f.q @./.,.#.,.@.:.#XL.;.5.&. X XZ.<.=.@XAXrXV.Z.Z.N.N.N.Z.B.L..X|.oXZ.=.8X8X%.V.kXZ.rX8XB.L.&.j &.5.2.G.lX>X5.L.%X .>X4.5. X(.L.Y <.J.<.B. X<. .L.B.&.lX#XG.>.).,XP./.,.3.3.).>.5.P.5.T <. X).B.<.N.N. .d.$Xa.d.O.>.:. .U 3./.d.3.d.3.O.U W W W N ,.a.O.X.,.,.O.U X.n U K.a.N ! X.a.a.N a.a.d.d.d.:.,.G.3.Y } J.1.d.O.O.O.O.,.U i.#.O.a.+.g F y.o.E m W +.#.W m N #.N W U N y.o.G o.S G o.Q o.o.q.G q.o.9.s.S F u.W v v X.c o.X.W j.#.N X.X.F N F ` F v b q w Z v v S v w C G V q v G o.o.o.W X.+.c f o.X.m N W o.F o.+.m m Q E o.o.W S W o.Q m #.g P ! O.d.#.#.Y.n Y.O.X.}.n ,.P P n O.,.c #.O.m W X.W F W W F m E f.+.U.W ,.d.i.K.f.f.P :.,.J.).N.*.*.9X).N.N.Z. XKX*XZ..X.XM.L.(.|.V.Z.*X@XM.rX%.8X6XZ.-.SXrX9X*X.X<.L j *.|.<.R.rXSXoXV.OXS.@XZ.XX|. X X*.*.4.L.L.L.4.<.XX(.=.>X>XM.N.*XqX9X X>.N.<.*X<.L.P.L.4.M.eX@XoXZ..XQ.Z.>X>X>XXX@.J.(.*.M.VX@XCX XB.-XT L L ,.:.f L P.N.-X*X%X>. .g P @.,.a.q F X.X.X.X.X.M d.d.d.O.J.:.Y ,.>. .).G.;.L  .L &.6.L.B.%X*XP.2.2.#XR T O.O.y.X.N m h o.T.S v Q b g c c v W F q g D D g F S D Q b q S s.o.v V w 5 7 7 h q S Q 0.m g W F X.b q g N m g c +.b N N m +.s.$.Q 9 o.y.X.X.,.].).gX,Xj >.P.1.;.;.;.>.;.T ].T L d.O.i.:.,.`.d.i.b v Q v v h 3 V G p V C w 6 8 w q F v F q 9.o.Q S G F v v v q v A V w V S S v b q q q q w V p 5 ",
"Z q w 8.v v s.c '.X.N q o.5 +.W W #.N `.Y.N i.g O.N d.O.O.&Xd.n n O.#.i.O.P a.#.W P o.W o.a.#.#.b E v v F g q W +.b v W '.o.o.W Q G S V Z v h D h Q o.V w V v 9 S q h v u.Q S S D o.q.o.v D Q V Z a 8 w a V p 8 8 C G V w 8 V C V q q G w.0.G D u.W v v b o.o.v Q W v D v F m W D W u.F u.+.g S m W W b E o.O.d.W i.O.h.d.c `.c n :.sX#.9 i.d.W P a.c #.`.F N b X.q F v N X.c h.a.} X.a.N B 3.,.I ;.;.T CX XN.B.9X>XB.|.eX8Xj =.B.Z.M. XeX8X-.eX@X8X8X|.OXZXA.+X|.=.@X8X2.L.Y Y 2.%XL.P.).)...<.J.>XL.(.&.5.L.>.J.Y N.%X%XB.*X<.*.&.L.%XXXL.5.).5.,X/.J.).@.&X,.>.G.5.>.L.(.L. X<. X1.G.$X,.O.P.d.:.,.5.>.>.J.{.>.O.O.3.,.U N W O.O.:.d.K.K.d.a.O.X.O.N ,.,.d.#.,.K.d.O.,.U d.U 3.,.>.J.5.T L 3.@.G.U >.K.O.O.U ,.@.+.#.#.X.U W X.m o.m c o.W X.m +.`.d.O.+.X.#.o.F F W F v F +.Q F h b W v q v v F a.X.W W q.W j.+.W o.+.W F X.S i i S Z V V V G V w V C V V Z q o.s.$.F X.q.q.W m E 0.o.m S y.E m g W W g E +.y.+.f.W W m S W O.O.P ,.#.i.N ,.a.].i.! i.X.g O.jX3.P 3.P.O.m #.U d.j.X.c m X.F m W F W m u.u.+.! K.! U O.i.O.n J.Y FX*X>.-X9X%XL.*X8X8X-.Y OXZ.=.|.VX>XM.VXOXoXVXS..XJXC..XZ.M.*XgX>.L.Y Y <.9XOX<.4X4X^ oXoX5XrX|.&.V.XX| Z.B. X>X>X.X>X=.<.<.L.XXXXL.L.@X>X*X9XL.*X<.L. X&.*XL..X4.@X(.rX.XeXoXB.mX4.B.).%X..mX4..X.XeXqX(.>.;.J.P.;.T :.! :.>.qX9X%XP.K.).P d.O.m f.K.X.y.a.X.X.M M d.d.O.K.d.,.,.). .9 :.5.;.L  XL. .<.4.XX<.<.I 5.d.L T ,.U U +.! N s.9 S v S o.+._ v F $.v q g b F v v S v v b g h v b s.w 8.G 8.G 5 V 8.8.S Q q.j.a.m W W +.u.y.g m U.s.F W X.F N N F W D g m +.n a.jX@.,.zX3.U P.d.U T T ,.&Xd.d.:.U j :.d.:.W O.#.! N b S V w v A G V V V V a a a t a v v v V v v Z o.b Z G v w v V v w 8.w.o.D W F g 5 F W q S G 5 V ",
"G ` G G F o.s.$.q g j.X.W a.BXW c W K.aXh.N N P ! n d.K.O.n P ).,.K.X.,.`.X.n X.#.P W m X.y.E v q m g g o.q.q.j.+.q.F q v 5 F o.u.q.D S D Z D 0.w v v h S 0.0.D v S o.D q.S D Q v 9 h S v h S G G C p p V C a 8 8 a C a p p p w w G o.V w S o.0.W W Q F h b o.o.v F v F g F v g Q F u.F q.+.W +.v E o.+.0.X.m N #.a.O.a.a.} {.X.X.n }.pX`.].O.q +.Y.b m X.g v g F q ` v o.q.m o.+.N N X.#.X.B U :.,.).;.=X1.Y 2.5.*X X@X8X@X%.M.L.B.4. XkXkXM.@X|.@XM.M.OXZXVXJXJX8X>X|.| N.2.#X1.,XJ.<.J.hX>X,X>XkXL.(.<.4.N.<.mXXX*XN.L.B.4.<. .&.N.N.B.(.G.J.d.1. .>.J.U J.3.5. X-XL.B.B.L. XL.>XP.5.>.,.d.O.1.G.J.5.,.J.5.n ).g.3.,.,.#.,.d.P X.#.,.,.:.O.O.d.U ,.3./.@.I I `.].g.U O.U d.O.>.J.d.>.5.P.5.;.,.J.].@.@.d. .3.U #.f.h.#.U U +.N c +.y.f.h.#.a.m c N m W a.#.,.+.F b D o.o.F v b D W o.+.S v W o.X.a.X.W N o.m v N m c N +.o.N S b b S S b V Z Z V V V V w p V q.N c X.q.#.X.F #.b g W +.Q S m m W m S W W o.b f.+.s.W +.W W W c a.i.O.c ,.,.Y.O.K.d.,.f.d.O.,.$X].d.,.O.N ,.dXm W X.W m m N W F o.o.y.N +.X.X.n ,.i.! n ,.U G.5.Y 9X<.I N.L.%X*X X.X.X%.-.*XV.Z.9XSXrX=.OX@XeXA.!.S.bXtXIXJXVX(.*X;.N.*. X X*X.XM.@XJXrX4X5XKX<.8X4.*.(.B.CXeXXXL.mXXXM.| %.=.| L.qX>XL.Z.N.Y N.L.L.B. X XL.>XXX8X(.qXOX8XA..X.X!.|.*. X*.).>X(.7.VXVXM.4.kX9XL.1.P.1.G.P.L O.%XgX/.>. .>.J.>.:.O.X.f.a.B U X.X.,.,.,.d.3.3.$X&XU n J.K.;.>.1.*X XgX XB.J.<.>X X1.j T ].].H.O.N X.f.#.b q.g 0.h Q q.0.o.F F v b h v S S v b Q u.b q.W 5 S D = h o.A o.S 5 v Q D q g v $.#.m W N N W $.m F h.q.g c N X.W m m N q v o.#.q U dX{.zX/.P P T L T U d.1.$XK.P.,.O.O.O.,.! P a.d.W g S Z V w w V V w w t a a t 8 8 8 w w p v V v Z G V V v w w v v w w p V G W E E ! W f E o.F h q G ",
"q G G q v F v o.#.q q W f.q #.[.`.W i.! N ,.U d.K.,.P O.>.P ,.$XK.3.c n O.N X.d.i.O.,.#.i.f.#.X.W +.X.m E W ! +.g y.a.o.#.X.a.#.v S V S G V h V V V h q q v v h h D o.h S 9 9 9 q.S S Q D D o.8.G Z V V V V V V w p v p v V p w q Z G v h V D S b Q o.D g v E o.9 m m m g #.o.E m f W g m m E W m E o.d.K.d.d.d.f.P n O.O.g O.O.].P ,.,.U #.#.f.m h.X.N X.W o.b v v G v o.s.N N N X.X.M X.} c `.X.U d.T G.;. .1.J.9XXXXX*XeX8X@X@X XZ. X@X>XM.Z.@X|.=.m.m.=.m.SX|.A.@X>X X X .1. .).J.5.5.%X6.4.<.N.L.XX .<.mXJX&.Y B.I (.9X(.,X%X*X9X).J.(.*.I >.>.J.).K. .3.]./.J.L.L.B.L. XZ.N.4.5.).G.,.J.@.1.;.>.J./.).).J.5.5.,.:.:.#.O.! O.i.d.d.,.,.:.O. .P d.O.K.$XK.d.O.,.,.O.,.O.J.>.d.J.5. .1.5.N.G. .@.3.M U J.d.].@.,.g.d.#.U X.#.#.X.! U #.#.N y.`.a.#.! +.a.X.N F Q o.Q W W W F m S F W o.b v W b c W m N c W m W o.o.W +.y.q.F S S F F v v V Z Z V V V V w v V o.b c F X.F N F y.E h m Q Q m g g N c m W W X.g +.g N c +.X.E E ,.$X].d.O.d.,.O.n O.O.U O.,.,.:.U :.d.K.d.:.O.O.+.U W #.X.c c W W W X.s.W W N X.+.U #.U U K.n ,.G.;.). .>.N.N.,X XXXeXCX>X*XCXqX4.L.|.rXOXOXOXA.A.m.=.@X.XVX8XZ.9X*XL.%XN.N.| .Xn.|.M.R.V.oXS.^ eX*XV.V.KXAXL.L @XL .X.X.XCXkX8XFXN.*.L.<.Y B.mX-.*XV.&.<.OX@X=.eXqXB.|.A.+XZ.@X-.eX>XN.9X*.B.(..X;X8X8XVX8XqX X%X>.).>.;.5.n ).<X%X5.>.@. .,.O.#.K.d.#.O.O.#.n @.d.d.d.,.d.J.K.].G.5.I I J.P.<.j n ..<.,XhX6.%X%X,XG.@.T U :.,.W U +.F F q.g Q v Q o.v q b F m S v m F S b D +.v F o.m W u.F v S o.Z G S 7 h G Q Q o.W +.#.W +.W m m +.X.o.f.+.b N X.#.X.v c N y.o.E W g X.$X{.d.P.J.d.d.d.,.9 :.n :.:.d.! P #.O.d.o.E f.f.E F S G Z v w v V w w w a a w 8 8 8 w q w p V v V Z V w w p V v p p G w w G +.W #.K.&Xn U d.u.q.D 5 ",
"F W y.W F X.c y.W X.n O.dX,.#.`.K.N #.m X.`.O.P f P f ,.$X1.1.@.I M d.K.U :.{.,.P U ,.O.W O.! ,.m W +.+.E m W y.y.U.y.W +.o.+.b q v V Z o.D v v w.w.q.o.Z v S Q q v D v u.u.u.0.o.o.Q S h Q o.v Z Z V V p p V V V V V V V V V b V w w Z G V v D W o.W b F F m m g N m W m ,.#.y.y.P y.X.W N #.+.O.O.#.f.u.O.,.,.Y.#.O.O.O.O.,.K.K.,.P.:.O.K.d.K.N f.+.! #.#.u.X.F v v q G 9.F X.X.N #.m U #.X.dXU m ! P :.O.K.G.Y L.L.*X%X@X9XB. X(.B.(.L.rX@X.XeXoX+X|.@X8XS.bX0X0X0X.XL.J.Y &.G.=X9XZXhX*X7.4.L.>XXX*X*X(.<.*.XXN. X4.XX*XN.B.B.B.(.4.<.N.>.&.Y  .).3.@.>.,.].G.>.5.L.B. X*X(.L.B.N. XP.>.O.U 1.T >.G.5.>.,.J.5.5.d.5.d.d.#.P :.d.d.:.O.:.:.O.,.,.{.} ,.).3. .@.#.,.d.d.O. . . .d.).G.J.;.;.>.>.5.@.$XsXJ.,.P K.d.:.#.#.#.O.X.#.a.X.n #.y.,.}.y.#.a.#.X.O.m m m Q o.F v F o.0.+.W v v W F m F q.F #.+.y.o.a.q.$.F N o.+.W N F F S F S S v V Z Z Z V C Z S S Z c _ o.N m N X.$.W W W m m m m m #.+.W d.h.y.u.i.y.n W N y.#.o.+.U :.O.d.K.d.d.d.O.U O.O.O.K.P.O.P.d.,.3.d.K.d.} a.O.X.,.#.N B N m N F y.F o.X.O.d.N N O.d.&XP P :. .1.I L.J. . XL.*XXX@XqX*XZ.B.B.@X|.rXZ.=.rXvXA.Z.+X8Xm.tXSXOXAX X4.4.Y  .&.DXrXKXAXVXZ.=.V.SXOXV.SXZ.M..XL.eX*XV.qX@XM.(.Z.L.L.B.*XXX%.L %.*.Z.*XB.L.-XxX-X^ Z.|.M..XOXrX.X+XM.bX8X7.(.| 4.J.%.0X@X|.AX8X8X>X5.&.N. .I &.&.gX^.6.6.J.d.>.O.O.,.O.N P :.f.K.3.M } P >.,.{.&XJ. .).=Xn f ).#X5. XJ.J.N.).).6._.>.5.>.,.H.y.P g d.#.#.X.+.s.Q 0.S D v 9 7 b F v D b m S F S F Q b o.Q b 0.W 9 o.S Z V V S q w S v o.u.W N F m +.+.b c o.+.X.y.X.o.#.#.X.N m N W o.E m N O.,.d.3.n &XK.P :.1.:.O.,.n O.O.d.O.U #.! K.y.E #.o.E u.S S Z v w v V V w t V a 8 8 8 8 8 7 w w p w w v V w q v V p p V A V G s.f.#.:.K.1.d.=XY.+.u.0.S ",
"X.q X.W g c g O.,.U N g g P ].,.U ,.K.,.O.d.,.n :.$XK.jX,XI >.J.} } /./.M O.h.} a.,.K.,.#.:.#.d.W N O.a.#.W +.f.y.a.U W +.W m q b S h q h v v Z v v V S V S Z G o.0.o.h Q S h 3 v S D S h D o.S Z Z V v w v b S V V Z V v v V Z A C Z A v w Z u.W o.S v W W b b ! X.P #.W X.N O.+.m O.X.W c O.N U O.i.].d.O.y.O.! #.,.c g ,.y.a.:.>.P.1.d.&X,.n `.K.O.W ! W X.W G v h v F W N a.h.c #.X.O.h.O.#.+.y.W O.O.n ].d. ./.,XhX XN.kXkX*X@X|.@X(.qX8XZ.|.oXA.-.oXSXwXA.bXvX;X%.&.N.G.J.1.P./.,X(.N.7.^.n qX>X<.XXN.Y @XqX=.4.B.(.Z.*X(.kX>X*XJ.4.4.<.J.5. .3. . ./.G.%X5.5. X%XN.B.@X>XL.qXJ. .3.d.d.,. .>.J.G.>.5.>.I J.J.d.3.,.d.i.,.d.d.,.O.O.,.,.>. .M 3.>.g.3.>.d.].,.>.d.3.>.>.].>.#X,X .>.5.J.>.gXP.M  .,.@.J.3.K.3.O.O.:.3.:.X.U K.d.@.d.a.,.h.N N ,.o.E N c W S S m g b o.o.F 0.0.W F o.Q W +.+.N o.W X.c W m X.m m W X.N N W F F v v F F F v G F V S G Q G Z X.X.N N X.#.#.o.b o.o.W m S Q Q X.X.N +.+.N O.O.a.W #.X.y.O.X.+.K.].d.d.,.P O.d.O.U :.d.d.].].U sXJ.,.,.@.>.h.P.#.O.X.O.+.O.W N m N N X.N a.a.+.X.X.I d.:.d.:.:. .U  .L %XL.| B.hXZX(.M.ZXVXZ.>X;XXXM.eXVXOXrXM.Z.C.S.wXwX7XrXJXB.V.L.L.(.*X<.V.|.*X8XZ.-.<.Y eXVX|.rX-.L .XkX4.M.|.@X@X@X@X8XkXqXL.&.Y <..XL.j .X-.Y L.R.4XZ.@XL..X(.OX6XeX8XwX@XA.oX|.(.*.*.(.=..X>X|.M.*.>X X8XhX*X(.L.B.J.J._.6.6.3.>.:.,.K.].P f ! :.U P 3.].{.>.5.@.5.>.9  .T 5.,.G.].5.P.5.<. X%XG.J.%XhX].@.9 q O.i.+.y.F U W g g q q Q v V S G G S v v D b v b D D S v o.h o.o.b b v v v w w w V w 5 V h D +.b m X.N #.X.N g W X.N o.W N +.+.m g F o.X.g W a.y.X.c f c #.).O.U :.U O.K.d.O.,.! y.#.X.U O.f.y.W o.W b q.v V v h w w w w w w V V 8 8 8 8 w 7 7 8 w 7 5 7 8 8 w a p 8 8 C 5 V q.T.K.,.;.>.L P.=X:.#.f.#.q.",
"d.N X.O.m N O.d.d.d.K.&XP.P @.O.,.].h.#.n ! P.,.$XsX>.T T L 5.>.g.3. .n I M g @.#.P U U O.#.! O.f.! ! y.y.+.X.N N +.N y.y.W m m v Z v q w w q w Z S v V Q 8.Q V v D o.S q.Q 0.0.D h S 0.W S W o.Z V V v p v V Z V V V V v w v Z V G A v v Z D v h o.F h E F b o.X.X.X.h.,.O.m O.#.X.+.#.a.X.a.#.O.:.:.P.,.#.}.d.d.d.,.,.#.,.O.K.d.>.1.n n :.P X.K.#.W +.#.X.W W F S v D o.F F f.[.U #.O.n O.I n N u.W o.N g U.d.U @.G./.L.<. XXXM.rXeXeXB.Z.|.Z.eXVXZ.oX2Xm.wX~.-.m.Q.7.L.XX*XL.).9X,X*X4.^..X>XZ.4.Z.&.4. X X*.>X&.<. X(.*.|.*.4.<.(.(.J.J.N.).J.5./.{.K.#X5.%X).).%X%XL.N.L.|.N.9XN.&.).K.K.].5.;.>.J./.)./.6.,.3.3.3.,.,.,.:.H.d.,.:.,.d.d.d./.J.J.>.,.U >.3.J.@.O.d.3.J.J.lX).J.J.U J.5.L.N.>.I 1. . .G.>.>.>.,.,.,.,.,.,.@.} h.3.#.#.} N N ,.O.y.O.E F v W h m S S b S b v h Q o.o.Q F S o.q.X.y.o.o.N X.N X.+.o.F F +.+.F N v v v F X.F v F F S S D Q G S r.b i _ $.X.F X.E W W W Q +.0.o.y.K.d.#.O.#.a.O.X.N y.X.#.+.#.i.O.K.:.:.K.d.].K.,.U U O.O.d.K.:.d.U @.5.@.U @.:.O.:.#.X.X.O.X.m N X.N X.N h.h.#.U X.M ,.n I @.O.@. .@.P ).J.>.5.J.>X(.4.>X|.*.8XqX0XZ.Z.V.=.VXbXZ.6Xm.A.wXZ.Y .XOX.X|.L.(..X|.qXVXeX*XM..XJXZ.=.B.B.Z.rX.XZ.JX%.Z.@X4.Z.|.|.Z.B. X%X>X>X|.V.B..X(.|.rXAX8XSX+X@XeXeX.XZ.Z.@XwXAX6X=.8X0XXX>XL.<.>XVXVX@XrXoX>X.X&.|.<.<.5.N.*X).^.6.>.} I O.,.P.f.y.i.:.! O.U O.@./. .J.3.).).3.P.:.;.d.P.1.;.-X>.T J.,X/.5.g. .,.,.d.f.d.W f E #.+.X.m Q v S Q D S S G G v i v F b v S D W S v v F D v 0.l.W v S h V v D C 7 S q.o.W c W a.X.+.X.X.m F W N +.o.m o.o.b m W X.b m Q f.+.c n P ,.@.} O.d.i.f.Y.W ! U :.n #.i.,.! #.#.o.o.q.q.W S W D S V V v w w w w w w w 8 w 8 p 8 7 8 8 5 5 5 5 7 w w 8 7 w V w G q.#.O.:.N.L.N.L.2.L d.Y.X.o.",
"U X.g c I U O.:.P K.3. .,.d.J.d.d.d.,.d.,.:.d.O.O.d.U L 1.sXhXU ,.3.>. .K.d.g O.,. .O.:.d.d.,.i.#.U W X.X.,.y.N #.,.c U n c g B S o.o.G o.G v v v Z S h w V v 9 S v S h Q h h h D h v D S h h h v v v q h v V F v v v S v v v v w V V V Q 8.S 3 q W b g F F v +.W O.O.d.#.#.X.#.N N n U a.N O.X.g.g.O.:.M N K.P f.i.n ,.+.! g #.d.3.K.U P :.U d.! n ! i.a.,.X.W F Q F D o.F W i.f.i.,.X.n n O.i.b F G F F #.y.d.@.} J.#XMX>XJ.*.I @X8XeXB.B.@XrXVX+X6XeX6X-.!.bX!.Q.;XXX;X|.*X5. X,X>X>X6.(.Q.^.*.L kXkXB.(.>X&.L.*. X>X>X(.|.(.L. XhX9X*X*XN.<.>.J.#X,XG.G.>.G.*X XB.J. X|.M.M.@X*XL.).).>.:.d.&X;. .J.P.5.4.6.>.>.d.K.K.d.,.d.,.O.O.:.,.:.>.1.,.J.,.>.J.5.,X).d.d.d.d.>.J.@.d.5.I 1.P.CX1.&.;.K.,.).1.P ,.>.1.O.d.d.d.,.,.,.,.@.@.M @.,.} ,.,.U N o.W b S m q.h S o.o.b g m o.h F W D o.W S F c v o.b N m X.m N X.X.m m F N q m m m m N X.F v b G W F b S D S o.m N X.W q c o.F b m W o.0.0.+.#.d.#.X.U X.#.N X.O.h.O.a.d.K.].,.d.T O.P.O.1.P d.:.:.,.:.,.K.P.K.P U ,.O.@.,.O.#.,.a.O.X.X.X.W F X.N +.X.h.f.a.,.} I O.N 3.O.M  .P @.I >. .>.>.B._.NXXX4.&.| |.8X>X.X|.8X8XAX@X.XJXbX-.!.nX6X=.V.|..XrX>XB..XCX8X|.L..X XXX&.V.CXrXZ.eX8XY @X-.@XrXeX8XV.|.L.*X*XDXmXL.Z.B.<.M.xXAX|.S.R OXxXeXZ.8XrX@X+X+X+XrXtX+XOXZ.N.qXhXN.L R.>XB.*XB.*.(.8XVX>XB.N.B.(.J.>.@.3.} I 3.O.:.n y.Y.O.;.$XP.1.} {. ./.G.K.J.J.P.&XJ.1.>. .1.P.%XJ.5./.).)./.J.5.,.a.#.y.u.F o.X.m c g 0.S v q G G C v q v v F b S F F F W W W S j.D 5 s.l.9 V S h S C G D 7 S 8.Q F v X.+.B M +.y.W F X.W +.X.W W W X.X.W N N b g E c m K.}.aXO.N N O.! f.}.N ! U ,.N y.K.U.f.y.W W +.o.+.o.v +.Q F D G G S v v w w w w V p 8 a 8 8 8 8 6 5 5 5 8 8 6 6 8 8 w Z Q Q E U ;.L.*XV.B.L.1.:.O.U i.",
"g K.P n K.K.d.,.>.;.1.G.>.,XCX .,.P O.K.G.:.:.i.P @.3.d.:.:.K.>.@.X.d.U P d.@.U ,.O.d.d.y.#.! ,.O.,.d.X.g X.,.n c X.c y.a.a.N q b Q S h V Z S Z w q.k.o.V Q w.s.o.v h h u.o.D S D S S v v Q Q q v q q 9 q v v v v v v F W F v g v v Z o.G v V o.h W g 9 F W g F O.,.X.O.n X.W #.O.:.P O./.O.3.,.3.d.@.d.#.,.$XN O.$X#.W O.[.U.W :.:.,.c T Y.O.U O.N X.o.W W N m W q.S v N P O.#.X.a.X.O.K.d.d.K.z.D 0.b #.uXN N P.:.g. .J.(.B.L.>XVXoX@XoXOXOXZ.SXA.JX+X6XSXM..XvX!.;X0X@X4.L.&.N.>.<.XXB.N.M..X@X*XqXB.,X(.<.(. XL.hXB.(.Z.<.*X<.B.|.M.B.*X XB.*.).G.5.@.#X#XJ.J.(.B.L.XX(.V.|.L.XXL.5. .5.$X3.5.N.).%X X).J.5.,.>.>.,.>. .,.].,.:.,.K.G.:.,.J.3.3.;.,XMX>.J. .@.d.K.,. .].,.>.J.<.G.;.#X;.N.J.,.;. .).d.U d.,.G.K.d.,.,.,.,.@.g.} c 3.,.c U U ! +.h.u.F v m u.o.W S W Q W Q q.u.0.S F u.s.o.F v F u.W W F q.F F m b X.o.m v N q m N N F W F v v o.+.W v v S S G X.o.X.N N F W c h m W Q W Q q.i.,.W #.#.O.#.X.O.#.P.O.:.a.d.d.d.d.O.d.].n K.sXU O.d.P.G.:.O.d.O.n >.d.O.X.#.M W X.#.+.X.W O.#.N m m y.X.3.a.d.,.N d.g.,.aX3.@.:.O.K.3.>.@.d.3./.| (._.4..XqXeX|.>X8XZ.Z.Q.eX+XJX.X6XwXC.~.SX6X6XSX@XA.M.=.B.*.B.*XZ.Z.Z.qXkX>XeX*X*XM.@XoX(.@XAX|.8X@X*.8XL.V.*X XB.>XVXZ.%.8XL.R.^ AX8XOX8X|.M.@XrX+X+X.X6XbX+XQ.-.|.@XXX>XM.ZX8XAXqX>X@X(.M.Z.4.4.=. XqXL.6...} >.M } K.:.U P.,.d.1.1.1.P R U {.M J.G.J.,.3.;.%XG.G.H.1.1.>.5.$X).K.G.I L 5.,.a.h.W W q.m F c m F F q.h V V w G o.S v G W v m D Q D S D o.q.o.b v h F W v +.S w S V S V & w w V o.+.#.X.B } +.s.X.N W F W m W g g W +.F F +.+.! f.#.! f.,.U ,.,.U d.`.,.O.,.:.U :.N #.i.u.u.o.c F W q v o.S o.D b D o.o.D V C v w w V C C V C 8 8 8 8 8 8 8 8 8 8 5 8 a a 8 q h W y.i.,.1.5.5.T G.G.:.d.y.E ",
":.O.:.L :.d.G.1.G. .5.5.%XB.2.;.;.G.#XP.P.n L G.$XO.T d.O.T d.O.O.O.U ].O.h.#.X.a.#.#.y.+.X.N g N h.h.,.X.n W o.q m m F N c F N G v o.S V G h S v q o.D G v Q 5 V Q o.S v V S V Q V v G D v v D V v G V v S v o.+.F W b F +.W o.9 w v V v v F G 9 v F m v b X.o.b W y.o.f N +.O.! K.:. .).#XlX@.P @.:.,.O.U d.,.! N ,.i.E m T.N :.d.O.U N N W c v v F q.a.a.y.,.! #.U n ! ! P ,.O.,.:. .O.P d.P Y.W ! y.m o.U.m h.,.,.@.1.G.L.kXJX8XS.Z.bX=.C.oXOX+XeXeXoXOXrXOX0XQ.!.oXZ.OX8XZ.|.B. XL. XXX=.L.kXN.).XXB.).%XXX X>X,X>X XN.5.(.8XOX8XM.8X>XM.M.qX6.L.5.5.K.3.>. XXX<.B.8X*X(.N.L.B. XJ.>.5.d.P.5.6.G.G.,.>.,.;.1.H.d.O.>.J.J.5.d.,.O.,.K.d.1.G.5. .%X<.5.N.<.5.-XP.P.1.1.*X*X;.>.5.&.>.L.>.T G.,.).5.].K.O.G.,.1.d.T O.O.O.N ,.P.,.U U #.#.X.W +.W W m o.W +.W D S b b b S b v q.S o.o.q.9 v o.W o.D b F +.o.b Q W S b F W F v W o.o.b v +.u.W o.S F o.W F F m G N N F F F N N F N m W ,.+.N W #.#.P N #.:.:.Y.1.O.<XP.MX5.n G.,.h.O.W #.d.N O.,.`.O.O.P.U P.,.,.X.m m m m N N #.y.a.a.y.$.o.W +.N N X.#.O.#.i.:.O.#.#.a.m h.f.:.d.n O.K.n J.,.>.3.5.5.&.mXJXqX(.B.JXM.M.|.@X;X8XtXA.5X3X6XnX!.S.Z.A.rXeX.X@XZ.|..XZ.*X<.B.JXZ..X8XZ.oXOXeX8XOXVXeX|.V.V.|.rXrXeXZ.8XmX@X4.qX@XZ. X|.Z.V.@XN.eXV.|.8XeX@X.X.XQ.|.@X%.7.0X.XqX7.!.S.M.B.J.L.4.9XqXM.rXmXXX>X/.>.>.;.3.J.d.,.@.U ,.L T ].:.,.1.d.O.$XK.J.d.].,.O.d.:.i.j P.gXP.P.J.{.K.&X3.c ,.O.N O.N F F W o.v F v o.s.o.v q v o.F v F W N v b v S v F h W o.s.g u.o.W W m W g X.U F 9 q G w > a Z V b W W n n O.c E +.N W o.g m S m h m Q Q E O.! P H.d.:.d.n :.O.O.O.L j O.].O.O.d.#.d.f.N +.X.N o.o.c c F v S D Q Q S S v V w w z C A D C V t 8 6 8 w 6 6 8 8 w 8 8 6 5 6 8 w h S D S S Q y.y.E S o.o.S D q.",
"n :.].d.d.1.5.>.f 5. X2. X&.I ,XL.G.1.T 1.;.;.i.K.G.:.,.:.O.:.P U a.:.d.P `.,.g X.X.a.f.F c u.dXO.d.O.N W X.X.B m +.X.N v m o.F q.Q o.v h S w S V 5 h 5 w Z z.s.V Z D Z Z D D S Z S Z G Z h h S w v o.V q h V u.l.0.o.m b W b F Q G Z V V V v v v v F G F v N +.W b W W k N O.O.K.,.>.%X%XL 5.5.J.d.d.K.O.g ! O.! i.f.#.W n h.i.,.O.c n ! #.s.q.o.D v v m m N W P O.X.U #.O.O.,.d.d.:.P T U K.O.i.O.W u.+.m W P f.d.d.@.1.G.5.L.eX6X6XC.rX8XSXm.+X8X8XoXoX@X@XoXoX8X8XM.-.@XVX@X(.@X XmXrX<.|.mX XY 2.L.L.%X,X9X5.B.J.L.).). X*XoXS.S.M.@X.XV.(.4.<. X*X).K.3.5.<.(.M.=.=.=.N.4.4. X*X5.>.G.G.4.,X(.5.1.,.1.i.O.:.! ! ,.5.6.4.4.J.d.,.3.K.3.>.5.L.<.=X5.5.L.L.*X2.;.2.;.R ;.P.L.<.J.N.<.1.&. .G.5.K.,.K.d.L 1.d.K.].! U O.Y.H.`.#.O.+.#.U n N #.o.N W m #.+.q.o.o.Q W D S S b b v 9 v W z.u.q.D W D D D W F D D W Q W b b S F b W S b b Q s.s.W W b Q q.0.o.o.F F F F G G F N W N X.W N X.O.W N ,.+.n m ,.i.:.d.1.P.#XI L.1.5.1.h.h.+.+.+.,.U a.X.#.X.U K.:.d.d.c N +.a.j.a.X.v c v m N F o.q.s.m O.,.#.:.d.H.d.i.P n X.h.+.a.N U ,.:.U ,.O.d.d.].3.>._.).9XqX8X>XB..XXXZX(.OXeX8X8XwXwXoXrX3X3XtXZ.-.@XbX.X|.VX>XVXVX|..XmXXX| 4.rX@XrXeXeXZ.|.V.oXOX8XOXoX8X|.Z.+XeX6XQ.M..X-..X>X*X.XV. Xn.4XM.A.Z.OX.XV.OXSXQ.;XQ.M..X(.vX;XS.2X=.5.G.J.>.Y =.M.+X.XB.<.U  .M >./.).d.1.>.U :.].G.1.i.=XH.P d.1.U ,.3.K.G.$XK.! gXP.T T i.].3.].d.J.,.} h.#.#.f.q.q.Q b D v S G Q v q W o.q c b W o.W N W +.S o.W W g W S S y.s.Q W W q v b O.P W b b C > > a [ Z q m +.X.n 9 n E W +.+.o.Q f 0.y.h 9 E Q k Y.n :.P.K.:.T $XU d.K.,.! O.U n :.G.j P.$XP d.N F F o.o.N m b v q v S D S S S G S S C D C V w 5 V 8 8 w w 8 6 8 w w w 8 6 6 6 w w w v V h h V Q Q v h S V q w V ",
"O.K.&Xi.1.,.J.5.G.=X*X5.*XJ.&.%XY &.2.>.-XP.1.L L 1.O.:.d.,.G.$Xn ].&X].n O.U n +.#.h.U.+.g q c U f.#.W W U X.m N a.o.N c N o.v S v F V S D w w v v o.o.Q S S 5 D v v V S V v h h V D Z v q q w w v G v q V G s.D g h g m o.W +.o.Z v w V S v h o.F W +.X.m m +.W c U y.#.O.O.O.M d.P.<.>.5.hX,.d.! P f.d.#.,.,.q O.X.N f.d.Y.d.O.U n X.#.+.q.o.v v v G W b g q N O.+.#.a.,.O.,.#.d.d. .O.U d.:.O.,.U #.f.+.W +.5 N ,. .1.*X,XkXM.V.2Xm.A.rXJX=.M.eXrXoX8X2XC.A.oXZ.Z.@XrX8X|.V.|.Z.&..X8XM.L. XqXN.B.(.L.L.N.L.M.Z. X XXXL.2.Y M.+X2X@XeX8X|.=.*X>XJ.N.5.1.).,X<. XXXXX X*X9XN.N.hX,XL./.)./.G.).)._.).d.i.d.i.i.O.! :.1.5.6.J.J.J.d.K.).K.G.P.%X5.#X1.5.J.<.;.N.N.-X9XP.1.1.N.1.G.J.G.G.P.J.G.%XP.I >.1. .,.O.1.P.:.:.;.,.U :.:.X.O.#.O.P W ,.#.W X.b +.W W v D W W D b m b b q.0.o.q v F o.b W b b W F h v W F W D v g h b F W h h S o.y.0.m b m W +.Q W Q D v v F F N m N X.X.a.#.N W #.O.X.X.#.O.O.:.:.,.K.J.].L.<.=XN.L.5.O.y.#.#.P O.U X.K.>.:.O.].K.@.O.W o.#.#.q.q.X.v X.X.F m g c N W U y.f.,.O.:.i.i.d.O.P O.a.@.3.N O.,.K.O.! n g O.d.@. .%X>X*XM.M.|.XXB.9XJX| M.@XrX6X6XoXF.D.D.!.Z.8XvX@X@X.XB.@X=.@XeXB.M.>XXX|.%.8X|.|.OXOX=.oXrX8XOX|.=.=.@XoX+XrXtXeX8XQ.0X8X X|.L.L.|.*XV.|.eX8X8XbXeXZ.A.vXVX;X.XQ..XQ..X;XVXJXZ.%X%X$X,XJ.*.OXZ.Z.8X(.>.5.5.).,X).G.J.K.1.,.J.U L ,.P.1.K.&XJ.5.).G.5.;.;.=X;.O.T =XgX1.T P 3.P c c P #.g X.y.q.u.Q h S D D G Z 5 9 o.o.9 g F X.F m m N W m D S +.D o.b S W S 9 S o.v D u.O.N +.$.o.Z > 5 a A Z i F +.X.N ,.U.y.W a.u.m m o.W S S Q Q S k n Y.zXO.U ].f.,.d.,.O.#.O.! ! O.i.! d.K.i.! P ,.N W F N F N v v v v S S S V V S C C D A A A V w A a w 8 8 w w 8 t w 8 8 w 8 8 8 7 q w h w 7 w V V h h h h w w w ",
":.d.,.j U O.G. .&.T P.#X%X*XJ.*.gX9X=XG.).G.G.>. .;.T G.P.d.d.K.J.d.>.P.d.,.n f ,.+.X.N X.h.`.a.m a.y.,.+.m F W X.#.W F F F G 9 9 9 h V D G v w Z S D S V v v q D h q v V v h V h V Z V v v h q Z w v q h o.Q 8.D h b m b W g v G V w w v Z F S o.o.o.q.+.N N o.} N U #.,.,.3.d.K.5.>. .*.>.>X5.d.+.N h.a.O.U n ! d.P.@.d.,.K.d.:.,.#.y.X.q v v F v v v v b N F m X.O.#.,.:.@.#.P a.K.@. .n ,.d.O.f.! P i.h.a.N +.K.$X>.T >.5.*XmX.XZ.<..XeXZX=.Y Z.8X8XwXrX6XwX@X-.Y @XZX8XL.>XB.Z.8X|.Z.L.<.XXXXN.B. X*X XB. X X(.L.B.B.L.L.M.@X6XZ.|.@XQ.OXZ.*X9X6.B.).5.J.J.&.<.B..X(.|.XX&.5.*XJ.L.#X5.5.).6.B.).).G.1.d.i.i.d.i.O.;.B.(.J.>.,.,.,.d.5.1.J.5.G.,XP.5.L.).*X9X).L.).L.2.&.;.;.5.).%X).).).G.G.$XK.5.U j 1.K.O.:.T K.Y.H.T d.i.,.O.O.O.#.#.#.+.X.+.N X.v v q v S D F b b F Q h Q +.b v S F h F b b D D b b D b D D m h v b S m g b Q W Q o.W W b F D v m W W v v v F F F X.+.+.a.q.W X.+.O.O.P @.3.5.5.3.d.). .| >.4.,XJ.N.4.U h.f.a.N ,.d.O.J.,.d.K.$XK.>.:.a.u.X.c g N W N N F W F m c m N y.#.,.i.O.P ! i.H.#.! O.#.#.a.,. .P :.d.d.! X.&X3.3.U >.J.qX9XeX<.XX(.8XZX=.B.M.rXVX2XAXnX3X7XF.Y @XJX8XZ.8X.XZ.VXOXM.|.N.Z.mX4.|.rX@XoXQ.8XOXeXZ.Z.Z.oXM.V.8X+XS.6X@X@X6XZ.@XmX|.|.(.(.L.L.N.V.@X@X!.6XbX|.=.@XXXM.Q.Q.;XqX0XqX|..X&.(.3. .d. X@XZ.^ 6XAX*.Y %X%XJ.5.1.1.J.J.;.>.@.;.P.$X1.:.$X%X).L.>.I G.P.;.P.zXBXP.=X$X1.1.d.].@.U :.d.h.W P W E +.W g S o.o.v v V v v v q F F m g c F W m S v v u.q.o.S o.u.o.F 0.s.Q S o.N N #.$.o.G 7 6 d 8 a o.q.N c ! X.y.E 9 m X.E S y.m g Q q.Q S W f iX].,.O.#.H.O.`.#.n N U P :.Y.i.n pXO.f i.g y.X.+.b c W F b W Z S S V v v v V w w V C A C C V C t w 8 t 8 t a t w 6 6 w w 8 8 0 q w h w 7 q h h v V h h V V h ",
"U ,.O.P ,.:.G.n I T ).)...<.J.XX9XL.N.T Y n >.5.5.U P d.K.].).M d. .M d.K.,.M I $X].h.X.c +.f.,.#.#.U #.i.N N X.$.X.c F o.F F i D S w w h v S S Q D h w q v v G S h w v S V D 0.V S V v V D Z v Z v V w V 8.G Q 0.F W F E F q g o.G Z S v F F D F o.+.o.X.X.X.X. .@.O.I } 3./.%XsX>.Y ..4.Y 5.g.n W m a.X.#.,.O./.3.d. .>.3.G. .P.K.O.X.m 5 v G Z Z F v v v c c c c N X.X.O.#.+.O.d.K.U O.U >.d.O.,.O.O.! #.y.9 +.a.K.>. .>.5.*X>X@XZ.B.*XoXrX8XVXeXbXeXoX|.2X2X@X8XOXoX@X.XZ.V.Z.|.eXXX(.(.<.).4.4.Z.|.8X@XL.qX*X|.|.(.Z.|.@X|.eX|.=.8XrXL.@X>X<.L.>.J.#X5.5.5. X|..X>XL.N.%X X6. XB.N./.5.>.).XX6.>.>.>.1.,.! U 1.H.G.5.5.6.4.3.d.,.>.,.>.;.5.%XL.J.5.N.*X*XXXL.N.*.*.1.<.>.*.*.<.).,X^.<.4.G. .].].1.P U K.].K.i.n ,.K.K.O.H.O.d.d.X.N O.y.,.m m o.N W v F F m S W D F D Q +.v v v b F o.D b F D F S W o.o.S F D D S S D S m S h S o.o.o.q.q.Q W Q W b S o.Q W F N F o.o.X.X.X.+.O.X.O.W U :.>...@.5./._.(.5.5.*.J.| 6.^.| L O.d.:.a.P @.J.d.U >.3./.5.>.P.&XX.o.G v v F W F v v F F b v m N +.W X.,.y.#.:.d.K.O.P X.@.d.,.O.d.d.O.H.i.n P K.d.K.>.>.<.*X@X>XJ.B. XXXeXeXvX|.SXbXA.~.3X+XSX6X8XA.rX8XA.|.|.Q.SX8X|.8XZ.4.(.| rXoXeXeX|.VXeXOXOX@X8XVXrX8XbX8XM.SXtX2X;X*X XB.*.B.XX.XL.B. X*XOX8XOX+XrX@XQ.rXXX;XVX|.4.>X.XB.4.4.5.{.3.@. .L.oX6XoX6X|.-.N.L.L. .T 1.J.P.G.>.P.G.P.P.1.1.1.;.5.L.).&.I J.*X2.-XP.lX-XP.-X=XO.,.a.P N ,.,.O.N +.X.b o.Q g S Q o.q w G F q q v v b b v N o.o.F W W F y.Q o.b S 0.+.o.Q 0.o.h q g m +.F b Z 7 > 8 p Z 9.q.N c O.#.#.y.E g o.U.f.m o.+.S h m Q o.+.U.#.#.+.m u.`.,.y.+.P P +.,.+.#.#.P +.X.X.a.g +.#.N v o.o.W q.S S v v V V S S v h t a a w 8 5 t w 8 w t t t a t 8 6 6 w w 8 8 0 q w h w w w V q w w w w v h w ",
"P i.i.,.G.:.P.@.P.).5.>.1.B.<.qX;.I >.5.J.5.P.J.G.3.3.,.P G.gX,. .d.J.J.,.U U ,.U P ,.K.a.X.U U y.a.X.,.#.m X.a.#.F 5 v F v N b V Z h v v w S v S Q Z Q D S 5 q D S v v v v S Q V h q h V Z V v w V o.V h D Z o.Q g h v F W F o.F Z G D b v D o.v F X.W W X.X.W M 6.5.>.3.g./.).>.g.g.I >.5.).g.h.s.B +.m #.X.c ,.M 3.3.d.5.5.I d.:.n m N b G b q V o.o.o.F v q g q c N m W #.#.#.,.K.>.].d.U U L P O.K.#.m o.N Y.h.d.:.>.>.I | B.,XXX(. XZ. X@X8XZ.+XrX8XSXJXSXbXVX8XZ.V.(.<.j .X X<.@X9XN.N.4.|.8X*X|.*X|.=.@X|.Z.@XrX.XZ.B.*.Z.oXoX8X@XrX*X4.4.B.<.<.5.>.g.).(.B.N..X|.B. X(.B.XX*X5.G.).5.J.J.5.5.5.1.1.1.O.;.O.1.P.J.<.4.J.J.K.J.3.d.d.5.J. XJ.<.5.N.%XN.L *.N.N.B.). XL.J.L.4.>.J./.5.5.g.G.K.d.O.>.J.d.O.,.].i.O.U :.U :.i.f.i.! ! i.a.O.g g W m F g F F S F D F S S D W +.o.b S q v S +.b F S v F o.o.v m S S S S F b h 0.b m W o.0.+.S S S Q Q W Q o.F o.G N F o.X.N m W X.X.+.#.X.X.3.g.3.5.J.K.).).5.>.n 6.>.(.,XJ.*XM O.n K.,.P O.3.].).1.G. .;.G.d.m F F F F F b v o.o.W F v g g c g N W X.#.d.i.O.Y.d.d.d.O.#.N n L ,.P O.O.#.d.`.d.d.>.d.>.4.N.XX>XB.*XXX|.@X>X8X8X+XSXHXJXHXnXwXbXm.Q.@X7.=.Z.@X=.@XZXZ.4.L.<.mXrX=.@XeX=.eX8X=.8X8XZ.V.M.=.V.|.oXVX2X8X8X@XZ.B.<.*.4.B. X(.9X.XM.6X8X.X!.M.7.A.;X7.Z..XA.XX|.>X.XB.J.J.O.g.>.<.oXtXnX+XM.8XVXB.).<.<.P.P.J.P.).=X1.1.T Y 1.#X>.1.J.*XL.J.N.J.;.N.1.J.1.N.1.P.P.:.#.P X.d.,.W +.+.W v W Q v D D S w v V v v D G 9 b X.W N b N N b y.o.W h 0.W g g v v 9 F q.D b c N o.v q S 7 > 5 G 8.F G o.o.+.y.E W N g X.+.9 E W W S v h S W S +.f.m m K.u.f.W X.+.#.+.o.W W N #.q h.h.c f.n E W N N o.o.W W D S S v V V V h V V V V V t w 6 t 8 6 w t t t t w 8 6 6 8 8 8 8 0 7 w w w w w v w w w w w w w 5 ",
"N :.O.O.1.U K.,.@.T I J.,X9X*.6.>. .4.&. . .G.5.].$X).d.M M g.G.d./.3.@.3.d.O.U >.n U d.,.O.O.i.X.f.y.#.X.m o.a.W W v b v c F b 5 V v G D w v q h Z q v V G v 0.G D v h h v v w v q q v V v h v w V 8.V h D D 8.q.m v h v b g S q v F D F F W o.b b F W X.X.X.+.} 6.^.J./.5.@.3.g.K.P.>.K.@.O.d.q.o.5 $.X.h.a.#.I 3.MX<X#X..Y J.O.O.n N W G D 5 V Z V v v F o.o.m q m N c N #.+.O.,.K.,.<X].U U L O.O.f.K.W X.#.a.a.d.O.,.G. .Y MXgXJ.G.*XqXXXL V.OX8X6X8XnXbX3XAXZ.-.=.M.(..XZ.(.*X(.9X*X*.N. X|.eX@XM.oXoXM.8X|.=.V..XV.V.|.L.M..XOX4.Y >X*X<.N.>.J.J.6.5.6.B.L.(.M.|.8XXX XB.B.6.*X4.>.).>.6.<.5.#X#X5.,.3.d.H.,.>.G.G.>.6.).,.d.3.,.g.d.5.G.I L.*X,X<.N.L.J.L.(.<.&.N.L.L.*X(.B.*.>.)./.5.G.3.d.K.3.O.O.O.#.j K.f.y.O.f.,.d.d.,.O.X.,.a.#.W W N X.m W v b v F F S b b m m m 5 S Q u.F W F +.b b b S S F S v h S F b v m m m 0.D b F Q +.o.g b m D W S W W g o.F N X.X.X.N m X.#.#.+.,.,.,.d.g.g./.J.>.5.).J.{.>.G.J.5.>.P  .M d.U P.P.>.>.,.lX%XP.G. .J.;.M X.F b F b g v b W F b b F W W W g N F N ! y.,.! K.P.$X].} O.M O.d.).K.1.! i.O.h.P.O.P 3. .4.*XFX%XL.*X>X(.*.*.0X;XQ.0X7XvXwXwX7X-.M.A..X|.V.@XkX.X@XqX<.L.9XJ.ZXqX<.oXOX=.eX@XM.(.8XoX.X*XL.|.rXoXS.-.oXoXN.*.4.XXB.6.B.(.N.XX*.Z.@XrX8X@X+X|.Q.FXB.4.0X(.Q.N.(.mX>XJ.).,.K.).L.eXA.D.6X2XoX|.>XJ.1.5.J.1.<.G.L.N.T >.G.*XJ.P.L.G.N.B.<.L.N.).*X,XgXP.&. XN.1.G.P O.N P i.+.m +.b b g F Q S Q Z V v V V v F o.G v F X.X.N g g v S 0.o.W h Q S m W W Q v Q s.Q W F F o.N b F w 8 7 ` o.S G q.#.X.+.W E X.y.f.y.m y.m h W o.F v b b q q.+.+.j.o.q.+.v v +.+.F W a.N W #.y.q.W m +.N m E W E E W m Q Z V v v h w w h w a V C C C a t w w t a t w w 6 6 6 6 6 6 6 8 w 0 0 w w 0 w z w w w w w w w w ",
"! ,.O.d.].:.].,.G.T J.hX>.<.<.L.&.5.XX<.Y  .).J.>.@.U ).<X@.P >.@.5.,. .,.>.O.3.U U X.U n U d.K.n #.W N +.+.X.q m #.q.9.o.F o.b v o.F G V 9 S v w Z 9 v V D q o.v v v h S o.G v V w v G G h h S V V A w v 8.Q Q 0.b S F E F g b v S G o.Q W W X.W m N +.#.X.O.y.3.g.,.@.,.I n ,.d.K.a.N f.O.N y._ r.$.uXN c m a.,. . .I ,X).*.#X,.d.X.N v v Z w q V Z V v F N v W v F F g m +.X.,.a.K.U K.d.@.).:.].! P Y.i.N W N a.H.U  .J.N.5.}  .,.G.>. XMXL.*.mXbXC.Z.+XoXoXeXZ.|.@XL.L..XZ.XXL.).<.N. X*.<.L.rXR.Y Z.oXM.8XOX=.Z.rXOXZ.R.M.V.4.@XrXZ.>X X9XP.Y <.1.4.).B.6.L.qX.XZ.L.N.L.(. X&.,X XJ.*X>.).)./.).J.>.;.,.,.1.1.1.5.G.G.6.>.d.K.J.J.K.J.5.5.).%XN.G.&.L.L.4.L.B.*.<. XL.<.6. .#X#X5.6.;. .J.d.O.O.,.d.a.O.,.#.,.k ! i.Y.! P X.U X.,.O.N N +.y.o.+.W q.o.o.F W D F S S S S b W Q h S h 0.W F Q F W o.Q m v D b Q o.W b b W Q m b Q Q Q 0.y.o.Q F F b h b S q X.X.o.$.#.+.X.X.X.a.#.} O.d.d.a.J.:.:.@.U 3.P.d.,.K.d.@.U d.).>.U &XP n U :.d.,. . .=X). .*X5.J.X.b b W W v v X.W F F F W W F v o.b v W o.o.i.K.d.:.d.d.O./.,.d.,.O.d.,.N ,.q K.,.O.3.&X1.>.>.&.4.J.B.>XmXZ.=.qXvX8XC..X0XQ.bX~.Z.8XA..XSXoXZ.@XXXN.B. XM.<.XXqX(.-.Z.|.V.kX(.M.Z.eXoX(.OX<.<.@X8XrXoXxXeXhX).*.>.6.).).B.*.kX9XeX@XZ.V.A.!.Q.7.@X8X0XeXN.8XmX*X*XL. .&Xd.O.).).|.+XtXoXS.oXA..X| &.G./.P.P.J.2. .>.1.;.).;.;.J.2.M.B.2. XN.<.<.-X*X*X1.;.1.P.U n O.W m +.X.g +.v F b Q Q S D v Z w v G G F G F +.F v b F N N W u.o.W u.D h 9 W h g S h W y.b W W v F F Z Z w a 8 V Z G q.q.W W f ,.u.o.W g f 0.m +.y.W W o.o.m S Q F u.+.o.z.W o.o.F v b o.+.X.q.q.a.c W y.g m +.N W W m P o.E v h h h V V V h w w w t a a 8 w a t t a a 8 8 8 5 6 8 6 5 5 6 8 w w 0 w w 0 w z w 0 0 w w w w V ",
",.W O.! O.O.n ,.d.J.J.J.U >. .J.5.G.5.>.>.5.d.d.d.d.,.>.:.d.h.J.,.>.P @.&XjX].K.n U O.O.+.#.O.U n +.W m q +.X.N o.o.u.o.b o.F q o.z.Z S v o.S V V v v V V D Z 9 V D D v w v S D q v v v V v v o.G V w w V D G G D F W Q b q f m Q b F o.o.F W y.o.+.+.W #.m f.Y.:.a.d.X.d.#.,.#.! f.f.+.+.+.Q D o.F b o.b X.U N B ,.} c G.gX .,XP.i.W g W 9 q G G Z Z Z F F b v v v F F m c N +.O.K.,.O.,.].].U d.jX:.:.,.h.}.U.#.N ! M G.>. .<.@.lX).5.M /. X(.(.8X!.-.%.2X2X!.8XZ.Z.FX>X*X9XM.L.(.L.(.%X X5.&.>X@X*X%.L.rX*X>X.X%.4.8X*X.X|.4.B.(.>X(.*XhXP.#XJ.5.<.5.5.>.7.N.<.V.L.Z.@X*XL.*XB.5.>.).J.).5.5.,X(.5.&.>.>.U >.G.P.J.).J.5.^.J.5.3.d.,. .,.P.).G.J.<.5.*.L.B.B.L.N.<.B.(.N.5.(.B.B.d.5.J.).d.@.} ,.].aX].y.X.X.,.y.i.#.O.W W O.#.N n i.#.! N d.f.o.F W b g +.uXm S W o.Q D S b W Q W F v v F W 0.b h W Q b h b o.b b W Q +.o.v v m S m W 0.o.S +.W b v g F o.W +.X.X.F +.y.+.d.#.N O.:.d.P.:.,.].#.U f.O.,.:.:.U.:.i.#.! O.! ! N :.:.#.P n O.,.@.g 5.gX3.sX5.G.o.F S 9 g o.S b S S F F F F D D F v g g m y.H.K.d.O.d.].].5.O.<X1.1.,.G.].H.O.X.! U :.3.1.Y ;.gX,XJ.L ).>XXX(.>XM.Q.L C.vXC.!.+X;XVX8XeX@XZ.B.>XL.(.>X9X4.6.qX.XqX| B.9XeX@X8XM.*.SX>X(.9X| M.rXxXoXrXkXkXL.L. XJ.6.).4.4.9X4.@X!.A.eXeXoX6X|.B.M.B.qX*X(.4.>XkX,XY U g.I O.d.hX8XSXnXD.oXeX|.(.N.P.L.1. XP.T L.1.2.<.-X).P.<.9XN.Z.|.-.>X*XL.qXL.L.L.P.G.3.;.O.X.+.W m m W W v v D o.D v G o.v Z V v V v v F o.g o.o.W +.W N #.v +.q.W v b m g D D m m Q Q F D b q.b 9.G 7 k.8.w V Z Z S v b F m E Q W N m N W W q N X.+.o.m +.u.v o.m g q.q.b g uXb F W b m q.W z.u.c m o.X.W o.o.~ W E m m b h v V V v w h V V V 8 8 a a 8 6 w w t t 8 w w w 6 6 6 8 w 6 w V V V 8 w w C C V t t w w w w w t ",
"W f P ,.,.N P =XG.K.P.;.Y =X).%X5.G.G.5.5.5.3.5.U @.>.O.O.,.,.O.O.,.O.P O.O.O.U U O.#.+.O.X.N c m m c #.+.i.F m W F +.W b o.F v v q.h V V Z h w Z v v v h S D h v 8.8.v q V v 5 Z o.Q Z Z v v Z w v v V S S D D o.b g v b v b F 0.o.o.o.o.G X.$.W a.O.c y.N #.K.d.#.O.N i.,.+.m m ~ Q S Q Q S S F b v $.o.j.#.m d.M 3.,.n /.d.,.O.W X.F q.F Z ` G V v V D X.Q G v v v F F F W +.d.d.O. . . .d.3.n d.O.h.,.X.#.X.#.n f.].G.:.).5. .&XJ.J.M >.J.9X XmX@X|.=.A.|.8XZ.eXZ.Z. XL.4.>XL N.L.N.XXhX X| %.-.*XCXVXoX@X|..XM.|.rX*X|.|.B.(.N.(.L.4.G.G.1.).P.).).B.6.B.*X(.B.=.B.>X9X XN.%X5.&.L.<.#X,X/.).J.).G.5.>. .,.K.5.T 1.J.5.B.5.>.>.3.5.,.J.).).*XN. .).XX%XL.*X X(.N.N.J.6.4.(.<.5.5.d.5.>.>.3.,.@.#.a.h.a.O.W #.X.X.#.o.m m W N #.#.#.N #.! X.+.E X.q.+.b v o.W D F S b b b b v S W W F S D W o.D m m b S S S u.o.D F v S D v S W F b F o.Q m W b S S b Q +.W X.X.#.$.q.$.N #.#.X.:.O.,.).d.d.O.W O.U.~ ! W O.t.W +.~ m E E O.X.O.O.d.h.,.>.P 3.K.n ].G.3.J.O.o.o.q.Q D o.Q 0.b F Q o.W b h q v F D F W #.i.i.,.T :.:.3.3.} 5.,.d.,.O.,.:.! U O.$Xd.U #X).;.-XN.L.| <.N.>XqXmXqXC.M.%.;XSXQ.0XZ.mXOXZ..XXX%.=.(.L.XX9XJ.4.(.| eXZXSXeX8XZ.>X4.8X8X>X>X8X(.>X<.@X@XL.|. X>.P.L.G.#X6.N.B.8X.X4..XY .XVX@X@X8XV.| >X8X@XmXXXeXqX*X*X).>.n `.g.L *.A.oX+XrX+XM. XP.&.&.1.N.P.).G.G.%X X5.>.>X%X9XZ.oX.X4.9XqX9XlX XJ.5.1.,.O.O.O.N W S v h F W S D W Q S v Z G v w v Z o.o.S v v 9.v F W b y.j.m m g h F F v m Q g S S b W S v F 9 v 9 D C v w.8.5 5 5 v Q o.F v F m m m m W E m X.W o.g m f.y.+.c v s.o.q v g q +.+.9 j.s.b m W W +.X.m N X.+.,.+.+.+.~ W E S S S S V V V V p 8 V w 8 8 a a 8 8 V a t w 8 6 6 6 6 6 6 w w w t C V V t w w C C V V t w w w w 8 w ",
"Y.,.n 9 #.}.O.f ,.U K.&XJ.5. .gXK.J.J.P.K.d.d.G.d.J.d.O.O.,.,.O.,.a.d.#.P U O.X.U X.X.N N F N N +.u.W m g y.+.W Q v o.D S Q D D 9 S q Z Q o.o.o.o.G G Z v S Z h D v v D Z h w V v Z V V D Z v S q w v v h h v S Q v q h b b b F +.+.o.W W F W X.X.[.,.N h.#.#.K.i.! E m t.t.8.S E ) Q S S D z h v S b F q $.a.y.h.c h.`.q 3.J.P #.W o.m S h Z V A C V Z o.9.o.Q Z b p b b v c m W ,.d.K.3.I >.1.U >.O.$Xf.X.#.+.! n ! d.T j L.;. .,.@.&XJ.d.>.N.XX.XY Z.Z.%.M.FXL qX9X.X9X@XY *X>X>X*XXX*X>X#XJ.hX4.*.*X*XB.qXB. XL.B.L.(. XXX@XeX(.B.(.&.1.gX=X1.1.1.5.N.B.(.>X X*X|.8X>XXX9X(.6.&.&. X>.J.%XM 6.6.#X/.>. . .5.>.>.>.J.P.5.(.).3.,.3.3.1.d.J.5.>.).).J.<. X XJ.L.).L.J./.^.G.J.).d.,.d.d.,.>.,.,.X.m W +.+.W N y.N m X.X.m F y.O.#.X.i.O.#.W X.+.W F o.+.W F F D D D D W o.o.+.F W Q W F S S F F W D v v F D b b m W o.F S b g h v h h b Q W b F b F F S o.q.o.s.$.+.W X.O.#.}.O.#.,. .O.K.d.:.P E :.U.~ W E +.W k ~ Q m S S Q X.m g #.h.3.:.U d.sXf g.d.U 1.O.W b Q D F D v F D o.0.q.0.o.W F v F S v h W y.H.i.d.1.U ,./.,. .@.K.G.@.O.#.O.W O.P.! n P.1.j 2.<.*XJ.B.4.B.(.(.*.*.>X| 4.mXM.qX;X(.*X(.%.8XqXeXqX>X>XmX*XJ.).5.&.mX>X(..XN.9X X*.B..X|.eX9XqX>X|.@X&.<.kX*X=X .5.5.| *XeXqX;X0X6XHXVX8XrX@XZ.M.| 8XM.M.kX<.<.<.*X*XG.} M `.G.<.=.8X6X+X2XoX(.L. XN.L.9X=XL.1.L N.B.N.<.<. X*.I (.(.B.N.(.N.).J.#Xd.:.T U U ! X.v S S v h S S S o.S V v h v V w w w v V S v v F +.G g m q.a.+.W o.v g F W v b +.S +.0.o.W S F 0.D v v S v V C w w 5 5 q S D V q q W 0.W g f m X.g ! #.N ! h.,.n +.g m +.a.#.m ! q c a.iXf m }.W ,.P m W E m E o.W W W W S S S S S V V V Z C V w p 8 8 8 a a 8 8 C a 8 6 6 8 8 6 6 5 5 6 6 6 w a t t t w t V V t t t t w w w w w ",
"m W a.O.n g P ].d. .U ,.P.].3.>./.K.K.J.d.,.d.].d.,.O.U P U O.#.P g n U n n N g W N m m N X.q.u.v a.f.y.m +.W F 0.S Q W S D S G o.Q w v h 5 q w D Z Q o.D Z S w o.w 9 S Z w v 8.9 h w h Z G S S C V V w q w v D h v m E F v b F W o.o.F N W X.X.c d.X.n #.O.! O.n k m E ~ 0.y.0.Q q.Q S S S V S v G F v 5 o.a.a.m N a.d.U a.O.} #.N X.g 9 q G p 8 8 w V Z Z v q Z V p p i q q c N d.d.d.@. .J.P.d. .n g.,.#.a.#.X.a.n ! 1.L ;. .J.>.M J.5.,.>.>.5.,XJ.mXmX4.I <.XX4.*.<.B.eXL.L.*.*.J. X/.4. .L j Y J.*XL.N. X*. X).L. XhXkX*XL.4.*.4.*XJ.;.P.;.G.;. .<.).>X>X>XB.*X.XrXL.*.>X).).(.4.J.>.G.,X;.>.<./.5.Y Y >.G.5.#X%X,X/.>.5.5.J.3.,.>.>.3.d.>.<.J.%X,X(.N.J.%XN.(.J.J.).).G.,.J.>.U O.,.,.O.U X.X.+.X.X.N N W +.F F +.#.+.+.a.y.O.N ,.i.f.+.+.y.o.F N W o.o.W q q v S D W F S o.Q W S b S D o.h S W F S S S v q g Q 0.Q F D S h v h v F Q W b Q F D F b Q q.+.W m W X.O.X.N d.U O.,.O.O.,.O.n O.! W y.W ~ W ~ ~ S o.Q S S S W b c g #.a.X.X.X.i.d.O.,.O.O.L O.o.q g v F F 9 9 F F F F S S D G F V v q q m :.f.1.G.,.U ,.).5. .T G.K.3.i.i.+.#.n n P ,.1.:.G.P.Y N.B.(.B.&.N.*XB.NXmX(.*.6.4.(.*.I >XmXZ.@X&.Y 9XXXL.L...g I *.N. XV.Z.|.4.B.B. XrXDX9X8XZ.B.XX| >X X>.).5.G.;.P.>.L.qXqXrXA.VX+XJXZ.-.VXrXM.M.B.|.2.B.CX5.2.XX(.M. . .I 3.d.MX|.KXtX+X@XOX>X(.2.L.&.;.L.;.&. XMX%XL.N.5.(.B.B.>X(.B.*XL.I <.;.).,.T U U P W W h S Q W S S S h o.v h V v v v w G V w q q v G o.b F v W j.X.c #.q.0.Q D m v v b F +.o.F v g v o.v 9 D v v o.Z Z w w 5 5 9 w V D W W E E +.#.W f #.! N c m X.+.,.U.d.y.#.+.W E a.O.f.K.#.f y.'.3 i.P P #.E m E W m m S b m v m S h w w V V V V w 8 w 8 8 a a 8 8 t 8 5 6 w t 8 8 8 6 6 6 6 5 8 t w w w w w t t w t t w w w w 8 w ",
"m c N n W #.O.K.K.:.f  .J.J.&XK.,.,.1.1.O.T :.P.O.P U ,.i.! W #.h.N X.f.a.+.$.+.+.X.F F o.o.q.s.y.W c #.m f F [.q.S o.Q V Z V Z h q 5 V Z v 0.q.w q v D V S D v Z o.D 9 9 S Z q v D V v D G v v o.G V v v V Z G g h b D F m F W W o.o.W W X.+.O.g W U X.N ! ,.n ,.! o.:.E E S g h Q Q S D D D o.D G m W X.`.s.b g W X.X.W +.g W n g W b F V 8.V 8 p C Z S V v v a p p b v v F o.m ,.d.d.,.>.P.P.G.@.n ,.O.a.f.,.W h.! H.].:.;.L 1.>.>.#X5.>.>.>. .DX,X4. .&...*.*.-.eXSX<.N.L.qX .B.*X/.5.J.J. .N.%XhXP.J.,X9XCX X).5.1.).%X XJ.(.>XXXNXlXJ.G.d.].d.2.N.).*XXXXXXXXXM.XX(.B.9XN.6.>XL.6.J.).,X).J.J.#XJ.4.6.B.XX>./.(.J.5.1.5.Y 3.;.@.@.>.d.J.3.1.5.L. X%X(.L.L.N.J.5.>.J.P.,.U U :.,.O.O.:.y.#.X.#.a.#.o.X.+.#.m W $.a.s.s.+.F X.d.O.U P P.f.X.W X.X.X.W W b v S b S F D F m h S b v v b D o.0.b v S F S v v D o.W o.o.v v W +.W W D D W Q S g F S Q Q D o.0.W #.W X.X.#.X.c O.O.O.@.,.,.@. .P O.:.W O.W O.E W :.S o.o.W Q S D F F X.U.U.X.N m y.g O.O.g O.N m q.v S S Q o.v v o.Q D v h h v S V V S S b N W O.i.K.d.1.J./.d.>. .,.d.d.H.i.o.,.i.$X].i.P R N.L 2.6.6.J.6.L 5.hXqX<Xg L  .5.1.M CXmX(.=.>XVX| XX*XXX5.J.B...6.XXkX(.*XkXmXZXeXkXZ.I .X9X|.XXVX>X9XDXFX4.G.K.d.].,.J.%X X|.VX@XrX7.Q.Z.SXKX!.M.(.VX|.>X>XMX XJ.9XM.|. XL.5.$X/.9XM.oXA.oX8XB.J./.P.#X;.&.L.G.P.DX*.2. XB.<.Z.V.*.(.(.(.qXN.T 5.U d.O.P W X.W F W S Q Q S S S S S Q h h G Z V V v G G G Z F F b v b 9 W q.N N +.b Q o.o.W v g v S F o.o.W W F b W V q 8.V w Q V D q q 5 5 q V G o.Q o.o.Q #.y.#.W y.X.N X.X.N X.a.#.f.,.n P O.O.P 9 #.j f Y.f.,.`.! n W +.W o.y.o.S W W D D S S V q w V V v p p p 8 w 8 8 d a 8 8 8 5 5 6 8 t t 8 t 8 6 8 8 w 8 a 8 t t 8 w t t w 8 8 w w 8 6 6 8 ",
"m #.y.f g #.O.! @.@.,.sX<XU 5.$XT O.:.:.O.! O.,.H.,.#.f.f.O.o.u.y.m m +.X.b W a.o.o.X.o.o.G V v v c m f.u.o.v F o.b Q D v D V V w.0.0.q.8.h G v G v h v w v S V v D D v h v v 5 S o.Z v Z D v h V V V V S S Z Z F h q h F o.o.W F W X.X.W W W W N W O.d.N O.H.! ! k m i.,.K.h.#.b Q W F W F F o.G G b X.W h.a.W #.o.W +.g F b m o.N W v S w Z p A A A C V S Q 8.V a a a p i b X.N O.,.$X{.3.5.G.>.,.,.K.:.d.a.i.O.+.,.$X:.:.P.T >.5./.lX,X/.J.I M J.5. . .>.U >.L.(.|.8X X XB.qXJ.5.5.4.Y >.).J.d.J.#X).#X,X1.).1.1.2.;.;.1.L./.>X>XB.5.J.,.,.K.d.d.G.N.N.B.(.XX8XXXM.|.*X@X9XB.|  X%X6.#X/.5.G.Y  .>. .>.4...4. .B.5.>. . .5.>. . .@.>.>.d.G.>.;.).%X<.4.J.L.&.B.N.;. .G.).J.1.:.H.f.:.:.f.f.O.+.X.X.F X.$.#.#.N o.+.W W o.W m W i.#.O.n O.O.#.N E W X.o.X.W o.q.+.Q Q o.o.o.o.g h v S F F F F Q S v b v h S +.o.F D Q v h S W F S b S W W b h h m Q +.o.o.o.F d.#.X.N W O.U ,.,.O.U :.3.>.,.,.T d.i.d.O.#.P O.+.m ~ o.W o.W W X.G F s.z.q.$.X.f.m c O.n X.a.g F v Q D m S v o.D Q Q Q W D D D V b v S F W o.,.d.P.G.P.].G.5.3.1.1.,.3.f.,.O.y.P Y.O.O.H.d.I.P. X9X,X).J...B.).>.>.>.J.P >.,.gX*XmX X*.(.kX*.N.4.6...J.,X/.G./.mX XqX@XB.8X<.&.(.*.B.(.(.B.>X(.,X^._.M 3.). .>.O.#X&. X8XtXKXwX+XwX@X;X@X=.V.AXmXB.VX XL.L.;.&.=.=.M.N.@.d. .*.=.M.%.%.M.=. .;.G.T 1.G.N.G.;.Y kX<.<.*.4.(.>X*X*.(.XX%X>.>.,.n O.N N o.+.F b D Q Q x h h S D Q S q w S V v v w v V V V F D b v v W W v c +.$.g m g m o.Q v D s.S o.+.y.s.q.W D o.Z w.A h G v V V q 5 q V G Z v g y.U.0.m N a.[.m +.#.a.a.O.O.N U n f O.f.i.:.P O.U :.,.,.j N ,.P W O.:.+.y.u.o.Q Q Q Q D v v v V V Z C p w 8 p p w 8 8 t a 8 8 8 6 6 8 w w 8 6 5 > > 6 8 w w t w t a t t t t t w w 8 8 8 8 6 6 ",
"+.b E o.#.P N h.O.,.=X).$X).@.g :.:.#.O.O.,.,.:.K.u.+.o.W W W +.X.N m m N v b o.F b v F F V q 7 b +.W E m q.W g F b o.D v Q S h Z v D G D q o.v w.D v v h v V v v 9 h o.Q w q G v G S w V Z V v w w v v h h V S Q b g v W o.o.N N b N X.W m m N P O.N ,.n U ,.,.$Xd.,.Y.+.i.#.P +.+.W N X.F m N N F m N q W +.q.s.o.F q.v G W h f.+.F q D q w 8 p 8 8 w w w b S V a p a p q q c #.,.O.d.5.>.K.). .>.>.d.:.,.W #.u.O.:.P.T d.P.1.#XN.6. XL./.%X>.jXJ.@. . .d. .%Xn (.(.qXqX(...6.4.I >.#X/./.%X#XI >.J.&X5.d.J.sXT @.).sX#XK.J.5.J.7.6.5.5.d.O.O.1.G.P.L.B.B.(.;XZ.(.Z.L. X(.B.N.(.L.>X>.G.L.5.). .G.B.>.%X<X5.XXXX*XJ.G.>.L >.5.>.>.3.3.>.,.G.1.%X).%XP.L.&.N. X5.5.>.>.J.P.K.K.d.i.O.! #.u.o.g X.X.m B N X.X.F X.X.F v q v F W +.O.! i.P n c ,.+.W N F W W o.u.W F b b D Q o.o.v b S F F S v g Q Q D b b F W Q S g b o.D v m v v g g v S W D F v b Q o.D W Q b g N X.U O.#.P X.:.,.U O.,.,.J.5.@.K.3.d.d.d.X.O.O.N X.X.N X.F X.F Z v X.$.o.r.q.$.$.c o.X.N f.N v m o.v q v h S 9 h v S S S S V V v v v v m #.f.;.d.,.G.K.>.>.>.1.G.d.,.i.,.#.,.:.U.! f.$X:.G.-XN.*X>X(.XXB.).J.d.n n d.1.&XP ,. X8XeX8X4.|.N.I (.>XB.).NX/.....N.L.(.B.L.mXL.L.L.kXXXN.*XB.XX).7...).6.3.@.O.Y.P.=X&.*X8XoX6X3XA.@X.X!.SXbX-.%. X<.*XL.J.J.N.>.oXM.(.9XJ.K.G.*XL.OXZ.Y *.J.>.@.E.;. XG.N.=XL.G.kXY *.L.8X@X.XL.4.J. X>XG.K.>.O.U m N +.+.S v Q 8.Q z h z S S S v q w v w w v w w w w q v F F S v u.F q o.$.m N b h m W W F Q u.g m S W 0.o.v q v v G C V 0.q.8.Z v w h V C w 7 W o.o.E O.a.f.y.#.d.X.X.O.,.h.@.O.O.1.&Xd.g O.:.,.j :.:.U O.H.j U :.i.y.y.+.~ o.W W Q D S v w i G F Z V v p p p p w 8 8 p d 8 8 w 8 8 6 6 6 6 6 5 & & 5 8 6 6 8 w y a t w t y t 8 8 8 8 w w 8 8 ",
"+.y.u.W W +.W #.sXO.&XO.O.@.n K.K.d.O.P O.d.d.#.! ,.y.o.o.y.+.E o.$.b q G o.q 5 v q q p Z Z V Z 9 F W +.b W S F D F q.D m o.S q Q S G V V q q.Z o.h w V V S Z v v b V Z V v Z o.V o.D h v S v h V Z S v q w S o.D W Q Q W F m v N m N +.+.N m ! #.f.! :.U O.:.].:.! #.K.P i.K.Y.X.W c m X.X.m c W m g W b o.W b F Q g Q o.0.S v W m F F z.o.V G v p v V Z Z v w a 8 8 V F S v c g #.#.@.>.d.P.>.J.d. .,.a.d.N a.W W n ! ,.P.U T 5.>.5./.>. .G.>.5.,./.>. .<Xd.%XL.>XM. X.X*X>X X%XB.J.J.5. X%X>.G.>.L >.j  .).3.].,.G.K.,.,.d.>._.| 5.5.} 3.,.T d.G.G.N.N.N.B.B.Z.(.|.(.*XXX<.N.1.L ,X5.G.).5.5.| G.5...*X<XB.<XqXJ.&./.*XL.).).d.d.J.d.,.d.).#X).L.G.L <.J.%XG.>.6.5.5.J.3.:.:.:.:.,.,.+.+.+.#.F X.X.F N N m c c m F o.W v v N +.#.P X.P #.W m f.o.F W F m c b W W F W o.Q D b S S b b S F F F b o.+.D D +.o.v q.S b D S b F F Q S v m S W W W W W W E c m W N #.a.d.P I ,.:.J. .3.U O.,.3.K. .3.J. .>.d.].O.U O.N +.X.m N N X.g Q o.+.o.b W G q +.o.X.o.m W #.o.o.q.D S o.m v m S S S S v m S v v G Q b g v ! O.H.1.J.).5.G.6. .G.d.>.:.,.#.X.m ,.,.K.~ R #X;.B.J.5.*.G.>./.P.J.>.>.&XH.&XK.=X(.;X(.>X@X*X X(.B.>XJ.(.9XJ.*.6.| B.L | (.,X4.L.B.XXJ.<.<.<.9XI 5.|  .>.,.n :.P.,.).L.L.V.oXS.oXSXOXVXqXM.=.=.N.9X(.). X%X1.N.B.M.M.8XmX6.L. X9XOX|.@X@XqX9X5.]. X#XgX;.L.qX2.hX<.Y  XB.N.L.>X XN.| >.,X)./.I K.W N W +.o.S S o.8.Q S S Q D V w S V C V w v Z V V Z Z V v F v 9 o.g Q j.+.v F W W o.W g g S F g S D S S W F g q V V V v v Q 8.V w v v h q w v Z v X.+.X.+.i.,.U a.d.X.,.h.h.].3.O.K.K.d.P ,.&XO.P K.Y.P ,.n n d.P :.t.i.H.+.E 0.b S D D S V v v G Z V p V V V a p 8 w 8 8 p 8 8 8 8 8 6 5 5 6 w t 8 6 w t w 6 6 6 w t 8 6 8 t t 6 6 8 8 w w 8 8 ",
"! #.,.+.X.F F F X.a.h.N ! O.d.>.U  .d.O.U ,.O.,.d.:.! ! W E S D h v o.S D u.D S S S v Q S D 0.3 Z q v o.o.G o.o.v F W s.u.b b v S V v V S Z Z S D Z v w v Z S v w Z V Z q 5 G V p p V V C C C V Q S h S D S S S o.Q h W Q E o.W +.d.O.N #.d.f.].:.d.d.:.>.d.d.,.#.a.,.X.O.a.,.X.O.c `.#.F F X.m W Q u.y.h m o.o.g S s.W o.b S 0.W F E F b v N o.N N N 9 b q h v w e.Z V S q F _ m m #.3.>.d.P.,.J.{.@.,.n X.d.,.W X.+.#.y.i.,.O.1.3. .>.].,. .%X5.Y ;.I Y n *X<.N.=.L.(..X4.L.B.(.*XN.*XqX*X*.|.Z.4.|.B.@X<.<.*X>.P.,XJ.,.K.G.d.K.>.3.>.G./.<.J.1.G.%XB.4.<.|.Z.(..X(.N.6.5.>.,.>.,.>.5.).).N.<.<.*.J.XXXXB.qX| ).L.>X4.%X2.<.L.,.5.d.3.>.5.d.d.K.d.,.1.5.1.1.1.).4.3.J.,.,.d.,.:.O.! ! ~ W F F o.#.m m +.N f o.W +.E +.W g W W m y.0.F W W D +.F s.y.N W X.N m g D S S o.W v D v v S W D b b D F m g g W o.S b S S S W S S D 0.g F W F W E P X.N X.U P } I @.g.n  .>.d.)./.d.d.d.U :.G.d.G.G.,.d.#.:.d.a.X.U #.K.,.X.O.+.X.W X.u.u.W W 0.W g m u.+.o.b o.u.W o.S S S S Q Q Q D W g S S h S S o.o.F N g F Q h S +.O.P.G.G.XXL.XX&.>.M ,.,.a.X.X.$.f.#.d.,.O.d.5.>.5.%X>. .<XY >.I  .O.j ].5.3.1.L.M.rX.XM.XX XZ.@X8XmX(.2.qXV.N.XX6.>X&.4.,X*.*X,XL.G.#XP.1.lXI 1.5.d.,.>.J.J.>.=XB.2.L.4X|.|.eX4XR.<.L.J.6.5...J.6.,XjX5.;.L.I.V.OX4X8XZ.4.*XM.CX(.@X4.N.XX>.J.).T P.L.*X*XZ.V.|..XM.(.>X(.6.5.<X5.4.5.6.@.#.#.W X.X.S v S Q 0.h V S V V V v w S h 9 5 q v V V D v v D V q h G q o.Q Q b q o.F S v v F o.o.b q q.N F o.m v X.D Z v V ` 8.Z v v h V A S V S S S W X.o.+.#.,.i.d.K.,.d.d.O.P O.d.,.a.f.#.W `.n P O.f.U.O.N #.y.n O.,.y.#.o.+.o.W b W o.o.D S D 8.S v v V V h w w w a t 8 6 5 6 8 8 8 6 5 6 8 8 8 , 5 5 5 5 6 8 8 6 5 6 6 8 8 a V 8 8 w t t t t t ",
",.n g X.o.v v o.W W q.! O.n U U U >.J.>.U  .O.:.:.W E E E m m S h h D G Q Q D Q S S S D h h 0.v w q w i q q v v q.o.g v g g +.f.0.o.Q D Z S v v v v h q w v v w p p 5 p p p A 5 w w w w w h V S G S h v S m S S g W W o.W m Q m O.#.U U :.O.O.,.P.].d.O.P @.:. .,.d.,.U N X.X.N #.g o.N g m +.Q y.o.Q W S Q W m S E u.W +.W S +.Q W F E N N W O.c c N m o.h m S w ` p F 9.F F m N c U @.,.K.$X/.g.6.,.3.N #.O.O.! ! ! W P ! +.,.O.:.O.d.].J.G.gX .&.4.&.L.2.*XL.hX=.Z.L.CXAXrX|. X*X*X8XM.%.*.*X(.;XVXZ.M.*.N.*X,XL.5.O.,.K.d.d.].U >.K.G.5.5.N.Y >.@X X.XV.L.M.|.*X*XXX).G.>.>.3.K.K.d.1. .T *.<.| 4.B.(.(.hX).>X(.9X XMX).<. .>.5.5.>.>.5.5.5.J.3.:.,.1.,.,.,.J.>.>.d.d.,.,.:.O.! ! ! m m m S ! i.#.O.d.,.N W N ! n m N f m g g S m m Q W S +.v +.X.m +.a.#.y.+.q.W v F S b o.S m m F F b S D g F F F F v 9 9 m h v D D S S F F F b m P m m O.U } I O.5.,.| I 5.5. .Y @.3.K.&XP.>.;.:.T ;.G.K.,.+.X.X.O.X.X.W O.U m N X.#.a.a.:.~ P m W E S W q.+.+.F o.q.F G o.Q W W ~ o.Q S m g Q W S W S m B X.$.b v S h Q Q W #.P.#XN.M.N.<.).}  .@.X.m +.o.N c X.:.O.,.1.>.1./.3.G.lX@. .5.,.).G.=XK.#X<.V.*XkXJXCX@XqX|.*X@X.X|.-.<.Z.mX>X*X>X7.*.qXhX*XJ.>.;.1.1.2.=XO.1.,.G.%X#X<.&.>.lX9X*X@X XV.L.kXxXkX-XL. .Y /.sX{.6.5.5. .&.N.<.2.N.@XCX8XoXrXZ.8X@XeXXX6.*.I XXP.N.-X X*X X8XrXrXM.*.(.N.N.^.M _.%X).5.@.@.@.X.N F N v v D Q Q h V S S V V v h h h S G G S v w q V Z v w v V v Z o.S S Z Q 0.D F F X.o.o.o.G F _ v F o.F F o.G v b S G A V V V V V h w w v h h E ! X.O.+.#.#.,.g U d.d.>.O.T n g f.9 X.U.O.n a.! ! +.+.#.f.a.W #.O.E m N W W F q g v v v v v S V v h V S V v V z z t 8 8 6 8 w 8 6 6 6 8 8 8 6 , , 5 5 5 6 8 8 8 8 8 6 8 w 8 t 8 8 8 8 t t t t ",
"n ! +.X.X.X.F v W F o.X.O.P U U U ,.,.:.O.U O.! P N S F S m m S m S S o.Q h S Q 9 h S o.S q S v Z G G b i S G D v G F o.W b S v D Z V V V S S V V Z Z S V S S V w V C A p w G V w w w w w V V S S v v v m v S Q m 0.o.E m W u.+.#.O.O.:.d.O.U :.d.K.J.,.:.,.:.U O.a.y.X.m m m c W g m F b h +.S m W o.W Q W m m W m o.S y.W S +.Q S S S P W X.#.#.W N g W m Q y.v b 5 w F v v F X.N ! O.U U O.@.g./.K.3.K.`.} ].i.O.W O.,.i.f.Y.:.O.@.d.].).P./. .J.XX(.kXL.(.N.N.Y 9X9XhXqX<.*.*X>X X<.Y XX*XN.B.M.oX*.-.4.4.&.J.1.P.).J.,.:.].d.>.3.J.>.J.*X .L.N.L.B.B.2.L.L.B.L.XX%X XJ.,.:.d.].).d.,.;.2.L.(.6.(.J.(.B.6.4.N.*. XB. XN.G.5.>.>.>.@.@.>.1.,.K.3.,.,.1.1.1.1.3.,.>.3.d.,. .O.! W W W m v b W N #.P g W O.N m P o.P W X.+.i.X.W S g S o.D m Q +.q.X.m N W m N F W F b W F b W W b h v b b S F E b q g W o.F m b v v F Q W S b b b v b W W U ,.,.O.M P >.3.4.5. .>.,.5.J.d.,.3.K.1.d.d.:.O.1.d.,.#.W m m W N c N N F W W W W W y.! W W m m E E o.W +.W W +.F F W F S E o.+.o.W W m o.W E +.W m c N W v W q.D S u.u.n O.5.<. XL.<XY #X{.M `.h.F +.N +.h.`.J.O.@.5.].=X#XJ.$X>.1.gXG.hX,X/.5.%XT ,XkX XXXJ.|  XkX XB.*.9XqX XL.(.qX..n ^.J.4.)...,X).).J.L.G.P.1.P.5.1.P.P.>.2.%XB.L.L.V.Z.Z.@XAXrXeX*X XB.>.J././.3.O.>.5.L. X XqXL.L.*XM.<..XN.XXXX@X9XeXB...J.N.G.E.L.L.V.8X@X(.<.Z.>XB.4.J...5.sX&X .N X.] b F F v v S G Q D V S S V v V v h V V S V v v V S q S D v v Z D v o.G D v S 8.o.G q v F G N v v F G N G o.b v v v v Z F V v V C Z Q G Z S S Q G S F W X.X.X.X.O.O.,.#.d.d.:.T O.O.#.P K.f.q X.X.W ! g c W X.X.X.W ,.W N E W ! F m S F D W Q o.Q D v h h v V V z V w 8 w w w w w 8 5 5 5 6 8 8 5 > 5 , 5 5 6 8 8 8 8 8 8 8 8 8 8 w 8 8 8 8 8 e e t ",
"g d.}.i.F W G g G +.+.m W ,.d.O.O.,.P O.:.O.,.c m m F F S m v S h S h Q D 9 S D D Q q.l.q.S W o.v G F v v v F G q F b F E m b 9 S v h h v v v v v v v h q 9 q w w Z 8.[ a p ` G w w V C C V V h h v S D D F o.q.o.#.E E #.d.Y.i.d.d.,.:.:.O.O.d.U :.,.,.3.d.3.O.U +.#.X.F F m g N W F W F v +.g h 0.y.Q ~ E S +.S g E m o.E m o.Q W W W E X.#.a.X.X.#.E u.Q F h G G G o.F c W s.c m +.3.#.O.,.P./.d.K.J.d.a.:.].a.U B X.a.f.y.,.g g U 3.g.).&X#X%X,X9X(.*XJ. X XDX X).2.;.B.L.*XY Y L.lX X&.T B. X*.4.B.).%XN.L J.Y P U @.O.O.G.,.G.1.5.,.J.,X>.L.<.L.(. X<.Z.B.B.J.).).J.5.3.1.O.>. .T >.1.N.L.N.4.(.N.(.(.*.J.*XB.>XJ.5.<.L.L.5.3.>.>.>.>.,.,.J.d.1.5.G.G.d.3.3.d.,.:.d.O.n W P E W W W S F o.W #.! n O.+.X.W #.i.#.P N ! ! c +.W b F Q W b F N N m m m m N X.g v b S W F m v D v g g v F F S z.q.v g W o.b v b v b F W F b v g N F W ,.,.#.#.n O.,.d.J.5.5./.3.3.@.@.,.,.@.,.,.,.G.P.d.:.O.O.#.+.W N N F F N +.X.W X.W m m X.i.! o.t.W W W h E b o.W F o.W o.W N m W 0.u.y.+.t.E +.O.S W F W N W W c o.s.D v E u.:.:.5.).%X4.J.5.6.>.5.`.3.N N N h.f.d.,.n L j >.1.P.J.%X,XBXzXG.&X#XJ.K.lX).-XJ.L.J.gX9XT &.Y ,X*XY I *X9X&.4.).).,X>.M J.>.T I >. .1.G.2.G.&.G.).).#X(.N.B. X*X XZ.V.V.M.V.xX8X4.<.5.3.3.#.M  .O.>.(.(.(.@X X<.B.9XN.(.*XZ.XX(.I <.*XB.<.>.L &.;.<. X.XSX-X*.|.(.XX%X6.J.%X} &X/.c c N N b F F F v v S S V v V v h h h h w Z V h q q h S G v v V D D V S o.G S 8.v q Z h G b X.o.o.o.G o.$.N N F F v q i i Z ` G v w C A Z h V S S S D S v F W X.+.+.+.O.O.,.! P P n O.d.d.X.X.U.N N h.N #.y.! ! +.W N #.a.+.W X.#.q.W S F W Q o.Q Q Q D S v w w h V w w w w 6 5 6 8 w 8 6 5 5 5 6 8 6 5 > 5 5 5 6 6 8 8 8 8 8 8 8 8 8 8 8 8 8 8 8 8 8 e e ",
"K.K.K.a.N q c o.F o.X.N U i.d.:.O.,.N X.,.X.+.v v S D D S v v v m o.S o.0.o.j.u.S g g h h q g o.v F v v F v c _ q v q h m b o.F o.Q Z v v h w q v v v h 9 9 h V C p C C C G A w w w V V V v h w h b W o.o.W o.y.W X.P i.f.d.i.O.d.P.P.:.P U :.:.O.O.O.U O.,.d.,.X.X.X.W W X.F v F a.Q S g b q.b f.T.t.E o.o.W y.m g W h W m h Q W o.+.o.W O.i.f.X.+.+.c +.o.W 9 W F q.s.+.N N #.g c F #.a.y.f.}.$X,.P.sXO.n K.O.d.O.U O.#.+.X.X.,.3.).K.U L @. .5.>. XL.<.>.B.*.5.J.N.).1.&.N.>.G.J.J. XL.j I CXL.N.*X*XP.).G.>.#Xd.d.3.3.d.3.K.J.J. .G.%X1.5.).N.*.L. X*XB. X(.*X).-X-Xd.,.,.:.O.O.U T >.1.1.N.L.B.N.*.B..XN.9X%X5.XX).#X%X#XN.J.G.5.5.,.,.5.5.d.5.3.d.d.d.d.,.,.g.3.@.#.U n X.F F F Q Q D S b m W O.,.d.,.W N N X.+.N n ! X.E m S F b b W W b g c W W N N o.#.o.D S b m b S b S v g v F Q W S W +.+.o.o.v g S v b b v v v v v E y.#.! #.a.#.U  .3.J.J.d.>.>.J.].d. .U >.,.>.1.,.:.:.,.,.O.O.,.W N F o.X.F W #.a.F m X.X.N q.}.d.! O.y.+.,.+.m W c X.F v W W X.#.+.o.#.u.a.y.#.+.m o.+.N m m #.+.a.a.F F o.b F S +.H.:.1.#XL.6.6.NXI I 5.M h.X.W W y.W ! d.O.:.].%X>.5.>.>. .U =XG.5.>.1.3.).J.>.P. X .;.5.>.gX,X).P.L >.gX/.;.,XsX).).].K.P.J. XP. XN.N.L.&.L.<.).#XJ.L. XJ.&.N. X.X(.*XeXeXkX8XqXB.<.5.@.:.,.n :.>.>.L.L.B..X&.| N.@X<.XXXXN. XqXL.@XeXXX.XN.=X9X*X XOXL.9XM.L.oX4.B. XG.K.&XO.Y.y.g m F N o.b F F v h h v v V V h w h v h w h h v S Q G S v v h v V V v S Q S v o.v q V q V q g v v v v v v h v v v v v F G G G Z w w Z Z v w V D S v v S S W W X.+.#.#.#.+.P X.O.P U d.,.n a.X.9 W f.W X.N #.W X.X.E +.f.f.X.W o.,.+.F b W S Q o.Q S S V v V h w v V w w w w 6 5 6 8 t 8 6 8 8 6 6 6 6 6 5 5 5 6 6 8 8 8 8 8 8 8 8 8 8 w w 6 6 8 8 8 8 8 8 ",
"P.K.i.O.U m v g W F N y.#.#.! #.O.,.+.+.W m W F F W o.Q G D S S 5 g 9 g h h F m W v v v W Q S q._ o.F F $.F c o.q v v W o.F W v D S v v v V S S D Z S V v v G 8.V 8 G Z w A V V Z V V h h h V S b F X.+.X.W W O.O.#.O.d.a.O.,.,.O.d.P.,.U :.d.,.O.O.O.O.>.,.,.:.$.o.W N N X.W F v q.o.W v o.o.b o.u.f.y.o.W W o.E E q.m E m g E m W Q W E W #.i.f.d.o.9 m W y.o.#.N +.#.X.X.N W +.W c m $.#.+.#.O.).J.P.].L O.,.g.d.a.#.X.+.a.h.,. .,.3.>.1.G.1.;.L L.P.&.>.<.n  .J.;.J.I g 5.3.5.%X).G.MXgX5.>.T d.#X5.I G.5.3. .>.).J.>.@. .3.J.#X,.5.*XN.;.).L.<.L.(..XB. X X XJ.-X=Xd.>.:.O.,.d.G.3.5.1.1.L.*X>XL.N.Z.XXN.).&. .J.L. X*X#X/.J.J.g.5.,.>.1.G.d.5.d.3.d.d.3.>.,.a.#.O.X.N F o.o.W W o.o.D S v m m N ! ! P N N g N #.! ! ,.,.a.b D o.F v F W v N W #.+.m m W N W v S D S D Q b S S b S Q o.o.F b m b F o.E F q.v N F m v v F E X.a.#.N X.,.,.#.d.d.>.@.,.,.5.J.d.3.>.d.).J.>.:.,.:.O.:.d.,.:.a.X.F X.#.o.m b +.$.N N #.$.F X.h.h.:.O.O.o.o.o.E #.m X.W c N F W O.X.O.#.y.a.y.y.+.m #.y.+.X.! ,.a.y.#.F X.$.F o.+.m i.O.@.1.&.(.^.6._.>. .>.d.h.,.#.,.O.i.].K.,.1.J.;.5.1.G.>.@.J.G.>. .5.>.@.>.1.).L L J.J.J.>.#X>.BXMX&X@.n %XK.d.d.K.).O.T $XG.1.5.1.1. XJ.9X XJ.J.N.4.B.(.N.(.rXrX X|.@X*X8X+X0X(.6.G.>.#.,.f.K.,.>.L.@X@XwX4.N.Z.|.&. X4.*.<. XL.@X@X|.@XV.-X%X*XL..X.XxX@X.XB. X9XN.>./.,.i.u.W h F N m o.v F G S v S D Q V V v h v S V h w w h S Q Q V q q D G w q G o.S V h v v S G v v b F F G G G D D v G v w F F F o.Z Z p w v V v w D o.Q m q h S Q W W X.o.#.#.#.+.,.P O.P.P.,.O.P f.m #.y.N m o.c E m m P X.u.y.m +.o.o.X.F b W +.S o.o.D S S Z S S V V V V w w w w w 8 w t t 8 8 8 8 6 6 6 8 6 5 5 5 6 8 8 8 8 8 8 7 8 8 8 w w w 6 8 8 8 8 8 8 w ",
"O.,.#.! X.#.W 9 W G N u.O.X.N O.X.o.y.o.b b b o.D Q Q G G Q G V o.W +.o.W E m o.m m m m +.0.g W m X.v q X.G g b o.W h S S h D W v w q w v S D G S v v v h w V G v V w.G w V V G G S V h h S D Q W W X.X.X.U W X.,.d.O.O.@.O.J.J.O.O.d.,.O.d.].f.i.i.a.d.d.d.,.X.X.o.W F F W W F v W Q 0.Q q.v S 9 E s.f.o.W W W E o.u.m W m m m v m m m m W X.W X.+.u.o.u.W Q +.d.X.d.:.U #.#.#.X.X.m m y.j.a.a.j K.1.O.=X>.M g.,.a.#.U N O.a.h.`.1.@.,.5.G.G.5.jXK.J.>.&.P.).).&X&X,.).d.K.].d.5.,.d.d.&X3.>.,.O.d.i.O.L d.,.J.$X3.@. .3.).J.J.5.#X X<.J.%X5.1.N.4.*X*X*XJ.L.N.L.1.).&X1.O.,.O.U ,.d.1.1.2.<.L. X8XZ.(. X9XXXL.N.).*X(.J.L.5./.G.G.5.5.>.;.,.J.d.d.1.,.,.d.,.O.y.+.o.X.W X.o.F +.o.o.o.o.D D W #.#.O.N n ! ,.,.#.! ,.X.P U g m W F +.+.F F X.m v m X.X.m X.#.b v 9 v W F Q o.b F D F S W o.Q S j.o.v v W F v F m E E m N W o.o.X.#.X.W O.O.:.K.U @.>.d.].K.,.>.J.3.>.,.K.K.d.).,.d.,.d.K.,.U #.#.o.+.+.W m m N X.X.+.q.$.F m m f.a.+.o.o.E m W u.m o.o.c N F b m N U X.O.#.#.,.#.X.,.O.X.a.,.O.K.+.U N y.a.W o.b m #.K.G.>. .>.*...%XM J./.c {.#.O.P ,.H.d.y.! I 1.>.5.J.,X).#X;.>.1.J.).].).#XK.&X,.3.K.5.K.J.d.K.sX,.,.,.>.O.i.,.U U d.&XP.P ).J.5.J.<.J.4.L.L.<.).>XL.L. XM.(.>X@X(.(.(.Z.B.0XeX*.L  .O.y.H.H.K.,.&.N.XX0XvX4.(.(.eX*XMX5.5.,X(.L.L.M.|.SXVX>X(.*XZ..X@X@XR.V.M.XXkXN. .G.O.i.o.S S S v v v V Z Z V v F Q o.V V v h V Z S h V v h h h V V v h o.o.v h Q o.V v V h S D S D v q v v v v v v v G o.F q F D v F v w p V V v h h S W F h q g v S W W F W X.o.X.X.W q N d.d.O.O.d.f +.'.9 +.u.9 U.#.W X.+.y.f.y.m o.+.o.F b F o.+.S D Z h w v v w V v w V V w w w 6 w t t r 8 8 8 8 8 8 8 8 8 5 > > 5 6 8 8 8 8 8 8 7 8 8 w w w 8 8 8 8 8 w w w t ",
":.P n O.+.N W s.m o.F G g X.P W +.N +.F F o.b o.v S V v V Z V w o.m y.y.W m f y.u.q.+.S 0.u.S q.c $.v 5 _ 9.F F W S q F W v D D 8.Q Z v h h w q o.D Z Z S v v Z G w G C w G h h h h h h v S S S +.X.X.X.X.U X.@.O.,.U U ,.J./.>.d.O.:.:.O.:.K.d.$X`.f.y.#.#.O.W g b o.o.o.W F F q.F b Q W q.q 9.+.W o.+.W +.y.S m W y.g W W E m m m m m ! +.o.m X.W y.+.y.f m d.P P P.d.P O.! X.9 W W N o.+.o.$.}.T =X].5.J.).5.K.g.@.N } a.y.U >.1.d.G.>.>.P.hX).5.2. .J.*X5.G.P ,.K.#X .>.;.3.,.d.<XK.J.3.J.U ,.d.,.,.U O.n P.K.,.5.d.5.5.@.5.5.<.).J.J.#X5.5.(.N.(.N.B.N.%X%X#X5.].$X:.U :.O.O.1.d.5.G.G.G. X9XVXB.Z.N.*X>XB.5.J.J.N.).#X>.5.G.G.J.G.1.>.d.].3.,.O.T O.>.O.X.d.X.X.X.F o.o.g D D G G F V G +.X.,.i.P g O.i.O.#.P #.#.#.,.P +.W g F q.o.W o.W W F X.W m $.q.g 0.v v v q F 0.Q F D F m S W D m W F S W o.b g b m N N m W #.,.O.,.O.O.,.,.U U d.O.:.>.3.J.G.3.G.,.,.>.3.K.J.K.&XK.K.,.:.,.P g W o.+.o.W W X.X.W X.$.o.N N o.$.X.W i.y.#.y.W m +.i.c o.+.m W W m N U X.X.X.X.X.O.i.#.#.g c a.,.m K.i.,.+.+.X.v o.N #.! :.,.;.P.5.<X^.>.).^.;.hX@.>.O.n i.d.P i.f.G.5.>.>.P.MX).J.,.>.G.].G.5.G.5.).3.K.,.3.d.>.&X].).).3.d.U d.d.`.O.n ,.O.,.sXK.1.<.>.).N.L.N.N.9X(.>X*X*.B.8XZ.L.|.(.|.9XeX.XM.Q.8X4. .,.O.O.,.i.K.P.L.Z..X7XvX@X(.*.J.G.,X&.(.).5.*XkXZ.A.4X8X8X4.|.(.kXFXeXoXV.Z.&.>.G.,.1.K.y.Q S Q S V V i V V v w v v S b v v h h V Z S h S S S V v v V S v S D D S v v S w o.S Q V 9 D D v v G G S v v v v o.v 9 F G v S w w v A Z w h S D Q o.o.Q o.Q F W F N N F F P N W U.].O.n #.,.g f.+.W W f.m m N P m W +.o.o.+.W F W W b F W Q F o.8.G v v D V q w w w w w w 6 0 6 8 t t 8 6 6 8 6 6 8 8 8 8 > & > 5 6 8 8 8 8 8 8 8 w w w 8 8 8 8 8 w w 8 t t t ",
":.U n U i.s.o.g Q o.F g v W W g q F F v b S b F v o.S & G h w G m ! c W E W E K.#.y.#.W N E X.+.X.q.o.m N +.q.u.s.v 9 Z 8.Z h V 8.Z h v V v w q G V v v S Z v h S w h S V h S S h q m 8.0.S S o.d.d.#.h.,.X.g.d.O.K.d.>.@.J.5.>.,.:.O.P d.O.O.P i.X.O.u.u.X.m F W v F W b v F b 9.j.b o.b m G $.E a.O.O.X.m ! m m +.X.m +.u.o.W +.N W ! m E o.m m Q o.y.W m +.O.,.>. .J.$Xg n y.h.o.F F F v N N ,.O.$X&XG.MX).3.3.J.,.@.n d.a.X.>. .L.N.&. .)./.>.G.d. .1.G.>.>.@. .O.,.:.n J.,.d.d.,.].:.O.:.&XY.! #.O.! ,.,.).@.3.&XK.d./.3.5.&.L.L.J. XL.B.*X%X5.5.1.=X#X%XJ.P.J.G.d.,.O.#.,.L P.,.P. XL.L.rX@X>X.X|. XN.4.XX(.XXB.(.#X5.5./.5.5.L. XG.5.5.5.>.>.@.O.:.:.} N f.c F W F F v +.o.9 F G F G v o.g ,.n O.d.f.,.d.O.#.U P ,.d.#.W +.X.X.#.y.q.q.y.c X.q.F g W q.F h b F b v S W Q b W D v v W W v b v g v W F c m N W ,.,.O.O.:.d.! `.d.U P./.O.].3.>. .d.5.K.1.5.>.T d. .,.O.O.O.U #.d.,.P N X.W X.+.g W N 9 #.y.F X.X.m +.q.X.s.o.#.m W X.N #.W #.P #.d.X.N X.X.O.O.n X.O.N #.O.O.3.a.N O.X.#.O.#.f.iXN W f.U.X.q.m N O.O.>.1.;.^._.).NX%X>.).J.>.:.T O.d.,.O.d.G. .J. .).].U 5.P.M G.,.3.J.j 1.3.:.U O.3.d.d.d.O.<Xd.3.,.&X$XP :.:.! :.K.H.d.G.#XP.J.).L.*.<.%X4.Z.@X>XB.qXqXM.(.L. X>XXXV.B.@X7.B.N.&.1.>.n i.H.G.#X XM..X+XHX@X>X*X4. .). XY >.%X>XL.|.eXeXoX>XeX(.|.qXoXV.Z.Z.%.L.kX>.K.P.i.E S k S G S v w v p v V S S b v q h v v h w v S v w h S V w h S v Z G S S D D S v h w v V V h q v S D S v w v Z V V V Z Q Q Z v w V S V V D Q S o.9 o.s.z.o.u.+.b W F v v W X.m +.X.i.f.X.P O.P u.E +.u.m m y.0.o.o.o.W E E W W +.m g W +.o.Q o.D v v V w v v q V A A V t t 8 5 t t t t r 8 8 6 6 6 8 8 8 6 5 > > > 5 6 6 6 6 5 5 7 p p w 5 5 w 8 8 8 8 8 6 8 w ",
";.,.1.,.#.! F F Q q.u.o.b m E W W +.o.W Q W S D v q S S 8.v v h v N 9 m m X.X.a.+.o.+.X.N g m #.N X.X.F N c g v W S S D Z V v S V Z Q o.D h q w v V S Z Z S V V C z V h q h D S m m h g m W o.W ,.#.,.a.X.N 3.g.,.d.3.].K.5.I  .U O.d.:.d.U O.,.m m W +.o.b b W W v F o.b b E g o.q.c o.X.X.F F N #.N c m g N N y.+.m m o.y.o.W m c W +.m m S g m m g E E E ,.! O.#X,. .sXO.n U #.+.W X.+.F q N ! ! :.].>.G.).G.J.5.@.d.@.:.:.].P.).%X<.&.1./.@.gX>.5.).;. .J.).,.:.3.U :.O.O.U ,.d.d.].d.K.,.d.:.O.O.i.d.d.3.U d.5.U } 3.J.J.*.*.(. X X%X).5.5.G.L. X5. X%X=XJ.5.3.d.G.d.,.O.X.,.$X;.;.<.B.L.8XrX*XL.(.XXV.*.N.J.(.6.J./.G.J./.#XJ.J.5.&. .5.J.J.>.>.3.3.@.,.h.y.N +.W W +.W G v F q.v 9 o.G F X.#.P ,.X.#.i.,.,.#.P P U N X.h.W W F N W o.X.N m N W F v b W F Q o.Q S h v v v F W o.W F b m b W F v b o.W m m P P N N ! ,.d.d.d.3.@.U ,.K.,.d.).<X].d.I :. .U ,. .1.T d.d.:.U a.,.#.X.N X.#.X.W o.c o.o.m s.s.X.o.+.N W W g W o.+.c B m m +.X.P N #.a.#.#.#.N O.O.N X.U g N n n n X.X.a.X.a.].P ,.$X,.! c X.h.X.o.+.N f n O.>. .<X>.6.,XG.>.,.>.@.>.:.,.`.$Xd.zX5.>. .;.G.lX/.#XJ. .>.).).P.@.,.P ,.,.U ,.d.d.3.P.:.K.3.J.d.:.:.H.].Y.d.O.,.K.).G.<.J. XJ.N. XqXrX*X.X&.N.B.4.(.L.@XmXkX XN.4.4.(.(.&. . .:.sXY.#X XL.B.wX+X:X(.M.%.| <.6.5.J.Y J.9X9XOXoX2XrX4.@XB.B.8X@XZ.=.L. XP.P.:.G.,.U W k h h V S G 8.V V v v v v v h 7 w V V v h w h v V v h h v V V V Z S v h v S S Z V v v V S V v S S S V V v V S S V V V V v v v G G S w h D Q W F v q.o.o.W y.X.q.G v F W N m N #.m P y.#.P O.a.X.h W o.g m W m m m E W W Q W W b F W Q Q Q 0.q.v q w v q w v w V C V w w w w 6 t r t r 8 8 6 6 6 6 8 8 8 6 5 > 5 6 8 8 8 8 8 8 p V Z G V 8 8 p 5 8 8 8 6 5 6 8 ",
"G.G.d.d.,.O.X.W S F F F b b N N m b v F y.y.+.y.u.q m W F v o.F E o.#.f.#.,.N 9 y.! P #.i.#.,.f.U.h.y.o.X.F o.x.v F D S V V C V G D Z S h q w v q w v S D Z V h 7 h S V h S S g 9 W +.#.O.#.,.,.#.X.d.h.,.:.:.d.U J.d.3. .>.@.,.O.O.:.,.P.,.#.#.f.f.j.u.+.D v v q.F E N q N #.m y.a.N #.f.a.#.X.m W g g m m X.X.y.m g m N W o.o.+.N E W m E W m 0.o.E o.o.#.f.#.P J.,. .).,.X.O.B #.#.F v 9 F iX! H.U Y.3.3.jX/.5.5.>.g.,.U P ].J. .>.B.%X<.>.>.G. .5.P.U U ,. .,.K.zX3.,.3.,.].,.J.d.J.J.K. .f K.].:.O.O. .d. .1.).5.J.J.B.*XL.N.L.(.L.). X(.B.G.).#XJ.).).).5.1.,.3.d.d.,.O.O.O.).1.N.L.8X*X*XL.|.L.L.XX.XL.(.J.N.>.6.G.J.{.g.).L.).P.1.>.5.d.,.@.d.K.@.U O.O.X.X.y.X.X.s.#.N W b X.W F F N o.#.O.U d.n U :.N P ,.,.O.d.].K.,.#.y.#.W X.a.q.N o.F W o.F S Q Q W W F v h v v v b S Q o.W h g b h S b m b g g E #.,.:.! O.d.d.:.).@.K.J. .3.K.).3.,.:.G.1.,.T ;.1.G.&XH.d.d.i.d.h.i.#.! m F o.W X.X.n X.+.m #.X.X.#.f.#.#.O.N #.B N m X.+.X.,.O.n m ! ! X.,.,.n U X.U X.W n W U ,.O.+.X.a.U W #.d.d.Y.,.a.W B #.m X.W W d.`.d.U >.^.>.^.,X).J.4.P.5.J.,.P Y.&Xn @.P.).5.5. .1. .>.%X>.@.T  .#X5.&X .d.J.3.$X$X,.K.].K.$X .f  .sX,.! U :.K.Y.K.d.G.L.). X%XL.B. XZ.oX|.OXV.(. X8X*X X(. X(.N.5.J.4.(.(.;. .&.>.9XR N. X.X(.eX+X+X+X.XB.B.*X/.>.>.>.J.%X X|.OX+XoX@XVX|.4..X;XoX=.CXJXL.1.G.1.O.+.Q Q o.0.0.Q Z Z V a b v v i q q w v S S V h h h h V V q h G Q S S S V h w v S S D S V v v V Z D S V v v V S V V V V V h w w h S V S V v S D F h q.9 q W d.+.+.N +.F v F b g g N m X.P n ! #.O.P o.W +.y.W Q +.m F E W Q o.W E m b Q o.F S S Z V v w V V w w C C V V t 0 6 8 w 8 r r r 8 8 6 6 6 6 5 6 8 6 6 5 > 8 8 8 8 t 8 t 8 p V Z G V w 8 8 7 7 8 8 8 8 8 8 ",
">.;.T U U N m b S v v F W G F N y.o.m F +.Q k h T.F b F b N q.#.X.O.O.#.f O.#.W ! +.i.i.! n P ,.m X.X.W W v v G D v h v C G C v w.G h w h v h h v q q v G Q V q q q h v h m b g g m +.K.K.,.,.d.:.n O.O.O.,.U O.d.].,.U M >. .T ,.,.,.,.P.d.#.W +.$.o.W o.9.o.v W m +.y.E #.i.q #.X.g M O.O.P N N W m N o.o.X.X.#.X.#.#.m N #.y.h.+.N N o.+.~ m W o.W +.E N ,.#.>.M ,.K.O.M d.h.O.O.#.a.a.+.W N m H.n O.@.g.NX;...^.5.>.1.>.T 1.*XY Y B.=XY n ;.f 5.1.d.K.].J.d.3.U @. .,.).K.5.K.d.U n P 3.d.,.n ,.,.,.>.@.K.].G.J.5.J. X X XN.L.B.L.L.L.L. X(.=XJ.N.J.].J.,.@.d.d.3.3.,.>.,.3. .P.J. X.X@XM.=.Z.8XrX|.Z.(.(.B.).<...6.5.g.).5.>.>.N.L.5.<.>. .>.3.].K.} @.3.n P O.i.+.o.u.u.W +.m m X.q.+.W #.N P n ,.U #.,.O.O.d.O.c N :.O.n +.+.W m N o.W c o.F W o.W Q 0.+.m b v v v F F b v S W Q W b v b h S S S W F m W ! d.].d.d.d.1. .,.M 3.d.U @.d.).K. .P >.:.T ;.).d.d.].d.O.T ! d.#.#.i.#.N m X.X.#.,.X.,.i.O.,.O.n U ,.O.U U N #.B N X.#.a.#.,.+.y.+.U P O.d.d.#.N X.X.O.X.W O.#.X.X.X.m f.h.d.! ,.f.,.N K.}.y.+.#.h.#.n P O.O.,.O. .} {.,X<.>.N.<.&.>.>. .).<Xd.U 1.%X@.>.T j G.>.L.P.J./.$XP.U ).,.@.5.J.].#X;.@.P P J.K.>.;.G.P.i.:.:.,.K.).).>.P.%X*X>X XZ.(.Z.@XoXOX(.XX X9XB.L.).L.<.&.1./.5.5.5.>.5.B.>.J. X X|.|.M.V.!.rXSX6XV.M.B.G.3.3.3.d.L. X@XOX|.Z.@XeXQ.*.A.|..X<.AXKX;.>.G.j n O.~ 0.u.l.s.o.v q V p p p v i q q S S S v h v S G w h h h V Q o.G V V v v v v S D V V v v v v S Z h h w h v V V v h v v h w h V G 7 V S S S D b g v v q.h.y.n N q.q D o.v 9 9 c m q X.W m ,.d.! f E E Q W m W W g W Q o.o.Q E S m v h h v D Q D v C v V V w w C V t t t w 6 8 t 8 8 8 8 6 6 6 6 6 6 5 6 6 6 6 5 5 6 8 8 8 8 8 8 8 7 w V Z V w 8 p w w 8 8 8 8 w 8 ",
"&.&.;.O.P c N +.b D o.o.v 9 g b P N j N y.u.#.o.#.+.W X.$.y.+.X.+.i.d.i.f ! ,.#.P ! X.O.,.a.#.N m ,.a.X.X.W b v o.v q v Z C V C Q S v Z G Z v q V v v V Z D S v o.g 9 v h g S W P n N O.,.:.@.:.h.U #.U M O.O.d.].3.P 3.).#X;.O.:.P.).d.,.d.#.+.f m b v S o.o.D +.! O.X.n #.d.P d.:.O.O.3.,.O.O.#.+.W N O.O.N P +.#.a.O.f m +.W y.O.W o.y.o.m l W o.+.u.#.#.h.d.d.n ,.].U n #.K.`.U U O.n +.h.#.m y.! n  .J.<X6.<.XX(.*.G.J.G.G. X XL.Y 4.N.N.;.=XhXd.].K.,. .@.lX5.>./.>.;.J.I ).5.>.@.>.>.1.5.J.K.).5.;.I n 1.P.G.L.<.4.L.B.).B.4.L.*X XN.5.B.,XP.5.J.J.5.@. .J.G.d.3.>.O.,.J.5.J.(.>XXX@XV.OXOX4XrX@XZ.B.L.(. X&.I 5.G.5./.g.L.1.1.N.5.G.G.5.3.,.d.#.n O.h.O.U O.,.i.O.X.,.+.N a.+.N +.a.y.+.a.h.P #.:.O.P X.O.O.,.d.:.g n K.a.+.X.X.+.+.X.X.b F W S m Q 0.D S D D F F D S h F Q W S F o.Q v S V g h o.+.N m N ,.d.,.1.J.G.>.d. .U } 3.J.,.J.T J.%XK.>.;.G.P.#X1.,.i.,.:.n U P P #.#.W W $.q.X.X.U @.,.:.,.@.,.,.P.d.O.O.O.,.+.X.X.N N X.X.#.a.X.n N #.,.,.,.+.+.#.X.N N N W a.d.a.W a.#.O.n O.P.d.n O.K.O.@.N #.y.a.f.#.n U N d.M ,.MXG.Y *X XL.5.5.5.>.,.K.].L d.5.5.G.#X=XJ.,X#X3.I T ).<XI /. .,.G.;.J.G.G.>. . .5.J.G.3.P.,.,.>.@.3.)./.G.N.5.B.*X>X(.N.*XeXOXL.N..XL. XL.(.).G.>.>.G.#Xd.,.,.>.B.).N.B.>X>XZ.OXZ.oXoX2XwXZ.M.|.B.L.]./.} @.J.qXqXoX!.@X|.0X;X;X0X0XeX8X@X4X;.G.H.n ~ ~ +.Q Q Q D v b Z p p i i i i h h S S V v v V Z G v h h Z G D Z Q V V V V v v v V v v V v v v v V w w h h h h v V h h h h h v V V V G Q v h v W W q j.'.y.W +.O.N v G o.D v v v v N c g y.}.y.N +.S E E m m S E g S W o.o.W E W o.0.D S o.o.Z h v C w w w w w V w 8 t t w w t t 8 8 8 6 6 6 6 < 6 6 6 5 5 6 5 6 6 6 8 8 8 8 8 8 8 w p a Z V p p a w 8 8 8 8 8 8 8 ",
"L.1.;.>.:.O.X.+.W Q o.G D F b b ,.,.W P O.O.P g N +.W O.#.a.o.X.O.K.`.`.O.#.P n n n g n #.h.#.9 n +.X.c c F F F D v v Z C w p G h h v S v h v Z h S G S h q v D o.g v +.o.b m W c ,.K.,.U U O. .O.O.h.f.O.} @.K.O.1.,.K.P.#Xd.J.1.].J.3.,.K.,.O.c o.q.Q v w V F ,.#.! N n O.i.,.O. .:.} >.} n P ,.X.W m W +.W #.X.X.W g q W #.W O.#.#.+.o.m h Q k h q S E P X.g N  .O.:.,.,.M 3.n n d.P.P N d.#.,.#.y.X.>.3.#XNXXXXX(.<.L.N.1.G.2.XX,X&.<. X*X&.d.5.U ).U d.].@.Y n P ).L n ).).5.1.K./.).;. . .J.@.@.Y 5.G. . XB.G.9XL.<.B.<.*XZ.V.L.*X*XL.J. XP.%X/.J.>.5.3.3.3.5.d.3.@. .>.6./.J.XXmX>X6X!.wXeXL.R.rX8XZ.(.>XL.<.| 5.J.5./.J.%XL.G.L.L.P./.J.J. .O.3.} N X.#.#.#.#.d.O.n O.O.P h.,.+.#.U X.a.h.].P X.O.U n O.n N O.d.a.n c O.O.N B N N m v m b F Q S h F Q v v S F F S S b h D Q F g v o.Q g v o.o.S b b N #.Y.f.:.P O.d.5.O.K.J.>.U G.K.,.$XT 5.&X#X).G.P.P.Y.G.H.].G.,.j P +.N m N N F o.X.O. .U O.O.>.>.O.:.U ,.O.P U U X.X.N X.N W +.X.#.X.N g P ,.:.! :.#.+.#.W N W N W g n +.X.,.m X.f.:.H.d.O.U #.N #.d.X.c N i.d.d.f.#.f.O.:.gXlX%X*X<.<.*.6.).5.g.lX).G.;.).%XT /.G.>.).L J.].>.P.j Y =X>.>.).>.G.J.K.).%X . .3././.;.U :.,.>.5./.5. X).B.4.B.L.B.L.L.*XOXOXL.rX*X X*X XN.<.1.G.K.K.d.>.,. .*.B.|.8Xm.6X+XoXZ.4XrX2XC.rXbX.XL.hXsX@.@.K.).6.Z.0X0X!..X;X.X>X;X!.OX.XL.*XG.;.1.:.[.p.t.Q b v v i b Z i p q i i v v v w h v S S S V v S v S Q Q v v D V V V S v w q h v v V S S V v h h h v v h h V S h h h h h h h h V Q Q S h S F F W y.W N +.U.,.N q.S v o.q.F c v X.m c +.f.#.! #.W o.W E E W Q W W o.o.W m m S Q u.0.0.q.Q q 7 S V w w p w V C 8 t t t w t t r 8 8 8 6 6 6 6 6 6 6 6 6 6 6 8 8 8 8 8 8 8 8 8 8 8 p p a Z V p w p 8 w 8 w 8 8 8 8 ",
" X>.I T :.#.E m q.o.G W q.s.u.W n ! U n ! y.#.! :.! P ,.N #.#.O.N O.n U P ,.O.:.h.&XjX$Xa.O.,.d.g U X.O.#.+.F v v v V Z C C V V v h h h q q V Q v S D F v h v D S m o.s.0.N N N ! `.sXK.O.} @.@.g N ,.K.,.P O.O.O.$X].d.T ,.>.d.).P.O.d.K.].#.! q b W D v w V G m :.,.i.d.:.U T d.3.).,.G.>. .,.#.W W m ! #.! d.#.#.X.N +.a.f.h.+.#.! E W m S y.o.Q b o.o.X.O.c g X.O.O.,.K.N a.`.d.O.P P I U P +.W #.W @.M 6.<X>X(.(.B.).<.N.n.N.L.8X(.N.<.N.I >.G.@.&X@.d.).P #XL.<. X5.5.>.>.<. .<. .>. .J.%X5.B.<.>.%X X>.<.L.<.2.N. X Xn.%.L..XL.Z. XXX X,XJ. XP.P.,.J.d.J.6.4.>.>.>.@.>.3.#X).>XeX|..XF.A.SXOX@XxX*XM.N.(.5.J.>.4.g.g./.J.N.1.G.L.G.N.5.>.K.3.d.`.h.X.U ,.,.,.O.i.:.P ,.O.O.a.U :.d.c N d.M X.c #.@.,.d.].&X&Xg.O.#.,.O.U #.#.+.X.X.X.W W F F o.o.S S D S h b F b b S D F F D S v b W W b Q l.z.+.F F a.iXpXY.:.T O.>.;.I >.g.g. .>.,. .J.,XJ.1.;.G.1.P.).,.G.].P.! ! j P y.W m N m N G F g.d.5.,.3.d.d.J.J.@.d.3.>.5.3.,.B c +.+.+.a.X.#.X.#.#.,.K.d.:.,.O.W #.W W #.W X.W X.y.X.X.9 g O.#.O.O.,.:.K.a.K.N X.i.,.W N W W i.P O.O.1.=X9XL.|.L.B.J.6.>.3.g./.,X;.1.).g @.d.@.%Xd./.5.U ).5.5.L.1. .5.J.>.>.T Y 5. .L.%XL.>.>.g.gXsX5.>./.J.L.XXXX(.N.*.4.>XL. X4XxX X4X*XL.N.J.L.P.).).d.O.:.O.,.@.&.N.|.0X6XHX7X!.%.V.4X2X!.JXVX%.-. X/.,.3.$XK.L | >XrXA.bXvX0X0X;X|.@X|.Z.OXL.L ;.i.U.p.y.o.W F F v q q p p p i p v v v w h v S S V h w V S G G S v V S v v V S V h h v S V V V S V v w v v h h v V V V h v v v h h h V h S G D D Q W v b W N y.#.X.P `.u.S v o.9.G b W F F F m m +.#.E S W E S E m S o.y.0.o.W S m m m v S G Q Z v Z 8.V v V C V C A t a a t 8 8 t t 8 6 6 6 e e e 6 8 8 8 6 8 8 8 8 8 8 8 8 t t t 8 8 p p p p p w w p 8 w 8 w 8 a 8 8 ",
"#XJ.d.d.i.+.o.#.F o.G v v G F g N ,.:.P ! y.#.W h.n X.`.n U #.N O.#.n O.f.`.#.O.d.,.#.,.a.,.:.#.#.+.U N X.N v F F F v v G 8.A 5 Z v v D o.Q V h o.D V D o.0.Q Z Q Q +.X.c n O.:.<XK.>.>.>.>.>.@.:.O.U d.d.,.P.d.:.:.T d.d.d.,.P.].K.,.].K.d.N #.X.F F X.o.` Z v y.K.,.! :.O.U P.).3.).@.5.>.>.J.,.W +.N ! O.g O.! ,.,.#.,.! P d.X.U c N u.o.m E S W W +.X.W #.X.O.U d.`.X.a.@.h.U d.@.n ,.O.P d.! q.$.N #.I 5.3.J.6. XL.-XG.E.n.B.*.L.N.>.>.#XJ.G.P.M sX). .P G.>.J.G.5.G.).M 5.>.1.P.5.3.I >.<.B.*X&.| (.).*X*X|.(.-.<.L.V.|.n.<.*X|.M.*X>XJ.N.#XJ.>.].K.K.1.K.g.>. . .>.3.5.5.).(.>X>X(.vX6XeXZ.L.4X8XB.M.L.J.<.*XJ.>.5.G.J.5.J.G.P. XG.G.K.K.,.3.3.,.#.X.O.d.#.,.! ,.,.:.d.X.P d.n n ,.#.O.U O.O.,.$X#.@.g.d.d.a.:.,.d.,.O.,.W #.#.N m W W c S v W 0.W h S Q W o.o.W F W o.o.W F D o.o.o.o.q.y.q.b q N y.K.].,.,.,.,.1.2.;.&.>.3.J.5.g./.>.@. .5.).>.J.].&Xd.f.].Y.i.P d.! W X.W X.+.W W $.a.,.:.,.O.@.d.G.P.).>.d.d.,.d.3.@.O.N #.} N O.U #.U a.:.O.,.,.O.O.! N +.E W y.N E m o.q.N #.+.q.+.f.H.P.P.O.h.#.#.,.O.O.X.P a.H.! O.#.! P ,.d.5.%XXX(.XXL...B._. .). .5.J.#XP.).5.>.J.,Xd.&.1.G. XP.5.,X5. .J. .5.*XN.P.I >.1.J.XX5. .G.*XXX,XqXB.*.N.J.(.L.N.B.*X XL.OXhXI.R.%X%XJ.P.).G.d.J.P.K.:.! 5.N.N.(.(.!.;XbX@XVXeX8XOXn.+XAXOXV.>X1.Y lXU  .5.J.N.*.M.@X|.@X;XvXeX8X8XV. X4X=X1.=XP.:.t.+.W F F F b i i b i i i p v v v V V v v V v v v w D Q S h V G G v h v Z S V S Q S V h v V V h q V w q w v V v w w v S V h h S Q D S v h D q.u.+.b +.F #.#.#.n +.W o.0.o.W W +.y.m q m W m W y.q.E W W Q o.S S 0.y.o.W W Q Q E m 0.0.Q S V S v q v p C Z w w t w V V t 6 5 8 t 8 8 8 8 8 e 8 8 8 8 8 8 8 8 8 8 8 8 8 8 8 8 8 8 8 8 w p b V p V Z v p w p V a p 8 ",
";.H.H.:.:.O.W +.N o.W F q 9 G v F W F +.S Q W +.m ,.m n O.&Xf.P #.W #.N h.a.m U #.].#.#.,.} #.#.#.`.o.F +.F W b o.F F G G Z V V v v Z o.G V v D S V F W F v b Q o.x.G g O.M T CXqXY %.B.*.&.<.J.5.@.d.K.@.,.K.3.,.O.,.,.g.K.@.h.}.f.#.X.O.O.! E g N F F F b F q.a.P +.O.O.O.N a.a.,.:.,.,.@. . .O.d.i.,.a.#.! :.d.n P K.1.,.K. .U O.,.i.#.E m E y.F v c j.m u.F +.#.O.W X.,.a.,.O.@.,.U @. .J.O.P O.X.d.a.N X.U } >.>.J.P.#X>.).6.J.N.%XJ.| 4.<.5.5.G.)./.3.1.J.*X;.<.#X1.].d.P ,.O.&X .,. .1.J.1.G.<.<.<.>X8X8X6XA.;XV.*.L.V.L. X.X(.4.4.%X*X1.G.1.;.-X$Xd.$X].].d.O. .,.g.J.J.].,XgXqX9X>X|.B.|.@X>XZ.>XN.*.,X(.6.4.5.J.G./.$X5.5.1.,.d.K.d.,.d.:.O.,.d.,.U O.X.$.+.O.O.+.X.N X.X.N ].a.#.X.N #.N a.h.U N a.d.d.,.:.d.d.1.,.:.,.y.W W F N +.+.W o.Q S v S S S b 9.9.S h D X.F F W W W X.+.y.i.X.O.O.P ,.sXsX,.U G. .5.L.G.).Y g.g.3.5././.5.6.5.>.).`.@.h.iXf.y.E o.y.W W X.m N X.+.U n a.K.U y.O.#.#.X.,.K.:.d.3.,.>.O.@.,.d.} /.I @.,.I J.@.U d.J.O.;.>.L O.a.d.#.N m X.#.o.N m s.F o.F s.F y.U @.3.a.#.X.a.3.} O.:.`. .U U U H.,.P y.N ,.O.:.).G.).L.N.*X*.L.*XG.&.1.1.2.J.N.).).J.1.T =XG.1.G.P.#Xi.T :.O.<XT >.I L.N. .>X<.*.4.*XkXqX*XXX*XL.<.L.L.N. X8X*XV.Z.>X*XL.B.L.<.*X*XP.%XJ.,XG.&.2.N.L. XXX>X8X@XeXkX8X@X*X@XR.kXR.eX<.Y hXgX).).J.<.%X#X*XN.4.M.%.VXrXQ.rX.X9X9X9X-XP.#XP.1.:.f.q.o.X.F v i v v b v S F S v v h V S G V h V Q G S V v v V S D V V V V V S S Z S V V h h h h h V a v V V p w 7 w w w w v v p h h g g v b G o.q.W W o.X.X.X.+.+.h q.Q q W f.,.P Y.#.n m F S S Q S Q +.o.W W o.W o.m m o.+.G b S q.Z w v Z V v h w p V t 8 t w 5 8 8 6 8 t t t t 8 6 6 8 8 6 6 8 8 6 > 5 w t w 6 6 8 w w w w 8 8 w w b Z v v F q.W +.F F v 7 V w ",
"1.i.W j U O.O.y.#.#.X.X.v m o.v G o.W q.S F g b g W E +.m N n ,.m v W m f.f.X.X.U ,.h.K.K.,.} a.N y.N m W F W b F S F F V w w b v S V q 7 h v v w h h g g g v m 8.7 F X.M  .4.M.V.Z.eX>X2.1.G.5.].5.J.K.>.3.J.>. .O.d.3.f.g.#.K.s.0.W W W W E S O.#.+.X.W c c W a.X.+.#.a.a.O.#.P.h.d.a.:.X.N n X.#.#.#.#.N j O.,.O.P ,.d.O.>.d.,.O.X.#.O.N m P N N X.F T.o.s.m N W +.a.a.,.#.O.O.X.O.:./.K.].U ,.O.c #.a.+.y.$.X.d.P.J.G.,XJ.J.*X5.5._.).J.5.G.).B.^.).(.J.>.j L.*.1.).U O.K.H.g P K.,.].>.G.;.N.L.L.*XM.M.V.rX7..X;XOX4.=.OX8XL.B.J.J.L.XX*X).1.J.G.$X$X1.i.i.d.,.X.X.@.3.d.J.<X<X%XJ.5.5.<.<.4.M.(.5.XXB.<. XL.5.5.J.J.5.>.>.O.:.,.d.K.P.K.,.P.d.#.:.d.:.O.,.X.$.$.X.X.N N b N X.m O.N +.+.N X.m a./.O.N @.O.K.].P.1.O.T :.1.m W N +.o.N W v W o.Q S S S v h Q v v G G v g m c g g g c N W X.O.U P U ,.).K.@.MXgX1.G.G.;.P.G.].K.5.3.g.>...>.6.6.K.K.:.f.Y.#.o.S Q y.o.o.+.! f.X.U U M } 3.a.y.#.a.f.i.i.f.f.d.d.d.,.O.U U U >.J.>.I  .>.>.@.M >.G.>.1.P.1.>.#.y.,.O.W W W m N W '.q.q.i o.X.a.#.d.,.#.#.O.,.3.K.$X3.K.g.>.} #.y.K.i.f.P ! K.d.].G.P.N.n.OXM.>.9X=X1.2.L.P.P.1.#X-XL.2.Y  X&.2.W.1.G.H.,.,.U U K.sX5.G.G.L.L.(. X|.B..X9X.X|.9X*XB. XqXqX*Xn. XZ.V..X*XL.<.&.).).J.>.P.L. X>.Y  .*.<.N.L. X%XhXL.*.Y L I 2. XJ.<.9X).2.*X*XN.1.L.).=X5.>.;.J.L.M..X.X4.B.>X,X).=X=X].G.,.,.H.+.o.G D S v v v F v v v v v S F D V v h w q v D G G Z S V V S S V S S V V V V V V V h h h v V V a a V V V V p p w w w v v v v v v h g v b F F F b o.o.F F o.o.F V u.S S f.W n $X:.U N ! Q D S Q W o.o.W F W F b F F W F v q F s.o.Z v V V V v h V C C 8 8 8 8 8 w 6 5 5 8 8 8 8 8 6 6 8 w 6 6 8 w 6 5 6 w t w 6 6 8 w 8 8 w 8 8 w w v v v g m W m W b F V w C v ",
"d.H.i.:.i.i.o.o.W F g v q q F 9 D Q Z 0.D o.o.u.Q F F q.+.X.X.f.#.o.#.m a.#.m q ,.,.`.a.a.3.q c F q.W N W F G b F F F F v q w V 5 w V V V S V v D D S v b W W D o.b q.y.d.#X%X8XZ.L.*XN.Y J.g.U G.@.>.>.U O.,.} X.:.h.f.d.3.O.h.o.W E W W E m m N X.+.+.#.X.+.a.K.a.I U +.#.d.a.W N U X.X.X.X.X.P U W ,.#.N P f.! d.n O.P.O.O.sX].d.:.,.,.O.X.O.b N F 9 W v o.q #.+.,.a.a.#.O.O.`.K.g.d.3.} ,.P O.h.+.g m a.a.q W O.d.,.;.P.5.&.,X<. X*X*X).I Y I *X X<. XXXJ.,XJ.&.L P.,.O.,.n O.,.! n ,.P ).1.*XL.5.*XXX|.M.Z.@XAX(..X(.| L.*.L.4.5.J.5.&.;.>.I P.P.P.#XK.H.H.,.+.#.#.a.K.].&X].].P.d.,.>.>.;. .| B.<.(.J.G.J.5. .U  .,.J.&XlXd.d.d.f.K.K.d.,.a.,.O.O.#.X.W +.X.$.$.X.X.X.X.X.y.a.N W E ,.f.i.#.U O.+.n n ,.d.,.d.d.:.U n O.d.W o.F o.X.N W F D W S m v m v h Q v v o.o.v v W F N F W X.O.O.O.:.>.J.=X%X#X%X#X).J. .3.J.,.P.K.:.@.O.d.J.>. .g.g.g.f.a.,.a.#.W W Q 0.o.v v +.f.,.y.3.O.} 3.d.@.U #.i.i.,.O.O.d.U X.O.#.O.X.O.O.X. .3.g n J.O.,.U O.d.,.d.<X$Xd.X.O.+.#.o.X.F N W c F c $.q F o.#.a.h.,.#.d.a.d.d.I ,.3.J. . .%Xj j i.O.y.W g ,.:.i.;.L.I.B.9X X%X*X-XL.<.&.&.;.*XP.L.%X9XL.).j 1.#X1.O.:.:.! P :.O.T >.G.N. XN.B.8XVXL.V.|.(.CX*XqXL.<.2.G.L.;.N. XL.<.2.*.2.).L.L.*X X%XL.1. .>.1.5.J.P.].$X$X;.n j I T n n T &. . X*XN.N.L.;.#X5.;.P.=XzX].G.J.%XJ.,X/.5.sX).K.].Y.d.i.:.#.a.F v v S v v v v F v v v h v v S h h v S S v w w V V V V V v v h V V S V h h h V V h h h v V V C p p a p p 8 w p w w v v v v v v S v v G o.o.o.G v o.o.v v Q G h q z q.s.y.! U U U ! #.y.0.D S Q S F F F F W G b F F F F F W o.o.h v V h v V C C V C V 8 5 6 w 8 w 8 5 5 6 6 6 6 6 6 6 8 8 6 6 8 8 6 5 6 t t w 6 w w w 8 8 w w 8 w w v w q v b N c N v F V w Z V ",
"! ,.d.i.:.P g g N F m F v F o.v V Z V Q h v 9 h F b h v W a.u.W E E X.c #.y.#.m #.O.X.c } d.X.n +.#.X.W W W G b F F b v w w w v V 5 w o.8.v v Q Q S b F W W W F G 9.f.N U 5.*.*X8XV.4.*.<.#XP.,.3.>.>.,.@.>.d.3.:.d.h.d.3.O.U #.F S F W W m m E N X.+.+.+.! ! ,.O.#.} K.`.#.y.X.y.#.+.+.o.W N F g q g N N c m #.P f.P P d.O.#.$XP.d.,.O.O.O.! N q.+.+.v Q F 9.G $.#.#.+.O.#.,.,.3.,.,.3.@.U 3.3.n c m #.+.N X.a.h.W :.d.3.P.G.5.,XL.XXXX X*X X*X&.*X5.Y %X>XN. X*X*XP.BX).U :.P O.,.i.:.K.:.G.;.N. X*X9X(.XXZ.|.@XVX=.B.@XN.L.&.%XJ.G.P.5. . .;.1.gX=XG.G.G.1.i.y.y.+.o.o.,.y.,.:.,.,.:.O.O.;.:.>.&.).G.J./.].J.J.3.>.@.O.I n M ,.#.! P P P N c P U P W o.N m F m F F b c B N F m N N f.U.o.N N m B O.a.#.O.#.O.O.P P ,.,.T U :.+.#.W X.X.N o.W F b h g h v S S h o.o.v v W +.+.N W +.$.+.X.W O.G.@.;.3.5.J.#X=X>.J.d.K.].K.d.U ,.:.O.,.d.>.@.d.d.K.3.O.#.+.N F W Q Q W b b W +.N ,.d.O.O.g.d.} O.P.P.d.f.d.,.f.O.#.#.+.! N n c m n #.g n a.U d.:.P :.:.,.].].K.,.O.X.O.+.X.X.X.$.F m q a.o.$.s.+.X.a.#.,.h.3.a.d.5.).@. . .n  .#.O.#.N o.f.y.o.i.d.d.#X XN. XB.9X X%X9X XN.L.%X;. .J.9X*X<.9XhXG.zXK.T ! U ! O.P.U :.).G.&.).kX*X|..X(.8XeXL.kX&. X*X XJ.J. XG.N..XN.Y Y Y N.CXhX X*XG.1.5.;.J.O.O.O.O.O.P n f n n M P @.,.d.d.hX,X9XCX%X5.#XG.,. .P O.O.O.n n g U c #.U q X.9 F W b h S v q v v v v v v v h v g v v v v v h w 7 q h D G S h h h h h v v V V V v h h h h v V V h h h h v V V C V V V p 8 w w p p p v v v v v v h q q v F o.D v v G G v v F G v Q q S S 9 ! d.n U O.,.u.0.Q S S b F F b b F b b v m v F o.+.W g 9 v S v w v V V V V 8 5 5 8 8 6 w 8 w 8 8 8 8 6 6 6 6 8 8 6 6 w 6 6 6 8 t t w 6 w w 8 8 8 w w 8 8 p v w v G W N m F v F V w V p ",
"y.y.i.y.O.o.,.y.b W W o.D F 0.Z V G 8.k.8.o.h h v Q 0.b q F +.b n n m g X.y.K.#.#.O.c U X.O.a.O.X.F F m b F F F D v v q v v p q 8.v q v v q v o.o.v v W o.F b F W +.K.O.P >.4.(.B.*.N.N.d.K.a.a.I U O. .P P } O.a.h.3.#.+.U m N F S S D F b b E g m m P ! P P #.O.O.O.{.].O.#.+.a.q.+.o.W b v v b v v v c m b c W a.X.U O.O.,.,.d.J.d.T P O.#.W m q m v G v V F g W +.! X.y.i.#.N n n 3.J.K.).d.d.,.f.h.+.g 9 m s.c P  .>.5.5.<.L >.N.XX%X X). . X4. X9X XXXXX&.qX*X2.&X,.n O.U ! ! P.d.P.P.G.N.(.XXL.L.*.(.>XmXN.>XB.B.L.N.P.-XJ.>.>.5.,.3.G.3.>.,X=X1.5.G.:.,.o.o.W W o.y.y.O.d.y.O.W P W :.d.K.5.<XJ.5.J.).d.:.@.,.3.d.a.,.a.#.+.O.X.o.+.+.+.m N N N X.F m F F X.X.N v m b F F F g W y.m m E c B X.a.a.,.O.U ,.O.O.,.d.,.O.U N X.F +.o.F W v b m h v v S S S q o.o.g g o.$.b N W +.#.X.N O.,.).<.&.<.J.).G.T d.K.d.d.d.a.,.U d.d.O.P O.3.g.K.3.h.#.N X.N v W D S v F q.q.m 9 ! N N U O.} O.,.:.].P.:.d.K.d.i.O.O.O.W F m v c m F X.N N m m ,.#.n O.,.>.d.d.K.h.:.W X.+.+.X.N 9 m X.m X.m v F q.X.O.@.#.#.I I M O.J.g.).$X,.3.d.f.N g f W y.E E P O.G.G.2.<.*.&.N. X XN.B.L.J.qX*XhX*XJ.&. X*X1.9XK.! :.O.,.d.K.O.].).5. XB.(.8XoX|.|.8XrXL.>XL. XL.).%X#X).>.4.4.| &.B.5.5.9XlXJ.5.>.;.1.P O.P E W X.o.o.W E c c g g m +.a.f.$XK.>.).G.O.].K.O.:.d.#.U g N X.N N m b c v F b 5 v V w 8 5 > w v h v V V v h v w w h v v h w q h w w w w h S o.V V V v V V S Z V w q w h V V h V h h h h h V V V V V V V C Z G v V V V V V v v Z V v w v Z v q S V V V V V Z Q 9 5 q o.s.,.P N ! O.O.o.o.D S S S W Q D v q h m b F F b v b S S v Q o.S w w w w p w 8 5 8 8 w 5 8 t a t 8 8 8 5 8 6 5 6 8 6 6 w 6 6 6 w t t w 6 t t t 8 w w w 8 w p p w v G W b F F h v V q V p ",
":.N k N N W X.E g F D W v q F w 5 7 5 C w v w V o.D u.0.v g o.W X.E P c N N f.+.#.X.N `.a.q } +.+.b W N v F b m o.F v v Z G Z w V C V q h D o.D o.b v W o.F m W W U.h.d.#X).4.B.I  .1. .U :.W W I @.3.3.>.@.3.g.a.h.X.U X.N N m N v v S b v b F g m N P O.! O.d.:.O.P :.O.n O.f.N m c m v b v F G F F v v o.o.v W o.X.o.X.,.K.#.d.).J. .P :.d.y.#.b G G o.o.G q.N +.#.! W #.,.#.P U n :.@.,.J.3.n O.d.N W h.a.F a.o.,.N :.).].G.9X*X&.&.<.B.9XJ.N.*. XhXXX X>X*XhX).L J.K.J.f.:.a.O.i.n U d.G.%X&.<.N.hXqX>XN.4.(.*X*XL.1.1.G.%X>. .T I I ;.,. . .J.].5.G.P.,.1.W W W W t.f.H.i.:.:.:.:.O.O.y.f.g.,.`.,.O.O.,.X.#.X.N c c m N W c c m N E N b m X.X.b v F N m F F G X.F S W o.o.q.s.m 9 F m +.y.W N N X.#.#.O.X.O.d.d.O.} d.d.! N W m F W b W F S S W Q Q S S F W F b F o.o.F g X.X.+.+.X.W a.].G.L. X).J.J.5. .3.U N O.:.X.X.y.! ,.#.O.d.P.K.h.+.a.O.N W N v o.b Q W b W W E X.N ! U ! #.O.U U O.d.,.U O.,.#.P N N N b F F D W v W b +.o.q W y.X.m ,.g.d.d.3.K.,.O.W X.#.y.o.N m X.+.X.#.$.$.$.a.X.@.#.,.#.n I d.:.} K.).3.U ,.:.H.,.Y.+.W f.y.#.X.,.P.).#X*X*X2.<.B. X*X XB.2.L.L.*XL.*XhXkXN.2. Xd.,.d.i.,.O.,.n :.O.,.gX2.*.B.@X8X|.M.B.*XqXlX#X;.1.J.d.d.T T | Y *.N.>.>.).).G.G./.5.>.M P N v g v F o.+.+.0.o.+.s.j.q.q.f.iX].:.,.O.j N f n q g g W N F v b q v 5 5 p 7 Z w C C a C a 8 d v v v V V v h v v v w q q q h v h w w w q q h D S S V v h v v V V h w w h V h w V V V v v h h w p 8 p V Z G ` ` V V V V V V V v G G Z v V G G V Z v v Z Z v V 8.S V S m g N #.#.d.i.+.Q D S S S h b D D v g b Q Q W D Q o.Q F v v D G S v v V V w w 8 8 8 V 8 5 5 t a 8 w w 8 > 8 6 5 6 6 6 6 w 8 8 8 w t t w 8 t t w w w 8 8 8 8 p p w v b b v F b q V V w V a ",
"i.W W ,.#.#.o.b F o.o.o.v w Q V G H V Z 5 w w Z o.5 V Z S w Q v N m N N W U [.K.W c W h.,.N +.y.q.b +.X.v F m g G G F v Z G Z v q Z G V D 0.o.h b S b g m W W P ! ].O.@.#X>.L L <.1.>.n ! y.X.W n } O.O.@.O.#.a.,.f.W N W N W m v v b F F b b N #.y.#.O.O.! ! :.U P O.O.O.O.N W y.o.W F Z V v V v 5 w v w F G h S F b $.q.#.h.f.>.5.5.>.O.O.O.#.,.N F q w Z p F q.#.#.#.+.! O.i.N O.P O.g @.K.).d.n U #.y.+.c o.F W #.g X.,.5.5.B.*.Y <.B.L. XB.L.L.Y &.*X X2.L.Y *.;.P.1.,.O.,.#.#.:.U U >.1.G.5.(.(.(...>.N.,X%X).).J.1.G.P.P.5.>.:.:.T :.1.,.).J.].G.5.5.Y U ,.u.t.Q W o.o.P n N ! #.O.W ! O.,.U a.U U N W N N W X.o.+.o.F b W W W o.o.G F F o._ v i S S v b q v v h v S D F q o.W v u.E S g m U O.a.K.h.X.n X.a.a.! P #.y.O.+.+.b b b m o.W F F W Q W S W o.+.b b o.$.F N o.P N W +.O.O.,.K.<.N.B.*.n L 1.J.J.@.O.a.a.X.N $.#.d.f.d.f.a.#.O.X.O.F N W W S W v q.+.v v v X.U.m y.,.! a.K.#.n >.;.>.>.>.,.i.O.#.o.W b v v v h h Z v D Q v W #.F X.a.,.d.K.3.f.#.:.#.O.#.a.#.U o.c g m N X.o.o.#.+.a.#.+.3.O.:.n a.g P @.J.K. .g U ,.Y.W W X.X.#.U O.:.:.1.1.2.*.| Y N.*XL.<.L.Y <.9X XB.N.Z.Y 1.P.G.J.d.:.,.! ! U :.d.>.N.2.qX|.|.M.Z.M.(.ZX%XJ.J.1.K.].K.d.@.I  .>.>.;.&.5.).P.#XG.J.U P O.h.h.u.o.W F F N m X.N c c m N W X.c g f g n m U n m m W c b 9 v q i i S p p Z 5 p 8 8 6 < s d 6 7 p h v V V v v V S v v w w w v v w w h V V h h h v v v h h w w w h h h h h h h v V V V V V V V V w q w v F ` G Z V V S S S S v V w p w q w V C p V v V C C V V Z 7 w u.u.f N i.g f.d.#.W S v v h h h b F b v W 0.o.F F +.q.o.b h v h h V V V V S w p a 8 8 8 8 8 5 t a 8 5 w w 5 w 6 5 6 8 5 8 8 w w w w w w 8 8 8 8 w 8 8 8 8 8 8 w w v v v v b b b q Z G w V p ",
":.E O.y.W E o.W W o.Q W v h o.A 7 a C e.G G V C G 5 G S v w o.q F N W +.+.U }.].K.X.y.U m a.+.m X.q X.o.N o.N m v v v v v V V w o.o.D V S b v q Q u.q.b N f.U.y.:.>.U ).G.5.MX/.,.>.:.U o.+.F o.O.,.:.@.:.O.O.#.#.h.X.N W m W m v v v Z G F F N O.o.! ! :.:.:.H.,.@.1.n P d.#.+.q.o.F V V w w p A q v G v w S v F D v o.u.b W f.,.1.G.].P.:.O.#.N m o.F Z w.V v m c X.K.h.W N #.,.d.O.,.U d.d.O.:.n O.a.a.+.c o.o.X.a.W d.@.,.#XB.&. XqX>X X*.N.(. X(.(. XL.2.4.<.2.2.J.K.].#.O.O.a.! ,.,.,.K.3.*.XXXX(.4. XB.&.gX,X XP.>.;.G. .T L O.,.,.1.P.$X$X,.5.,.>.>.I U O.u.u.,.,.f.K.f.,.,.,.#.! ! O.d.,.U #.W #.+.X.X.$.o.F N F X.o.o.o.W F D W D G o.F G v V o.o.v v 8.8.o.D D D S v W Q v m s.m m +.+.+.X.O.d.h.a.#.d.O.X.,.,.X.P X.X.+.W o.W m b f W F S m h v o.j.W F W o.m g X.U.! W +.f.K.a.,.1.N.N.(.*X%X).d.>.O.X.+.X.+.#.o.+.y.,.#.#.,.#.y.'.X.P N F o.o.D b b o.F b $.q.W W a.#.P ! d.a.O.1.1.I @.J.,.:.i.y.N N b v V S Z Z S G v w v v v F N q.y.m O.h.#.,.K.`.K.:.O.+.O.N o.m X.a.N q m X.X.#.h.X.N #.#.:.X.d.g P.).,.>.n ,.y.f.X.5 y.+.o.+.X.i.d.d.P.L.B.N.CXCXL.M.<.B.qX>XN.(.B.N.2.V.5.2.J.P.P.:.P i.d.#.d.U d.G.G.2.L.XX(.<.>XB.<.CX=X,X$X,.@.O.O.O.n  .;.5.N.J.).#XJ.5.K. .d. .U O.O.X.X.X.#.y.i.,.#.N +.O.m O.Y.U.+.i.a.u.+.O.$.X.b m g N g o.F o.v b F Z b Z p p V 8 A A a p 6 8 A v h h v V v v S v v V V V v h w D h 7 q h V S S h h v V V v h w 5 w h h w w V G V C C S S S V V V p i V ` ` F b V V S S S S S v V Z Z w w V V w w V C V V V V w w h v +.s.N m K.! ! W b v v V S W S S F S v b W S b F D g 5 g o.Z h q h v q 5 w w V C 8 5 5 8 8 8 a a 6 5 w w w w 6 5 6 6 5 8 8 t 8 w 8 8 8 8 8 8 w w 8 8 6 6 6 w 7 w V V v v G b v w G ` 8 p w ",
"f.o.X.N b F m Q W Q S v m S S o.V a C C V a V A Z v Q S v D G o.#.N N O.W n U +.U a.+.U f.U.+.X.X.X.N m v F b v v o.q v Z b F 5 q h o.W b S q h o.o.E o.o.X.d.f.,. .;.).gXP.1.#X1.J.d.W W a.q.m X.O.O.h.,.y.#.h.W W N F F F N v F F S v F 9.+.F m o.U #.i.O.:.,.! O.O.,.d.K.y.W o.S v V V w 8 a 7 w p w w v v v G q o.D F b q.m O.>.5.J.K.,.#.d.U N m v v Z G G m #.#.! +.y.+.O.O.,.i.,.O.n U d.,.d.,.a.X.#.o.$.b $.o.N W U U ,.L. XL.N.%XXX4. X X X9X*.&.%X<.&.<.*XL.I :.K.,.! a.K.i.K.d.U :. .5.(.B.J.G.5.J.G.5.].G.d.:.U 1.:.n :.U K.&Xi.:.:.,.1.3.,.,.,.>.@.:.d.K.K.K.g.K.`.g.a.X.X.,.#.f.fXa.a.q.$.+.o.X.X.W N F G F ` 9.8.D Q D 0.D o.D G F G V v Z o.G i S G G V S Q Q h o.b o.E W 0.W #.c N X.X.X.+.+.X.+.X.f.f.#.X.N #.F W W F b S F W W W F F S b v v W W W F m c P #.X.O.#.i.f.f.,.O.<.%XhXB.L.<Xd.3.K.@.+.a.y.o.o.o.i.Y.,.X.y.h.f.v X.W F W W o.o.W o.g N #.q.W m y.+.,.f.! d.,.O.:.O.d.P.J.1.:.O.P N N b v v v p w V V v v v v N G F X.m ] #.N M /.K.K.).:.:.d.U #.N m m W o.o.X.o.o.#.i.y.#.+.,.d.:.d.U P O.K.].@.d.i.O.! +.o.W X.X.N N U U ,.].=XG.N.XX*XN.L.9X X).5.>.%XL.N.<. XN.T :.G.,.:.f.K.d.f.:.U ;.5.G.L.).L.|.N.B.).5.).>.d.,.O.#.U N :. .#X].>.1.G.>.@.d.,.,.:.O.O.,.K.d.P.P.d.K.].K.O.U U ,.>.K.sX].h.f.y.o.X.o.o.W v v o.v v Z V V v G S v S F G F V Z V V V V p p p V v w w h h v v S V V S V h h V v q 7 w h w w h h h w q q h v V w w q h V S V w h G G S S Q Q A b b p b S F F F v v F W o.o.W Z w p C C V v V V w 5 w w C A p C w w Q W v $.h.X.o.W S v v F D F W F S D Q Q D S Q o.Q v v D S h v v h w q q w w 5 w a w 6 8 a a 8 8 8 8 8 8 8 8 5 w 8 8 8 8 8 5 t t w w w w w 8 8 t t 8 w 8 8 w a 8 8 w w w v G V F Z V p 8 8 8 ",
"m c W F b W Q s.b q h q.s.S q G V a a C V V V Z w 5 V v D o.v g W h.N 5 O.,.m N X.d.+.U y.a.#.a.N X.o.X.F F v g v F G v v F o.q.D D Q v h W b v g v c +.i.X.+.O.>.;.>.G.G.P.#X5.@.:.#.X.W o.o.W U P n ,.a.U.a.i.m m N N m c c v S F G o.G F W o.W ,.W :.d.U ! i.O.d.Y.f.#.! X.o.o.Z v v w w a C V C V V V Z V w o.q o.9.q.v o.W >.5.@.U 3./.,.n W X.X.N v m F G W $.X.N W +.#.#.P d.K.,.:.:.O.! ,.,.} O.W y.o.$.o.9.+.X.$.y.a.d.>.N.G.<.L.L.2.).).L.).T T ).L.P.*.<.G.J.d.,.,.i.N #.O.d.G.d.J.,.*.5.5.J.J.>.1.:.T :.T i.d.! T n O.Y.d.:.,.O.d.d.L O.,.,.:.>.O. .d.J.J.g.3.@.:.,.,.#.@.@.O.U N #.$.+.X.F N F W W o.F Z F v v Z V Q D q D G q.D v v o.q.G p v Z Z V S V h h S v g F F y.X.S W E a.X.X.+.O.X.O.,.d.X.N +.#.a.a.N F q.o.F S S b m m m b F W W Q W W F N N W X.F N m X.O.,.,.,.,.,.3.G.N.G.L.#XG. .d.#.O.X.X.o.W F N N i.f.Y.j.+.o.v W F S F F G F F N o.$.c m a.+.m +.+.d.P #.#.#.i.].d.O.U O.#.O.P v v v v V V V Z V V Z F S v v F X.h.a.m m } } O.P >.].K.d.d.N N +.X.N N N F X.#.a.N m +.y.+.O.i.a.a.O.,.O.U ,.d.I O.X.O.#.$.o.q.+.#.u.d.d.:.O. .N.<.J.L.<.J.,X X%X<.I J.J.J.>.N. X5.>.3.,.O.! N i.Y.].g.1.>.;.5.J.B.).N.G.5. .>.K.d.O.O.:.N N d.K.K.5.1.1.>.@.,.d.,.@.,.:.#.:.a.,.3.,.O.:.d.d.:.U U ,.U  .d.1.d.O.W b v v v v F q G v v V w p q v v v v v v v v 9 5 5 q q 7 7 w w h w h h v v h h h h V V v V S V w w V S V V S 7 h V D D V w 7 h h w h V V h w w C S h h S S v V p i i i w q 9 F v g g g v v v V V V p w w w w C p C w 7 p C w.Z w v v q o.f.W E E b v v F Z Z W v q v Q o.D q Q D S S S S v v v v w w w w w w w w 8 8 8 8 t 8 8 w w 8 8 8 5 8 5 8 w 8 8 w 8 8 A V t w 8 6 5 5 t t t t w 8 8 w 8 8 p a v v v F v V V V a 8 8 8 ",
"W v b b W o.S D D W S S Q S w w h w w V V v w h S D Q q q b S q.#.#.O.O.d.K.h.a.U #.W m W N m #.m X.+.X.F v v g F 9 S 9 w o.v Z S v b 9 g o.E b m o.! +.d.d.f.O.3.1.,.3.Y ,.$XP ,.O.#.a.q.X.o.u.X.O.N +.+.f.o.N m N W F b v m m v v F o.W v b o.m ,.N P O.n n O.:.,.#.+.X.W W S D V v v h w w p V V v v Z G S q v F o.F W o.q.+.O.O.O.@.,.} X.a.U W N c i c m m W +.o.o.y.+.! O.N ,.d.:.:.,.O.n :.:.O.d.i.s.F m F m v N F +.#.U >.G.J.>.>.@.L >.L.#X#X>.I  .1.J.N.<.G.>.n O.Y.i.`.d.:.P.].,.1.1.>.5.>.,.,.@.,.:.K.d.,.].].,.:.O.,.].P.d.,.:.:.O.d.K.d.,.O.@.,.3.>.,.,.@.} I } O.} } X.X.X.+.a.h.F N N m b b b F F v V F v V Z v b F v W b Q F D v G G v v v v w D D S V v v S S b q m m E +.X.,.N X.i.h.f.+.X.+.X.F X.X.+.a.X.F y.W h m D D S S b F W W W W N N b m N X.O.! N N a.i.i.d.d.:.:.d.G.>.T P.%X>.O.d.O.d.a.+.y.q.X.+.X.O.#.f.y.m F o.W F b b b N F F $.W X.W N X.W #.+.P d.! X.O.,.,.:.O.O.O.X.! W W g v v v v v Z G v v Z G F v v m W W X.+.,.,.O.} } O.d.>.O.@.O.d.X.N m n c c c m q.+.+.y.#.X.O.a.,.,.O.d.O.j T ,.:.h.h.d.q.F m N v F W o.d.a.,.K.d.>.;. .L >./.J.).5.I 1.5.J.1.5.>.>. .@.d./.Y.`.X.d.P.P.J.:.@.5.5.5.5.>.>.,. .3.@.K.J. .T ,.P.&XK.,.,.3.>.O.3.K.d.O.I O.#.+.+.#.O.O.T U P P P U n j U O.1.d.T n m N G G F v v v q Z w w V p V v g v v v c g v v b v v v S v v F h h h h V v h w w w w h h h V S V v V Z G S S S D S h w w h S S V V V V v h h h w h V w 7 h h w Z F F Z G ` o.G 0.o.W D W W Q Q o.G V b V F C V w 7 V v w w w G ` v F b v +.f.E m m b v b G G Z v S G Q Q Q D D Q v h S D h h S Z V h v V V V w V V 8 8 8 8 8 8 w w w 8 7 7 7 7 8 8 p w 8 8 a a a t w w 8 8 8 8 t t t t w w w 8 8 8 a C V p v v v V V V a p d t ",
"+.b b v F W g q o.0.S 5 7 h h h v w w V V v h w q D q.F b b q N m g U #.N N X.N +.#.+.+.#.W m +.W X.W N v v b F o.F o.D G o.w w v g b v S o.b b E d.O.g N i.K.! @.@.P >.U O.$X:.,.O.X.#.#.X.X.y.X.d.y.#.m ! m v W W W F N b N N W b b W +.o.W W W `.,.P i.y.:.#.o.m g v W +.F q v h v v V v w q w w w w v F D v q G o.F +.+.o.N d.N g X.d.X.N #.h.a.O.} O.,.,.+.9 q g m X.N n P #.! #.i.:.O.! O.n P I d.f.z.+.o._ m F _ F X.$.m P >.G.3.J.K.d.].T ,.1.3.,. .,.>.&.<.L.J.3.K.H.P d.#.U O.:.,.3.d.@.>.O.:.,.:.d.,.,.O.U ! n g U ,.U U O.K.].K.d.d.K.d.:.U n P O.:.>.,.,.,.@.@.#.,.X.N X.N c N +.W m N N F F F b v V v F F V Z G S v W S Q v F F o.v v v i V F S q v v V V v h v F q.W N N U U N X.i.#.X.+.X.N X.a.X.X.#.F N $.X.o.o.m g S Q W W W o.o.o.W W N m c m F o.o.P N O.d.#.! U :.d.:.O.O.>.,.U d.K.,.d.,.N d.,.+.d.y.X.a.d.O.n ! X.m W +.W F F F N F G X.a.m X.a.+.c N iXX.m d.#.O.X.#.O.N N ! #.#.N m N m v v v v v v v v h m F F b m m F N X.y.#.O.#.,.U  .,.:.O.O.,.d.+.O.#.a.a.#.F m 9 W #.W m W X.P #.i.O.O.O.U  .M O.d.h.a.y.X.F G F o.b v +.X.! h.3.3.K.).d.5.d.@.,.3.@.3. .3.,.J.G.XXJ.>.3.#.U X.O.X.X.,.K.d.>.,.,.3.3.>.3.3.:.d.T d.:.n n >.,.U d.J.].].3.d.]./.d.O.N U O.+.#.,.,.:.:.,.:.U P U K.U n P O.,.O.O.g v v v q q q q F 8.v v V p Z Z S b b b b v m b b v h v v q q v V V v v v h h w h h h h h w h v V V V V S V V v w h V V V V v h V S S V h h h V w v h w 7 w V h w w v v F G o.o.v b F D W W S b D V i w v V V V V w V V Z G v b v v o.o.o.y.y.F m b b b F G G Z v Q 0.0.Q Q Q Q D S v S S h h S V V V V V V V v V V 8 8 8 w 8 w w 8 8 8 7 7 7 7 7 w p 8 w w p V t w 8 8 w t t w t t t t 8 w 8 t 8 t a V V w w w v v V V p d d a ",
"q v X.v g v V 0.S v h S D q q o.V w v Z Q Q D F W W o.W q.f.E g a.jX}.X.,.,.N U #.O.X.#.#.W E o.X.W N m v b W o.q o.9.q.G w Z G W v Q o.o.F g E W y.X.N N O.d.O.:.K.O.O.O.O.d.+.a.#.X.O.,.a.a.a.W a.y.+.q N N N o.F v v v S v v +.+.o.W o.q.+.Q o.a.m c o.! P N F W o.Q S h h v w w w w h v h w w v g q v F Q o.X.v b `.[.X.9 m #.y.X.m X.+.N B a.#.X.M M O.@.O.+.W m E +.+.y.T.a.,.f.K.,.O.:.:.:.O.N O.N X.W o.` S o.o.F X.+.m U O.,.O.!  .j f O. .n O.d.,.:.I J.N.2.1.G.,.d.sXN #.#.g n G.P.5.I O.:.K.P.d.i.! O.O.O.P U ,.J.$X&Xd.3.3.:.U n n U ! ! ! O.#.O.! :.,.,.,.@.O.X.X.N N +.o.m N F q F W W W F N b b G F G o.Z D G V W E g F F +.F F v F G F F F F G V V D Q Q F F X.X.+.#.,.} M ,.{.d.#.W X.X.N W #.X.o.q._ N X.F _ Q S S W Q Q F W +.+.o.X.X.X.X.X.W X.+.X.N N #.f.! P U :.d.d.J.P.O.,.O.3.3.O.d.O.U ,.:.a.`.a.O.`.#.O.n U X.W W b F F F F F _ X.o.$.X.#.X.W X.,.`.X.c u.#.O.E O.P f.! c m E N c g b v g g b b v g b c c F o.X.X.W o.`.}.+.9 n ,.,.@. . .>.O.O.d.d.U n n X.,.,.X.m F +.+.X.y.Y.Y.i.K.K.O.:.,.:.,.I n O.O.X.o.X.G _ G q.o.F +.m q U @.@.,.@.P n I } U ,.>.,.P @.,.J.Y 5.g.d.`./.#.X.,.X.P #.H.d.:.O.@.f.h.K.h.:.U P U 9 f 5.<X,X%X).:.O.,.,.P N U n ! n c N W N F X.X.! O.#.+.N N O.#.W m N m g c m u.+.W N F W o.9.9.w.G F G p V V S S v m S S S v o.Q G Q D V V Z S V h h h V V V h V V h w w h h h h h h h h V V V V V V V v h h h V V v w w h V h h h w w h V V v v v v v m v c b F o.+.+.o.W F G G F F D G G G o.v v q v F v F q b o.$.Q o.Q m g m b b N F F S o.S v S 8.8.S q S D S h h v v h q h V v w q w h w p a 8 8 8 8 a w w w 8 8 7 7 8 7 8 p p 8 w 8 p V a t w w 8 6 5 t t a t 8 8 8 t 8 t t 8 w w w w i v V v p 8 t d ",
"v v o.v v F Z o.v D D D S v v o.w q h S Q W Q o.q.W +.W W f.a.X.].&Xd.X.#.3.O.O.X.m c N W E W ! v c c m b b F W F o.v o.G q o.G D v Q Q W F m y.W W W d.d.! :.i.d.&X].X.O.a.X.N ,.#.X.O.a.K.h.a.+.y.X.W c o.F m o.F h g v F F v W y.u.o.b E o.o.U.y.m #.a.E P W h G q.8.S 9 h D v h q 9 q v S Z v v v q q v G X.+.N N j.f.,.W #.N q.a.+.X.X.X.#.a.g.g.,.}  .,.g.i.+.E S W m n W #.d.[.U.O.,.d.T G.d.O.#.m m g F b v F F v F W N P U ,.:.i.K.,.O.d.,.:.O.U P O.,.L J.).J.K.:.U K.#.O.i.:.:.,.;.d.O.:.#.d.f.y.:.N g j P P ,.].J.d.>.>.g.>. .d.d.d.O.O.! O.,.f.d.y.O.O.:.#.O.! N N B N o.+.o.q.s.y.o.W F m m m F F S v F W Z G o.D F E m W b o.b F X.F b F G _ F m v D Q o.o.o.X.X.N X.U #.@.X.h.1X#.O.#.d.f.#.N m X.F o.X.o.$.v q v S S Q Q o.o.o.o.o.X.W W X.X.X.#.X.W ! O.O.O.O.#.i.d.d.:.,.P.&Xh.#.#.h.a.X.#.#.@.,.,.K.].a.#.`.I @.} } N m X.F b N F F F _ X.X.#.o.X.m W s.y.#.+.m +.P ! m E W y.X.b m v v c v v v g v F F b v N B c N o.+.X.X.#.d.f.,.O.+.#.:.d.@. .,. .O.`.K.d.O.N X.a.h.h.h.o.N m E W W O.a.$XK.O.,.,.U ,.d.O.,.O.N F F v v v G F G $.X.P #.h.f.3.O.I I ,.K.O.@.I O.I ,.#.,.).(.3.>.d.g.O.n O.#.#.,.d.1.:.,.X.s.a.a.y.P n n U P ,.P.P.N.>.T &X,.>.d.g.,.O.O.O.+.a.K.z.a.y.a.o.F F F m g v F o.$.q.T.'.u.q.W v v v v b b v v V o.Z o.8.V V v G S h z S S V h V w w v v w w w V h w w h V S S w h V h h h v h w h h w w v S S 8.Q V w q w V S w h h h w w w h w h h h h h V V Z F b v b v v v o.+.+.+.+.+.+.+.o.o.o.o.o.o.o.o.v v o.F v g 9 F b o.$.o.D S S S g v b m v b b v G S S S Q Q v q v G D h h S S h q v S V w q w V w w a a 8 8 8 C 8 w w w 8 8 8 w w 8 w p p 8 w 8 a t w w w w 8 6 t t t t 8 8 8 t 8 t 8 8 7 q w w w v V a a 8 t t ",
"q.` G v D 0.Z V S q.0.h h G Q G v h v S F S F W 9 9 #.+.n O.#.g h.M U a.#.O.a.y.+.W W X.O.+.o.W q q v N b m N o.l.o.v F 8.8.o.D v b o.b b o.W y.P m m ,.y.W O.#.:.@.K.O.O.K.,.y.U N N X.:.,.#.O.#.+.N W N #.m g Q F v v D G G D S ~ 0.~ m m E o.+.N c X.N c W v V V S A S v h V h v h q v F W W S F b m b F F N N W W X.g a.K.y.a._ q F f.h.+.O.@.3.3.>. . .>.,.a.s.y.+.y.Q m m ! o.K.d.U :.H.O.@.@.O.a.+.o.F o.v ` ` F o.o.X.o.y.#.d.#.#.d.+.N X.O.K.O.n ! O.].&.).). .L  .#.O.! f ! ,.,.T L d.,.,.! o.+.o.+.m m g O.:.K.$Xg.g.5.3.{.J.>.K.d.:.:.O.U P E O.:.:.#.:.,.,.:.+.+.+.S Q Q S Z D G o.W W N m m b b F v g b D F G o.o.m O.X.+.m m m X.+.N g m X.o.N g q v v v v F b c a.+.n @.#.N X.} a.y.#.O.X.W X.X.o.F o.o.o.X.i v h S S S Q q.u.0.F F W W W F N N #.X.P X.#.#.O.X.O.:.,.O. .>.,.,.].X.#.f.i.#.O.#.#.#.,.a.,.O.} O.} @. .X.m c X.o.b F F _ F _ _ X.#.N X.N X.#.X.+.+.N o.N #.! P X.v G o.W v g v b v m N F W W W W N m N } X.} N U X.N n i.}.d.! i.U U >.].d.:.K.O.d.O.U O.#.y.a.a.q.o.+.y.X.g P d.f.a.O.,.,.O.d.d.O.:.X.m F X.X.o.` G F G W W X.#.N @.a.h.h.+.U X.a.#.N X.U 3.#.,./.>.Y M n I X.I W #.,.#.:.,.,.d.X.a.o.X.X.c U U g d.sX&XJ. X*XN.).d.#.a.h.,.O.#.n n W #.#.W m b q.8.` A C V S Z G Z 5 p G G 8.Z q m G o.W F v q 9 v w G 8.V Z S D D C x C C V z C V C A A C C C h h w w h V V V q h v w w v V v w v V h w h V v h V G Q Q S w 9 w h h v h w w w h h v v h h h v q q q q c c c g g g g g q q g v F b v b F F b v b F u.u.+.W g v G o.o.G F S b F g m S b v S Z F V Q 8.Q S v S S V S S V h h v v v S S V v v V A w w w a a 8 w t 7 7 w w 8 8 w w V w 8 8 p p w 8 8 8 8 8 w t t t w t t 8 8 w 8 t 8 t t 8 7 w v w i v v p 8 8 8 8 ",
"F F o.G W q.+.q.b S S W o.D S o.Q W W W F b F X.+.f o.W f ,.K.P c 3.,.X.,.X.c W N N o.+.Q W F q g v E W F m W u.+.q v q v o.v G F 0.f.F m #.X.P y.f.O.P ! i.K.:.].c K.g.U #.N +.#.O.#.f.H.i.O.O.m W b o.W +.F F S F F D D D Z D W S S o.+.Q W +.v X.+.W g o.z.m G Z S A Z v h v 9 h S S W o.Q F o.W W W o.#.+.F g c W a.g ! +.P G q.o.q v #.X.c d.3.,.3.J./.J.,.X.o.S m W +.O.#.O.g O.i.U O.K.K.K.d.O.,.N N c F v o.F m X.W N W O.! y.#.#.K.h.d.H.#.Y.#.O.i.g P d.&.1.d.:.:.:.n ! ,.K.P n d.O.P O.+.F +.y.o.o.k W n ,.d.K.).J.,X&X>.d.J.d.d.O.O.P ! ! W ! o.o.W o.Q W W S S S S q D Q o.0.G w V b N W X.W F b v F b F W S F G F Q O.N #.W #.N N N F W X.W F W o.D o.Q b F o.X.m N W n ,.,.N @.#.X.+.,.o.W W F b +.X.q.o.N m v $.D Q Q S D q.y.Q v b F X.o.o.W W +.X.O.O.+.O.,.d.O.O.>.:.J.{.J.} K.N #.#.O.a.#.X.d.d.K.d.O.@.O.N  .X.U #.+.N W F F W o.X.X._ _ X.m X.a.X.N +.X.#.X.W +.E f.+.m o.Q o.Z v v S v 9 v F o.+.o.W X.+.X.X.#.#.O.N N U N a.+.N O.W P d.U N U a.P n K.3.g.d.K./.K.a.O.X.N N W O.#.+.X.W P ,.O.O.d.].].@.O.,.+.m m N F F X.F o.o.X.W X.X.a.a.3.a.d.3.#.f.K.d.X.#.U #.#.d.1.>.5.5.} } ,.,.#.y.X.N ! #.:.#.F r.o.q.$.B N m ,.3.].%X X*X*XN.O.].Y.,.,.O.N F X.F W o.+.W F G p a V V V V V p p ` C Z v 5 Z V G o.W v q q v F v D w V Z w V C z z z z w w w w w w w V V w w w v h h w h w w 7 w h V w w w v h h V S v w w w 7 w h v V V S V v V V V S V V h h v V V V V h h h v v v h v v h g v b F F F D Q o.o.F b F o.9.+.W F h b v b b 9 9 v G F v F S h v h b F F N F _ _ D D Z D D D S V V h v S S w h D V S V v v v V Z V w w V V w w w 7 q w w w 8 w p G p 7 w a p p p a t 8 8 8 w 8 8 w 8 8 8 8 8 8 8 8 8 a 8 w p v w p v V p 8 8 8 8 ",
"a.#.X.+.,.a.a.a.X.y.a.+.X.#.#.O.E W #.W f.h.f.N +.Y.#.c #.W y.N @.,.,.O.W ! W X.F v g S S S Q q.W W 0.o.h b +.Q b o.m g v F +.b n E O.:.d.H.f.:.f.,.! ,.P.d.d. .@.J.>.U :.I n d.f.d.i.f.U.f.E m 9 b Q Q D F b h h G S S q.o.v Q Z G o.o.9.q.o.v b o.+.D S v S 8.V Z Z v w w v h q h h v b W W F +.m +.+.+.+.m y.m P N P +.O.E W D ` G V q v F X.].K.{.sX,X>.B.d.y.s.c N P :.@.,.:.M P d.y.W o.f.f.O.:.X.#.h.#.a.X.N F q g F m m y.+.! ! O.O.,.].1.U ,.f.! P o.N J.>.,.d.:.U X.@.,.f.y.#.y.X.U q.X.o.o.o.D S F E m W O.y.W.I.I.H.H.d.,.:.:.,.,.O.O.#.O.N n E X.o.W G D D S v V D F 0.0.8.8.V w D v F b v D F v v m v v F G G G o.W W X.+.o.W +.u.+.E W #.O.W ! W b 9.q.$.q.W W h.N X.q.c o.X.X.q.+.o.X.X.o.X.N m b c N F o.y.X.W o.+.v b u.W m 0.F S b E o.S n ! o.f.K.d.d.d.,.1.>.d.3.&X,.@.J.g.O.d.,.P U d.P.d.d.K.Y.f.O.c n W N o.X.F F b v F v F +.+.F X.o.N ,.O.3.d.O.W +.+.y.W m b Q o.o.o.V Z V w p p w v S S D o.o.Q o.#.:.,.@.} O.d.n X.! m $.$.W W W +.o.9 F m U @.K.].].,X,X5.g.5.3.@.X.N F j.+.+.E X.! d.i.c :.3.d.3.#.O.:.g.d.O.N W q W N c F X.F X.O.O.@.,.d.J.3.U 1.d.O.O.#.#.y.X.d.d.,.O.X.O.,.d.y.y.+.! W W X.X.o.Z ` S b F B O.:.3.J.K.L.P.L.G.d.#.+.y.y.X.N F o.N v v Z Z V v p V p w V V Z 8.` 9.` w w i v Z q w v V V w q q w V o.C 5 C 8.w Q h h V h S G h w v V V w w w w w w v p w w w p v w w w w p V Z V Z q V v 5 V h Z h w V S v w h q q q v F D Z S V v V V V h h V v S D S S S S v S S D S S S D Q W F b b F W F S o.V v Z S Z Z v v F v i m v q v v F X.F v m F o.F G G F v V Z G w q w w v z w w q h V h q S o.D V w w V v w w V w q q w v v w w V w w 8 t w 8 8 8 8 8 w w 8 6 5 8 8 w w w w w w a p 8 p V V V w w w p w w 8 w 7 ",
"O.X.U U } X.U P a.#.N n O.d.a.U i.n N +.f.N W #.P X.X.+.h.W +.a.f.:.P N ! ,.#.o.D m v D S V S 8.D m Q 0.v q b S b W m m b N X.m m n W y.y.! W O.O.d.K.:.O.,.3.>.U 5.J.5.} n  .K.#.,.o.W +.+.W W v Q o.D v v S D D S D Q D Z Z v v S F G o.$.G v v G F v D G S V V V V w w i v v 9 q v v F o.o.X.X.! N O.a.#.O.#.+.+.P ! y.+.! W z.` V o.9.o.W #.,.,.K.$X%X6.J.>.O.+.n U n U M } L ,.d.O.E W o.W O.O.d.P.}.].#.U m W a.#.X.+.+.s.W o.y.a.d.d.:.O.K.1.K.].d.+.o.N #.O.1.d.:.O.O.X.O.,.X.X.#.X.m N F G F Z v v F E W ~ :.i.i.W.W.i.H.d.i.,.:.,.:.O.m W E m c m N N W Z Z Z S b v Z v V Z Z Z v v G G o.G S F v q v F F F G F S F o.F E E W N m m W X.m W +.W N W ! X.q.+.+.#.W N q.W X.f.X.q.#.#.s.X.o.+.+.X.X.X.W o.N F N X.q.X.o.y.s.X.m W W E o.E E m E Q m m ! W ,.i.,.:.! @.d.J.].} @.d.3.I >.J.d.:.T O.,.,.:.,.,.i.,.W N P +.+.o.F b W W F W G G o.X.b G o.N X.} @.#.U n N W m F o.o.D v S G p Z p p V p w v V v F o.o.Q W O.O.,.3.:.} ,.N #.+.X.a.+.W #.$.o.Z V s.o.O.,.J.5.).XX(.J.#X3.5.@.q G F F v y.y.+.+.+.#.O.h.O.I } d.`.$X/.,.O.X.O.#.#.X.W #.#.$.f.W O.,.,.,.,.J.%XP.#Xd.:.! P #.O.i.:.:.:.#.O.#.a.W O.+.X.W F W o.F p Z p b _ N +.#.3.d.5.5.G.B.5.d.#.+.q.$.F b F v i w p V v v V p b p 7 i p q p i Z S i b v v V G C w q q w V A w w V C w V G v D v h h h v v q h v V V h h h h w w p p w w w p q w p p v v p p v V h v v w V v S D V q q Z D v G N v v v D G Q Q Z V V v v S Q V S S h h h h h v S S v h h h v h v v b b S D Q v h V D V v v q q m c q v i 9 q F X.o.X.F N F _ F F S b p i p b w w w p C C C a w h S V h Z o.Q v v v V v h h v v h w w v V V w C V t a a 8 8 8 8 8 8 8 8 8 8 7 w w w w w w p p w w w p V C V V V V p w w V w 5 ",
"O.:.a.,.O.@.O.} U ,.a.O.U U P n +.X.#.N +.! +.! m n #.#.a.m c #.c X.a.a.+.W N F W S S D S S S Q 8.D 0.l.+.b S W v S g b N m F m g :.i.O.W :.,.! #.d.$X,.P ,.:.J. .M  .,.>.,.h.a.f.Y.a.W E F b b W Q D v v b F F W g D o.v S o.v v v N F X.o.G v h G D v D G V w p v p w q w v v q v v v b G o.o.c ,.P #.f.O.,.#.m O.,.#.! N E s.o.b Z o.X.q g X.d.].&XJ.J.L.%XY ,.O.n O.3.d.O.,.d.`.,.g O.U.y.m n O.@.d.d.@.+.W W X.a.#.N m c X.W X.y.,.! :.,.U d.d.K.].K.y.W m X.O.,.,.O.,.a.O.O.y.#.$.f.h.y.o.S V v v v F W o.i.i.i.f.H.H.W.i.:.,.+.O.! W W m m N F N F N F N G Z V Z Z V v v v w V Z v v Z G v G F v F v v D F F D D v v V W +.+.+.+.o.W W W o.N W #.E m E W X.X.N N X.F c N #.F a.W W b X.+.X.o.+.o.W F W X.+.N W N W +.W X.q.s.q.N m F W N W E m E W E m O.i.,.,.,.:.U T d.&X3.} >.>.).,.>.,.>.,.G.K.d.K.}.,.#.X.W P N W X.X.W m N X.F m X.+.W W N m F X.N U O.O.X.X.N m W v F o.o.S w h V p p 8 p Z p w S v v S W o.W W W U O.d.J.U #.W #.W X.a.X.b #.o.F Q F u.c g M 5.J.).).B.J.XX..>.O.c o.#.j.#.#.y.iX#.U N N ,.N U #.U ,.,.O.O.a.,.N ,.O.N W +.F m o.h.:.O.O.@.@.,.J.K.#XG.1.! P +.#.i.O.#.d.a.O.+.a.#.a.j.f.#.W F W S 7 p p F o.X.#.a.d.d.d.3.d.G.d.#.W F W F v q h v v v V p 8 p V 7 p p p V p w p p Z V V G G Z Z V V v v v V v w w 5 w V v V V v S D S V S V h v h v v V z z z h w w p w w w w w w w p p p p w w h h V q q V v v q S D S Z Q D v o._ b v v q 9 9 h h V G G S V S S S V h h h v h h v S S v v S D S F W W S S D Q v v D Q v w v v v F F F _ F v F F G X._ G F G G ` F Z V V V v p p w w p V C C V v v Z D v S Q G v v v S v h h v S v w w p V V V Z V a V a 8 8 8 a w 8 8 8 8 w w w w w w w p p p w w w w V C C V A C w w V Z V 7 ",
"M O.a.#.O.@.#.O.N X.O.@.d.P.d.O.m #.d.m X.y.a.c X.#.[.X.+.#.W ! #.#.X.X.X.X.F v Q F S D S S S Q W m W 0.o.F b S b S v E W m W E g O.:.n k O.y.! ,.P d.O.U @.M d.].>.P  .3.d.O.f U ,.o.m b S b b o.S h v W o.W v W b W W v F o.b F N N F o.o.Q F w 8.8.V v V t w w w w q q w v v v b S v v b F W N i.P W h.f.,.! #.P f n y.u.! m g S o.F m q O.d.:.,.G.B.J.*.B...d.O.M U ,.,.P O.E f.y.P O.E m y.d.h.O.#.,.O.h.d.W c N F +.y.$.s.+.F #.#.n U d.,.,.d.,.a.f.y.W W O.U O.O.U #.d.a.h.U.f.$.+.+.m 5 v v w v F o.+.q.y.+.#.:.:.:.~ ! W W E m m m m v b F D G D G G F F v v V Z V v v Z v Z G w v G Z q v v v S v F o.F F D D v v S o.o.X.X.o.+.o.X.W a.o.+.y.+.W o.o.+.o.X.X.+.+.X.X.U.W q.X.F N +.q.+.+.+.X.W N F W W m W F X.+.N N o.X.u.+.N X.W N E W E W +.! E O.i.#.U ! ,.:.@.:.J.P @.,.M d.@.U n T d.K.,.P U i.#.O.W P W W W W b F W o.o.b v o.$.W F F N W X.N U #.+.X.+.X.N o.o.F b v S v h v p 8 7 p Z i i ` F N F W W W W X.I O.K.{.O.O.X.X.m N #.W m X.F m q.v W c O.>.5.5.J.).>XN.B.<.<.3.I X.X.f.#.N m T.y.#.#.N O.O.d.h.,.d.d.#.,.d.X.9 +.O.o.#.#.X.N F ,.X.N U ,.3.5.3.>.G.d.d.,.! +.! #.O.#.i.i.,.#.a.,.y.a.y.X.v g q b p p Z o.q.9.#.+.$.+.X.! O.O.X.N c g v v q q w V V V a p 8 w p 7 p p w V V i p i i 5 5 w h q w w h v V G G V q w w w w w v V v v o.G Z o.G V Q h h h h z z z w w p p w w w w w V p w w w w p v w q D q w 0.D G G h q V V v S 9.F F G o.9.o.G v 5 9 v G G S V V Q Q Q S V S v h S S D D S S D D Q o.o.o.W W W Q G S G G w w Z G v N m v F v v v b b F F G G G F G Z V V V S V v p w q w v V a w S v Z G v v S V v V V V v h h v V v h w w v V v C V t a a 8 8 8 a w w 8 8 8 w w 8 8 8 w w w p p w w w w p V V V C a 8 w V Z C p ",
"M O.:.O.O.O.#.#.K.h.,.U P O.U n y.N W o.f.W W o.X.X.f.g c #.+.W a.y.+.W W X.W b W F S V v V G o.S S m S W Q S h E W b o.o.W #.#.+.N P y.i.! O.f.$Xi.$XP.K.P.:.].P  .n P d.d.,.K.W O.E c F W F F o.F b F o.o.o.F F q.o.b W F m W X.X.W X.o.o.o.G v 8.8.V w 8 w 8 8 w w q q w v v Z G W S v b F F +.X.E P Y.sXi.! d.! g N d.f.! g F v W c ! P d.P.3.L <.CXDX4. XVXJ.>.3. .O.! 9 m k Q o.y.U.,.N a.a.:.c } ,.#.,.n U.#.#.X.+.#.N F o.N a.`.#.U d.d.,.,.>.O.i.y.+.#.O.n n X.! ! #.a.N X.+.X.X.q.q.o.h h v S Q 0.q.q.+.W W W O.W P m E W S m k S S F v v v v S V S F D v v b D F F F F v D G g v G v S W F S F v v o.W W W Q D S D o.o.o.o.o.+.#.+.#.+.m m W W W W N X.X.X.+.o.+.$.+.u.g W N X.X.y.q.#.+.o.X.X.X.W F N m W F W +.N F X.m #.q.X.o.W #.N W W #.y.+.O.#.O.,.,.:.d.P.P.P.].$XK.3.g.{. .K.U ,.K.K.d.,.,.i.W N N W X.+.+.X.W ! U X.#.W N +.#.P P ! ! +.+.F N $.o.X.+.o.F o.0.V w w v V w w p p 5 p S v b o.o.F F F X.X.X.+.O.,.h.&Xa.,.+.U N N y.y.X.W N F F n X.n K.].>.j N.(.VX<.L.eX(.6.>.3.} X.m +.N N N X.f.#.,.U #.O.N O.,.a.3.a.a.f.N O.y.q.+.#.q.o.O.a.d.:.:.3.G.1.:.1.:.d.i.O.W m P O.O.O.#.i.a.,.y.+.o.+.o.b g c v S S ` 9.q.q.o.F W W N b b b m v i w w v p v V V 8 8 w 8 8 8 8 p C p 7 p p q 7 8.o.S V Q Q S D G S h w V G Q G h G G w q V D S w G Z V G C w A w w w w z z z w v p v w w w w w V v w w w w v v Z v D 5 3 v & & v q q Z Z w q v F G o.q.q.$.G v Z V V V V S G 8.w v S D Q 0.q.0.Q G G S S v v v S b b F W W W D D v V S w w V V v v v q v v v F v v F F G G G F Z V p p v V p w V w 7 q p p w 7 S V D G v v Z V V S V v h h v v v v h v V v v h V w 8 a a 8 w 8 8 8 w 8 8 8 7 7 7 7 7 7 8 w w w w w w w w w w w V w w w p V V V ",
"#.,.,.,.:.#.:.,.O.d.K.,.#.d.].}.`.E N +.f.m W a.y.m W g c m W E c X.i.#.W m b b S S v v h V A Q D Q S h W Q S v b W b W W F #.+.i.! O.K.Y.d.,.d.,.d.].d.O.,.T ,.,.].d.O.d.! c a.a.y.W m W o.D W F E W F m v F +.g $.W v o.o.F #.X.X.W X.X.W D D A G w 5 w a 6 5 7 w w w w p V V G Q o.D F W o.W W m u.#.y.`.u.d.m ! O.O.#.! ! ,.m q #.a.K.g P >.d.;.N.XX@X<.8XVX(.*.4. .].}.~ E +.W 9 b T.}.d.#.,.d.d.P.K.a.a.#.m N #.+.+.y.o.#.+.N y.`.,.U :.d.1.:.O.U W +.q.#.+.n P ,.,.X.+.#.h.h.h.y.F F X.v h v S W Q o.o.+.y.Q E Q o.W N E S D S v v S D Z V v h v V V V Z G F b F G D G Q v N G G F D G F Q Q D D Q S b +.+.o.o.o.o.W W o.+.#.#.+.+.,.y.,.f.+.+.a.a.a.f.u.W W +.+.W X.+.X.F 9 F m X.X.W N X.W N N W W F m X.b F m N o.W +.o.c X.F N W m u.N W O.#.i.,.o.,.! P.].K.d.d.K.].P.d.O. .O.J.>.3. .O.U P O.d.a.X.N W ! ! X.o.X.W +.! c c X.+.W P +.N W +.+.#.#.X.W o.o.G o.o.G G v v v p w w w 8 p p 7 p S b b o.o._ N F X.X.O.+.#.d.,.}.d.a.#.U W N a.a.+.W N X.N f.].g M 1.B.N.L. XmX4.>XJX.X| 3.3.K.}.+.! m P +.W U.[.[.#.d.f.K.d.,.,.#.P N O.O.#.q.X.N X.#.F f.U.h.O.O.3.1.T :.O.P #.i.#.0.W ! ,.,.X.+.d.f.#.j.q.o.o.o.F b F S ` Z ` 8.o.9.F Z Q o.G Z Z F V V p p w p v v a p 8 7 w a t t a p Z p 7 V Z V p w h w h Z V q w D S v q h G Q Q v q.8.w w D G G w C C V V v w V w w z z z t z w V v w w v v w w w v v v v v w w w w S v Q s.s.s.h v v v v v q 5 G F F F G F v c Q D S S V V S G q.w.q.Q S h q 3 v V S S S S S S S b m b F W S v V w v D V V v q S D v v S F F o.G G F G F F F V C V V a p p w w C p q w p b p w V S Q D v Z Q S v S S v h v v v v V V V V V V v v w 8 8 8 8 8 w w w 8 8 8 8 7 5 7 7 7 7 8 8 w w w w w w 7 7 w w V V w w w w w w ",
"#.X.X.+.#.X.U X.+.X.n c O.a.X.9 a.+.+.W ,.W ,.,.h.W X.#.y.m +.X.$.F g q b o.Q b v v v v h v V S h S h h m h g S g W F F N N +.E N ! ! ! O.i.:.P #.d.K.i.O.O.O.:.,.d.,.,.d.,.O.y.m g 9 g W E b o.m m E W N m m O.f E W m E o.+.+.+.X.! X.X.F v v C p 5 5 t 8 , 6 8 8 a p p V V V Z G G D G o.o.W m b u.u.S W a.a.E m g m +.#.X.+.N c K.].aXn U >.).>X>XZ.Z.oXAXeX.X*.<.M P.iXy.W k S k v m W #.a.O.:.K.d.O.O.+.f.W ,.U.q.X.+.W X.X.N W #.#.X.O.,.:.O.O.O.m X.a.$.y.O.+.a.,.#.#.X.o.W o.o.v m G b S Q Q Q Q W Q Q o.m g m F v g v v V S V h v v v Z V v V Z S C Z o.G F F F b D o.v X.G F G o.G G W D b D o.D F 0.o.W W o.+.o.W W E W W N m E X.O.P c m X.E m E E #.+.y.u.o.q.s.+.+.X.u.N $.o.W W N N N N N N m m X.b F m b X.F o.W b X.g m X.f y.W O.W ! #.#.O.#.P ,.d.:.O.U U ,.P.:. .d.P d.].,.].K.i.O.,.a.#.c N X.o.W F F F N P O.P N X.#.! N #.P ! #.O.+.,.+.o.o.o.` S Z G V 7 w w a 8 8 8 a p Z b b F F F ` o.G F X.o.X.X.X.O.a.W f.a.#.O.X.U m +.O.X.X.N m ,.&XjXU L  .(.mX X@XOXZ.VXVX8X=.6.} g.NX:.g g m b q W X.X.M ,.@.K.,.:.d.h.d.,.a.h.,.#.#.X.+.$.N X.#.O.X.>.d.3.O.:.O.n O.i.i.f.y.#.,.#.+.+.y.y.+.q.W v b v g h v G 9.F ` ' Z 8.Z i V V p w w w 8 p p w w w 8 w 8 t 8 t a a a a A 8 V p w A 8.G A V V v V Q S h S w V S v V D Z v v o.G h S D S G V p V C p p V w w V V V t w w t V v w i v v w w w v v v V v v v D D w w w q q 5 w.Q q 5 q F Q o.v c c v G +.q.u.v V S G Z v w h q h h v S D Q Q h h h S D Q Q Q W F F F F S m h V h V Q Z V v q q v q 9 v v v F G G D F N v v V V C C V V w w p Z p w i Z F S p S Q o.V q Z Q v h V S V v V v h V V V V v v V V V w w 8 8 8 8 a 8 8 8 8 8 8 w 7 w w w w w w w w w w w w 7 7 w w A V w w p w w w ",
"y.W U #.a.O.U X.h.f.#.U X.y.#.N m N o.E +.P o.X.o.m E y.y.g #.m v W +.+.o.W D F h v v v v h v h v W D Q o.v v s.v +.o.W F W +.m ! N n P ! ! O.:.,.O.P ,.,.U O.,.,.#.d.f.#.O.#.+.m g g E o.m 9 v S m m +.a.i.X.E E N +.o.g N +.m +.X.X.o.W b v v w w 8 8 r > > a 8 p a a V V V v Z Z Z Z G o.G b 0.m g +.m m f.g o.+.W N N m m +.W q P n `.d.].L.&.>.Z..XrX@XSXeXbX0XmX.. .:.E 0.E h Q u.q.X.X.#.d.X.,.#.d.].#.#.c W #.m m #.+.o.c N m X.a.a.O. .O.U :.:.N +.j.q.i.,.#.X.W +.$.F W c F o.v g b v o.0.q.8.Q D D Q 0.S h F F v v b h V Z C V v w q Z v v Z G S V V o.G F F v v v G v o.F c F F v D W F v F o.S v Q F v v W o.o.W W E o.o.W P W +.y.X.W +.y.W m E X.F m W X.N o.q.N W +.y.q F F N #.W o.+.o.W N m N N m W N N X.m F b o.y.c X.a.g #.! +.! N ! ! ! O.O.U U @.,.@.@.d.O.].O.>.@. .O.@.:.,.i.,.#.O.N m g N X.F b N W X.q ,.K.y.#.O.! ! #.P ! O.O.O.#.#.o.G o.F w v C 5 w 8 7 w a a a V w Z S Z _ _ F F o.F F o.+.o.X.W U y.c O.+.X.W +.U m X.N m #.W g @.U 3.G.,XN.Y *. X>XB.8XFX;XHXvXqX>. .J.N ,.y.q +.+.f.X.X.,.K.I #.d.P.`.d.O.W X.a.n m $.+.+.o.m N +.h.d.O.P U @.d.,.O.i.f.y.u.+.o.W W o.+.X.F F W v h b b v D 9.o.r.G G Z V 9.G v C C a t a V a 8 8 w w w 8 8 8 8 8 a a 8 8 8 Z 7 V p w C G C h A C h w S h h D v D Q S V D Z v h S h h G S w S v 5 w V w p Z w w C A C t w t V V v w w v v w w V v v w w v V V v S 5 V D v o.S Z q V s.T.w.G G G N m v v v v v S v v v h h V D S S S h h h h h v v m S S S v v h b F F m m S F S h V D V v v w v V v v F F S G V F S v m v v V w 8 a a 8 w p v S p q i S _ F S Z 8.8.v 5 v Z 5 q v Z Z S S v w V v v h w w v V Z V 8 8 8 w 8 a a t 8 w 8 8 w w p p p p p p p p w w w w 7 w w V G V w w C V p v ",
"#.U +.`.h.d.h.n W #.U #.#.#.f.m #.+.+.y.0.W S m 0.W E W W m E +.F Q W o.Q h S v V V V Z o.o.A V Q S S S S b D o.o.b X.o.m m +.#.X.! O.#.,.#.,.i.:.! n #.,.O.i.H.,.,.K.W g ! E W W f o.y.h g W h q b W W F W W o.F F F W o.+.q.u.#.+.W b q q q w w 8 8 8 8 , , 8 8 8 a Z C a V A V Z o.o.V V D S h m Q y.Q m W s.E m E +.N X.c +.X.d.n P H.@.%X=XY Y L.|.|.M.rX!.bXIXSX=.Y ! P E l Q Q D m N N M O.U #.K.d.O.y.[.X.X.X.N m W $.o.o.X.W W X.O.>.:.3.d.d.3.+.X.F N W N N W X.W W o.o.W S v v v v S D S h h S Q Q v v v v w q w i p w w w w p w w w V p V A Q G A Z v G W F v b G o.b b b F F F v g o.o.D S W Q Q F Q b F 0.q.W F o.+.a.#.W o.W m +.W +.+.o.X.+.+.+.X.#.#.X.N N W X.F W W W X.o.o.X.F X.W N m m N N W X.o.+.X.N N W o.W o.o.N o.#.m #.+.N N #.3.#.X.d.d.@.3.:.d.:.:.O.O.d.,.:.d.O.d.d.X.! +.O.! P m y.+.c W W q F b X.,.X.P +.X.N O.O.X.O.y.a.y.+.X.F V v V v w w w 8 8 p 8 6 6 8 p V o.F v G G v F 9.$.v N X.v m c X.X.X.X.#.,.O.N U O.#.N n +.a.U  .>.3.,.P.%X<.Y Z.(.@XV.+X+XSXIXSXB.I Y I c N a.F F F E N n P O.d.,.,.X.].g.#.W X.U N X.#.#.o.F W X.X.X.,.K.3. .d.G.i.O.P S S b m Q o.W W +.o.F v v v v S S V v v b S G G V p p p 8 8 8 t t 8 8 8 8 8 8 8 a C C a a Z Z C a a V A V w v Z Z V v h Q D h S S D u.v S q S W v W v g b b g b q.u.o.G 5 v G V 5 q G G V V Z C w z G V q F S q h q v v v G Q v v v q 9 v V h h v v w h Z D V v S o.o.o.G F F F v g v D v h V Z S S S S v v b F F S F D D o.W v v F v F b v b S S v g h v S V w w v Z Q S v v S D G G o.Z S D V q w Z V w V C w p V w Z V b b F F F Z v D G v v D D v v V Q S D 8.V w V Z S v v V C V w w 8 8 8 8 8 8 a 8 8 8 8 w 8 w p 8 w p p w w p w w V C V w w V G C w w p V p w ",
"N N W ,.W m O.N U #.X.N U X.X.g +.W m h Q u.0.S f +.u.W W u.y.h S W v F b 9 h q D D G G o.G Z V D S D Q F m b W +.o.W b g m +.i.g O.Y.$X].f.,.:.! O.O.d.i.O.y.i.d.#.p.W m Q S m b b 0.0.v F 0.D W v q g b b S F h W Q W o.u.u.q.v v v h g q q 7 w 7 8 8 6 < 8 a d 8 p V V p V Z q q V G w 5 w v S k k E +.u.y.y.W W W W m #.X.,.d.f.d.,.H.U 5.*XJ.Y |.|.@XOX@X+XJX+XC.V.&.T ! h Q Q S q g F W M N X.:.O.P O.a.#.#.N N X.X.X.o.X.b N F X.+.,.3.d.O.,.a.d.y.X.m g W W X.+.+.W W +.F b v v v v v V V V h h h V v w v v v i w i i b v V p V V V V V V w w V A A A G W o.+.o.F F W o.W W G W W W G F m b b b S W W S W F S S W W W o.o.+.o.W X.W W X.X.+.W m m W +.W N c F a.y.b b #.+.X.+.q.q.X.N F F X.X.N N F W X.+.+.+.#.+.X.X.+.F b F W F o.#.X.m N P U ,.#.} } K.).K.`.d.d.O.>.O.:.d.,.d.).J.d.f.! N U ! X.! P +.+.b +.q.F W v g N N m X.! N +.X.W X.#.y.,.+.o.v w w w w w w w w w w w 8 p d p p Z Z v Z Z v b F $.v c N N W m m X.#.y.a.a.#.X.n m X.O.X.+.a.,.@.3.G.>.G.%X5.&.9XL. X|.!.2XJX6X|.4.| |  .U W W S v h m P ! O.:.N U O.:.g.N X.#.X.X.W X.X.X.W W o.W O.a.d.#.:.d.G.d.,.O.b v F Q W +.+.W W o.Q S v v v v V V V v v i i b b w w w t 8 8 t t t t 8 t a a t 8 8 8 8 8 w p a a p p V Z V p V G o.8.o.S G D G D h h S g F v W W m W h o.W Q W b S S h q v F V S Z D o.w V D G G A S v D h G G v F F W o.G o.o.F F G S Q D S v v h v v h S S v v V D G o.o.o.X.o.o.o.o.Z v h V V h w h D v h v v g 9 9 9 q b b h v W S b v g g v m v g q v V v w q w v w w w h v S Z Z v D D v w v v w V w w w w w V V S V b b S F F Z w S Z v h v v h Z V Z v F 0.Z v w v h w w v v w w w 8 8 8 8 8 8 a a a a a 8 w 8 a p 8 p p p p Z w 7 w V V p V C ` Z V V V C V w ",
"X.$.X.+.W m o.+.N N W W +.W B a.g W Q E W +.W g m o.+.W Q y.0.E W Q v Q Q D 8.o.o.G Z V p v Z G S S S S m h v F 3 b o.o.+.+.X.X.O.,.,.O.U O.:.:.P :.,.i.:.W ,.,.U.~ W b m W b h v o.0.F g S G v F v v F m q m q.Q u.u.W D o.Q q v h h h w w q 5 w 7 7 7 6 6 p Z a 8 d a a p p C v w G 9.Z q v Q D m g g W q.o.v o.F N X.m W c +.a.N O.,.$XK.G.,X X&.*X.X8X6XZ.wXSXvXSXVX<.M P m D Q Q D D Q W m i.n n O.O.O.O.c y.B c +.y.+.N c _ _ X.X.X.O.,.3.,.,.#.#.+.X.X.W #.q.u.q.o.b b D v v v v v v V V V V S h w h h w V v v p i i b b V a p v V V V v G Z S S D S S D 9 g m b b v b F F b v v v b b b m m E W W Q W E W Q Q S E o.+.o.E N N E N E W m X.E W +.#.W m E X.o.+.o.W F X.+.+.W X.u.y.X.F +.N W W F F W o.X.W N N N N m m N o.o.F F N v c N O.+.O.O.:.O.O.d.,.5.,.3.U  .U :.:.d.@.O.,.P.P.O.,.N c N X.X.W F +.o.v b F F Q b F X.N v N N W q.a.#.+.+.o.N c g V v w v w q q w w 7 7 w a Z a p p v S S V V V i Z s.G v m N W m 9 b o.+.X.X.X.X.W N n n n ,.a. .T N.).G.).,X/.N.J.XXmXeX.X2XIXnXvX8XZ.&.U U N g q.Q S F O.#.O.@.U a.,.X.O.O.h.N O.+.+.X.N N F o.o.F X.,.3.#.:.d.,.O.O.O.W F o.u.o.0.+.W S F S v v V V V v v v v v i w i w w p V a w 8 t a a t t 8 8 a a V a p p w V V V v p w w v w q q q w v v S h v Q D m v v h W b b m m W v m 9 S +.W D +.o.q G F v F v v F b v h v v V S S F q F F v F v F v 9 q v v F Q D o.V v D D v V G v V S v v S S v v F b v v b F v Z S S G G G D G v g h S W W W Q o.o.q.+.F D W b Q F b b F W F b q h v h w q q w h v S S S V v v q V S h h V V w h w w w w p Z V V p p v S Z Z Z v D Q Z v V V v G V V w V 8.Z V h v v h w v v w w w 8 8 8 8 8 8 8 8 C C 8 8 7 7 p w w 8 w w V G V w w V V p w p G A V V C C V w ",
"X.X.c N X.N N N +.#.N 5 f.BXa.N h W +.o.W E m f W E E W W W W o.u.q.S D S q w 9 Z Z Z V p p Z G W S S v v m S W v q.o.v N F m N O.,.:.:.O.d.:.P U ,.#.O.U P y.y.T.W h g h S W S h o.W h v b v v h v D o.Q v D 0.v D Q S S Q Q V Z V w q q w w w w 8 8 8 8 8 p Z d d a a a a p p w 7 V G w q v S Q Q S S S Q W F u.o.N X.+.`.X.N h.X.+.,.$Xd.3.5.>.&.XX.X@X@XoXKXHXIXHX8X|.<.U y.c o.s.q.Q S D W ! n ,.`.,.O.a.h.BX`.o.X.W W W N $.$.X.m c N @.d.d.,.O.X.X.$.q.q.+.q.q.+.W b v v h v v v v v V V V V V w h w w w v v p p p v b b V p w w V V v w G Z S G G D D W o.o.+.o.W b b F o.W W W W o.W W b E W W F E E m W o.o.o.Q o.o.W y.W +.y.o.#.a.+.W +.u.f.f.y.O.E +.a.q.N c F X.N +.W W o.o.X.o.y.N F F N F W X.X.+.X.W W W W W X.b F v b X.N m #.O.X.P U } M I 3.@.5.,.3. .>.O.d.,.d.I } :.d.P.O.N m n W +.! m N X.X.F v v b F v o.+.o.W W G W +.W F F F W F b S v v w w w w w w w w w p V Z V a S w C Z w v Z w q G w q V F o.o.m F X.X.W X.O.O.y.O.X.d.:.a.,.,.3.J./.5.5.d. .>.#X,X@XZ.0XAXAXJXJXSX.X&.Y O.+.o.s.q.Q W X.#.O.O.,.K.:.O.O.P.cXa.#.#.#.o.W N X.+.X.F m m +.g.d.O.O.! X.y.u.+.0.u.o.+.Q b v v v h h S V V h h h V v v w i p p V C a w w t V V z t 8 8 8 p a a a p p V V v v b v v G o.G F V S Z F Q b D D h m W h W o.F h h S W b W h D 0.D F o.F +.a.o.#.s.F m u.s.o.F o.o.F W q.+.v o.Q F Q F F o.G F F v F G v V F Q o.o.G D Q Z S S Z D G Z v F o.o.v v o.o.F v v v V V V S D F b v b m v v b S S W W b D o.W S m g v m m g 9 h v V V w w w w v S G G S V v V V h v D S h h C w 7 p C V V C p p w w w b S C V V Q 8.Q Z S Z S G V S w v Q V V V S S V v v v h p w 8 8 8 8 8 w 5 8 a a 8 8 w w 8 w p p w w p Z A V p p V V V p C V V V V V w w ",
"N W B X.#.W N c g N +.N X.W 9 #.y.S g m W W E E h W Q W o.y.o.b h h 9 V G Z 8.o.w Z 8.8.` Z V V o.Q S S F W W F g +.W v W +.X.#.c :.,.K.,.P.,.! O.i.O.! ! O.f.y.u.Q k S m S Q Q h S h h o.Q v o.S V V V 8.q.Q w V h h v V v v V w 8 5 5 5 8 w p w 8 w p p w w p 8 a a C C a 8 w 7 8 w 7 5 w V w h w h S S v F 0.W o.c 9 W fXh.m $.s.u.d.f.P d. .>.(. X.XL.V.(.8XnXJXJXKXVXB.I @.m X.o.Z w w S o.! O.,.O.P @.#.N U.y.+.X.X.+.+.N X._ N b m U 3.K.3.,.@.O.$.$.$.o.W W W W W D S v v v v v v v w w p w w w w w w w v v v b b V b b V b p p v V v v h h v D D D D W b m m m v c m F m m m m m N m v +.y.0.o.o.o.o.o.W E W o.W S m E Q m P W c m W m q +.#.c g X.o.g F m N $.o.m v W o.#.$.W N X.+.o.F W W F F X.X.W #.o.X.X.o.X.X.+.F Q F F +.W N y.U U } ,.d.O.P O.3.g.5./.3.5.@.@.:.,. .d.H.,.H.,.m N N X.$.F v W v G q.+.o.Q F v v F o.q.0.o.W S S v v v b v v V 9 7 q q w v b v v b b p p p V Z G z S S w w S w v v 5 v Z q w v v m m m N W W N N g } sXK.O.U P.J.5.1.>.,.,.>.).sX#X(.*.|.bX+XJXJXSX;X(.5.O.W W Q Z S m N X.O.O.,.O.U d.O.P d.a.+.+.+.o.X.X.X.X.X.X.N m #.h.d.O.i.O.! q.u.o.Q o.Q Q S v h h h h v V V h w w w V w w w w w v v v v h w a V C V z C p w w w w w q q q h h v F F v 7 i b v v v S b q v W F v +.s.o.+.+.W b F o.W b +.F F F b o.o.v q X.g m +.g c o.m c m F E v g g +.b o.W F W F F o.F W X.W o.o.D S q.u.8.G Q o.D D S S G o.o.D F q N N q q F F v G G S V h h V V W b m m v v v F F b b v g v G b +.o.o.+.q.0.o.D v V S V v w w v 7 w v V V V S D S v v Z S w h Z w 7 p S v v V w p w w w V C C V v D Q D V v V V D S G v v S h v V v v v v w w q p w 8 8 8 8 8 w 8 8 8 8 a t p p 8 a V V V a V Z w w w w V Z A Z a p w V V V w w ",
"N o.+.f.a.X.+.W h.W c $.[.j.N +.o.m g E W m m Q Q S S Q o.o.o.0.0.0.G Q Q V D V Z G ` G S b V Z D Q W W W W b g 5 b W o.y.s.a.i.O.d.,.3.g O.O.d.:.d.:.,.y.y.f.+.S S k E S m Q S S D h S o.Q v o.Z ` G V S 8.G w G V w v w 5 3 6 5 8 t t 8 8 8 7 8 p p V p w 8 p 8 a a a a C p 8 8 a V w 5 C G w h 3 3 h S h S Q b F F X.c X.X.`.v +.W #.a.X.&X3.d.).B.(.B.Z.Z.A.A.3XIXIXJXJXJXsXN m v b v V S S ,.O.N N } O.+.#.g n X.o.X.+.X.g N F X.X.X.X.#.a.a.,.X.} F F G G o.o.W S S S v h h h h h w w w w a w 8 8 V V v p p p p b V V b b V V V b V V S Z S S D Q Q S S F F m b W X.W +.a.+.o.+.+.$.$.+.o.m m m h h m E S o.W E W S m S o.y.+.y.#.X.X.+.O.+.#.y.a.y.+.#.y.W W X.X.X.X.X.o.b $.y.o.X.$.+.F W X.W W W X.X.W W F N N N N N W 0.0.W W X.N c m +.O.O.,.J.g.3.g.g.d.@.,. .3.>.3.:.,.,.P.K.O.O.! ! +.U P +.N m #.b F 9.+.o.o.F o.o.Z G G S V D v Q Z V v h 5 5 5 h v v h h v v w V V V p i w b S Q S C C h w z h G Z q Z G q 5 q q g c m X.+.W m N W n ,.O.K.:. .>. .>.3.P.P.d.].K.>.>X>XM..X!.nXIXJXJXJXDX].+.D h v v v m W O.@.3.O.O.a.#.,.W m X.X.W X.X.X.X.F o.F X.#.,.#.,.K.,.W m N o.o.o.o.W D S v v v v v v v h h w w z V q i v v V V V w V v h v V V V h Z a p w p V V v v F S v v F N c v N G F G o.o.X.o.a.j.#.F W F 9 W b o.W o.+.b m b b g g W u.q.o.q a.U m W U #.X.N +.#.W W #.#.W o.b o.o.F o.W W v g v F F W W S V 0.q.V h G 8.Q D S S D Q G Z F o.9.9._ G G G v o.o.Q S S G Q Q b b m b F F o.9.q.+.o.W v b F v b m m m W W b h v V V v v w v v w h v v v v V S h S S w w v V w b q p p q w v w V p w p V C C C v V Z S v v v V D V G S v S w v V v v V v w 7 q p w 8 8 8 8 8 w 8 w 8 6 8 8 8 8 w a V V V Z V p w w w w w V V V V V V V V V p w ",
"X.F F q.o.N o.m 3 X.W 9 q $.q.9 m E o.0.Q m m E s.E m W o.S W u.h V w S S v G G G Z V w q w V Z v S D S b S F S s.q.o.W N W #.#.d.].J.].U :.U ,.#.y.O.y.i.:.t.W l S k S h h Q h S Q D Z D S v V V H 8.A w 8 a C 6 5 6 8 w 8 w a 8 a C C t 8 8 8 p p p V b q q p 8 t t 8 8 a a w 7 8 p w 5 w V q D S S Q Q Q Q o.q.o.a.`.X.c m aXo.F F X.#.! P.,. .I &.L.M..X|.oX5X5X3XC.m.8X*Xc M B b F G G D z g U @.h.d.N a.LX].d.#.X.c m F W F F X.X.X.X.} } ,.@.X.m m m N F W o.W b h h w q h h w w w w w w V t t a V a a Z p p v v v V V V v b S v v v F Q Q Q o.o.Q E E W +.W N F N g g m X.W W W X.X.X.X.0.0.o.o.0.u.f.u.o.+.o.W E W +.q.W #.y.+.o.E m W +.m N y.u.N c W +.f.y.m m q.a.+.m X.#.+.X.o.X.W W W W F W o.X.F X.W X.X.W F W +.b v b F W $.#.U #.#.} I @.3.5./.J.J.>.>. .3.d./.,.:.d.d.#.! n N X.O.m m +.W v +.$.N G S v F v o.s.G V p 5 w Z p w w w p v w v V D Q D v v v v q v v b b v i b V C S z x D h w z 0 w 5 V G V A 8.D G W X.q.a.q.X.d.`.O.U n <XK.n T  .:.:.d.d.n c d.3.4.XX|.@XoX!.~.!..X8X*X,.c q V Z D S S ! O.U O.,.a.O.h.DX`.,.X.X.W X.X.X.F N X.W X.#.#.W O.d.O.U m m S W Q o.S S m v h h h v V h w w w z z v w V V V V C V v v v h v v V h h V p p V Z G G D Q o.W N N W E c v N F m m F F B q m N X.y.a.u.f.b g o.o.o.Q m o.+.q.b b q.q.W #.N K.O.U N N ,.N O.O.O.O.! ! +.y.q.W u.q.o.+.o.q.q.$.q.9.F b b g S G D v v Q 0.o.G S S G G Z S F o.o.G F v v q 9 h v h h V G G S D F N b v q q g v v b F b o.+.W o.W F F W W F b V V v h w v V V G Z S S V V h w q V S h w v v q v i p b q i V i V v w p V C C V V V V V v v V Z o.S D V Z o.v V V v V S V v w w p w 8 8 8 8 8 w 8 w w 8 , 5 7 w w p p p a Z Z p V C C p w w w w C C V V V V w w ",
"j.F v o.W o.q.q v m v q.W 5 G 9.o.W F S Q +.o.W Q y.0.E E +.W 9 h v w V V w G G q v Z G G Z V v V G G v h S 0.s.W m o.q.X.+.y.O.K.J.O.h.O.d.O.#.O.#.E o.~ m W m S 8.S S h S q.S q Q 0.D V D G V w 8 a V 8 5 5 6 8 a a 8 8 a 8 5 6 t a y 8 8 C A a p p p p i i V 8 d 8 6 8 a a 8 7 7 V Z w q w w 5 V Q S h v D Q W o.X.X.X.h.X.m W q #.X.m c i.].K.P K.#X .5.I N.n.5XrXrXxXXX4.5.I N N m w h D 0.W #.N N d.O.n a.U c N #.+.F X.o.F N N N N N N N B N X.o.X.F m v g b S h q h v v v v v w w w h h w 8 p V 8 7 w Z w w v v v V V V w b S v v v S Q b b S W W W o.y.W N W #.y.$.#.a.+.o.X.W X.o.+.+.W E m m W +.+.W S y.u.o.W y.u.+.E a.f.u.u.O.m o.a.f.,.m E f.f.E X.X.X.+.+.o.o.#.o.o.+.o.F m m N N F F F W o.W F F W W o.F b E o.Q S W +.X.y.a.N O.3.,.@.3.d.g.K.>.5.3.J.>.>.U U :.O.a.P n +.! #.N W g c q.X.q N u.b G G G G 9 v Z q w V w V V 5 V v v V v w q w h v v h v S Z v V v v b V V b w w C h z Q V 7 V w Q V w w 5 w v G F b m F X.X.W X.,.#.Y.n O.n U U @.O.c O.].d.#.:.BX@.>.<.%.Z.0XnXwX;XXXJ.,.X.X.b F F F E O.O.U X.O.a.P I `.c +.+.O.X.X.X.W W F F X.W N N X.X.m O.+.+.W m v v h v v h h h h w h V h w w w V V v w p v w w v v w V v h h v v h h V p p v V V v q m F b v m o.O.N o.$.+.X.X.#.#.X.a.+.N X.y.W m #.! c +.o.W W W Y.#.u.W X.U.y.W U.K.{.d./.d.O.].d.d.U :.$X`.P N K.W v o.W v m v N W F o.+.X.X.#.+.0.o.Q W o.o.o.W o.D D W D b S F F N F o.o.G D G v v v v Z Q G v S F W o.W F F F F F o.o.W o.+.F u.+.E m S S b v D S V h h V V Z S V V S S S v w h w w A Z w q v p i S G Z S V w v w w w a V t 8 V v h v v v V S 0.V v v Q q.D D v h v S C v w V p w 8 8 8 8 8 w 5 8 C a 8 8 a A p p w w Z ` G V v Z A V v V C V Z C C V w w w w ",
"Q S m b S b F Q S m b W D m S o.b W F v W +.W b +.o.h g S h h o.S S v h v v S S h S S w w G Q Z w p V Z Z v v S w.v F a.+.N X.,./.,.#.n O.X.a.y.#.j.u.l.Q Q v S S S S S S S S v G G Q F S v b S w w 8 w 8 8 w w w w w w w t w 8 6 w t a t a a a 8 8 8 8 w p a 8 w 8 8 8 8 8 8 w a a C a 8 8 a V V v Z G V F D v b _ q.F F +.N +.X.N X.+.X.#.q.N X.h.+.F +.#.#.O.g J.5.&.>X(.>X,X . .P W h h 8.C W +.+.X.! X.X.W X.s.#.q.+.W #.F o.G F v m v b N o.F v v G X.F v v v h h h v h h q h v h v S Z S V b v i w w w w q h V S S V V V G G V v V V S G q b z.q.o.v b X.E X.X.P X.#.+.X.P +.N W n +.O.+.y.d.u.+.+.y.#.W +.u.o.o.E y.X.N X.O.X.! #.a.#.N O.#.+.W X.y.y.W y.+.#.#.W X.,.a.W X.X.W ! O.X.F D W Q W D F F F W v v Q o.D b W Q F o.X.N +.,.U #.>.,.,.,.3.3.d. .3.P :.K.O.d.K.d.f.a.X.N N N m m b N N N N F F o.o.F F o.` v w V p q 7 w w h v w v V v h w h v Z v C G V v V v v w w V S p w w V v h w w w w h S w h V h G Q q o.W S W D v W +.#.W X.X.P #.i.X.X.X.@.#.o.W $.h.#.X.@.a.@.}  . .*.M.>X).gX$Xd.U U N N F W X.X.X.O.} U X.X.X.+.a.#.#.+.#.#.#.+.o.F F b b S F W W F Q +.o.D V V S h w h v h 7 q V V v V S S v V Z q w v S v q q V q v S v v V S S q w V V F V v v q.F o.W q N #.c X.m g X.f.m X.N 9 y.+.m N f.y.a.h.d.H.d.#.,.d.f.,.y.i.K.f #.! d.,.,.d.K.H.,.d.P.O.d.:.sXd.n ].Y.X.j.c W f.s.W ,.X.y.+.f.d.X.,.O.W o.o.W W +.o.W v W W b Q o.S v F X.W v m o.W g v b D G S v v v v F G D b b W o.o.$.W m W W m g m m S F F b h h h v V v h v G 8.G Z Z S v w w S z w w w 8 w t w w w w w w w V V w V C C V V C A h V S S S S v g o.D b b S F S b v v h h w w w w w w 8 w w 8 8 8 w w w t t a V V t w h V V V v w h v v h v S G G D V w w C C w 8 ",
"S v h m S S S W S S S Q Q m m W b W b m X.o.W F F F F +.u.o.D o.m S S D G D D S S G G V V G G Z w Z V 7 p 9.8.V Q o.q.#.a./.K.@.g N @.N ,.a.a.W q.W 9 v v o.v w u.0.S v S S v q S F Z F b v i i 7 w w w w 8 w w 8 8 8 w a V t w t a a 8 8 t 8 5 a a a 8 8 a a 8 w 8 w 8 8 w w 8 8 5 8 8 8 8 C V i q p i v S F v 9.G X.F o.#.N +.#.N m m c +.z.s.i _ c v F b b N o.U U %XLXJ.;.>. XI n n b 8.` Z F W X.W X.o.o.W +.s.#.q.+.W $.G S S F F F Z F D h F o.o.G v F D v V V V h h h v V S S V v v w 9 v v v v v v v F D D G D S S V S v V v V o.G F F o.v o.v +.+.+.+.g N N N X.a.h.d.+.#.#.U.#.! W d.W +.#.+.#.a.d.y.O.#.X.a.#.a.O.+.! +.+.X.+.#.+.N X.#.X.N W #.+.N W N X.+.X.+.,.#.X.+.+.O.+.#.#.X.0.o.Q D D D Q Q Q S S Q o.D D W h F +.X.m N O.X.3.3.5.5.3.,.:.O.,.T >.G.O.O.d.c B c c b N N _ $.F b m m N F _ X.G _ v i b i 7 q h w w q w w h h h v V V h h v V p 7 w V p w V V Z V V Z Z V p V v v h w w w w h S h V V h Z Q h S W F D F W +.+.q.o.#.y.#.i.i.! $.N b q.z.s.F 9 b b N N m N X.M  .,XFX/.>.J.$Xg n n m m F F F X.@.O.O.#.#.#.#.y.a.y.+.X.! W m v W D Z Z D D D D o.o.o.G S v v v S v w h h h v Z v h h V v w w v Z v v h q q S 8.D G Z v v v h q v V V V b v v v G F W W b v v m N F X.y.h.X.y.X.[.U.W +.#.y.W y.,.:.,.H.i.O.,.O.Y.K.U ,.,.$XU O.O.O.O.,.:.U U :.O.P L :.T L :.:.N y.m $.d.f.,.h.O.d.O.n U K.].:.o.o.W m E o.Q m +.W E #.u.X.W a.#.W n g g c v v b b b v v v v F q v o.o.o.F c g +.#.W N X.y.i.f.0.o.Q W W W W S h h h h w h V V Q Z S S V w z C a w w w w t t 8 t a V V a V V V t V V V V V V C V S Z D D D S b b F W W E b g g h h h w w w w w p w 8 w w w w 8 w 8 6 8 8 t w w z z v V V S V V v S S v S D D S V V V V C C V C ",
"S m v S S S S D D S W o.Q S S W F F b F +.o.W o.q.o.0.u.0.D h q v S D D S v v S V V V v V V V V Z 7 i 8.` q V s.0.Q m N X.U M P #.n c n +.X.y.U.W o.S S q v Z 8.S Q +.Q b h v D V V V v p q 7 7 5 w 8 w 8 w 8 8 V t t a V V a w w a w 8 8 C a 5 C V a 8 w a w 8 8 8 8 8 8 w w 8 8 5 8 8 8 8 C a G Z v w v S v i q.G F F $.+.F a.+.X.X.W m m m 5 9 c 5 v F q v F m U ,.K.).T &.;.gXO.O.N h S 5 V b N N W X.+.o.W W #.X.o.F m W b v v S D G G D Z V Z D D Z v v w q h V V h w h V v V V h h v v h v v m v v v V G Z Z S S S S S D v V b V o.Q v v W v G q N N N W W X.+.#.#.y.#.+.#.W m ,.+.O.n X.#.#.#.X.W X.! N #.+.W a.+.#.+.f.X.#.i.y.,.y.#.O.#.y.#.W X.#.#.W +.+.#.#.+.#.,.W y.y.y.#.+.+.X.W +.W F b S F F F S F F F S F F W o.q.X.X.#.a.#.} }  .@.@.O. .U U L T :.O.d.P.,.W N q c X.$.X.X.r.+.F m m F _ F N F ` v q p q 7 i w w h h h h h h v V S V v h V V V w p V p V Z V V p v V p w w V h h h h h h h h w q h V h D o.G 9 v S h h D o.W W F X.+.o.#.#.F X.F N v q 5 q V h v b v m X.X.N >.5.J.5.M  .zXd.U N N N N N N m N U X.+.O.X.W W #.O.E m N S m b W G G G G D D D o.D V v v v h q S h q w v v V V v h h V V v h h v v v S V V Z Q v v h h V G D S V V S V V v v v W b 9 g o.W m o.N X.+.O.d.#.a.N g X.U X.W y.X.#.,.#.P i.:.P ,.#.! K.,.i.d.Y.P Y.&XP.d.:.O.O.d.$X:.U d.:.U O.:.K.O.y.W y.! P P X.,.:.d.d.K.K.,.O.! o.#.#.i.d.y.W P o.W P ! O.E ! O.P N ! X.F N F m b b v v v v F F F G G X.o.o.o.N X.W N P N c c W F b m S S m h S S S S G Q Q G D V h h h w w w t w w w 8 t t 8 z a a t a a V V t V V V a t a V v v V V S V S S S D W S g g m F S v v v V V w w p w 8 8 8 8 8 8 8 8 6 8 w w 8 w C z v v V V V V S D D S S D S V w h C V w w t V ",
"Q D D W Q Q Q W W S W o.o.Q Q o.E F b W #.o.W q.o.h m W m S 8.Q S S S h q h v D h q w v V h h S i S o.o.F v F o.W Q N ! ,.O. .g.K.} N O.y.X.X.u.G m q h V D V h 5 v W G v g Z q.Z Z V v w w 7 7 5 w w a t t t t V V a a V V t w 8 V V w 8 A A 8 V w 8 8 8 8 8 5 8 8 a 8 8 8 8 8 a 8 w 8 8 8 a w ` G V w Z G V b m F X.F F N F a.+.X.W m m m b c q c 9 v v v ` o.W X.U n L 5.).;.1.U P N m V V G b m m F o.+.X.F N W F N m c m b v v S Z Z S V v G S v h h v S Z 7 w v v h h v V h h q 7 w v D Q v v N v v v v F v v V V V V V S V Z b v Z Z S G W b q.F X.F F X.U n U a.h.3.+.#.a.a.X.O.O.h.a.#.X.X.W P ! +.X.N #.#.X.y.W X.X.i.c N W ! X.O.! N y.a.a.#.#.y.#.W a.a.i.+.X.y.a.W +.#.#.+.X.! W E F N b F W X.F c b W W N b F o.o.o.$.N B #.3.X.I @.@.>.>.,.1.d.d.O.,.i.T d.K.n U X.m m X._ m i v o.F m m F X.G F F F v q i w q b w v V V v v V S V V S V h h v V G V V Z v V Z V w w w w q q w v h h h h v v h h w w h v h V G Q V Z o.D F Q W o.o.W W W o.#.y.#.G S v V v w w h h S V S o.q.o.N >.Y M ).).} d.P U N N N N N m c F X.+.#.#.X.! ! ! P b b S E E S D D G D Z S S S D v q h S D S w h w h V S V h q h h h V S S V v w v V D D S V v D S v v v v v w w v V Z Z S b v +.o.b F X.F c c U a.`.@.,.#.f.O.n a.d.d.O.d.,.,.,.O.N i.:.N d.d.O.,.! O.:.d.g O.n P O.,.:.O.d.P.d.,.].d.,.,.d.P.O.+.X.h.O.O.,.,.d.T d.d.O.P n d.! #.#.O.O.#.O.P ! f.d.O.,.d.y.! ! P W X.X.W F N v b G G F v v v F v 9 9 g b W o.+.a.a.i.a.+.N N m m m S W E h 9 v v S S S S S V V v h h w w w w t w w w 8 t t w t w w w w w w w t t t t w w w w w w w v v v v S S F F b g v F o.S V v V V V v w p p w 8 8 8 8 8 t w w w 8 8 8 w C V w w h v v h S D D v V S S V w w V w w 5 8 8 ",
"o.Q Q Q Q o.Q D Q S S Q Q D Q o.F N N W q.o.W q.j.o.Q W h h S h h S S V v S Q 0.S h v D D S S G 9._ b F o.o.W N X.K.f.:.J.).d.,.,.a.X.n N a.y.N b v v v Z S V h b v q q v F o.o.G Z v w w w w w 5 w w t t t t t V t w t a t w w w A A 8 6 8 a w 8 8 5 5 8 8 8 8 8 8 a t 8 8 8 8 a 8 8 8 8 8 w 8 w V w q A ` F S 5 G _ B B m N X.X.X.N c c v g q 9 m 9 9 q v 9.G W c X.d.,.5.d.1.1.d.j m W S 0.w S b m F o.o.W F W W o.W F F F W S V V V V v h h w V S v 7 w Q k.h h v v V V V v V v h w h h V Z v v F F F v v v S Z D S V h w w w V V v F F F +.F g X.m #.$.X.W ,.B c 3.K.@.U @.N #.O.O.c X.X.,.,.+.P W #.y.#.W y.U.K.Y.y.h.i.a.+.#.y.u.f.f.a.#.+.y.y.#.+.#.o.N +.+.+.X.W i.a.W E W W X.X.W X.o.W W W X.#.$.o.W F X.+.X.W o.#.y.m q.y.W X.O.@.g.d.d.d.d.d.d.d.d.,.j d.d.O.:.U n N N F N N N m q N b N F o.o.o.o.w i q 5 i i 7 w v V V V h v S G v V S V h w h V G b V V w p V w w w w w w p V V v h h h v v h w V S V h w w h S D w Q Q D S g o.W F b F W X.X.o.S v v h h h w h 0 w 0 S q.8.S W @.).@.d.).:.3.O.m n c m N F F b F W X.X.W W W E o.Q W W W F m h v S Z S V v v v S v w v Q o.G v h v V S S V h w h h h h v v v w S V V v v v V V S S V v h q w v v v V V v v S F g v #.q.F +.q.c g 3.&X:.U I ,.,.K.O.n @.O.O.U :.P U O.Y.d.! d.f.sX].].].d.Y.,.:.O.,.P.].d.:.,.d.K.d.O.P d.:.d.P #.X.U h.O.O.,.:.,.:.K.3.>.1.;.J.H.P.H.O.P U :.,.O.U P T ,.O.U O.d.d.#.N N +.q.+.N W o.X.F b v v v v v v b b g 9 g m n m ! X.X.,.+.+.+.0.y.+.Q S S D Q D V h h h V S S V h w z V w w w t t t t w t w 8 8 8 8 8 w w w w w w w w w V v v V C V S G h S W o.o.W F b v v h h v v w q p w 8 8 8 8 8 8 t t w w t t 8 w D C v w h h h w S S v h w v S V V V V a w 8 w w ",
"Q Q W D Q Q Q S Q S v S S m S W m F N F o.W F o.g q m Q Q Q Q D v S Q Q D S S S D S S Q W S S D h.N c +.q.F W f.[.h.O.P >.,. .P X.#.U N N d.a.#.v F 0.F v q G 9.g m F W _ X.G Z Z V w 5 5 6 w w 5 6 w 8 8 8 w w t w w t t w w w 5 8 V 8 5 6 8 a 8 8 8 8 8 8 8 a 8 a a a w 8 8 w 8 5 w 8 8 8 8 8 8 C w 7 A G v v q $.F m N X.X.m N o.X.m N c 5 5 q m q 9 5 b 9.b i c h.aXd.@.U >.).cX#.X.W 9 8.w D b b F W F F F W F +.o.W W F o.v v h h h h V V 7 h V v w w V G V v h w h v h w h h v S S V h v q v v F G F F v v v V S V h w w v G Q D G S v N F b #.b W N W +.&X@.M #.a.O.} ,.#.#.O.h.,.@.} a.f.#.W W #.#.X.N P #.W N f X.X.+.+.o.X.o.+.+.X.E W +.#.+.+.+.o.E W X.+.+.o.+.+.m o.o.+.+.o.W W o.+.X.W X.O.+.$.+.W X.+.X.X.+.q.a.W y.a.#.,.d.K.`. .O.>.,.,.:.O.U O.L :.d.d.@.U X.B F X.N N X.X.F o.X.X.o.o.o.G F q q 5 5 v v q w v v v h h h V S h v V V h w w w V w p p w v V q w w w q w V V V S V h h v V h w h V h w h w w D V 5 S D S v 9 +.S F F W +.W m b D D S h q 0 z S 0 0 7 S u.o.v W O.zX3.U I U K.DX+.X.F F W X.W b b N E m m m S S 0.o.Q Q Q W m h h v V v h w w h v h w v D G S h h v v w w h h h V S S V h v v h v Z D Z S V V v q w h v h v S o.F Z V v h v S W +.g b F N `.iXX.n U d.O.,.3.:.P :.O.O.3.O.d.d.d.P P ,.d.:.O.i.K.! g P U g ! ! U d.g.d.,.U P O.d.].P.d.P d.U ,.O.a.#.P h.O.U O.U d.:.G.].$X).1.1.d.].&XP.i.1.d.K.K.K.:. .O.>.O.O.:.d.y.W X.a.f.y.X.+.o.W F b F G F F G o.o.W b g b W ! +.a.a.y.f.f.u.0.o.o.W W W v D o.o.G S S G h S G V w w t z w 8 w t t t t w t t w w w 8 t t w 8 w 8 w w w 8 C v v C Z V S G Q D F W Q W S v h v v V V v w w w w 8 8 8 8 8 8 t w 8 8 w w w w A C V V V V h h h v h h w v S V v w 8 w V V t t ",
"D D S v D Q Q m Q S v S D S b F b o.W F W W F W m D D D Q S q 9 V S Z D S V h q D S S F F S F F N a.s.W m #.d.i.`.U n O.>. .>.d.N W #.}.f.+.v W D q 9 5 Z S D q q _ u.a.o.F F G v w 7 7 8 8 6 6 8 w w w w w w V w w w w t t w w > 5 6 8 8 6 8 A w 8 8 8 8 5 8 V t a a a a 8 8 w 8 5 8 t 8 8 8 8 w A t 6 Z V 5 v v q.F F X.X.#.X.+.y.W c N X.o.s.b b v v w V q.F G m X.,.,.].O.n O.$X#.o.W q q.w.W F N F F b F G W b o.W F F c W v z h h h z z V z w w w z h w 5 v v h w w w v v h w v Z Z V v V v v v N F G F v q w h h v h v v Q o.G F Q F v v o.+.`.+.W c W a.d.@.I U @.3.d.g.#.N g #.#.#.N U X.N m N +.#.#.+.y.a.X.O.N #.y.h.+.+.+.+.+.o.X.X.! o.#.#.+.+.+.+.+.o.,.y.O.W X.N +.+.#.#.X.N N W X.X.X.! X.X.X.X.X.W X.+.O.X.O.,.+.X.O.O.,.g.g.@.@.@.,.,.,.:.:.:.d.].,.O.a.U g N g c m b m m W +.s.q.o.o.o._ v q q v w w V v w V V v v v V V V v w v S V h w w w v w w p w C Z w w w 7 5 w V V w G V h h v v h w q h q q S v h Q Z q 8.Q Z Q v u.o.0.+.q.j.u.o.q.+.W S o.k.k.Q 3 z G V V q.o.v W O.P.d.P.:.U ! }.a.,.X.X.X.o.W F W o.o.W W Q o.Q o.Q W W Q Q D S h v v v w q w v h w w h v V v h v v w q w V V v v D G S v V Z G q S Q Q Z S V v G S V V v w h v D F F v v m F F iXy.b g N f.h.X.d.U :.O.].].d.O.f >.d.,.g :.:.n O.n i.O.N #.#.K.K.O.X.#.].dX`.K.g N O.,.i.d.d.i.d.f.&X#.K.! #.K.O.O.U K.,.,.G.K.].G. .;.1.>.5.5.P 3.].P.d.1.1.,.,.].K.U P ;.O.n n P O.O.O.+.X.P X.o.o.W F F G o.v v v v v b F F X.+.#.a.h.i.X.X.+.o.W N m m b S 9 g v S V V V S w v V w w w w 0 8 8 w t t t t 8 t t t w w w w w w w w w t a t w V w w V C v v S 0.Q v h v b F F h v Z Z V V V V w w 8 w w w 8 8 t t 8 8 w 8 8 w C C V V V V v h h v V v v V V h w w 6 w w 8 w 8 ",
"S S v h S Q Q S D v v D Q D D W F +.+.F W o.W D D o.S h D S h S h h h v S Z D D S S F S F W Q W X.X.+.,.y.#.O.@.O.O.J.K.>. .>.O.,.U.U.Y.N m 9 g S v W v Q v D v j.s.$.G N v Z G w w w w 8 8 8 6 t t V V a V V C w w w w a a w w 8 5 5 8 8 5 8 C 8 8 8 8 5 > 8 V t a a a a 8 w w 8 8 V V 8 8 t 8 5 C w > V V 5 V 9 o.N _ F B #.a.N #.+.F X.N 9 9 o.b v o.Z V 8.Z v m F +.X.`.,.d.X.,.N F +.D S Q G F F F F b F W o.b +.o.F F q F V V V V z z h h 9 h S C h h C G v V S V v V G 8.Q S v v v h v F o.F m m F F F v D D S V v v V V Q G h h W o.W o.m c +.m N m m U #.a.#.n n X.O.M O.#.} @.} a.3.a.,.#.O.X.X.W W ! N W W f.#.+.N X.E W X.X.E m E X.E W W W X.+.#.y.o.E W o.E E +.#.E E W O.W N W +.U X.O.+.X.W N N #.X.X.#.#.X.X.,.#.,.d.d.@.3.d. .J.d.,.O.O.O.,.,.`.K.U N g N a.m m c N o.X.F #.T.u.o.b b _ o.F q q V v w p w w Z V V V S S S V h w v S S v w w w w w w w w V V 5 V p q 7 p C v 5 G S h h v v h w V S h w S h 9 S w 5 Q h q S q o.F Q b F y.#.o.u.m F W b q h S Q S u.Q h o.o.q m #.O.#.K.i.K.O.W +.W b N W o.o.o.S W W F S W Q W 0.Q W S S S S S h v v v w q h V v v v v v V Z Z v v v V Q 0.o.v q V Z v h V Q 8.v Z D v q v D Q S h q v S Z D Q h v D Q Q G F b m o.X.F W W X.f.:.M :.P @.O. .,.,.O.O.d.>.P.K.,.! g f.#.! d.P ,.U i.i.N O.P 9 O.,.O.P N U X.! N N g `.P K.#.g #.U U n ,.O.P U :.O.sX].>.;.).,X;.1.J.K.5.;.;.,.,.1.P.#X).P.5.1.J.d.,.,.,.#.! W X.N W o.+.o.W F W G G D F F F F G W F m W #.+.X.#.! O.o.o.W E W W F F D D Z S v h h v h w w h w 5 8 w w t t t t 8 w 8 w w w w w w 8 w w w t V a w V w w C C v h S Z S v v v b b b q v S Z V v V C w w w w 8 w 8 8 t t w 8 t t a t w w h V V V v h h V S S S C V w w 8 w w 8 6 6 6 ",
"S v Q 0.Q D D S G v v Z S Z G F G F v h v F Z S Q h v V w V D w 5 V G G v V G h D S F o.9.+.+.o.,.n X.a.h.,.K.M K.@.,.>.M  .3.@.O.f.+.f.o.9 F b b W Q F S D Z v G c _ $.F v Z p w w 8 8 8 8 8 8 w V V a w a a w w 5 5 w w w 8 w 8 8 8 8 a w 8 w 8 8 8 8 8 8 8 5 8 8 8 w 8 8 8 w 8 a a 8 8 a 8 5 6 t w 5 q C C w v v F F b c N +.m +.a.#.W F F S G q.0.Z V Z V V F F v X.F #.X.X.m W c b v o.V w o.v g v F v v F F v v D F q h Z h V C z w w V D 0 z C z h V S V Z v 9 5 b o.F v v F v v o.G q v v v G F q G q.F v v V w w h v v 0.S v F F F F W F +.,.#.+.X.P n #.X.O.X.M } #.#./.U #.a.a.#.n ,.#.W W #.#.! X.a.#.#.#.+.! +.,.+.E 0.u.y.o.o.+.+.F o.+.o.W o.0.y.+.W W +.+.W E W Q o.Q W W E W W #.O.X.U N U U X.,.O.O.,.,.+.X.O.! }.d.d.P.#.3.K.d.3.O.O.d.,.#.K.,.#.n g O.X.N W W g m W m F o.F W o.W b v v S v q v v w w w p p V h h S Z V h w h h h h h w w w w v V p w p p w V p w w w w w w v V v h h S V w G h q w q 5 q S V q q v V w v G S o.W b W W W a.,.a.#.X.F v D s.q.Z v F G v b X.c #.! ,.W +.O.N m m b F b v v F b F S S D b v Q S Q D h h S S h h h h h v v v v S V v v v v v v v v v F G v q v V v G G q v G q Z S q 8.q.V Z h V h w v v v V Z v W F q 9 F +.#.#.W X.X.O.c ,.O.I U O.d.O.O.K.,.U ,.P.>.P 3.K.O.O.#.,.X.,.f.i.i.i.O.U #.}.! ! O.K.O.! d.i.f.O.d.#.O.! f.f.O.d.`.,.d.K.d.O.O.:.:.].M T ,.J.5.J.I T @.1.1.1.J.J.>.;.=X>.d.1.;.3.d.a.d.d.,.#.,.#.X.P N v N X.N N +.F v S G o.o.F v c v N X.W N N X.W +.E W f.a.W W W G v v S v v D 7 h V h w w w z w w 8 w t t t w w w w w w w t 8 w w w w w w w w t 8 w w v w v V Z V v v S S S v q v S Z V V C C V V a a t 8 8 8 a t w 8 8 t V V z V V V v v v V V V V C C V V V w w 8 8 8 8 t t ",
"D v Z o.D Z D S v q v F V S Q G q.o.v v G o.G h V h V D D G G v G V V G G G 0.o.o.F F W o.o.X.X.U N ,.K.].3.J.U @. .>.;.P  .,.O.! s.E E h 9 o.W F S S F G D Z G x.$.o.o.v w V v w w 8 8 w t a V t V C V V V V t V 8 8 8 w 8 6 w 5 > > 8 8 w 8 8 8 w t a a t 8 8 8 8 a a a 8 8 8 8 w w 8 8 V V w 6 w t w w h v w V v D o.o.W W X.N o.+.X.b F D Q h F V w V Z V v v G v v v o.N c c W v F F q.G D v v v F o.o.F v F v F D v v v v h z z z z z z V h S D C V S S V h G o.F v v v v G o.v q F N v F F c v F F 9.9.q o.o.o.D V S S S W F b F F F W X.#.#.W N #.y.#.#.,.N U ,.d./.h.I N } d.K.d.#.U O.a.#.+.#.+.! X.y.! W +.#.+.+.X.m o.o.W E W Q E g Q +.+.o.Q o.o.o.W S E o.o.E E Q E W Q Q Q o.o.+.X.O.#.,.,.,.,.,.O.O.#.,.#.X.X.#.:.,.P.].,.O.3.} @.O.N U a.#.X.i.W #.O.P X.! W #.X.W $.#.o.u.j.+.+.+.Q F F F S v q w v v p V Z C o.Z v v V v v v h h h h h h w q q w w w w p p p p V V v w q w w h V h w w h h q w w h D D h w h w q q v V v S Q D 0.+.o.+.W v F O.O.} O.,.X.m v m q i b b c v F m W c #.W N E X.m v W o.+.o.b F v F o.+.Q S S D S V V S S S S S v v h v v v v v v v V V V S D G S v h v F b V o.v q F F q v G v v G Z 0.Q w D G Z v h v v v v S q v b b F +.#.+.o.W +.#.y.+.d.c #.@.:./.].K.d.n $X].g.:.O.3.3.U O.,.,.,.d.d.O.X.N O.O.N a.#.i.n P N g h.f g `.O.U O.U O.P g N U O.O.#.O.P O.d.d.d.d.$XK.d.d.$XO.].#X%XP.5.G.K.5.,.&X;.5.>. .>.>.O.O.,.d.d.a.i.a.X.#.X.N F N m b F F F G o.o.W F W F N N m m W #.W o.o.#.u.W b +.W W b b G Z v S h v V V h h z z t w w w t t t w 6 8 w w w w w w w w 8 w w t w w a 8 w p V p V C V V v v v v v S h v Z Z V v V V V p a t 8 8 8 w t t 8 8 w t V V z V V V h h v v h v V V V v w w w w w 8 8 8 t t ",
"o.S S G Z D G Z Z v S G Z S D Z o.Q b v D Q Z w V S S S Q G V V G w w Z V b F o.o.W W X.+.O.O.O.! O.:.:.,.n @.}  .d.d.:.:.d.d.K.g q.W S m m 0.b S b b S Q +.o.G o.b F G S Z Z V 8 8 6 5 8 8 a V t C C V t V V w V 8 w w w w 8 w 8 5 5 8 8 8 8 8 8 w a a a w 8 8 5 8 a a 8 8 8 8 8 8 8 5 8 w w 8 8 w w w w w w w v v v F Q W D D W o.+.o.W W o.o.v G S v o.8.o.G F 9.F F v q.o.v W u.S v v o.S +.G F S F G Q v 5 F v o.Q v F Q w v h h v V V h w 7 w h w w h h w q G o.G F v v o.o.o.F v F F v G o.F F o.o.o.G q v V V v h v v v h b F b m N W W W O.m c #.,.! O.K.#.,.#.c U a.3.N #.X.n c N ,.#.y.i.y.#.X.X.+.#.O.X.#.i.a.f.f.O.u.y.o.o.y.f.y.o.+.+.+.o.+.0.+.W W E W o.+.Q W o.0.0.+.o.W E S m ! O.O.#.#.O.X.! O.#.i.i.#.! #.i.d.d.,.U O.>.@./.d.3.#.a.K.f.+.#.c N N N W N m W P m Q +.W W +.o.Q W F S S S v q w v v v V A Z V 8.S h h v v v V h w w h v h w q w w w p p p p V w V Z V w 7 7 w V S V h h h v v h q w v h q w v w p V V v w v V v G Q Q 0.o.S F f.>.M M X.X.N F F o.$.q.9.$.q.r.F N q q.o.m W u.F g W W o.+.v b v b +.q.D v D Q Q S S Q Q h h S V v v v v v v v q h v v w w v V Q F v v G W o.o.v v F G v F X.v Z 8.o.o.V q V S D V v V V v v V +.W v v m N N m g c +.#.,.d.aX,.i.#.n X.a.X.N g ,.U n N #.#.,.a.f.y.U N X.X.X.#.N `.aXh.O.W h.#.N U.#.`.y.#.U.#.#.h.f.f.#.! ,.#.#.+.+.O.W #.a.,.U U ,.U U ,.G.M 3.J.K.d.@.,.d.d.d.$X>.d.1.>.,.>.P.d.,.O.U U ,.f.X.y.+.N N F m g b v v F W W W F o.X.W N m m W +.O.X.+.a.u.m c #.G F v S o.o.v V V v v V V v w w V a w 8 w 8 t w 6 w w w w w 8 8 8 8 8 w V V t 8 a 8 8 a V p V C v V S V h h V Z v S D Z V v h V p w 8 8 8 w w 8 t 8 6 6 w t t t w t v v h h h v h v z z t w w 8 8 w w 8 8 8 8 8 ",
"o.V V D Z D G S G v V G D D D V v S D S v v S S S Q V h G D v A V V 9.9.Z v v G W F W +.#.X.! U P O.O.U :.P 3.J.M 3.:.N O.,.,.f.m 0.Q Q W F o.m v D D v o.s.q.v F v V Z Z V w 5 8 w 8 8 8 8 t t 8 a V w w 8 8 w 8 w 5 6 8 w w w 8 8 8 8 8 w w 8 w 8 t t 8 8 8 8 5 w 8 8 8 8 8 5 a 8 8 6 8 8 w 8 w w q w V v w v V v q w h S S D o.+.q.+.o.W S v v S v q V C v V i S i v q o.S v G u.F v v F q D b v q 9 v o.o.v F v o.o.F D o.v v v h v v v h h v V S S S S S S F G v v F G D G v F b F G G F F X.F G G v v v D v V S V S Z D S q F W b c N W W #.K.f.i.K.i.P P h.W O.y.W X.X.9 +.f.X.W X.+.f.X.O.y.i.+.! X.+.+.O.N N P ! #.,.W E W W W W W W W W W o.o.o.o.o.W o.Q Q o.o.W W Q S E W W W W Q O.i.,.#.O.! ! X.O.O.#.,.,.O.! #.i.O.,.,.U J.J.M K.3.,.#.y.a.#.X.X.+.! N W #.#.W m +.W o.f.0.m S +.b S F S V v h w v V V v V C V w V h w v V v h h h w w h v v w 5 w w w p w q w w w p v v w w w w 7 w h w 7 7 q w h w q q 7 9 w V w C C V w w v p h v v m D Q Q o.} @.@.@.#.} m N 5 c b i i p i q W F q q.o.F W u.o.v W v m o.g F v g S D v v Q o.o.o.Q o.Q S h V V v v v v v h h v Z G D S V D o.D S F G F F F v N F G G F F F b G Q Z V V V V h D V v V V v v v W v q v W +.a.h.a.a.U.y.n f d.! O.+.c m #.X.f.iXW X.X.+.f.+.X.d.+.#.O.y.f.+.X.X.W c n #.,.,.h.+.n +.! W X.y.g W N #.+.#.+.! y.#.q.$.u.y.+.#.#.X.f.#.#.:.,.d.K.,.:.,.G.3.@.@.3.,.3.K.O.g.d.d.J.d. .,.K.d.d.d.d.a.#.i.+.N F F m m b v v F F G F b W W X.X.W P P W #.X.O.y.u.X.N W F b v b o.Q b F V h w h V V w w V t w 8 8 8 t w 6 w w 6 8 w 8 w w w w w a a w w a 8 8 a V t V V C Z S V v v S D v S S S V v h v w w 8 8 w w 8 8 8 8 6 6 w t t w w w w w h h h h V V C V t w w w w w 8 8 8 8 8 8 ",
"G v v Z S Z Z v V q 5 v V Z Z w q S G Z V V Z G V G V w G G V Q w p e.` p V v v F b N W ! ! ! X.P O.#.O.a.P @.@.M 3.O.n ,.,.W o.0.o.S S S k Q Q S D F Q 9.q.o.V Z C p w V V p p p p a a a a a a w w w w 8 w w w 8 w 8 8 w 8 8 w 8 8 6 5 6 8 8 5 8 8 8 t 8 8 w a a a 8 8 8 V a 8 8 8 8 w t a C C G v 7 w b b v w V V V h h h S G 9 q v W o.o.o.o.h S h 9 q 7 q w p w > b w S p V 5 Z S o.W Q g b o.G v q w Z Z w Z w Z 8.G V G G v V S v w q h V v v V Z G G G Q o.o.m q N F v i i i v F F G F v i v v v v v v o.Z D G S S S S v h W o.W N W X.X.g N N P ,.i.O.! U.X.W W g m #.+.y.f.W #.y.+.a.X.P #.y.O.W X.X.W h.y.#.+.X.#.y.X.+.+.0.0.o.Q W W m S W W E S S W W W W W W E E W W W W W W W W W #.O.E m P ! +.#.W X.O.O.X.O.#.#.d.P d.d.@.3.@.O.@.@.#.,.o.X.o.o.#.W N W X.+.X.N +.y.u.y.+.F S Q b D Q Q S h h v V V V V V V w 5 v w w h V v h h h h h h v v w q w 7 q w w 5 5 w V p w w p V V p 7 w v V h w w h 7 w v S S v v C 5 w V p p C Z Z S V v v v S W W n O.O.X.X.m v N v v v w i Z p q v S q W b S F D o.F o.m v W F +.b v v v v v S F v Q o.Z S G G V V v v v v v h w h V G G D Z o.0.v v F F q q m q F F F F F N v v v v v v V D S v V v h v V v v v D b b W F c c N W N ,.#.N f i.#.F $.m m F c X.h.X.a.q.$.s.#.W +.N O.N O.+.B N W &X#.N a.,.W X.c i.N X.y.N y.y.a.N N n O.+.N +.+.g q b F v c m v W W X.O.P U ! X.U } O.@.O.,.d.d.O.@.I 3.:.d.d.d.].sXzXY.,.,.#.N d.a.+.X.O.N m X.W G o.o.o.o.W F N W X.O.X.X.W W X.+.#.#.+.#.o.F F F b b G F v G v q 7 h V V w w t w 8 8 8 8 t t w w w 5 6 w w w w w w t V V t 8 t w w 8 t 8 w V A C V V V S S S v v V V V v V V w w 8 8 w w 8 8 8 8 6 8 w t w 8 w w w w w w h h C C V V a t w w 8 8 8 8 6 6 6 6 ",
"G V V G Z Z Z v o.w q v v V V q F V b v Z G Z v C G G A G S w w 8 > C 7 5 ` v q o.F N N P U O.i.y.#.O.X.#.M >.O.@.h.3.#.U.d.F W W S S E S h m W o.h v u.s.F v G w V w 8 Z A V V 8 w p a a a p p 8 w t w w 8 w w V V a w w t w w 8 8 8 5 8 8 8 w w t a a a a V C C a w 5 8 C a 6 t w 8 8 t t a a 8.F i q i v w q h V S S S S S V y.+.o.D m g q q V G S h v w i Z S p 5 Z p V w G w v v o.v W F W q.8.G V V V v q v w v G G v v G V S S v w q v Z w q q v V V V V v G F b F F v c X.N F G N G o.G N F v b o.G v v h v h w h v v w b F W F F W X.W }.f.O.! O.,.O.n f W f.T.+.m b W o.+.W O.E m o.y.W +.+.X.! X.W N P N X.! N W ! m o.E m W o.Q S k S W Q Q E m S W W W W W W W W W y.y.+.Q S m m m N N N N P W ! X.W ! ! X.#.i.i.:.d.:.:.:.,.3.3.K.g.d.h.d.X.W +.+.N m N F v m W P v u.y.m m W W m F D Q Q V q w h v V V V V V V 8 G V w w h h v V h h v v h h h w w 7 w p p w w V Z V w w V A Z V h h V D S V V S 7 w h h v V G 8.h w w V V V V V S v Z G S D W b #.O.N f m F F Q h w w 5 8 a p q q D q b g S S g S W Q W E W o.+.N F v N o.F q v g o.o.v h D G h V v v v v v v h h v S S v h v v v v G F 9 i _ N F G N F o.G b G v v Q S v v q v v w w v S V v b b F o.q.q.#.a.U.W N O.,.d.n P f [.'.q.X.W b G F F X.b m o.q.o.F f.U.U W X.N a.h.g N n X.g B +.,.9 X.q #.N 9 N N ! N g P W g n m o.G o.o.W W 9.q.g X.X.#.#.h.#.N ! N U U n U ,.,.X.U N ,.O.,.,.,.,.K.K.O.O.P.$X}.#.O.P ! +.P N #.o.o.o.o.+.o.o.W N W W W W X.X.X.m O.a.#.N ! $.X.o.o.F b F v v G V w w V C V z z 8 w w w 8 8 t t w w 8 6 8 w a t w w t V V V V t 8 8 8 8 8 8 w V A V v v V V v h h h h v v v V V p w w 8 8 8 8 8 w 8 8 8 w t 8 w w w h w w w h h C V t t w w 8 8 8 8 8 6 8 8 8 8 ",
"G V Z G F V Z V o.V V V v v V v S b w w V Z V q Z S A G V w w 5 ` 5 Z w p 9.F D o.W N N P U O.i.i.W W X.#.@.<X{.#.a.#.+.a.X.g v h S ~ Q Q S h h G v F 0.o.h q Z V 8.A V A a > > 7 7 7 8 7 8 8 8 8 w t w w w V a a C V a V V t 8 8 8 8 8 8 a a 8 w t a a a a C A a a 8 6 w V a 5 C w 8 a a 8 w 8 G ` S i q i i q w h V V S D x h h g v S F W o.u.w v w w p w q p w w > w > 8 7 p ` V V o.9 F o.W v v v Z G o.o.o.v Z v v o.V q G S F F V v v v v F v v F G F F F 9 v N N o.o.G F 9.G G G m F o.o.X.q.o.F o.o.v v h v h h V G G Z F m v N X.o.X.X.P g N X.! d.P.i.i.+.E W 0.W h S m W s.s.y.o.F W X.X.X.X.X.O.X.W N X.a.a.+.+.y.+.u.o.Q +.y.y.y.y.Q W Q o.Q W W o.W W W W W W W W S E E S S W Q o.! O.o.o.#.#.O.O.W O.o.o.,.u.i.:.n d.O.,.<XJ.>./.d.,.a.,.m v F b +.W +.$.F W +.W S y.+.m E ~ W o.S S v S S h w h w p V w w V V V D v w h v v v V v V V v h w h V w q w V V w w Z V V p V V Z C V h w q w h q q w h h h w q v G 8.G V w V V w w v w w Z o.V Z o.F P ! E E 0.0.m 7 V V V t a a a a q F 9 v h D D h b 0.S Q o.b +.b m o.N m $.F q X.v o.o.v h v V h S V V V V V v v D G G D F V v v F m o.o.v F q.G F G v v o.X.F $.o.S o.G S v 5 v v h h V S V v b b N W F v g c N n ! ! O.).,.a.X.+.o.q 7 9 v 9.F q.o.Q F F o.o.v g X.q N X.m X.c h.U.m X.+.h.a.+.F fXa.'.aXs.#.s.s.f.#.y.q.+.a.q.G v v S v v F b v F v X.q.U.o.m d.a.d.a.U n N n O.N U ,.U #.#.#.P @.,.d.d.d.,.:.P ! W W O.! N X.o.o.Q W W W W o.W W W N P X.O.X.U U #.+.m N +.X.o.X.b v F m c S Z h w S C w w w w a a t w w t t w t a w w V V w V V t a V V V a t 8 w t t 8 w V C C V V V v w w h h h h v v w w p p a w 8 8 8 8 t t w w 8 8 w w w w w h w w w h V t w w w w 8 8 8 8 8 8 r r r r ",
"V w v V w q v v w q w v w v G o.v V V v w v v v h 5 w h 5 w D t A & A V w Z q G v b F W W N N W #.m W X.U c a.U d.a.+.X.X.c q F D 8.y.S h Q D S h Q 0.S q v V h C 8.C 5 z V V G w w w 7 7 7 7 7 8 w w w w w V V w t V t V C V w w a 8 8 8 8 8 6 8 8 a a 8 8 V Z p Z C p w C V 8 V p v Z A Z Z G i G G v 9 i v w v v w w z D D z S F D Q F h h v w w w w V p 7 7 8 V w p 7 A V V V 5 Z k.b o.o.q o.Z Z G Z v v Z i q.Z q o.D q G F S V S F S v v v v q v S v v v F G v c o.9.o.G G v N F q v X.N c q.o.m F G G o.S V h w h V S v +.N v X.q.y.#.#.P ! [.iX#.+.d.O.W y.o.W +.m q +.+.E Q g g o.m W +.W N W +.#.#.#.O.y.h.d.! W +.+.o.W Q E m g m o.W m m E Q W W o.W W D S m b m v S F S m v b F W m m S E W Q o.o.W o.o.~ ~ o.o.U :.@.P ,.,. .J.d.@.U #.+.m E +.F y.N W o.W o.o.g o.W v S Q g q q.D v h V G G S V q w w w 7 w 8 w w w w V D C V v v V S V w w v Z w 7 q p p 7 5 w w p V V V v v v 8.D v V V V v S w S Q Q D S D D Q w 7 V Z v h S V w Z G w v Q S E O.F h S S h h z t V V 8 8 8 t w v 5 v w V S v o.s.v Q o.v q.g v q.b g $.F g s.v F D F b b D Q Z S V S S S S V q w h v V F F F v c o.9.F o.9.v m b q q G N v o.w.h v S o.0.h Z V v v S Z S v b g W u.f.a.#.W N Y.dXY.! d. .O.W N X.F v 9 v q.v S v Q o.v v X.X.W a.m X.f.a.U.+.U.[.N +.+.y.+.a.F W m g q u.W N N #.X.W F X.s.q.o.v S o.0.0.+.G X.W v q.W m q +.q B ,.d.O.U X.X.X.n U ,.N O.O.O.O.U O.,.d.O.O.:.#.f.a.O.O.X.m g o.o.G F F F o.+.N W W W W X.W N #.n m X.N N W b F b 9 q S v w v Z h h V V q 5 w V C C V t w w w w w C V C V V w V V t w z p z w t 8 8 a a 8 a V V Z G Z V w w w w w w w w w w w p p p p 8 8 8 8 t t w w 8 8 w 8 w w z h w w w w V a w 8 w w w w 8 8 8 r r u u u ",
"V w w v V v w w w v V V V V V V C C w 5 w V V w w V V w w C C w V t t A C V p V w v w q v F o.o.d.d.+.#.N #.,.K.K.#.O.#.O.E N h y.Q S D S D Q G S V q q V v w v w w V G S q w Z v v w 5 5 q w w 5 7 7 7 8 8 8 w p w w V C a w w w w 5 5 w w w w w w w w w V V v F m b _ G V v V w v w 9 q S W F D v 9 v V 9 q o.V V v V V C V V G Z D Q Z w w Z V v w 7 7 8 6 7 V a p p 8 7 w Z q Z Z 5 v G 9 v V v v Z G Z v 5 g F v b 9 F b F F v w v b v v v v q F v i S i o.v W Q m g v b v F b q q D Q S S o.v F F o.G 5 V v v v V G G Z h g N W F N X.#.y.X.a.o.N c N #.N g [.T.#.k y.W m o.E $.a.$.y.f.$.#.#.X.+.X.W #.W X.X.P X.d.,.! O.! O.~ E W +.+.P ~ n m W o.E m E b W F b b v v W F S b W +.F v W F o.o.W F D D b m m m ~ y.y.u.u.O.>. .,.,.K.d.,.O.O.O.O.O.#.+.+.o.+.N W o.o.o.v q v S F F v v V S Q v w Q o.w w w 8 7 w p p 8 7 w w v v v V V V q V G Z V p w 5 q q w v v w w v V w h v S Z S v D Q Q D V v v V w 5 v o.F F W m g b g q S o.F v S V v v V D G Q v G G V v Z G V w w a a 8 a a C v w q w w w v G q v g S q F F F v S o.Q b q g N W m 9 m b o.S v v v v v b v V v v b i v G G F G F v h v v v S W v v S W W S S F D V Z Z v v Z v w v Z G S w w v W b v F +.q.u.a.#.m g n i.! 9 [.}.`.g b F g q.W l.q.q.a.h.a.#.,.$.q.#.m u.W F W W N h.y.W y.#.O.W W q.a.y.$.+.W o.a.m X.$.5 c s.E o.o.m W W m O.9 X.h.O.K.a.U O.h.a.N #.#.B X.X.U O.O.! ,.d.! n U } } } O.3.d.a.M X.a.,.N O.d.,.X.o.X.E E o.+.o.F Q +.o.F m F X.P X.! N c m S S D v w V C C Z G v v v D S w w V C w w a t 8 t C h w w v V v h w Q v h q w V w h w 5 w V w 5 w w p V V V w w w v w q w p v w p V w p p w 7 7 w p 8 8 8 8 w w w w 8 w t w t 8 w t t a V a 8 8 8 8 8 8 t t t t t 8 ",
"w w w v V V V V V v v w w w V Z V C V V V C V w w p C A V w w a 6 6 8 w w 6 6 w 5 q w q p Z Z Z F o.O.a.o.,.E ! i.X.E P g n #.u.W h v D D Z S w V V w q w 0 7 V h h V G S w h Z V S v w q w h w w w w w w 8 8 p p w p V a 8 7 7 w w 5 5 5 5 5 5 w w w w w V V w c c c m b b v V w v b S W W P n q.o.D W o.S q h h w w v w w w V w V Z Z Z Z G G p w w 8 a V C a p 8 8 w 7 7 w C w V F q v o.q v G Z V w q v o.q.F G W q.F +.X.W G v v b v b b v S w F b v F v o.v W W b b Q 0.0.Q o.Q o.u.0.F v o.9.w.F F o.w v V v w w V Z A D N X.+.+.$.#.+.X.#.m m z.U.m c W m ! m O.! ,.W +.W N X.X.N N N m N F F +.X.X.h.y.X.X.} U O.O.X.X.O.#.#.O.#.y.,.O.W P E W W P E o.b Q o.o.o.D v F o.o.Q F G F v v v V S v v v v h Q S m S W Q o.+.:.>.} @. .d.,.,.O.U P U O.:.#.O.E X.F o.F g F W v h 9 q v V Z G v 0.o.V V V G w.V p 8 7 7 8 p p w w p v v v v v V V p 7 5 w p v q 9 7 w w w h V w w h v S S v w m b S S V v V V Z v W o.E W y.#.m 0.0.m g g h F q h v v v v V v G Z F Z Z V V v p V Z A C C a a p w w w v V S Z G F S 0.v b b F S S S E E F N W W ,.W 0.F Q Q Q V b v v b v V V v V v w F o.F F D b b W +.o.Q W v F o.o.D v F o.8.v v G Z w q q q w V Z Z b V G W o.q.s.s.+.E S q U.Y.P P ! g X.} c d.#.+.u.9 S W W W X.U M B M c F o.F z.u.#.+.q.N #.d.y.O.! ,.f.#.y.s.q.+.+.X.q a.a.c X.a.+.! T.,.m P #.#.! O.i.f.h.n :.} g B @.#.X.@.N c O.a.#.O.U U :.,.i.K.:.:.,.a.d.d.d.d.:.3.g.d.,.d.g.,.! +.#.O.! ! E m o.o.W F S F W o.P X.X.P S W o.8.V G G C C Z A C v h v Z S w w V v w w V V w w V v v h v v v h w 8.V V h V S w v V 5 w C w w w w V p w w p V V V p w 8 w w 7 8 p 7 7 8 8 w w w w 8 8 8 8 w w w w 8 w t t t t 8 t 8 a a 8 8 8 8 8 8 8 w t t t t 8 ",
"w w w V V V V C V V V v v v V Z w p V C C V V C w w p Z V 5 5 V t t a V a w t C C A Z S Z Z S b o.X.m E h W W +.0.W W W m m Q +.D v v G D Z V 7 v S h w h w w G D S V S V w w v V S S h w h h w w w w 8 8 8 p p 7 8 8 a a 8 w w 5 7 w w w w w w w w w 5 w w w w c m m m b S Z V Z v h b E W ! ! +.o.W F Q o.S 9 v q w v v q w V v G G V v Z C w p w w 8 8 w 8 7 8 7 7 7 7 5 w V w w V q h G v v v V G G Z V v v b v b q.m W N m G v v v v v v v V w v v i v v o.W Q F v v W +.o.q.+.v 9 g v b Q v G o.i q b q b V V V V V S G o.F N F W o.+.F c s.a.N v b W y.o.Y.a.! a.i.O.c W c N N X.#.#.$.y.o.+.X.#.X.N #.X.#.#.,.O.U O.:.O.N ! O.! ! O.! N E W O.O.! ! X.o.b F G Q o.G F v v o.F q v G F v F G W D F G W D Q W Q 0.y.t.+.+.O.:.} @.} a.#.,.#.! P ! #.#.O.P W W N +.F 9 b o.v v q v G o.G V V G V q w w v G S V p 7 7 8 p a 8 8 8 p p V v p p V v p w w w w h w 7 q w w h V q w w h v v V v S S S Z Z Z C C V C Q W S o.y.O.m +.o.S b b v m v b S S V V S D o.v v G o.Z V C w w 8 8 w 7 5 5 q q 7 7 w V V v v 9 9 o.g g g S Q S m m F S N E g y.E o.h h S m S b v v b b v b w F v q S o.G Z D b b Q q.0.o.W v S D W S v S o.q.V v Z Z V v q w v V Z Z V G o.W D S v g v +.f.q o.P O.d.! ! K.3.c h.m g 0.3 0.Q q.s.y.+.X.@.#.X.#.$.F a.X.m g #.X.N i.d.U P O.n c X.h.d.#.X.N #.K.].W #.U.m g O.n P a.y.m n n g N O.n K.`.d.h. .3.@.@.M B O.:.O.:.,.d.H.:.:.f.d.,.a.d.a.O.U X.,.,.#.#.a.,.O.O.i.i.,.O.O.O.X.W W m v v m S S b N W W N b W o.0.h G G h V ` G w v h h S V h v S w w w V V p w p h S S v h V V h 8.V S V S S q w V w w C w w w V C V w w V V V p a 8 w w w 8 w p 8 8 8 8 p p w 7 8 8 8 8 8 w w w 8 w t t t w w t 8 t t 8 8 8 8 8 8 8 8 w r t r 8 ",
"C V V C V v v V h V Z Z Z V V v w w w p w w V ` V w 8 8 7 5 w A w 8 a w w w w v 5 q w w p S F F h F F +.F o.W o.y.W S F S E E g o.S S D v v V h V S h h h h V Q D V v V v w w h V S V h h h w q q 7 8 8 8 w w w 8 w 8 a V V p 8 w w V V w w w p w w w 5 w p V w b X.F v b F Z V Z w q h b S o.u.o.F v v b D Q v Z w w V V q w V h v V v V G G Z o.G G Z C a 8 8 w 7 7 7 7 5 w V w q Z v q F F F o.Z v v S Z v v o.b F u.b X.X.F D v b v b v i v V b V v b b V o.o.Q S h v F W F W W b m Q W S S _ o.o.` G V V w.Z V Z G G G Z D W W N F X.+.o.W +.$.W +.$.W X.N W #.O.O.#.#.! o.n ! N N +.X.b X.b b m +.+.+.h.a.#.#.,.#.U :.d.X.! #.#.#.O.+.O.E P o.,.,.#.#.O.E W S v F D Q o.F v F v h F o.G G S F F N b F D D v m E o.+.W E E X.#.O.,.O.a.#.+.O.W E X.O.o.W S X.F q N W b F b S v v F o.8.G v S Z S V Z C V V V V Z a p 8 w p w 8 8 p p v p p w V Z Z V v w q S V h h h h h v w w w w w v Z Q Q F S Z G G C V w C Q W W ,.#.N c N S S o.o.m g h v v h w h S G G v v D G Z V V G A C a p a V Z 7 w 7 5 w V v 5 F v q o.b W W o.S S S F m m N X.P d.m +.E W 0.S S b v i v v b v v o.Z q v o.o.F W b v F Q Q Q Q b v v b S S F W G G Z q q o.8.w v V Z Z V V D o.F Q +.o.W b E o.W f.P N #.! ,.y.X. .#.#.+.D h q 5 S o.D m m U } q W W W f.K.K.[.+.h.#.d.Y.,.,.:.K.#.#.,.O.N O.,.,.3.d.#.f.K.#.,.f.#.#.f.O.P f.Y.#.,.f.O.Y.h.#.O.@.a.a.3.@.@.@.} K.d.,.:.:.O.:.K.].h.d.`.K.,.O.O.O.#.P P :.O.N X.i.i.,.,.#.,.+.+.E S F W o.Q W W N F F b m S D Q G S h w D q.9.v S v v S v v V D w w w v V V V p w Z G v h S D V o.v V h v V q v v w v C w w p p C V V V V V p w p p w w 8 p V Z V p p p p p w 7 8 8 8 8 8 8 w w 8 w t t w w w 8 t t 8 8 8 8 8 8 8 8 8 8 8 8 8 6 ",
"G S S Z S v h v w v S Z S V v w w w w h w 7 h G v V v q q v Z S w w p p w w p p b V p q q i i i q D Q u.D Q S o.0.v q q h F Q v F v v v q q v V S V h w h h h S v h h v v V S D V S S v h v h q 7 w 8 w q w w w p w 8 p V V w 5 V S A C V w w w w w w w w C S V v N F v q v V p v w v D W F O.i.u.S b F v v F F D h q V Z v h S o.G F F D V V Z w q 5 5 5 5 5 5 p 8 8 8 7 7 w p w i o.Z h F D o.o.Z v V G o.W F W F W a.F o.W F D F b F v v v v F G G o.G F G o.W D S b D o.o.Q F F v S +.o.F b G _ v m v q g G G S V D Q G S v b N F W W W X.X.m X.o.a.a.X.X.m O.a.a.! O.! m g c E m v W F v W s.#.W #.o.N X.B X.W O.O.U :.a.N O.o.#.#.#.#.#.O.+.#.#.+.#.#.O.N +.F G o.W o.+.F o.W F G +.W b G F F F F F F F W o.E m m g v m W +.#.X.#.X.q.X.X.m m S W W S S W N F q g b W o.g G F v q i Z Z Z w v G Q V V Z G V Z Z V p w w 8 w 8 8 8 p p p p v V Z v q q v G S S V v v V v h h h v v v V S D D b v V Z Z V w v A D D q.f.#.m m O.X.E E m g v v b b b b S G o.F G G S V V V w p w 7 5 5 7 8 w w p w q w V v 5 o.o.v G v q.+.F S m m E W W W O.O.a.N o.E Q 8.S F v v v v v b b v 8.o.v F o.o.F W D D W W D W o.b b S F F F Q +.v S Z w w o.8.h v S Z S v v S D v F o.0.+.W m m W U.#.O.! n O.+.} 3.N X.F q o.S h Q 0.o.Q +.#.#.+.U.d.O.O.O.P O.P d.O.d.K.O.:.@.P.a.d.a.O.U ,.P.P d.:.3.d.d.P.d.,.O.! :.O.O.Y.a.X.U i.! i.a.d.h.q M @.@.d.{.<X<X,.d.,.O.:.1.i.d.>.N n O.,.O.U O.#.,.X.U O.X.P :.! O.#.,.,.#.X.W E S F W D S F Q o.X.G D S V S G Q S S Q q.u.q.+.Q D S S S S S Z V v w w w V V V w D Q V h S G S o.h h w h h q Z v w V C w w p V w V Z Z V p w a p 8 w w w p V C Z a 8 w 8 8 w 8 8 8 8 8 8 8 w w 8 w t 8 w w w w 8 8 8 8 8 8 8 6 8 6 6 8 8 8 8 6 ",
"G V v S D S V V Z Z S S V V S D w v V C v w w h 5 h v q w V V w p V V V V Z Z b 8.o.` b p q q 7 S o.Q 8.v S S o.S v S S v S Q V q q v F v w V V Q G V h V h w V S S S V v v V S V S S V V V V w w w w w w w w w 5 7 8 w V C V w w v V V V V V V w h w w V Z A Z q c v v w v V V Z Z Z F S E O.u.+.m E #.m v W D v h h v V V V S 9.G b F S q q V A Z V p a V C Z p w 8 w w 8 w p q w o.F v v v o.V Z Q Q D v b b 9 F N o.b W c c F F F G F v v F S G G o.o.v G G F S b S D Q Q W W S q 9 v b m S G s.o.b X.9.s.o.o.V w v D S V v v F +.#.+.F F W W +.N b b W s.a.P M I U d.i.#.#.c m b F o.+.+.q.G m c +.#.+.a.#.X.W X.X.O.,.,.} ! E W ! +.#.#.O.a.#.X.! O.O.O.X.$.F X.+.W W o.g o.F v F o.F c F X.G G o.W W W o.o.W E E F F Q $.u.q.F W m o.N F W F W o.W v h S g o.W b m F +.F v F F v v Z Z V G h h V w V Z V G Z V p w w p a w 8 8 8 p 8 w w q w v N v g m F v v v v V Z V h h V S G G S v w S v v v Z A C V A G S b q.a.#.! #.#.E m W W b F v b F W Q Q G G h F G v v Z Z V V V V Z Z Z V a w w w w w v v q F F q v q 9.o.v Q m g m W W N c P X.E W f m l S D F v v v F F F F o.o.v F o.G F b S W o.W S S D h S o.Q b h W y.S h Z 0.8.G D V w v S v h v V S 0.o.S h v W +.y.g E P ,.a.+.O.X.g N j.a.o.S q q h S Q D D W W W g y.#.O.! #.P O.U O. .d.d.U U O.P U d.).J.3.d.d. .,.@./.K. .d.3.O.h.K.$XP.a.Y.,.O.X.f.#.#.! W O.d.J.`.3.U  . .,.O.d.d.1.K.P.1.O.,.X.U O.i.,.#.#.O.:.#.} U P ! ,.,.#.O.X.! ! o.+.o.W F m v h b o.G Z Z Z V V S Q h S 0.u.q.W X.#.+.Q D F D D Z Z S V v w w V C V v G G V h V S V 8.h h w h v w G V w C C w w V V 5 w Z A V w V C 8 p 8 7 7 w 8 w p w 8 7 8 w 8 8 6 8 8 8 w 8 8 8 8 w t 8 w 8 8 w 8 5 5 5 5 5 5 , 6 6 6 6 8 8 6 5 ",
"D v h S G D S V G D Z V v V Z G w V Z V v w w w q w v w w w w w q w i i b S i 7 7 q q q i b S V w Z G q.G G h v w v G G Z Z S q v q S Q F v S v D Q D S S h w S S G G V w q q w V S S V v V V v w w w w w w w w & 7 w w p V V V w q q w V Z Z A v v v w v C Z V q q v v v w p C ` G V h v W #.y.P g W #.m E o.F c b F v h v S S q q v b b F Z o.Z V p p p i w w p w 8 w 8 8 p V 5 v Z v F S 9 G o.o.F q 9 q b X.g a.o.W P +.N +.b v F F v v v b v F v o.Q v o.G F b b b m v v v g D Q o.0.Q m b 9 o.v q v o.q.Q G v h S D S V F W +.a.j.a.+.o.#.+.g 9 #.y.g F a.@.O.O.N #.n n N W m F F v v v h $.o.W y.+.m X.U +.#.#.O.,.,.,.d.i.:.O.#.a.d.d.,.,.O.! O.O.! ! +.+.v W o.b F o.g F F v v G F b N N N N F F b N W c v N W X.W W X.+.o.v F b o.b v o.G Q o.Q v v S v +.+.X.m v o.o.S G o.G Z G F w l.Z h V V G o.v Z V b v v p v p w 8 8 8 8 8 w w w q v F W N c c v v v v S G F h h v v D G Z v q F S v v V Z Z Z S G S F y.#.! O.,.O.N N +.#.W W c g g g v b v g b b b v v F Z Z w w w p V p w 5 w w w w v w w v F F v G v 9.o.F Q W m m m m m m #.N o.+.E +.f Q D S v v v F D G v o.G F G G F Z v v b F F b v S S F W W S v S Q G w V q.q.o.D V h S D V v V F Z l.l.u.o.W W W E g o.,.c P f.#.q j.} #.c g Q h D z S D G S S D o.m d.#.O.:.K.,.d.d.O.d.P.P.P.J.K.J.J.P.J.5.d.G.,.:. .:.J.G.>.d.K.@.h.O.,.@.c ,.d.P N f.,.y.O.W ! O.@.J.5.,.d.d.].P.P.1.:.1.d.1.d.#.O.X.W W N m n n W #.X.N X.y.y.f.y.O.! ! X.#.f.u.+.o.q.q.o.o.q.Z V V V w w h S q S o.o.X.! O.#.o.o.W W W W Q D Z Z V h V Z V w S S S V v h v V 8.h v v v h w G v p C C w w V V w V C C p 8 w V 8 8 8 8 8 8 8 8 8 8 8 8 8 8 8 8 6 6 8 8 8 8 8 8 8 w t 8 w 8 8 8 8 5 5 5 5 6 5 > 6 6 5 6 8 8 6 5 ",
"Q v h V Q G S v h v v v v h h h h V v q q v V v Z V V V w 5 w G b S S S ` o.F i V S F S S S b i 8.G q w q G G q.v 5 5 5 w Z Z q o.m v F F F V q h Z Z S V w w G q h V h q 7 w h v V V h h V V v w w w w w w w w 7 Z G C w 7 w w C V v v V V V v V V v w w V V v q q v V v 7 7 v p V v v o.y.#.N O.P ,.#.m X.y.m m o.0.S q g v m F +.q.Q S S v q v v v V V V p p 8 8 7 w p p p V w Z Z v o.o.q o.v v v G +.+.F v m T.+.c m #.X.h.v v v v v q h v v F v o.Q v o.o.S b v v v v v b v Q o.D F b D q.v X.i v G v o.o.v v S o.0.D S D b N W X.W N N X.c W m c m W o.g I ,.g.} O.U a.h.m f m F h S Q S W W X.y.X.m O.+.#.d.,.:.d.,.,.`.f.,.X.O.,.i.#.O.! P O.i.,.! P +.#.v F o.v G u.o.o.+.F g F o.F b X.X.X.$.+.X.X.+.#.+.+.o.X.X.o.q.F F v o.o.q.S 9 b g v D o.D D Q b W N X.F g b F o.o.D q w V V w D q v V 5 q Z Z v v V Z Z V w 7 w 8 8 8 8 w w w q.F g c m m m m F Z S V Z G Z v v w q h V S V v D S v h h v V V v G Q +.f.+.P +.! :.,.#.#.P m ! q.X.v g v F W W u.W b S F v q w Z V v p V V v p p w w V V v v G G F F 9.v F v v m W 0.o.m m +.K.d.f P o.0.T.9 S b v h g v v F F v F F F o.G F G F v g h v b S W y.W m F o.o.F v Z w w v D o.o.h S Q o.G S Z G G b W W S m b b m W q P P n n m `.3.] m m y.z.Q 7 h h V D S h S 0.W d.P n P d.O.,.,.O.K.1.3.gX,XP. .;.5.G.G.J.1.M ).$X,X .M J.5.U d.g.n 3.`.O.,.#.#.N y.E E m W O.:. .J.).&XzX].%Xd.d.1.H.P.d.:.d.+.,.y.+.W N N N c P a.y.X.d.[.K.O.O.#.d.d.,.o.o.W m F q.u.q.Q G A C V V w 8 w V v S b g P i.d.#.O.W W W W o.Q D Z Z S V V Z V w V h h V V h V S o.h V V v h 7 Z w w C V 5 q V V Z C V p w w w w 6 8 8 8 8 a a 8 8 8 a a 8 8 8 8 6 6 6 8 8 w 8 8 8 w t 8 w 8 8 8 8 8 6 8 8 8 8 5 6 6 5 6 6 8 6 5 ",
"D F o.+.D F o.+.D Q v S W D Q v v S v w w h v v h Z Q Z v w w w q p b b S ` ` ' b o.9.F i v Z F p V V V C C A A w w V w w w V Z G _ _ G F N F F V v v S V h V G v h v S D V h h w v S S V V S S G V w q w w q 5 5 q V v w q q w h V S S S G D V Q v q v S V h w v v V V v w p C V w v v o.o.m O.X.,.! ! #.! O.W y.c E o.q v +.v b 9 W c F s.F o.o.V v o.8.G Z ` Z V p p 8 w v Z V Z V V G G F W S S G F F +.#.N f.o.+.X.d.c g c o.v b D h m W b F b v S Q Q b q W S v v F W F v h v W o.W D o.q.o.N o.m +.m F +.o.q.+.D S S v S q #.`.h.X.c c N N m X.o.v b +.X.n } d.d.O.O.X.N P c v F D h v D o.m m y.j.#.U N O.#.U ,.h.U P ,.#.d.#.P O.#.O.d.d.X.O.i.,.O.O.+.m N W F N m N W +.X.W W X.F N N N X.o.+.#.X.X.a.+.X.F F X.X.F v v V G G G Z Z V v w v V F S G o.+.X.F N W W F v S F F F G G V q F S F Z V v v F b G D v b o.o.G V p p p p w w q v F b v q g b X.v F o.o.F G o.v v v F F v v m N F S S v v v V V w G S u.m a.#.d.:.U ,.i.U #.a.N N +.q o.b N N c b v +.q.b F o.v Q o.8.o.Z V Z G V p w p V C V V v v G G N F W b o.m W +.W y.f.X.a.U i.N F g m m b Q b g D W b W S o.F Q v g +.F W v v W S 9 9 b v F Q v o.s.o.D S S Q S D o.Q u.Q Q S 9 v D h D T.j.o.v v g m y.m +.P m O.N g O.f.h.} X.#.N v S z h S h 0 S Q Q m f.$Xd.U U ,.G.O.O.J.>.T 1.1.G.>. .>.U ,.>.P.>.U ,XJ.P.G.;. .@.K.K.} I O.@.d.P y.#.#.i.u.+.+.i.,.3.T @.d.,.,.O.1.d.d.,.O.U ! O.! W m E W N W c N #.a.+.W X.+.+.#.K.`.,.,.,.W y.Q +.+.F S o.0.8.8.A 8 8 w w w 7 S m m W #.:.:.O.W o.W o.u.u.Q S q o.Z v h o.v 5 h Q h h w V 7 G G V v v V h v V w w w V p w w V w w w p V a w w 6 8 w 8 8 w 8 6 8 t V C C a t 8 8 w 8 8 6 6 8 t t w 8 8 8 8 w t 8 8 8 8 8 8 8 8 6 6 6 6 6 6 8 8 ",
"o.b m D W +.u.q.v o.Q o.F h F b v v h q h V v h v S Z V V Z G G b S S b S _ ` ` v F S 7 5 w Z G V w w w w w w 5 7 w w w V V V v G _ _ G F F F G V v v S V V S Q S v h V D S V V h h v v v S S G V v w w V V v w 7 q v v v V G 8.v V S v S D D Z V w q v V v h h w w V V a w w a w w v v X.$.o.h.:.d.#.,.i.,.i.,.i.X.+.o.b W E 3 W F +.F W q.v q u.o.G o.G V w w a 8 w 8 w w p Z w V V v v v v F +.o.o.F b W +.N N W O.N a.#.,.X.+.v b o.W v m F b S b b D o.Q b b S D F v v m b W F S F S b b F N c c q o.m o.u.W W F v h D +.u.g c m W q.f.u.X.N X.q.+.m m F N d.n c O.O.N W #.+.N v b D S h h o.W W o.#.+.X.U d.a.O.,.K.3.,.#.O.d.a.,.d.i.#.,.f.#.,.d.,.#.#.O.W X.+.+.X.W X.X.+.W F F F F W o.o.X.F X.y.#.X.+.N m m N W X.X.G Z Z V v v v V Z V b v Z F V F X.o.o.o.o.+.o.G b o.o.F v V G G Z w b F Z F v v v q v D Q o.W F m V V V V v w w q o.F v N o.o.F v o.F F G S F G F F v v v v N v q F S v v v v V V w G D l.+.U.,.i.:.:.d.,.#.i.d.X.i.a.c W q q N #.q.G o.o.F G 9.9.S D G G C V v V p w w w V V V V F F G G b F o.F Q W q.y.P N W N O.O.K.X.+.y.o.g W s.0.v v m h v v F F 0.Q v o.b Q D S F F F W Q F Q o.h h b q v q v Q D o.q.D Q S D Q D 0.o.q h q m W +.q.o.E o.#.W f f O.,.X.X.5 #.X.B W 9.o.w h h S S S S Q Q X.#.i.d.,.:.,.3.U d.&X>. .G.5.5./. .5.J.#XG.d.5.J.<X5.J.P.P.>.5.K.g.} @.3.:.d.#.O.n f P +.+.o.X.,.d.:.1.3.U O.,.1.,.O.! ! O.#.#.m W m X.X.E X.m c X.#.o.W X.O.X.W +.,.! #.i.+.f.o.+.0.q.q.q.o.S a C A C w 6 h S S S S X.+.,.i.d.W +.o.o.q.q.o.W S o.v v w D w V S 8.v v h V 7 S G V h h h w h v v p V C V p V C V V V V V a w w 8 w 8 8 8 8 8 w V t w 8 8 t a t 8 8 w 8 6 8 w t 8 8 6 6 6 6 8 w 8 8 8 8 8 8 8 8 8 8 8 8 8 8 r t ",
"s.o.Q Q F S W S b 0.0.0.W v W S v h w w V Z V q o.Q D V V S v q v b F F Z F F Z w V S p p V C V V w q w A G C w v w q w C Z V w F F F F F F G G F v v v v h h v v q 9 q h h h h V v h h v V D D Z Z Z G G G V w w w w w w v Z G G Q D S S Z Z S Z V V V V v w h q w v V a 8 8 w p w v q v F W f.O.,.O.,.i.O.,.O.P o.O.m N a.h.y.W F N v F o.o.W q q q v V Z Z C w w w 8 8 w p V w Z Z V F v v D F F W F m W +.W m f N #.d.g n y.v v Q T.uX0.v S b F F v b o.o.W S W Q Q D F D W D b m D Q W S v m +.+.f.`.N m q W W Q F g v b v +.X.m c m F W F W a.y.F c m F X.O.U } ,.a.d.#.N W E b b b b v v F b c m $.f.a.X.,.a.O.,.,.a.h.#.I #.:.#.a.a.,.a.a.:.a.d.:.:.:.O.W X.+.+.X.W W W X.W W W E N W +.+.o.W W 0.o.F W G F F F F F F F w V D Q Z v v v S S F G F N N F W X.X.X.X.W F F v V F F Z F V i q v v v v F F h v h v D W W o.o.G o.o.o.Z v v v F v q v o.9.Q v 9.V v o.G F F F G v v v v v v q D b v h v V V V V Z q o.W f.i.f.O.,.:.O.O.#.O.U +.X.N h.h.y.X.m g g b o.o.b g g F D G G G Z v w w w w p V V V V o.G G F v F o.W y.W m P #.+.N m W U y.N E +.W 9 Q T.T.Q S Q Q W m v S 0.o.S W v b F F m S o.Q S v b Q D o.+.S o.l.l.s.m h W S Q Q h h q S W S q.9 v S W +.o.W y.a.+.! P N ! W P U h.h.f.a.+.o.W W 9 9 S k 5 f W c N #.K.h.i.d.].>.,.d.d.J.,.U 5.].>.).#X%XJ.5./.#X=X3.J.).).1.5.K.a.X.,.a.X.O.O.f.#.! ,.d.d.y.,.,.:.U ,.,.n P ,.#.O.O.+.y.y.+.W v N g v v g W W b o.q.+.+.q.u.#.,.O.X.N X.O.c W f.y.o.+.q.0.Q Z w 8 8 w w w w q v v S W ! O.d.P.X.#.+.X.o.+.+.+.D Q h S h V w G D 0.v v h V 7 S G V h h h w h v V V V C C V V C V V w p p w w w w w w w w w w 8 A t 6 6 w t t w w w w w 8 8 w t w 8 6 6 6 6 8 w 8 8 8 8 8 8 8 8 8 8 8 8 8 8 8 8 ",
"S F +.q.F m W o.Q q.Q o.Q W W h v V V V S D S h q v V Z G Q D v 9 v F ` ` Z V p q p V V C C V w q 5 5 w C G Z v o.V w w V C V V N N m b F F F F G F v v h w h h V h h h v h V S S V h h V S S S Z Z G o.8.o.v q v v i w w q q q D G Q D D D D G G Z V v v v h w w w w V 8 8 8 8 a p p 5 q N m #.,.d.1.K.d.,.d.,.! f.i.m P +.y.h.y.+.m F F v F F v F Z V Z o.o.Z w w 8 a p 8 p V w Z Z F G F v F q v o.+.X.+.$.W c f.`.,.! X.O.O.W F h D q.W v +.F o.o.b m W Q S S v g h S W F b v v b o.0.o.F v q X.B #.a.c $.+.v v D W v b D v 5 m $.q.X.m m m W f.u.F X.+.o.#.,.O.P n n #.y.W m X.#.W v g v F N F W W o.#.O.N N X.,.d.O.U d.,.:.,.O.P U #.d.h.#.#.,.,.O.:.,.#.X.o.X.! E N N E W X.+.+.W m N W W 0.+.o.W m b W W o.o.G v m m v q V Q o.o.G G G v v F F F N F X.F F F F F F W o.G V v q q v V V b S v 9 q D G v S v v F W F W +.o.$.u.+.W v v S v v v v v V Z ` o.Z o.q.o.o.o.D v F F S v q v v F b h w w V V p V v 9 F m y.,.d.:.].K.:.d.,.O.,.a.O.N #.a.f.y.X.W X.W N F b b W G G G G o.G V v p p p v V V V V G D G F c b W F W y.+.O.+.n N `.K.O.#.X.X.+.o.Q h 0.y.D v F Q Q o.m m Q W b W F v b b b F W b q D D o.F m q 3 b S q.s.S h S S Q Q h m S S m 9 h Q o.S h v b o.j.o.g m O.#.K.Y.#.g m P ,.O.9 m o.o.W E 9 4 S t.Q m W #.d.#.N c N ,.:.U >.].G.O.d.1.L >.T  .5.;.@.5.$X>.$X#X5.G.d.d.#.O.#.#.! ! ! N N P X.+.#.i.f.f.d.W ,.f.#.,.y.! ! W +.y.0.F g T.'.s.u.+.b F v v b F F F o.o.W E g N P #.#.N o.j.o.F W o.W S S G Z a a C D V w S S F E N P :.h.+.o.+.o.o.+.u.+.S o.S Q v S q S h Q h h w V q Q Q S v v v h h V v w w V V w w V w w w w w w w 7 8 8 6 6 6 8 w w a t w t a t w 6 8 w w w 8 8 w t w w w 8 8 w w w 8 8 8 8 8 8 8 8 8 8 8 8 6 6 6 5 ",
"b F +.q.W b W o.o.q.W F F F W g m F W F b b b v g b W W W W F b v S ` ` F V p p p 8 7 5 5 w 8 w v h h h v v v q o.Z v v v v v F N b m v N F G F G D F v V S D D w h V V h q h S V v v V Z G Z S h v G o.+.o.F v v v v v v g q q q h S W Q Q o.o.W b g q v b b h v w 8 w 8 8 8 8 p w w 9 N +.X.a.,.>.,.K.d.:.H.,.#.f.i.#.i.O.N X.X.F N a.u.m g g F o.G v v Z V w p p p a p w w v w v w w F F v v v F #.a.#.#.#.X.m a.d.i.,.i.,.i.y.q.b g F F b Q Q q.q.Q F Q Q S Q b g h S W W S S b F Q o.F b b #.`.+.a.X.5 F X.+.X.F v g v W W b N F X.X.X.X.X.N y.q.+.a.f.+.X.i.n N d.K.,.W m W ,.a.#.F m b N 9 c W X.F m X.d.W W :.K.O.N ,.,.K.d.,.O.U O.a.d.#.O.:.#.X.#.a.,.,.#.X.W N N W ! X.O.+.+.W N W +.! t.+.W W m v F h v v v v h v S S D S S b F o.q.N N N m m N F W N F X.o.o.o.o.+.F F F G G Z v w F F v 9 q F F v b b F o.o.m g v ! +.y.#.E m b F G D V w 9 q v F F o.9.9.o.o.9._ v F G F m v v F S v w w w v w w q w S q.+.y.O.:.O.].K.,.d.d.#.K.,.,.a.X.N W O.#.X.a.y.W N F G o.F F v S Z Z v w V V v v v v b V F v F S g v b v o.s.y.+.a.U n h.h.#.a.a.+.u.+.q.h m W W b S Q o.u.W D W F F W W D b v F W S v h F W 0.Q D D 0.aXW 0.q.m S q.Q Q Q q h S S S h D F o.W m F F W y.a.#.K.K.P ! y.P n #.i.f.:.P ,.,.`.y.O.+.m f k m W W W +.u.,.N 9 P Y.,.n i.].P.d.$X;.@.>.d.$X5.>. .].P &X$X,.&XK.:.#.#.X.O.,.#.#.#.O.#.O.O.O.#.,.,.d.! ! ,.+.#.o.o.W b v v b b b h W o.l.'.T.T.u.W W F S b S F F ! n P ! O.#.W y.W E W +.+.b g q b Z A V w w V G Q Q o.o.E W #.h.#.W +.+.+.y.s.o.F q.W F v D w h w Q v v q h w 8.Q S V V v h v V h w w p p w w w w w w w w w w w 8 6 6 6 6 8 w w 8 w t t w 8 6 6 6 w w w w 8 w 8 w w w w w w w 8 8 8 8 8 8 8 8 8 8 8 8 8 8 6 5 5 ",
"s.o.W o.W W W b W u.+.W b m o.F b W Q S v h v b o.+.o.S v h v v o.` ` G V w w V w 8 8 8 6 6 6 5 V S S V V v v V Z V S G D v v v F N v N F X.o.G Q o.Q F v v Z D q h V S h q w V h h v V Z G G D S D o.+.9.o.D v F S v g q q g v q h S W D S b F q.o.b v b D b q V w w 8 8 8 8 d 8 w w 7 F q.o.,.T U  .d.:.O.H.i.d.,.U ! f.f.O.#.E v F $.#.X.b G g v v q w V V v p 8 8 p p 8 w p v v q q F F q q b b X.$.+.#.y.#.#.q 9 d.Y.#.P U.E o.W S o.+.W b o.0.q.+.o.o.Q W Q Q W F b m F Q Q D F F F F o.u.q +.W f.#.F #.f.#.u.W g v h g v j.#.N c c m F X.o.X.N m X.+.X.W iX#.g n O.i.a.#.+.+.+.#.a.a.$.W F g 9 c F X.#.a.#.X.U a.,.U O.} :.:.a.a.#.,.d.:.,.#.#.:.O.O.,.#.#.+.X.W P W ! X.O.X.X.! P N O.u.+.0.W m W W v h g v v v h v v F S S S v v b G X.F X.X.N m N F F m N o.q.u.q.o.F G F D o.8.` V i b F F v v F N c F F F W Q W W W O.:.,.,.X.N W o.S v q w p V V p F o.$.G v o.q.o.G F v N F G N v v v h h w w w p w v D q.q.#.O.:.U J.3.@.d.d.,.K.N X.K.d.d.,.W N m o.y.+.W N v q F b v v v V v v p p v p p v v b v v F v g v b q y.y.m X.`.h.N N n X.d.a.o.h.o.v b g S o.o.o.y.u.u.Q 0.o.W o.F S Q b h b S b S W q.W F b Q W q v z.u.Q q S u.8.o.o.9 g g g W o.u.b Q W S F F S W g g #.#.m o.Y.f.N P ! H.,.k P P f.O.y.`.d.n g N 9 g b X.y.j.f.y.X.[.f.P ! #.i.:.J.@.@.].d.@. .,.,.].n K.K.>.].>.i.i.i.W W ,.+.X.d.,.X.U O.O.P n m u.+.E m m W F D D D S S V S Z S D v F Q F W h q.q.o.Q D F D W y.P O.P c N N X.~ o.+.+.o.F S F v p w w w v S G D D Q Q W W #.a.+.E +.y.+.u.f.o.o.u.D v h Q v v v 8.S V w v w 8.G V h v v h h V V w w V V w w w w w w w w w w 8 8 8 6 8 8 w 8 t 8 8 8 6 5 5 6 8 6 8 w w 8 8 8 w 8 8 8 8 8 8 8 8 a a a a a t 8 8 8 8 r 8 8 8 6 6 ",
"o.v v W o.+.+.F W u.+.W W W q.F F W D v h v S F b b v h v D Q G G G ` G V q w V 5 8 t V V u 8 0 q q q g g v b F S v F o.o.F b F _ F N N F X.o.X.F o.o.v q v S G G G G Q Q S S D h v V V V V S Z o.o.9.9.9.o.F v G G G v q 9 q v v v F D S h h b q.+.W S F D b q V w w 8 8 8 8 8 8 w v 7 v o.W #.,.T :.K.,.:.].K.].K.O.N #.i.#.O.f.y.a.m c o.b b o.o.o.D S F V V w 8 8 p 8 w w V V Z v v F v h v g q m X.X.+.#.+.P ,.X.#.:.P.1.i.o.v q q g S Q W 0.o.o.+.o.W W W h v b v h g v m W F b b b F o.u.N X.c N g g g +.c +.b g +.o.b +.v N X.+.W m v N y.F c m m W +.+.o.! P N E u.y.m y.! N +.h.h.q.$.'.q.c q m X.N q O.#.U X.O.X.O.U U U #.,.O.,.d.#.,.X.O.,.:.@.#.O.W W W W W ! X.X.X.X.X.O.W W O.y.o.0.W k W W m h S S v v v v V S v v b W Q W F m F X.+.X.X.X.X.N N N X.+.q.o.N c s.o.q q v F o.9.b Z F F F b m m E E m m m o.y.i.,.1.3.:.X.U W o.S v q w a A C p ` F G F v F o.X._ F N F G G v q q h v v w w 8 p C w h D o.O.#.,.:.d.,.>.J.).J.K.3.n #.O.h.3.+.a.h.X.W o.b m o.o.F b v v v v v v w p V V v V V Z v v F v g v b g g +.y.+.,.X.N #.N O.a.d.#.'.y.m g q b W b W q.o.+.W u.Q S +.S v b S S b b F D D F g g b s.z.S h 9 h S v Q u.Q o.Q h o.8.Q o.S h W o.b q v F E W y.m f N #.U.d.f N f n H.f.O.i.,.9 d.$X,.:.iXdXi.g g b b v g F q.q.y.X.#.X.c ! O.:.3.:.jXK.P >.d.,.d.O.d.O.O.:.P d.o.y.W ! ,.P ! d.i.:.,.g.K.K.d.X.j.y.0.o.F o.o.S Z Q o.o.G C v S S 9 q g g D S b b S F S S F W m f P N g W o.W +.0.o.F b F Q o.8.S q h Q q.0.G v h v F W W W ! X.m #.y.W +.s.o.+.+.v S b Q v S D 0.V v h V q Q G V h h v v v V V w w V V p w w V p w w w w w w 8 8 8 8 8 w t t 8 8 8 8 8 8 8 8 5 6 8 w 8 6 8 8 6 8 8 8 8 8 8 8 a a a a 8 8 8 8 8 8 8 8 8 6 6 5 ",
"W b W +.W b v q W o.b b W +.+.q Q Q F v v F W W W D S S Q o.Q S w p Z ` Z w 5 w w w w w 6 w t C S v v v S W Q o.Q S S o.+.Q o.+.G N v b F _ X.G q N G v v D q.s.S v w v V v w w S S V v w w h V G G W o.o.Q G F v G o.o.F v v v g g b D F b F o.h v S V S D S h h 8 w t t 8 6 8 8 8 V 5 v X.X.d.,.T O.d.! U H.i.O.i.,.P P :.:.! +.q.T.g q j.X.b v v v v v v V C v w p v v p V Z Z G V v V v q v v g F +.+.o.W v 9 y.#.#.n #.O.d.f.W W y.o.W W b 0.W F Q Q b v S S v v F o.0.o.F D b v v v w w h q m F a.#.q.g W +.T.W q 0.+.D z.s.+.F v g g b X.#.N o.f.a.q.y.+.y.X.y.f.,.X.u.`.f.+.X.#.#.X.X.o.X.q.#.m g N X.W m f.#.P ! ! ,.i.a.O.#.O.n } a.:.#.n P ,.i.@.O.O.N N W ! O.+.+.+.P ! #.y.,.W E E E 0.o.S S v v S v v w h v v V S D S m S W o.o.o.N X.$.+.+.+.+.X.+.X.W W W W b v F v S 9.k.u.G v F S S S v v m G v F F b b F E m :.:.:.O.P m N F q.o.G V a a a V o.m N o.o.F F N b G o.o.F v v v 9 h v v w q w p V q v o.s.,.#.O.:.:.U U 3.K.d.O.g.c O.O.,.n N Y.f.q c a.+.m N m m b v v v v v v v v V V V Z G o.F v F v g v F v S 0.#.W W N N O.f.X.U #.! f.o.+.W o.u.+.m W 0.S Q F q.b f o.S v q W +.W W +.Q h h v v 5 9 h w G S 8.u.Q m S W T.Q h Q Q Q l.l.u.b S g 9 b o.+.q.v +.h.f.O.+.,.! t.p.i.y.:.K.}.! d.,.i.,.P P :.d.y.b q m N m W a.m W c X.#.a.U.! O.:.f K.3.O.3.M n  .K.d.P ,.U O.,.m W O.,.a.O.a.#.,.,.@.} N N P X.o.m Q +.S D D G S V V V V V v 9 v g b v q g 9 9 g b W o.o.0.u.W m +.O.m +.E q m F W b v b v q S v w w v V S S v h h S W F m c W m #.#.m W s.o.o.W g o.o.o.g S G 8.w w h S q S G V v V V V V Z V w 8 p V w 8 w C a w w w 7 5 5 6 6 6 6 8 8 8 8 8 8 8 a C C 8 > 5 6 8 8 8 6 6 6 8 w w w w w w 8 8 8 8 8 8 8 6 6 5 5 6 6 6 6 , > ",
"D v v S b h v F F W F m W +.W g v v F W F c v o.b F F W W v F q.Z w 7 p V p w w 5 7 7 w w 8 p p 5 w V V v V v v q F o.o.F F G W q.F D v q v m o.b S o.o.g q D 0.w i V Z b q w v V v h V V v z v o.m q N o.o.X.G F o.b F v o.v v D v v v w V D h S v w w v C C v V V 8 8 8 t 8 5 w 8 w 5 9 F +.W O.P f i.U ! i.N ! y.d.:.! ! O.! ,.q.$.F a.s.m c F q q G o.V w w w h v S V V V v Z Z G o.V 5 5 v q v Z Z V S W o.o.j.F W E +.X.W ! W N ! ! ! i.o.+.g v S q.u.h D W Q W W W Q D v Z D D V v v S G i v b v F D 9.j.h F S o.s.+.h m h o.b o.q.v b W F F g W P W U.+.a.+.+.a.h.a.+.W +.W N +.$.X.F X.y.W g m ~ m f W g k m E ~ y.i.y.O.X.,.O.+.,.! X.+.X.O.#.,.#.#.,.W W W P P W W W O.+.#.+.+.#.X.F Q D S S v h h h v v v v h h h v S S W D v g m +.W o.o.O.o.#.#.o.W F F S W o.W b s.W S F b o.o.g Z Z V h i v S v v F G F F F D F g W ,.+.W W o.+.D Q Q D D V S 0.q F g v D b S v v h v Z G Z v v v h v v w 7 w p p w 5 b o.X.O.N N #.,.d.O.n #.d.,.,.O.U  .>.,.,.#.+.h.d.m N +.B m o.o.m 9 v v q v v S S V v S D D 0.S q v h q F o.E W n o.W i.y.P q N y.W m X.+.b o.~ S +.f.0.W S N f.q.m W W b o.v v G F G G F o.F w w V A C p V o.v w z.l.q Q D o.0.Q h f h Q G o.G o.G v F v m b b o.f.a.+.y.W f.'.f.W X.o.m g #.X.m a.W d.#.m O.X.m m W N 9 m n o.K.U.d.+.m O.$X$Xi.O.P ,.,.d.U T K.].d.O.n X.,.O.N ! #.d.P.,.K.f.U n O.a.,.X.W b g S b h h v S Z C V Z C V V w v b v v v o.o.q b m b c o.N q.W b X.W b F q.o.W b g g v F F b v h h b Q o.W +.W W o.+.W W W f W +.o.W +.u.u.+.F b g W o.v D G v v 9 v F w D Z v w v S V V V w w 8 w t t t t w 8 w 8 8 8 8 8 8 6 5 5 6 8 8 6 8 8 8 8 8 8 8 8 6 6 6 8 8 8 8 8 8 8 t 8 6 5 8 t 8 8 8 8 8 8 6 6 8 8 8 8 8 8 8 8 ",
"V h h V v q q v W W W Q W W E W F F F o.W b F o.W W W o.+.G F 0.F V p p p 7 5 7 7 7 7 7 p p p w Z Z C v w V F F o.o.G b v v o.q.v h Q o.o.o.b F g h Q +.F v S S v p V Z p 5 7 w p w w w w w z V v v F X.G v c v v b i G F 9.F v h v Q D w h S V V V V h V A A C V v w w w t 8 5 t 8 8 q 7 S o.F m o.#.Y.o.:.d.i.y.i.d.i.:.T ! O.X.X.$.N N X.b _ $.o.o.9.8.G A V h h v v v v v v v v Z Z v q w V w V G o.0.0.Z q F q.q g v W W W ! ! U :.O.O.f.y.o.0.0.Q 0.q.D S m b S b S S S v V S V V w w V C V v p V V V Z G u.0.m g S Q S h S o.v D o.h v S o.o.+.o.! +.o.N +.X.N m m W X.X.+.+.X.N F X.X.W W o.+.E m 0.y.m k W ~ W m m Q +.o.P W m O.d.+.X.,.i.i.+.#.,.#.+.X.X.O.o.+.+.#.#.O.+.+.X.X.+.+.X.D Z S V v h h h h V V S V V S Z S S D Q Q W o.+.W b g c W :.O.m D D F F Q o.Q S Q o.o.m m +.o.q S F v q w b b i q w i w v v v v S o.0.Q b v m v v Q o.Q o.S h v F o.v v S v S F S v V D G A V v v v v v p w 8 p p V v o.q.o.#.W a.`.W W `.d.O.d.d.d.,.@.@.>.,.:.#.! +.#.m m O.X.X.+.o.G v v v v v v b b v v v b S W v q v g q S F ! u.o.o.g X.y.W m W W E +.+.m ~ ~ W o.u.u.o.Q u.W a.y.F N N W v v o.o.v 9 v v F v q q p C V 8 > V V 7 Z Z q q.9 h S Q Q Q Q o.v Q V h q v o.D +.o.o.+.o.W W X.F F m v N +.#.+.#.y.h.X.B 5 X.W ,.N P i.y.n c O.f.! N ! +.p.u.o.,.! O.].P.P :.].,.O.O.:.,.K.P.d.U O.O.:.h.K.:.X.X.:.#.U U ,.,.X.W W F b W W S D Z S V V v v V V V v v b v q v _ N q W X.o.N o.b o.W o.9.+.W F W F F F F G D F b v h g v F D F b F F W +.#.E E o.q b W F W +.q.+.+.F F v W o.v W W v v 9 v F q Z Z v h v V v h h w w 8 w t t t t t 8 w w 8 w 8 8 8 6 5 5 6 8 6 5 8 8 8 8 8 8 8 8 8 8 8 8 8 8 8 8 6 8 t 8 8 6 8 8 8 8 8 8 6 6 6 6 6 6 6 6 6 6 6 6 ",
"o.S h h h g v D y.o.o.y.#.! W +.o.D D Q W F D o.S S b W o.S h V V Z Z V p p p p a w 7 w V Z p 7 V V p w v G o.o.o.F v v v c F +.+.S F v v F b o.S h v S v b D F q q p V p w w p w w w w w w V Z F F G o.o.G F F N m q o.o.q.X.G g v Q Q v v S V V Z C V V C Z C v v w w w t 8 5 t 8 w w 7 b W m S Q +.y.W y.P N ,.+.O.,.O.N N O.X.X.a.+.N X.N N _ o.o.G Z Z C w v v v v v v v v w V C V w V V V w V Z C Q 8.G w F s.g h W +.W +.! ! P O.P N O.m b l.u.v h W 0.S o.W b S o.q.Q v v V V h w w w v p w w Z o.o.Q D q S Q S k Q u.u.D o.V Q +.v h v F +.T.o.N O.m +.m X.#.#.+.+.X.X.W o.X.m m X.X.N +.m ~ +.m ~ y.W k W ~ E m E ~ t.o.P ! P X.a.,.,.y.f.d.O.O.,.,.! #.#.+.+.+.O.X.X.#.#.#.X.! X.+.+.D S S V v v v v w V S S V V S Z Z S D o.0.+.o.Q +.W m N o.y.+.E o.Q W W Q Q F h v W W m F W b h v v v i i v v q V v v v F ` ` F W o.+.o.W W W W v o.+.o.0.o.b g o.+.v b F g b W S v v S A Z V V h q q w w w w 8 7 w q v F m W N a.#.X.#.U N ,.@.:.#.O.U U  .@. .a.+.X.+.X.N X.#.X.N N F v q q v V V v v V V v v S S h h v q q F F m W W +.m E o.m m E W W #.y.N W m m Q +.m m y.K.g g W X.X.m F v v o.9.F v F G v h q q w p p p V Z 8.o.q.8.v D D S S D ~ o.Q S v q.o.v 9 v o.G q.F W +.W X.+.N s.q.W W +.o.N N N 3 X.X.N X.h.a.i.U P i.d.O.P O.O.m g m E +.+.m y.! U H.i.,.d.:.i.,.#.U n P ! n O.#.O.#.d.d.#.X.i.,.O.! #.i.#.m o.+.o.W Q D b F o.V h h v w w V G V v V v h v W W v X.F W b +.X.W Q o.0.o.W S v v b F W Q W S v Z v h S D F S F q v ! #.! m m X.g b m m F +.o.W o.F F b W o.v W Q v v 9 v V q Z D V h h h w w h w w 8 w 8 t t t t t 8 w w w w w 8 6 5 5 6 6 6 6 8 8 8 8 8 8 8 8 8 8 8 8 8 8 8 8 6 8 8 8 8 8 6 5 6 6 6 6 6 6 6 6 6 6 5 5 , , , , ",
"Q S v Z D S S W j.+.W o.+.o.X.+.Q D D Q Q D D W D Q Q o.0.W S G v Z Z 8 w V V p Z p 7 w Z A a 7 w q w p Z G G Z v q v Q o.b v F W v S b b F h S W g q g g v W W v v V V V p V V w w w w w 8 V A F v 9 q F _ F v X.F q F N o.G o.S v S D S D S q V C C v w p V p v V w w w t 8 6 w 8 8 q 7 v F g o.o.+.X.o.U.N g ,.#.#.,.,.O.:.i.a.N #.@.X.3.+.F X.o.+.o.G G G S S S S v v v V V w C C w 8 a V w 7 Z o.C V D G v v s.v v F W v W #.O.U O.P N ! m m [.l.W b D u.F b b m h h h h 9 v V V v w w w w w q w Z 8.8.8.8.q S u.u.m h Q Q Q G G q.u.W v g W o.F 9 X.f.o.o.W N F W N m W #.c W X.X.o.X.W v y.~ W W m m ~ +.m E E E W +.+.~ ! O.i.O.P #.#.f.,.i.#.! O.,.,.! O.O.O.O.X.X.! W #.y.#.O.X.X.+.o.S S V V V v V V h S G G V v V S G S S Q o.o.F m F W X.W E E E N W W F F W W S g S b v W q.b q o.F V v b b b v q v v w q v F G G v m m m b F F D m o.Q F o.+.W S F W v W Q g v W S v h V V V v v v q q w w w 8 8 V V q v b m X.X.,.X.d.`.c g K.,.,.,.>.O.>.3.3.,.#.#.+.#.a.+.} X.#.o.X.o.G F S D S V v v S Z V v S v h S S q w D +.m N W ! n P y.N c m o.X.E X.y.W W W o.W g W [.f.N m X.+.o.N +.F 9 9 q q v v v v v w q w w w p b w Z G G o.h 5 q.o.S m E Q W m G s.w.G v q G F o.q v +.+.u.y.g c W F m N c g m `.N y.+.m N N W ,.! N X.,.i.O.P k P o.O.E o.+.W ,.,.! O.n f.Y.g ,.! :.d.y.O.! X.O.,.#.! O.#.,.f.K.i.O.O.,.,.O.N X.+.W F F b v F 8.V w V V w w V Z V v V v v v D o.N W m F c W o.F Q W S b F S v D F S D W W D W o.S v S F b S Q q v E o.! m N X.m m F m F o.o.o.o.F F b o.o.v F Q v v 9 v V q S S V v v h w w V w w 8 8 8 t t t t t 8 w 8 8 8 8 8 6 5 5 6 6 6 5 8 8 8 8 8 8 8 8 8 8 8 8 8 8 8 8 8 8 8 8 8 8 8 5 6 6 6 6 6 6 6 6 6 6 6 6 6 6 , , ",
"h h Z q.q.Q b v q.q.o.W E W X.o.W Q Q o.o.D S S S Q Q D Q S S o.Z Z V 7 8 p w 5 C w 7 w V C p 7 p w p V C V v q v w v +.q.W b F m q m v b D v W v q v F b b D S W W G F v p w w w w p p 8 8 8 V 8.F h q v G v 9 F F q F v F F o.W S F F V Z Z q v V V p 8 w V w v V V w t t t 8 8 8 8 w w S W m v W +.W E f.N X.! #.:.O.O.,.,.,.h.U X.} U a.d.a.X.X.X.$.+.G D G S V V v v p V V w A C 8 8 a t 5 q G q.8.Q Q S q F j.F D b b b +.#.! n W ! W #.N g z.s.u.o.m F q b +.s.+.v q b o.S b v h q q w w v v v V S S Z G u.S S Q S h S h Q V D 8.+.W v v m q.m g ! o.y.y.+.m m o.X.m m +.F F +.a.a.o.N N E U.y.f E t.~ ! ! o.~ W W Q E n E W i.O.E o.O.d.u.o.E W #.+.O.! W W X.o.o.+.+.+.X.+.+.o.O.o.o.W S V V V V V V V v S G G S V V S D Z Z Z D D b v F W +.o.W W E m b b b b W o.W m o.D v o.u.W h 0.F F S v b v v h q v v v q v G W W F S S b b b b b W F m Q o.W F F E g W Q g h F V v h V V v v v Z v v v V p w w V V q v W F O.W X.#.X.$.y.X.O.+.:.:.@.O.,.d.d.3.I #.#.@.3.3.@.X.X.+.o.G F Q G S V v h v C Z C V Z w w Z V q w S o.+.y.u.b 9 F T.+.E m W o.W W y.S Q o.W E m W f.+.+.y.X.N m c X.U.o.b F D Q Q v v v w w w w w p Z v o.Z v o.0.q.F S v h S Q o.Q D 8.G G v 9 F o.o.g F q.X.#.#.q W u.u.F m X.#.q.#.X.#.X.B N X.dX#.N n #.,.! P #.W ! ! m g E +.o.,.P n a.! y.f.! m q n X.! W ! W ! #.,.#.,.#.#.i.#.! W O.#.#.W N m E b v S F F o.o.v w S A V v Z V v v V S V v F b b o.W $.m b b m D S h h S D v o.Q D Q Q D W Q D v v S S v v S b F W o.X.W W X.b F F b b F o.+.o.S b b o.0.m S G v v q v V q V V v v V h w z C w w 8 w w t t t t t w 8 8 6 6 6 8 6 5 5 6 6 6 6 8 8 8 8 8 8 8 8 8 8 8 8 8 8 8 8 8 8 8 8 8 8 8 6 6 6 6 6 6 6 6 6 6 6 6 6 6 6 6 6 ",
"D S G o.o.W W +.o.u.s.+.m m X.q.Q Q 8.o.Q D S S q S S h h q h Q Z V w q w V p 8 V w w w w p w w C v p p V p v V D v v F F F G o.W v S h g b v o.b h b W S S W W W W W b v v v w w w p p 8 7 7 w Z G o.o.G G G S v G F o.v o.G o.F D o.W h v Z F w v v v V C C V v V V w 8 t t 8 w w t h h W o.F b b m m c +.m m n ! O.P P O.O.! 3.O.d.d.,.3.O.@.} N U X.o.b h v v p w w w w w 8 w V V 8 8 a a 8 V v v V Q 0.Q v +.s.W o.v F +.s.y.#.P X.X.X.y.F v o.W W F h S o.v b F v g g h h S b v q q q w w V V V V v h V Q o.h h Q Q S Q 0.Q q V S v v v b m u.W o.X.m +.X.+.W +.h.h.+.N X.$.W F +.+.F m N g f.o.k u.y.n +.o.u.f.y.! E W ! #.O.+.O.+.f.y.i.d.#.W #.+.o.! O.+.+.o.X.W W W W m E W W X.+.O.E m v v V V V S S h h V S V V V V S D D S S D D F W W W W +.y.o.m W W F S W W F v W o.W F Q o.W D G F v F F v v v c v F v v F W o.o.o.Q o.Q D W Q F Q W Q 0.o.F F o.+.v b W h v F S v V S V v v V Z v v v V w w 8 w w q G +.W ! m m N c W +.U U c O.O.} U O.:.:.O.,.g.h.3.@.#.#.X.N X.X.b v S V w w w w w v V V V V q w V w q h v S W Q u.W F W f.W o.m f o.f.u.+.W o.W E o.o.S b o.X.W g U #.m m ! v v v q q w q v v w q w w v v v 5 w 5 q o.D v m D Q D D Q Q S V V q V v q o.s.b b +.+.b F +.X.u.u.u.W c X.X.9 X.#.+.+.W m q a.n X.,.#.! U O.#.u.! m n m W o.m Q W m z.o.#.+.X.u.#.W c h o.y.N +.O.P ! ,.#.W ! N ! #.y.y.#.P g F W S m W W F o.D v h S A C V Z V V V V D G G G S F W m q.F F W h S S v v D S m D v S Q Q S v S v v Z D W D b v F F b F W W W F S F S b v b W o.+.F F S +.q.b D G b v q v V q V V v h V V h z V w w 8 8 w t t 8 t 8 w 8 6 6 6 6 8 6 5 5 6 8 6 6 8 8 8 6 6 6 8 8 8 8 8 8 8 8 8 8 8 8 8 6 6 6 8 8 6 6 6 6 6 6 , , , , , , , 5 6 6 ",
"0.o.G G F b o.s.o.+.y.u.+.E W +.Q o.8.Q S h h v S Q G S S S S 8.V w 8 8 a V V C a a V t w w V V V p p a V V Z ` Z V v h v v F G v v o.o.F v 9 h D v S Q W D Q W S E E b S D D V p i 8 w 8 8 8 p q v v v v F F v v o.G G v 9.o.F b F o.W v v G D v v v v V Z V p w v p w w 8 8 8 8 8 t w h W o.F q.o.b q.W q.+.c E o.,.+.O.O.#.,.:.:.K.K.).5.M n @.@.:.#.#.+.W v w w w w w 8 8 w 8 a a 8 8 r r 8 G w 5 q V Q o.8.D F g W q v W E f.a.y.a.#.X.#.F o.X.o.b b F o.'.#.W m m W +.F g G F v g q h v v Z Z Z Z v v W 0.D D Q o.o.v h Q Q 9 Z Z g v h S u.b 9 E i.f.+.q #.o.F N N N W o.+.N m m F W N N W ~ m W f.o.m f.+.u.f.y.~ W o.t.y.o.+.W +.f.,.,.+.y.y.+.O.W O.o.#.+.X.W N N N N N F N F X.+.X.b v v v v V S Z Z v v v v S S S V V Z D S F Q Q W S v v v F W F v o.Q F b S D S h D Q +.Q S W o.S o.D F F F v v v 9 q q 9 q v v v v v b F F b S Q D D D +.y.Q b W o.+.v b Q S S v V v V S V v v v h q w v w w w p p V v o.q.o.#.X.+.W o.a.F m ,.U a.,.O.O.O.,.,.O.K.g./.g.} } @.@.+.#.q.+.Q S V S w 8 w w 8 8 w t a 6 w a 5 w C v v v q W W u.W W v o.b q W s.q.+.q.y.+.o.q.q.W E #.W n g i.`.#.O.m c N W v v Z Z v w w w v v S S Q V V v 8.k.D 9 D o.0.D S D v q Z Z q w v v o.o.g F o.o.F W o.+.q.F q.u.X.a.j.v N N c y.+.+.N c f #.d.O.O.i.y.N f.O.! +.t.y.t.W F s.F q.v q.o.F F F v 9 9 W q.F #.X.c c ! W E X.N +.a.s.a.y.W g o.+.W F o.W m b v v v v V V V V Z C V V S G Q o.o.W F g q.W W o.h v V S S S S S h w h S S h h h h Z G S Z Q Q S b b b F W W W b F S b b S S S W Q F D S Q o.v Q D v w q v V q C V w w V C z w w w 8 6 8 w 8 t 8 t t 8 w 8 6 6 6 8 6 6 6 8 8 8 8 8 8 6 5 6 6 8 8 8 8 8 8 8 8 8 8 6 8 8 8 6 5 6 8 6 6 6 6 6 6 6 6 , , , , , 6 6 6 ",
"V Z o.8.W v v W +.b m y.f.X.m v Q Q Q S h q h z S G S h S S S Z z 8 5 w 6 > 5 t V C A C V a C A V V C Z V p v Z v Z G Z S F v v F v S q 5 q v 0.h g W u.u.0.D g o.o.Q E F W D V S p 8 w p w p a ` F q q v G F q v o.v v 9 o.G v F b S F F o.o.v F V V v p V w 5 w w w w 6 8 8 8 8 w w w q S Q b F Q W T.b b u.o.E E #.y.O.U ! i.,.O.U } J.J.P U } ,.3.#.#.a.+.g w w w w 8 w w w 8 a a t 6 6 8 8 ` Z V A Z v V o.D v h q.v F o.q v N E o.m g N g v v o.b g g 5 W W O.+.N c g c v o.G v h v v S Z o.G D Z S v D o.D D g q D D h v G q 8.0.S F h v v 5 o.+.N E W u.c X.o.N m W W c W W m c W y.#.W y.y.W E ~ u.f.f.u.y.o.E E W W E o.O.,.E N ! E O.m i.f.#.P W O.o.X.W F N F W X.+.+.X.W W o.+.W v v v v v V S Z D o.G Z Z G Q G Z S Z Z S D o.Q S D o.o.F b F W o.b m h h b W W F +.W y.s.Q S o.o.+.Q G G G F v F v v v v F G G F b b F W D b S Q b v h D o.b v o.b o.v F +.o.D g v v v V V w w v w q v v p w p C w p w S F m O.+.+.h.W N a.W N y.#.+.} U O.:.>.O.#.I d.K.I B @.#.#.+.$.u.o.q 9 V w t V a w w w t w 6 t a 5 a G V F W v W b o.b b g o.W F F g q +.W Q W S v q g W c N m q N ! n ,.O.m N N b v Z Z V p w w V G W W w v S q v o.S D h v v q h S S v G 8.V v v v v 5 b o.W W q.q.F c o.5 v W 5 c q.m X.N B a.m X.`.#.O.N N i.Y.f.X.n O.N N E m m W o.F u.q D q o.W +.o.D o.q.+.o.o.Q W X.W X.+.W W u.m +.y.y.y.a.+.E W o.W W 0.o.S b h v v w w w v v C v w q q v Z Z W W W b f.o.b m S V h h h h S D S h h S S V V G v G S 7 q D o.Q m F W o.+.+.o.W D S b F W W S m b b W b S S g o.Z v w 5 v V q Z V w w v C z w 5 w 8 6 8 w 8 8 8 a t t w w 8 8 6 8 8 6 6 8 8 8 8 6 6 5 5 5 6 8 8 6 5 6 8 8 8 8 8 , 8 t 8 8 5 5 6 6 6 6 6 6 6 6 6 , , , 6 6 6 6 6 ",
"o.V o.s.+.v m Q F o.y.q.o.E P F h h h h h S S h Q Q h h Q S h v v w w w w v h w w w v V V v S 8.V V a p 8 8 p V Z 8.q.Z w G o.v S g g S b g h W W h q b o.+.Q F Q o.o.W F b v q Z V p p p p 8 7 V Z V v V G G V v S V h v Z V q N X.+.+.o.F F G Z V v w w p p p V v w 7 w 8 8 8 6 5 8 w 7 v W b b b S W W F W o.X.+.N E ! ! i.i.1.,.1.>.U 3.{.).g.3.I g i.W c F V V t w 8 8 8 6 8 8 8 8 r t u a G V V G S h Z u.b 0.m h g g W q v b F N F G N m m q v o.j.a.m F #.! X.g N iXfX[.q.N g v b v F 0.Q Q D D S S h q v v S S Z D G Q 9 q v Z o.o.W v W o.W W W +.X.E X.X.X.X.X.y.a.y.W X.$.#.#.q.y.y.W o.O.o.+.u.i.O.! i.y.P ! O.O.W O.y.W m W t.:.+.+.+.o.E W +.W h g W F b o.W F +.o.W F F b b F F G v v v F v v v S v v v F o.o.Z Z V V V Z A D D q.F v W o.S m F h Q Q h v Q W g m Q y.y.+.o.o.+.o.W F F F S S D v v h v g q v Q G F D o.o.F F o.F q v F v v G o.o.+.+.F S F F b S q h h v v w o.h v v p w w w p w v v v W F W #.F B X.N N +.W q.W W N U a.d.#.@.,.,. .,.$X{.d.d.U N y.+.b S v h z a t w w w w w 5 t w 5 8 A A v q F Q F Q q.0.S v F h q F F v D S F b v b F b g g o.f.f.j #.i.! #.g X.uXfXiXs.V 7 V v 5 h +.q.W S v v S S h h S D q h D G o.Z & v v G v F F v x.v o.+.b m X.o.b +.v z.F u.T.o.o.h.#.a.h.a.a.#.B ! i.i.,.d.#.X.d.O.P #.o.! W k E S q S q.0.o.0.o.v q h D Q D S D E W W W Q o.o.W +.W W y.u.+.W Q v v v v g g h v v q h S w q v Z A Z w V S h V v D D D S S W W W S h h V h h V Q Q S h V S S Q 8.D Z Z Z Z C v h S m D o.W Q o.F b G D v v D Q Z D S v Z 8.0.Q S Z w p 7 w C w w w a V V V V t 6 8 w w 6 6 6 t A a a a t t w w 8 8 8 8 6 6 6 6 6 5 6 6 8 8 6 5 , 8 8 8 6 5 6 8 8 5 6 8 8 8 8 8 8 d t 8 8 8 6 6 6 8 6 , , > > , , ",
"F h S o.D S o.y.q.q.y.+.X.E m b 0.Q S S S S S S S v h S ( D w 7 w w q w w w w w h w v V V w V C V C V p 8 8 p V v v Z Z V G o.S D S W o.Q v q g o.D S W Q W F F m E o.Q F b W +.q w i p p p a V v V V v V S v h V D D V Z o.Q V W F G G G F v v o.G Z V V V V V V w w 8 8 t 8 8 t 8 w v h D o.W D D D Q W F F W m E P +.+.P #.:.U ,.H.d.>.3.3.} @.3.:.M ,.N N $.V a w t V a 8 8 V a t 8 6 8 8 8 w w w w S 0.0.G Q 0.W F o.q.s.o.v o.9.W v v W #.W W N 9 c X.m N #.! a.[.a.N N N a.W g q g v F o.S D W S h h D 0.Q D v v S Z S V q.V q v b h S q.F W Q W E W W W F #.a.#.X.X.+.#.c m m c N X.+.X.i.f.y.P g N O.+.u.y.! P i.U.i.#.m ! E g E o.+.:.y.y.W k m W +.+.F o.W b F F b v F W o.o.F b v v v q q v v v v v v F F S v F F F G A Z C Z C S V o.Q D W W W W W Q 0.o.S S Q W v S D W W W W W W 0.Q S F o.o.D h D S b F S v b F v v S F N m v F o.F o.9.o.D o.o.+.+.o.F b F W W Z h D G G A v Z h v v v w w p C w p S o.+.X.N N o.W #.X.W X.m W X.#.+.X.O.O.#.d.d.d.,.3.g.,.O.d.,.} +.N v W Q Q w a V V V V V V w w w 5 w C C w o.q q o.0.S D j.0.o.o.u.u.F h D Q o.W F W o.o.F W m P i.j P ! ! d.K.f.W 9 v o.o.w w V o.+.W N F o.Q v h S o.Q S D S G D q w D Z 5 V o.w F o.v W o.F F W W N W +.j.W j.o.a.#.c q m c X.#.N F s.`.O.n f P #.U W a.y.W y.i.f.u.n g F h v D Q o.0.o.D v v D Q S b F 0.o.E m m v v m W W Q o.o.o.E m g v v v h h v S v q h S w 5 w V C A v G o.S G v S S S m b W o.o.Q G G Q G v h h S S S D S v h V Z V V V V V v v Q S b S v S W S v D G v q v V v S v h v G o.Q Z C w p q w C w w w V V V t V t 6 8 w w 8 6 6 w t t t 8 w w 8 8 6 8 8 8 6 6 6 6 6 8 8 8 6 6 6 6 6 8 8 8 6 6 6 8 8 5 6 8 8 8 8 8 8 8 8 8 8 8 8 8 8 d 8 8 8 6 6 6 8 ",
"S v S Z h v W Q o.o.o.o.X.X.W o.W h 7 q h v S Q G h S 0.8.D v q 7 q q w p v v p V h h V V v w w a a a d 8 8 p V Z w p Z Z Z Z V S b v b F Q o.+.b S F S v q g v W E W W F v F +.v F G G Z V Z F w h V Z S v h h h V S v V G G V W N m m F G v q v v w w i p p p v w w w t t 8 8 a a w v S o.+.o.h w v S b v b F F +.+.a.#.m O.#.! d.G.,.,.J.d.3.M ,.d.O.d.U m N S v w V C Z V w a 8 8 6 6 8 t a p Z G V v V V v u.0.o.b F q.W v i o.s.9.N v F o.q F #.W +.a.o.+.`.,.n #.,.X.a.W $.W c g b X.$.q.s.l.s.8.S v D o.0.D v v v V v w Q v w V S v F q.b W o.W N N W W W +.q.+.N N X.o.X.o.X.F X.#.+.X.+.:.:.,.u.d.#.m d.,.W ! i.y.m 9 E +.! m m E E W E o.+.W E ! o.W b F G F F o.o.v F o.q.9.W v v b v v v F F v v F q F G F v v b Z V V V V V Z Z Z S Q Q D S W o.Q W W W S W o.o.Q o.W b b F W o.o.W W D F o.+.W g W F S D W S v g F D D S v N F F G v G o.G v F F F W o.F m b F D v q V S V V 5 w h v V v w w V A w p D o.q.X.N m m v N m m F N X.o.q.#.O.+.O.O.a.,.,.,.d.d.O.} d.d.O.#.U m X.F S h V V C V V V V h w 5 q w V V v D S b b F o.+.q.q.q q o.Q v Q z.0.o.W F F W F m X.m O.U.! :.H.$XU ,.d.d.a.o.o.9.A 5 5 S 9.q.a.h.o.0.Q h S 0.0.S h q v S v v V w q b Z v G 9.v v +.F b W X.N W #.u.F F F #.W F F X.g c X.+.+.+.X.h.i.i.i.! N X.y.W m W m j k n +.b v 9 9 v S v h v h h F W W Q +.u.o.W W W F W o.b o.+.W D Q S q b b b v h h h v S h S Q V v V Z v V w A Q S D v v S S m m F Q o.S S S W D S v v h v S Q D S V S G C w w v V V V Z w h v v F W S q S G v w v S D S v h h V Z G G V w v w w V w w V V V t t t w 6 w w w 8 8 6 6 5 w w 8 8 8 8 8 6 8 8 8 6 6 6 6 8 8 8 8 6 6 8 8 8 8 8 8 6 6 6 6 6 6 6 8 8 8 8 6 6 6 6 8 8 8 8 8 8 d d t 8 8 8 8 8 ",
"S Z o.G v v S v v b W W W W o.+.W h q v S S Q q.q.h S 0.Q S S h q q w v V V V V Z v v V C V p w t a d 8 8 8 8 p V w w V v v V w +.o.D h h F Q D D Q o.o.F b F o.y.W m N W b v v v v S V v v w v w w v G D v v S S D D Z D Q Q D W N m N X.o.F v S v v v V S Z Z v w w w a t 8 8 t a w w D o.Q F D Z D Q W F D Q W q.o.+.X.W ,.+.P O.U n U O.O.5.@.,.,.X.K.,.X.c D V h V G G C w w 8 6 8 8 8 a C w w Z 8.Q h S q.o.F o.v F u.o.o.v F o.G F F b c c g m m W X.X.h.d.}.d.`.h.#.`.,.m m m m X.a.y.o.W Q Q Q Q Q Q D o.Z v v V V V v 9 v S v D 0.o.b F W Q W N N W W +.X.N N F X.X.X.X.X.X.+.+.X.W W #.E k n #.f.,.P #.#.o.,.d.+.! o.+.y.O.E W W E E k E O.+.+.o.W m v v W W b 9.u.b o.o.+.o.b v m N v N D G G G o.o.v F G F v v F G w w w w V Z Z Z v V S S b F W Q b m m W o.o.o.o.0.W S S W o.0.q.g W o.W m W D S W F F D W S v q F Q G v v G o.G F v G o.G G o.o.v F o.W S m v b Q v S V V V w Z v v V v w q a A w w D o.o.F ! X.X.F N m N X.+.y.X.X.W X.y.,.O.! O.O.#.:.d.d.,.@.@.O.d.,.X.#.N q S Z A Z C v w w h q 7 h V w v S q q.q.g h u.u.g s.v W z.q.v h v G F b v m b b b o.N g O.O.Y.U.d.d.3.:.a.`.q.v p p C G o.q.#.O.E S 8.q.Q S D Q Q w q q V S V v q Z w w Z o.G v G F W F b m W X.o.b b g F +.N $.X.+.q.a.a.+.X.X.m c ! a.O.g U ,.W P W f.u.o.o.! u.o.o.F D 0.D g b W F F W W S b S F h g F W b S Q D o.+.Q W W F m m b b b m v v v v q v Z v w V V V V 5 v V h S V S D Q S m b F F S S S S v v S Q S S v S S S S Z G C w w V Z Z C S w h S F W D h w V S v h V Z D S S v h v V S Z Z w p w w V w V t t t w w w w w w w 8 8 8 6 6 5 8 8 8 8 8 w w w 8 8 6 5 5 6 6 8 8 8 8 8 8 8 8 8 8 8 8 6 6 6 6 6 6 6 6 8 6 6 5 5 , , , , , 6 6 6 8 8 8 6 6 6 6 8 ",
"Z D o.Q b F o.D b W o.o.E m P W o.b v S F v v W o.g v Q S v b h h h h v S F Z F 0.G V v F v v w 8 8 8 8 8 8 w w 5 7 w 7 5 w C w S Q Q F F Q W b W Q Q W W W o.o.o.b c N X.F b v b v v S D D Z S h h v S S h v G V S S V V S S v G F F W _ F b v o.G F v b b i w v v a a a t 8 6 w a 8 q Q o.S v 0.o.o.Q G S S D g W b v N +.a.o.:.y.:.i.K.@.I 3.g.#.O.m a.a.a.+.D V v v D G V w w w w w 8 8 8 w Q v w G 8.Q D o.W S +.v v o.b W F V q 7 q v F N X.F X.W X.X.c X.n :.X.`.].X.#.X.c m m m X.#.X.m E W Q Q o.Q S v Z Z V V S V V v S G S q v 0.+.b W W E E E E E E o.X.N W +.$.+.+.W m N y.#.F X.s.#.#.O.! ! +.,.,.i.,.O.O.O.! o.K.o.o.E E o.+.Q W ~ ~ W E W ~ ~ W S F o.o.v G o.v G G F b v v v v m F F F F G o.9.G o.G v v v F F V V w w w w w w S w q V D b F o.o.W W o.q.o.Q W o.W D W W W o.0.v W o.D b S F F W W W W D F S b v S V i v Z G S S v F G F G o.o.G W o.o.W S F W Q v S h w V v G v V V v w q 8 C w w G o.b m X.+.+.o.G F b m N m N W F X.y.,.X.O.O.y.y.O.O.d.3.U O.O.g.3.@.,.X.m W G Q G S v h w w q w V V h V Q S G o.G Q 8.o.S S 5 w o.o.o.o.D q q v v F F F W W o.! ,.P ! ~ ,.G.=X].,.$.o.v w > Z w.q.W m N ! Q Q o.Q m h S Q F Z S v w 9 p o.V q w o.o.F F o.v F W b m N W W g q.W u.+.N X.g m o.X.c N #.#.X.N P O.! ! K.U.P i.O.,.+.t.y.E m +.o.E o.q.b q o.b b F W W F F F S h g S S h h S h h h h h 9 9 h m b b b F D W W Z V D Q S V Z V A S w V S h S V S D Q W S S b m D o.0.Q b v D o.Q D S v b v h q G C V V Z A Z C Q V v Z S D S q S V V h w w w q C C V V V V V V Z w p 8 w p 8 C w 8 6 8 t t w w t 8 8 6 8 8 8 8 8 8 8 8 8 8 w w 6 6 6 6 6 6 6 8 8 8 8 8 8 8 6 5 6 8 8 6 6 6 6 5 6 6 6 6 6 5 5 > , , , , , , , , 6 6 5 5 5 5 6 6 ",
"D Z G Z h b o.o.E o.+.o.! N m N E b v b b g g v S h S Q Q D b h q q q v v F G G s.o.D F F m v w w 8 8 8 8 8 w w 8 a Z w 5 w Z w q v S b F o.q.q.S S v v b F F b b W X.W N m F W Q D S F W Q W S S v v v h w h V h v V v h h h h G W W W N m v v F S b v i w w q v v V V a t 8 8 6 V w q o.o.b b F S S S S V S W g W F m W +.#.m O.! ! ,.i.U n X.,.O.#.X.#.W X.X.W S v v S Z V w q w w w p p v w G o.G V V S S v +.o.+.m q q 9 q v V S i q i v F v $.j.y.h.`.+.N ,.K.O.,.{.}.].O.c m m N X.q.+.W y.u.u.0.S h v S F Z Z Z Z V v p S v w h S W W D o.E m E E N N E m W +.#.+.W W X.q.W X.a.#.F +.`.#.#.,.,.,.y.,.#.i.,.O.O.,.O.N E +.~ m k ~ +.E E t.+.W E E ~ ~ o.F D o.G v b G F G G G G G F v g v F F F G o.$.$.$.o._ v v v v v V p w w w p v w G w q S D v b o.Q W D o.0.+.Q W W W Q +.Q S F o.q.o.F F Q Q F v F W W F S F F S v b b i b S F v S v v V i v G G o.W E F S S W o.v w V v v V w v V S V V w w 8 p q q o.q.F m X.W v F v G X.N F v N +.+.X.O.X.O.d.o.y.i.O.N :.d.@.3.@.6.} B X.X.F b S Z S v v h w w q h S V v V Q o.Z S G o.o.o.0.k.Q h 5 5 q v w v v v S F b b b y.i.f.$X:.P U ].>.J.P.K.s.o.V V G a V o.+.X.#.d.p.Q k m S S S Q D G V V V q 7 S q v V o.G F o.v b m N W F m m W F s.o.+.F X.q.W q.a.X.N h.aX`.+.f.,.,.i.,.i.f.h.,.! W n g E m E S v g b b 9 q W v b F W W E F F o.D S S D S D Q 0.W W o.8.W Q 0.W W W W W D S b o.G Q o.Z Z A V C S w A G v V q h S S S S D S v h W 0.+.W F W Q W Q Q Q Q W b q V V V V C C V V Z w q h h S W S V v w h v V v w v v V V C Z Z C A 8 p w w 8 8 C w 6 6 8 t w w t t t w 8 8 w 8 t 6 6 6 6 6 6 6 6 5 5 6 5 6 6 6 8 5 6 8 8 8 8 5 5 6 6 6 8 6 6 5 5 6 6 6 6 5 5 5 5 6 6 5 , , , , , , , , , , , , , ",
"D V Z S g g F W W W W W W W W W o.o.o.o.o.o.o.o.b W Q Q +.o.m g q 9 9 q v F o.o.9.X.F F N v i i w 8 t t 8 8 w 8 C a Z Z p p v q o.o.W v g h F o.D F b v F Q Q F b o.o.F c m F F F b v h g h h h S S V h h v v w S S G G D S Z D W F F N b b b F F F F F F F G F w v V V a t t t 6 C w 5 o.+.S o.D D D Q Q Q +.q.W +.o.q.y.o.o.N +.W O.O.X.#.d.a.O.N ,.,.#.c m N o.W S b S S S v q w w w v V V V 5 V A V w v G o.F Q F F F F +.o.q S ` ` F b m v c F X.g N f.a.,.n P.K.U } :.U q c n N O.y.a.y.$.m S Q S h h F o.D F V V S S v i q h S D D W W F o.W W W W N E X.m N X.+.X.N N X.X.X.X.+.X.N W $.y.O.m N W X.o.+.! O.+.i.U.f.#.W +.+.S m ~ ~ E E W W ~ o.~ W W W W G F D o.F F o.o.o.o.o.D v v v v F G G o.9.$.o.o.o.G F v v m q V t w a V V V V G V V S V v S Q S m v b W o.Q F S S W +.o.F F o.u.W m W 0.o.F S S F S m S W F v G V b S F V b b o.G ` ` V F o.o.W b v F W W W o.D Z 8.Q G o.v V V v V V V V p p w 5 Q q.F F +.N v G F 9.s.q.s.#.X.y.y.+.O.X.X.i.O.! +.:.! :.d.>.3.@.>.M B @.X.N m b b b v v v v v h h v b b b v Z D S v V Q 8.o.h V S D o.o.D G G F V S v g g v i.W j :.d.H.:.,.P.T U d.#.9 5 w e.8.q.s.z.y.P g t.Q m h S Q D S v v w V o.V 5 w V V V o.G F q.S F F F F W W F m W +.v W N +.#.y.c #.#.X.F m c U N ! O.! n g ! `.! ,.`.f.+.+.o.u.W W W ! m E W W +.+.o.W m c g g S S v v S S S S h h h h V v h q o.W W F F b v g V h v v w w V w V C w D D h h 7 h h h h m S S v q v F F F W F b F o.q.+.o.W W F v V C V V p v V h 7 q w w S o.Q w q w v V V V V w w w v V S V V C 7 a a a t 5 C 8 6 6 8 t t 8 t w t t t w 8 w t 6 6 6 6 6 6 6 6 6 5 5 5 6 6 6 8 8 8 8 8 8 6 6 6 6 6 6 6 6 6 5 5 6 5 6 5 5 5 5 6 6 6 6 6 6 6 5 5 , , , , , , , , ",
"v h Z o.F b W Q +.E m m E W F b o.o.o.W F X.X.X.N q.o.S Q Q w 9 9 9 9 q b o.$.q.G F S F F b i p 8 d d d 8 8 8 8 8 > 7 Z Z v w w h b D D b g v F v v q q v F D v b W F q c G o.S S F F F S D Q 0.V S V h v Z S h q q h h h w h v W F v v b G o.o.G F S S F S V v w w v V a a a a 5 C 5 5 Q o.F q.o.W W W F S F W o.W W s.f.W #.f.m m W N c #.d.X.a.M N W X.m q.j.q.+.o.W F F F F D S v v w w w w G w w S D h q v m W q v b c Q b Z G G F F F v v c m W N X.X.c W h.:.P n a.K.@.3.c N O.a.f.y.O.F W W F F W W D F G V w w V Z V v v u.s.F v o.9.F +.+.+.+.W N W #.#.N m N O.o.+.+.c W #.$.#.q.+.W N y.`.[.f.W N N #.#.O.N ! P N P ~ o.E E +.+.+.y.m E ~ ! E m E Q q.+.F G q.W b +.o.o.o.F g 9 v F c v F _ o.q.o.F m F G Z V V v p A A C C a a w w V G G v w v S D Q W m h m W F v g q v Q o.W D o.Q v b o.+.F F o.W W F F Q +.W v G b v F F v q i F v F S v v G F b v b o.q.+.Q Q D Z o.Z S D h v v v v V Z Z V p V 5 v +.F X.i.X.o.$.b W W b o.N $.y.#.#.y.#.N N i.k P d.f.i.#.n I M @.X.@./.a.X.W W W W F S F F S v g g b F v q S v h v V v V F q v v v G v w o.G F S F F b F o.9 ~ W ! n O.O.f.U L ,.Y.u.W F q V k.'.q.m P O.O.g W Q S S Q D h 5 V C V V 7 w s.u.S q 0.Q h q.0.F q.o.g b a.q.q X.F m y.+.+.q q f.a.X.N X.N N a.U.iX`.,.O.! W y.+.o.#.n f N m W F X.q.X.b +.+.9 v m b m b W +.q.S D D S S D v q h v S h V D v 5 v v h m b S m v S v V V V Z G A Z C w V V w V h S h q q h S S h S F b v v b v q W q.q.W g q v S v V C V w w v V V w v V v V S v 5 7 w w w w w p p w w w w v p w a 6 V C C t 5 a t w w a V 8 8 w 6 t V a w 6 6 8 w w w 8 8 8 8 8 5 5 5 5 5 6 8 8 8 8 8 6 6 6 8 8 , , 6 6 6 6 6 , 6 5 6 5 5 6 6 6 6 6 6 6 6 6 6 6 > > , , , , , > ",
"V h v S h m Q o.o.o.Q m q.S S Q o.+.+.X.,.K.d.O.U P E Q S 0 3 w w v b v q w Z ` 9.F V Z G V w 7 7 8 p d r r 8 8 d a p i v v c F o.v v D W o.+.F W X.a.F h G S o.S h h D D h h D v S S S S D D S V w v w 5 v G v G v q q w q q w D F F G D v v F S S V v w w V D Z v w p V V p w w w w v b W +.,.K.#.m c m m m m E F +.b v +.o.b +.c #.s.o.X.+.s.a.N m N c c W q.+.m m q.h.u.F g D v 9 q v b v q w D o.D v S S v v v D Q v v S h v +.q.v +.v b o.m b +.q.F W f.}.#.h.Y.a.X.#.! 9 n iXd.W d.}.! W s.[.q.v v S G v D v h D G v q q 9 v b b X.+.q.h.y.y.n c ,.+.g N #.N O.P ,.P O.P y.+.+.+.,.a.f.K.u.o.! +.u.a.a.a.o.X.E b E X.W m X.N b E Q O.o.o.Q E Q +.W E Q X.o.y.W y.y.E $.o.W E m m m b v h F N m v F o.o.o.V G G C w w w w a a C a t 8 t a 5 C Z v v G o.G F X.o.$.u.+.F o.q.o.S S W Q W S W v b F v N W N v v F G o.G F m 9 N v v X.F v F g v F D S v v D S o.o.F h v D o.b v g v D Q D S g F N v b i q i v v _ $.+.y.d.,.+.g b q X.N N ! N X.+.y.N X.W W +.s.W +.f.i.a.W N B N X.X.+.$.W W o.f.y.N W o.q 9 F v v v q q +.o.m q b o.o.v 5 F X.v G F 7 F o.o.o.Q D S S S h o.f.W S u.T.T.y.H.K.! U i.n g uXy.o.d.`.! N Y.Y.+.S 9 D 0.w w S 9 V Z V w 5 9 S v F o.Q o.s.u.S W g y.o.9 E W g N U X.W W +.+.O.d.U W a.K.`.f.n o.y.y.y.a.f.u.W X.! X.+.X.N N X.F F v v G o.G o.v X.o.o.v v v v v o.Q v 0.Q o.q G h S 8.o.A G Q F m g g b o.D q v w w V C a w p w w w w w w h V v V V S S S S S 0.F S W o.W W X.c c v W u.+.S S q v v 5 5 q w 5 v v v p w p V C A V t p a 8 8 8 8 w 8 p a p 8 8 a r 8 t t 8 8 8 C a w 8 8 a t w 6 8 w t t w 6 6 t 8 8 8 t e 6 & 8 8 , , > , , 6 8 8 8 8 6 6 , , , , , , , , 6 6 8 6 5 5 6 8 6 6 6 6 6 6 6 , > > , 6 6 6 6 6 6 6 ",
"h w v S m S ! ~ +.O.o.W l.8.G G $.a.,.:.d.P.G. .G.i.O.m 0 6 u u w w v v b V Z Z ` Z p V C a 8 6 7 8 8 p 8 8 8 8 8 t 8 p S v g N v w v v m F O.! n N y.W F o.v w Q v h S S v v S D S v h h h S Q h h G o.D G o.v v v v b V v S G V S Q 0.0.D v h Z S v v v v S D G F v p p V a p w q q v F X.X.O.#.U N P X.+.,.a.m g W o.+.u.W m F c #.$.N o.q.s.q.X.+.a.o.m v m a.X.m N X.W W o.b b v v v S F G q v F S S Q Q D q S 0.o.S S Q +.0.b +.W W W u.v F g b +.+.+.+.W y.! #.f.,.N N ! P f.i.O.n X.! ,.c m N 9.G 9 V G V V G Q v 9 q G D W b m W N N U c N n O.d.! m f.f.,.,.X.y.O.d.f.,.a.h.U.h.i.O.N o.W N N F b m N N N m v N W F m X.E m W O.o.o.+.+.W +.,.o.o.#.#.,.d.,.h.f.#.u.+.W E b v v b b b c m N N D o.8.8.V A A C u u t w d d a d r r t t t A A V v S S v m b m N +.o.F W +.o.Q W F S S b S v F G N F G F i m v m v F b i o.q.X.N W F v W v m b v S S D D F o.+.W m v F D S m v v D Q W W v b v v b b i i q q m X.X.+.i.:.X.W f.#.h.y.N 9 W #.y.a.m W N P o.a.X.+.f.f.j.+.#.o.X.W W $.q.o.N N +.+.b W o.b v F b F o.F 9 q F F G o.G F F G o.q.m v F o.q.v s.D h Q q.Q S S Q Q S y.l.o.Q W W d.X.n O.P N K.,.O.n X.! n N c F 0.v q h h D V C 0.Z 5 h 0.Q q 9 g F o.Q o.Q m 9 m +.h g f.s.f.O.#.,.a.a.d.y.+.K.Y.}.`.#.E W W h m m m E o.W m q m W m m O.#.W G o.G F o.G v 9 v v S F o.$.o.o.o.b q v +.9 v G v v V V w p V q b N m m b F F g V v V G 8.` C a V V V v w w h v V V z V x C D D h m Q 0.y.$.F c X.#.W q m o.8.Q h F F q q v V w v v w w 8 p a V C a t 8 8 8 8 8 8 8 8 t a t 8 8 t 8 6 r r 8 8 8 a 8 8 w t a 8 8 t t w 8 8 8 t t t 8 6 8 u u 8 5 8 6 , , , 6 6 8 8 8 8 8 6 6 , , , : , , , , 6 6 8 6 6 6 8 8 8 8 6 6 6 6 6 6 , > > , , , , , , , ",
"w w S D b E o.W y.o.W S u.o.G S o.$.y.d.].,X=XJ.T #.! g 9 0 u 5 w q h V Z G Z V Z V 8 p 8 w 7 8 8 8 8 8 8 6 6 6 8 8 w p Z v g v 9 q v S v m W N m N #.o.o.o.v w Q S v v V S S S o.D S V h h S Q 8.V v V v F o.o.o.X.o.G V h h V Z V v V Z S V V S v h v v S V v G F v w w w a a w w q v o.+.O.W h.d.a.,.,.#.+.#.+.W #.+.W N m o.c m y.+.N +.#.,.W N #.h.d.#.i.f.f.i.y.i.y.$.#.a.W F b v v v v S S D D S D Q D v D o.0.o.S h h b q.v F g q g o.g b v W +.o.W W m y.n W h.a.c g X.X.c N #.c N X.N N F X.9.v q V 7 Q S V S Z V S G S v q m +.+.W X.n X.X.O.#.N g #.! O.d.f.K.#.,.#.n P O.+.O.! P P o.X.o.o.X.W W o.W X.X.X.X.+.+.X.o.W P X.#.+.+.#.+.W o.+.X.X.+.+.,.d.i.K.h.,.#.X.S m g q q g h v v F o.X.G G G D v V C a w w t t a p d p 8 8 8 t t C A V v q q q b F N N W N F o.Q +.q.+.Q S D W m m G o.F F G F v F v c m X.G m N W N b o.o.o.9.W W b v S o.o.D v F W D b b b b m v v v b F D D b F v v F S i p F F o.q.+.#.i.,.d.#.y.c ! y.i.,.#.+.! +.m X.N g +.,.W W +.+.+.m f.f.a.#.#.f.f.y.f.y.i.i.+.+.#.o.v v g v o.G v F v F o.X.v c b o.v q.9.F q v $.o.S h h S S q 9 S D 0.o.Q S S 8.v y.`.f.P m N m m g W g N #.X.X.o.v 9.S 7 w S Q C w z w q V Z v b m h W 0.W m m m +.f.u.m m W h E d.d.a.y.#.#.X.N c F N c g g h E y.y.o.E m E m g N +.#.W ! y.y.X.c N G X.+.q.+.F +.o.F N F F F v F m F j.uXv h b h v S v h G 8.V F X.o.o.W G F F v q 7 V A A p 7 V V V V v w w w v h h h h V D D S Q W v m X.#.+.W #.X.v S Q D v v D Z w w C G S V w w w 8 t t t t a t 8 8 8 8 8 8 8 8 8 8 8 8 8 r 8 6 8 8 8 8 8 8 8 8 8 t t w 6 t t w 6 8 8 t t t 8 5 6 e t u 8 5 , , , 6 8 r r 6 6 6 6 6 6 6 < , : , , , , 6 6 8 6 6 6 8 8 t 8 8 8 8 8 6 6 6 , > > > > > > , , ",
"V h S D m W o.W f.O.W v Q S D S G X.X.+.,.d.,.U U O.! b h C x 0 w q v V Z Z V V v p 8 w 7 7 8 w 8 8 8 8 8 6 6 6 8 8 w w S v h v q w D o.F F m g N N W G G o.Z V S D D v h S S v Q S S D S h v Q Z h h D G F N N v v v v v v S D Z v 9 9 w S D Q Z v w v S D S v S S V v p p V Z p w w v o.y.#.W O.O.O.O.O.O.X.O.a.,.y.o.W F c o.c N a.y.X.O.W X.+.W X.+.W W ,.f.+.#.i.f.a.$.+.$.o.F v v v F v g Q Q Q D S D S h S v h v D D m S q +.+.W q.b q b b m W o.m m W W F m X.a.+.N m c N 5 q W E +.y.F a.F v v q D u.V G V w v Z Z F F Q S h F #.X.N U n O.U n +.f.d.#.W ! +.! P N ! #.+.#.#.! N N ! O.W W X.X.X.W W X.N F F F F W F F o.W ! o.#.,.y.y.#.X.o.+.W E W ! ,.i.i.d.a.#.W N ~ E b b m m b b b F X.W F v v v w h a 8 w w t t 8 p d 8 8 8 8 t w w V Z V i i v N +.$.X.N g v +.W o.0.+.Q Q Q o.F v F G b N F v F G N i v $.$.F F F F W W F v g W Q S h S Q Q v q v S D W W D F v m b b F F F D D G v v F S p Z b b o.q.+.X.+.O.+.W #.W X.y.y.f.#.#.W O.c ! P m f.d.,.O.X.+.+.N W #.#.X.#.a.y.X.K.a.y.y.$.o.X.W v v v v v v G 9.F F N N v v v v F N c v N v F F h Q 0.D h v S D m Q Q S q S q.h c X.+.g 9 c N q g W m N W F X.F v F h D 8.V C D w w h S Q v q D W W o.+.E m o.y.m h S o.y.W E u.+.! N m N ! O.o.y.y.m v o.+.W W E W W S S W o.Q +.W W X.X.N N W $.#.u.#.+.q.a.q.o.$.#.X.N F +.#.X.W g q F 9 g 9 F S S v q v S h b N G F m v v v 8.G V V A G G Z v V V v v w w w v h w w h z C C h D Q S b F W W N F W +.q.S q h V S V q 7 V D C a w 6 8 8 t t 8 8 8 t 8 6 8 8 8 8 8 8 8 8 8 8 8 r 8 8 8 r r t t 8 8 8 w 8 t 8 w 6 6 w w t w 6 6 t 8 5 5 6 e 8 6 5 , , , 6 6 8 8 , 6 6 6 6 6 6 < , : , , , , 6 6 8 6 6 8 8 t t d t r 8 8 6 6 , , > > > > > , , , ",
"S S D S m W O.W f.o.+.S Q v Q G q.u.u.y.d.G.d.:.O.! N g q w 8 a w g v v h w w v w w w 7 7 5 7 8 w 8 w 8 8 6 6 6 8 8 6 w V v h S V V G o.F W N q g m b b v v Z Z h G Q S v V S V V h h V v w h D Q V h F o.F v F v v q q h v V V V v h v F G G Z Q Z S Z Q o.G S F F Z Z Z V C Z p w q h W q.,.X.X.} } O.#.,.#.#.O.#.,.+.a.f.N m N N #.y.#.W c O.#.! ! X.N N ,.f.y.#.+.+.+.+.#.y.W F b b F G G F m S D D S D W W v v h v o.Q v D 9 Q W F o.W m q.D h g v b W W v q c F F F X.W c u.u.o.g v c v b v.c 5 _ v w 0.o.5 w v V w q v G S S v W #.o.U O.`.].d.! #.d.+.g W o.W E n N E o.! #.,.+.O.! W X.X.X.W F F F b v N N N F W F F F X.W W o.+.+.+.y.u.+.+.+.X.W o.X.,.,.y.,.,.,.X.W Q E b F F m v v v m v b S b V v w w w w w w w t 8 p 8 8 w w w t 8 w C G D V S G F o.o.W F g g F D D D D D D W Q o.F F F v F G v v F v q v o.o.G m m F o.o.W F v v S b h v S S v g v b W o.o.Q Q S D W Q o.Q W D F W D F F v i F q q F q.#.+.#.#.#.X.y.a.y.#.! a.y.a.i.y.c P X.#.y.+.#.X.N #.y.X.N #.O.W #.a.#.+.i.,.+.#.y.#.X.o.N N W o.F v v F G F F F G G F v F v v b F F v S Q 0.o.S Q 0.Q m v q h q.Q h S q F W +.W b X.u.+.W c c W F o.s.v S v 9 o.w.h 0 h h D h 5 h G v 3 v F o.o.E o.s.f.f.Q y.T.+.v m g +.W m g c m W Q W +.F h m m g S m m m m S W W W E m m W W N N X.N W +.N g N #.X.X.+.+.N m m W X.N P f 3 X.#.T.s.o.b m F b S o.+.W F N b S S F D Z V v q 7 w w w w v v v v h h h V V z z V C z h h v S W b g g m W F b W o.S h Q S S v 5 5 w V V t w 6 6 t t t 8 6 8 t 8 5 8 8 8 8 8 8 8 8 8 8 6 8 8 8 8 8 t t 8 8 8 8 8 w 8 t t 5 8 w t t w 8 6 t 8 5 5 6 8 6 , 5 , , , , 6 6 6 , , 6 6 6 6 6 8 < < , , , , , 6 6 6 6 8 8 t t a a u r 8 6 , > > > > > , , 6 6 6 ",
"S S S S m W O.E o.E 0.o.o.S 8.G h v S F ! #.,.:.n n c v S v w p h v v q q q q w 7 w w 7 5 7 7 5 8 w w 8 8 6 8 8 t t 6 6 V v h V V V Z S b W o.m q b b D F v Z V w Z Q D V S S V S v h w h v S G 0.G q 9 v F F o.9.o.F v v v h 9 G Z v h v S S V G G D D D D D Z S F V Z V V p w w p w q b +.#.O.d.d.,.:.,.,.#.X.N a.h.+.#.#.m X.X.N W X.+.W n i.! N X.#.O.+.,.,.i.,.#.#.#.#.q.q.F X.+.W b g v F v S D D S D D Q v Q Q D Q h 9 S o.h h W g F Q b b b W W S F W m F q g v h v S N h o.v & o.9.o.o.$.X.F 9.F w G V 5 w h v v v v F h S F W u.y.y.d.O.X.O.,.i.y.,.+.E o.o.,.W o.m N g m P E E E W X.X.X.W F W X.W N W N F X.+.o.o.o.W E W O.o.O.o.+.y.X.X.+.O.o.+.+.+.X.#.O.+.i.X.X.W m b E D v h v G m v m b b v h v w w w w w w w w p 8 8 w w 8 t w t V V V v b v o.W m N +.W v v o.W S S S S S S o.G G G V F G N v v v v v G Q G q q m X.G o.q.+.v b F F S D W Q v v v S F S F D W D D W Q W F b v F D F S q q F m i F q.y.#.y.,.h.O.X.#.W X.W U.h.a.+.#.N #.X.N X.m +.W c +.#.W O.y.X.N #.y.#.i.,.i.#.#.a.y.o.o.+.b v F b b v q v F G G F F F F 5 W s.v 5 v S F Q S S Q D v h S S S v Q Q m D h v 9 g v q q b F F 9 v o.h N j.o.Q o.h Z 8.S h 0 w C h 9 q v v F b W y.y.o.y.u.o.+.W 0.u.m W f.m o.X.W W E m b S h F E S W W W o.Q W W W E F b v m X.+.N m O.#.X.X.O.a.,.X.,.K.3.`.h.d.,.a.a.,.! ! X.! #.T.W m 5 E q f b v h S Q +.W F F G G o.o.G o.o.G Z Z C V v v V V V v V V C V V C C C z w G S D Q D g c W b X.F h S Q S S C S w 5 3 6 w u w 8 6 8 r t 8 6 6 8 8 8 5 8 8 5 8 8 8 8 8 6 6 6 6 6 6 , 6 8 8 8 8 8 8 8 8 w w a t 8 w w w w t y t 8 5 5 8 8 5 & 6 6 6 6 6 6 , , , , , 6 6 6 6 , < < , , , , , , 8 6 6 8 8 t t a a u r 8 6 , > > > , , 6 6 6 8 8 ",
"h h S S m W o.m W g o.Q Q S 8.S Q 8.0.o.W ! ! O.g N W o.+.q.o.Z v v v h v v v v w w w w w p w 7 0 w w 8 8 8 8 t t 8 6 w C v w v w v Z Z b W +.F m W b Q Q v A p h v V V V S V V S Z V w v Q Q Z w V v V 9.9.v q v F F v S G G S Q Q S w q v v v S Z D Z v h v S v v w v V V p 8 w V S v v X.#.O.O.O.X.I I O.#.#.X.3.a.X.+.W q #.W U ! ! ,.,.U a.#.U U ! N n n g P O.,.a.y.+.W m X.X.X.X.F v v h W D S S S S b v 5 S S D o.v q o.W b o.T.0.q.S 5 v W q.0.S S Q W o.V v v h i v v 0.q.o.q q.F 9 = 5 X.X.F S o.u.Z h w q h D o.G b o.u.q.o.+.#.+.O.O.U O.,.O.P m P y.#.m N c +.W X.#.+.X.E N N E W m N N m m N W F N c c N X.W F N X.W X.+.+.X.o.+.#.W W O.! W +.o.O.P +.E ! i.E E y.o.o.+.0.o.Q o.o.F F F F v h v S v v V V w w w w p p w w w w a 8 V V w w w i q o.o.F W q.+.F W Q Q D D D D S v F F W W v v G D v v F W G F F G F N +.#.F b F v o.D D Q Q D Q 0.D S v v v g b W W F v v S S v g v S S D F v i _ G i m X.X.W O.O.O.N P i.#.a.N +.y.#.X.,.W #.W c ,.! K.d.X.a.i.X.P O.n c #.O.N ,.#.d.,.! O.X.m n +.m m N v b W F q b F v v v F F F G o.5 q 9.F 9 D Q 0.0.D h m Q D u.Q h S Q 0.S w 9 w V D F Q q.v v Z o.9 = v v F +.V V G V C 0 z z S Q Q v F z.o.Q 0.u.0.o.Q b F o.W W m F u.m q g S o.o.W Q 8.Q S S D S S S h h g g h F W W E c X.+.N c W O.X.#.} @.O.n } O.q M n n M O.@.O.n P N P i.$Xi.f.f.T.f.f.j.q.o.X.F S v q v v v v V v V V v v v v q v v v v v v V S V w w w h V t w q S 0.s.u.o.N v m F b v D W v h z V w 5 3 5 8 w 8 8 8 8 8 e 8 8 8 t 8 6 6 8 8 > 8 8 8 8 6 6 6 6 6 6 6 > 6 r 8 6 8 8 8 8 8 w w 8 a t 8 8 t t y V t 8 6 8 8 8 8 5 8 6 6 8 8 6 6 6 , , 6 6 6 6 6 , < < , , , , , , r 8 8 8 t a a a t r r 6 6 , , , > , , 6 6 6 8 8 ",
"7 q h v m Q ~ k t.m W F W S 8.S h S o.o.W E O.#.n W b 9 q F G q G N v b G Q D v v V V p V V V w q w w w 0 8 t t 8 t 6 w A V q w 5 p 8.8.G Q o.N W o.g F Z i Z w v q 9 w V V v h h S S h S 8.G w v G h q o.q._ F c F Q D S S V h v G o.o.Q D v q V G Q D v q v D v v w v Z G A A v G o.F b W #.#.:.,.,.O.} O.3.d.O.n q W [.U.q c N O.,.O.f.K.O.#.a.! P P P O.i.i.#.d.K.Y.f.y.+.! X.b c F q.s.o.v Q S v m D D b v D o.S D q.S 3 h b 0.v S v S h s.Q S S S F o.o.v Z Z G Z V o.o.w w v G v Z v o.9.X.X.q c F v S V 5 w v v h v F o.h Q W m o.y.#.X.U N P N P ,.i.W ! o.m +.X.a.W c m m m E X.o.o.X.X.$.$.W m N W W +.W N X.$.o.W F +.+.+.,.#.+.+.#.y.W W O.! W o.W #.W ,.! O.i.m m o.m b W W F F o.b F W o.Q S S Q G S S Z Z V w v w i p w w w w a 8 A A w w v v i G +.+.o.o.F F q.m S D D S S V h q v o.o.v q F G v v G o.o.v v F v m y.f.o.F G g q.W S W Q v S o.+.Q F S m v F +.o.D v h v b v g b S V G o.F b ` 9.v b o.#.y.f.f.+.! W y.y.Y.W m f #.`.`.m n P ,.O.N K.h.O.d.i.! ! #.P O.K.,.! d.i.`.f.O.,.#.W W F F a.j.o.b W F F F v v v F F v G G q.S q v v o.S o.Q m D 0.Q q S Q v o.q.v v Q o.o.G Z Z v q V V Z w Z 8.V Z 8.q v w S G w w w 7 z h w S G v 9 +.v m +.+.D F D S 0.m W o.v S F Q Q +.+.W h h v S h Q o.S Q 8.S o.W m E Q o.W W ! X.#.,.#.X.y.U.K.@.:.,.O.).$XO.U O.,.:.O.O.P n O.O.U P O.j N N q g E N b F F q F S S F F v v Z Z Z v w v Z Z v v v v v h h v V w q 5 5 7 w w w v D G S b o.+.o.a.W h S Q v h G t w w 5 & 5 6 8 8 8 t t 8 6 6 8 8 t 8 6 8 t 8 & 8 8 8 8 6 6 6 6 6 r 8 , 6 r 8 6 5 6 8 w 8 8 8 8 8 w t a a y t w 8 8 8 8 u u t 6 8 8 8 8 8 8 8 8 , , 6 6 6 6 6 , < < , , , , , , t r 8 8 a a a a t 8 6 6 6 6 6 6 > > , , 6 6 8 8 ",
"S V S S W y.y.m W O.0.0.Q S h w h S Q m m E W E g g +.o.v G o._ F b F q.+.v v s.G S G v w v w Z w w h z w 5 6 8 & t V w w C S w a w v Z o.o.o.+.F b F o.S 7 5 w 5 w 5 5 C V q v G V V C V C V 5 w V v h G o.F v X._ G G G G Q Q V V Q o.Z V S v V S S v v V S D F F Z v p p p 8 ` V D v b F P ,.O.} n } N O.X.,.,.N N +.X.g N f.W ,.#.P #.d.#.P #.d.,.#.f.,.P ,.n O.d.,.O.i.f.#.m W N v X.q.$.o.F W S v D Q v h v v h g S o.o.D o.w h h Z o.Z o.Q o.v h v q S T.q 5 w p 5 7 ` s.7 G Z G Z v G w G c m o.G S V h h 7 w D Q v v F S h q v W F N O.g P O.E N P E P y.E m m F o.y.Q u.0.+.0.+.W S E W N N F W F N F c W N W W N +.+.m X.u.f.u.#.+.y.u.#.+.#.o.E o.a.i.,.#.O.O.X.X.X.o.E F o.+.o.W W o.q.u.v v y.o.S Q V S S v S G V S V v w w v w 5 G D C Z Z p q q q o.9.o.G 0.8.S q.G S V w w h w w V V h w V G o.Q Z G Q V h v v F c m +.o.v F q.b o.0.o.o.o.D q +.o.Q F b b F W b S S F S b D o.S S v v v S F ` o.b v F +.f.y.N X.W N y.a.#.y.P X.! W W +.#.#.+.X.! ! #.i.#.X.i.#.:.d.X.,.d.n O.d.,.i.h.f.#.N m N m N +.y.+.F v G F o.o.v h V S v q V Q Z S D G q G h v Q G o.o.v q q V Q '.v 5 V w 5 w G k.5 w ` V w G G C A q F D F Q h 3 w 0 z G A h v S v v 5 v F S b G F v h D v F g q q.o.g v b W 0.o.o.q.Q 8.( D S S S h g S o.o.E S S E W W W +.y.#.N g K.J.d.K.d.:.d.,.U @.O.].K.P.d.P.d.O.P :.d.,.O.O.g g +.o.F W v o.F w w Z G V w v Z S q q Q q.s.z.q.q.o.b S Q G V w q 7 w V V w 7 V v h D o.D m G 9.q.q.o.S h w q w x x 6 & 5 t t t t u u u e e 8 t 8 8 6 5 > > > 8 6 5 5 6 6 5 > , > , 6 6 , 8 a 8 5 8 C 8 5 w w 7 8 8 8 8 8 t V 8 6 8 t t t 8 6 y r 8 8 8 8 6 > r t r r 8 6 , > , : : , , 6 , , 6 r t 8 8 t t 8 8 8 8 6 , > , , > > 6 8 r 8 6 , ",
"V v v v m o.+.E ~ W W W W D S S S W D S S o.o.F Q m +.F q F _ _ o.W F F G v v o.V h V w w V w C S S h h w w w 8 6 t y w w V V w C 8 w V V v b F W W G Z p 5 5 7 v S w v o.o.V Z Z v V C V V V w h h w v o.X.v N F G G G Z V V V w v V v w S Z q V S S V S S S S v v v v v V p 8 w q v q b $.+.#.O.O.U :.U O.U #.X.h.a.m 9 m N g a.].K.P n X.i.K.! n N ! O.#.i.i.U U ! ! O.f.f.X.X.a.#.N v c g v F o.D S D D m m h S D v h h S S 8.S S h V o.v h o.G v v Z w q o.8.` w.k.w.8.G v Z 8.V V p q C w m c v v v v V q V q w G o.S v S w.u.o.W Q W m m ! O.#.O.O.! E m W E o.o.W W o.Q k h m W E m E Q +.X.X.o.o.X.W X.W +.W W N c N m W W W +.#.o.W P +.O.X.#.X.N N o.P P P P P P E E o.W W o.o.Q W Q W W q.F S o.F S D v V S v V Z V F b v v v v w w z t V Z G S b S i F G F F o.8.G 8.Z v h 9 q v w 7 Z 0.q.q.8.G V S S Z D S h h v b F X.X.G F F W o.D S S D D D W W m v F F h h F b b S F D F S S D Q G S p w i b v i F o.X.W o.#.P +.X.X.N W a.+.a.#.N q q N ,.d.f.,.U O.f.f.#.O.n i.#.O.,.,.! N O.U U O.#.O.#.y.f.+.m c c v N o.D v V F h w v v o.h w Z Q o.Q v q h v D v v G q v S Z h & D v 8.8.s.r.9.Z o.p r.G G Z V 5 5 Z G G v 5 v G Q G & 3 C G V D o.o.q.Q D S S S b b b q.o.+.Q S o.o.F F q.o.v S Q S h S S h q q V Q Q p.0.W S E Q +.y.o.E c g n W #.a.@.:.O.O.P n :.,.} J.3.O.n ,.@.I #.N n ! #.! P ! +.W y.W m b g W G v w V Z Z Z G Q o.S v G o.Q +.v v h v S S v q V v p w w 8 8 w v h w V o.G F o.F G o.0.0.8.G V z C A y 5 4 5 8 8 8 r r e e e 6 t 8 8 8 6 6 6 6 8 6 6 6 6 6 6 5 8 , , 6 6 , 8 t 8 > 8 a 8 8 8 w 8 w w w 8 w a a t 8 w t t y t r 8 6 8 8 8 8 6 , r r 8 8 6 6 > > , : : , , , , , 8 t a 8 8 8 8 8 6 8 8 6 , , , 6 > , 6 6 8 6 6 , ",
"G S S v m Q :.W W E m v S D S V h S v h S Q W v o.b W v q F F F X.X.F b W F b F v q v w i V w V S F S V C A C w w w w w w w h v V 8 7 w V F F F o.o.G v 7 5 5 5 q w 5 q V V q w w q w v w w v w h q q S o.G v G b F G o.D D S Z v Z Z v h o.0.v v v v S S Z S S v v w v V Z C 8 V Z Q h v +.N g U O.O.i.X.O.N X.O.N o.f.y.g q W d.P.G.O.O.:.O.O.P.O.O.:.n U O.L O.U U P n U #.X.,.f.a.O.X.W F W v Q D S D D S D Q D S S D Q D v Z V S q v 8.V 7 G V 7 h G V q v v q V ` Z V v 7 V Z v G G v v q o.X.X.F v o.q.Q V w w Q 8.G v v q D S v W +.+.O.,.+.o.,.y.+.W m E F o.+.W W +.o.F W o.o.o.W o.q.W N N F W N N N F X.N X.X.W +.X.W E P O.+.+.o.X.+.W X.+.o.E N W X.O.O.#.#.#.+.o.S m F W Q Q Q o.W E 0.o.W W v S b v b F v v D v X.F F G Z v h V w h C Z C p i b v F F S D o.o.o.o.V h q 5 w V h h V V h w h V V w S V v S h 7 V g o.q.X.F W o.F 0.F b Q o.D S D Q v v o.+.b v Q S b b F W W S v h S G G V p v S b i F q.W m W y.X.y.+.W m ! f.+.O.#.X.c c X.d.h.d.d.d.:.>.:.O.O.:.d.n P } P ,.:.:.O.U O.O.O.i.K.,.O.P N m m N W 0.S S G S S G S S v S D v h V V D h D q.v V q.q h v S h 9 S h S v Z Z V v V 5 V 5 V Z Z 5 5 o.G G G S G G G G 5 w 8.0.G V h q v Q v v W +.o.0.u.+.D u.F g Q g q F 0.o.b W +.D h V D 8.0.0.8.Q S ~ E m W W S m E o.#.#.+.X.P P U P @.@.,.,.@.O.P ,.).,.n n d.:.g O.P N X.O.N N X.+.W o.S v b h F o.A C Z Z v v Z v F v v F F b F X.N v b F S V v V V v w 7 8 p V V h w h D F F o.v F D o.w.u.8.C z D G C 8 > , 5 5 6 8 r r r e 6 8 8 8 8 8 8 r r 8 8 6 6 8 8 6 6 u 8 6 6 8 6 6 8 8 > 5 8 w 8 a 8 w w w 8 p p a w a t w w t t t t 5 6 r r r 8 8 8 8 8 8 8 6 6 , > , : : , , , , , 8 r 8 8 6 8 8 6 6 6 6 6 , , , 6 6 6 6 6 6 6 6 6 ",
"8.G S S S o.t.W E P S S S S h h h h h h m S b g D v F v v F V G N W W X.q.o.F F D v Z v V G v v b W Q Q 8.w.G 6 t w w w w w w w p w w p Z G G F F G Z w 5 7 w 7 p v w w V v w q q 5 w V q q w q w w w V o.o.F G G X.o.o.D D G G h v v h w Z G w v w w v S S Z Z F v w w C G A a w w Z h v o.N N N ! ! ,.O.#.P W +.N F o.X.b o.h.d.d.J.].sX].,.O.K.O.O.,.O.O.,.:.:.O.O.U n n #.i.X.O.N n W X.N v q S v h S S S D D h 9 q S Q v 9 V w v q h G h h Q h 5 w G Z v V V V o.o.Z F q.w.V v v G o.V v q 9 q F $.9.0.Q q S w q S o.Q v v S Q o.Q o.0.o.+.O.P E +.y.o.W E o.b v b F o.q.+.F W W W F b F W W F F X.o.X.X.X.m F m W +.o.a.#.E W #.#.+.X.+.y.o.W W o.o.W N E X.X.X.X.! ! W E E m b F Q Q Q W W Q u.o.W Q b D F b F W S F G N $.X.X.+.Q h w S h V V C p q w b Z F F D Z S Z Q Q v h w 7 h S V w v S S V h h w w G h q S w 5 Z 9 X.q.o.W o.+.W +.W F o.o.D v v S g g F D v g v m S F F W W D b q h Z Q G V S Z G i v W W E W P #.#.X.O.O.+.y.m N +.#.! ! y.d.a.H.].&X].,.d.K.d.:.O.U d.K.O.O.O.:.U n U O.O.#.,.c N X.O.W b c g D h v S v v V v h v G D q 9 v S h 9 q v 5 q o.q w w h v D o.h 5 8.G V Z 8.w.` F v G G Z w w V 5 v 9.w.q.V h G w 5 D Q S V h q v o.Q Q +.+.Q G W Q q.T.0.v W D D v v v o.s.q.D Q S S S S S S S S h S 0.u.+.m m o.c E #.a.y.#.O.X.3.,.n n O.O.O.P O.O.O.O.O.3.,.O.#.X.o.+.X.m m W W b S D D F S S Z Z Z G Z v w w q v v v F F b W E m b D F v h v V V v p p a Z A C S h h S v v G o.Q Z S G Q S w w V V z t 6 5 5 , 5 6 r r u r 8 6 6 6 6 8 8 8 8 8 8 6 6 8 8 8 6 t 8 6 , 6 6 6 5 8 5 8 8 w 8 C a w 8 8 8 p p 8 8 t 8 w w 8 w t t 8 8 t t r 8 r u 8 8 8 8 6 6 6 , , : : , , , , > > 6 6 > > > 5 5 , , 6 6 , , , 6 r 8 8 6 6 8 8 8 ",
"G h h v S o.+.E W ~ Q Q D S V S h S F S S S S v Z V G v v Z V o.b N W #.u.X.F +.W v G F G o.V F E o.o.W o.8.Z 5 p w w p V w w w V a p V V Z v q v F V q 7 w 8 5 V p V V V V V w w w Z G p w w 5 5 V V v W 9.o.G o.o.o.F v w h v v w V G v v v v v w q h v v v Z G F v w V Z Z a 7 5 V v v b m X.! O.P #.W y.! E o.E W q.o.v v o.U n P :.d.O.U d.O.:.U P O.O.:.P.d.>.O.! U :.d.d.f.f.#.O.#.+.N v v S h q S S v v h v S S v v v S G w V V v w q Z 8.V w V C V v w h v G Q v v v q 9.S v h v v v F X.q q F G D S V Q h 9 h D D F V Q Q Q o.+.F m W N m m o.o.E E W +.S v v v W +.o.b b m m F W W F W F F X.X.W F F F W m N F m W m E W +.#.+.W W o.W E P E W E E W O.X.! P P P N N o.W F F W Q D m W +.s.W S o.W W o.W o.o.G W o.F +.X.X.+.W h h Z h h V V p w V G v V Z G S w v Z C w w w w h C V V V S D S V v h V Q v q V q 5 D q F $.#.+.o.o.+.o.Q b g h S S h S F S v v b b h v S F v v S D D S V S G G V w w S v v v m o.o.n +.W N #.#.X.#.N #.#.X.n c ! #.O.U O.,.:.O.,.d.O.:.P O.:.d.P.,.:.:.U L O.d.d.i.,.i.a.i.#.X.W ! X.v w V Z v h v h Z h v V v S D h v G v v Z Z o.o.q v V v w q V V G D F v q 9 v F v G v v v D 9.v q S S S S G 8.0 3 z S S G D F Q v Q o.F v v v v 9 D G F 9 9 Q v N q 9 N 9.G v v g q h h v v V S W W o.o.S g E y.X.E m m m W +.#.,.d.! N #.O.#.U g c ! #.O.N O.f.E W o.+.W v v S o.Q S D G S V v w w V Z Z V v V v G F b F b m F f k W q.+.F V G G S V Z Z A Z Z V S V v V w q v o.` Z v v V V w a 8 8 8 t t 8 6 > > , 6 8 r 8 6 8 8 8 6 6 6 8 8 8 8 6 6 8 8 8 6 8 6 , , 6 8 6 > 8 8 a a 8 8 C C w w w p p p 8 8 8 w w 8 w 8 6 8 t t r r 6 6 r u 8 8 8 8 6 6 6 , , : : , , , , > > > 5 > > 5 6 6 , , 6 , , > , 6 8 8 6 6 6 6 8 8 ",
"V q h S W o.:.W W W W S m v S Q m S W W S v V S D S S q w v w o.F F F +.+.m b q.D b G F G o.Z o.+.#.O.N b F v q 8 8 w p V v w 7 p C V V C Z F v v v v w w 8 6 > w 7 w V p V Z p w p A G v w w 5 5 S S h D q.o.F G F v v v v V V S v G q.Q v v S S v v v h q q v G F v q w V a p V w G F b m c +.+.#.m W E y.W E y.Q +.u.0.h 9 h ,.U M O.d.,.,.].d.P.O.n O.U U K.G.d.,.O.U O.i.,.n O.+.! W n g N Q o.S h S D h q D S S D D S S F Q q v Z Z v w 8.Z w v Z V V V q G v v G o.o.o.w F q v h v F v _ `.F q v v v G 0.Q h 5 7 v S F S v h h S Q b v W m N ! W W m m E F F Q W h h W Q o.W F F Q +.o.W F N N F F m c c v N c N N m W N E m N o.y.y.+.W X.W W E E E W X.#.+.O.X.! O.o.+.E m m m F Q W m W +.u.F b +.W F +.W o.+.W o.o.X.X.N N W F v v Z A S C C v p V Z v S G o.G Z Z G v q w w w h C v Z V h h h h V S G Q S h v q 9 S b N o.q.q.W W +.v F F h v D S h o.q.+.F b W Q F h b b g q v F D D v h S Z v q q v Z Q F S 0.p.~ X.P N y.#.N y.a.#.+.N c c N ! O.N U d.d.O.d.].K.:.U :.g n ].].d.d.O.U O.d.d.i.,.O.O.P c g c N F D v Z Q V V S S v h V V h V Z v 5 V q w Z v w v q V Z v v 5 Z Z v F 0.0.G 9 G v 9 v v D F G u.o.v v w v S G 8.w w C V S G Z v v 9 F G v q v G G F o.v o.G D s.G G X.v 9 m F v q h v D 8.8.D v h W S m g f g m m o.W N N N N m g 3 +.+.+.#.N n n O.U U m +.+.#.W b b F W W m v b o.G q v v w V w a p w w v V V Z v F b v F F m N W ~ +.o.W D o.q.G S b V Z Z p 7 8 C V v V v q v q b V V C S C V A a 8 t a t 8 8 6 > * > , 6 < , t 8 8 8 8 8 8 8 8 6 6 6 6 8 8 6 , 6 , , , 6 6 5 5 8 a a 6 w C V 8 p a a p p t a 8 8 t a t w 8 8 t r 8 6 6 , 6 8 8 8 6 6 , , 6 , , : : , , , , > > , 6 5 5 8 w 8 6 6 6 6 , , , 6 6 6 , , , 6 6 6 ",
"S V D Q F W +.+.E P m v h h V S m m b b v v v V Z V V w V V 5 S F W W W W b b +.F b o.F F Q Z o.#.#.#.X.b v w p w p p w v V V q w a V p V Z o.o.F v w w w 5 > 5 A w V A V Z o.Z V p V Z p w w 5 5 V V v G o.o.G F m v v V Z Z S h q v D v h w 9 v v V D v q q V F F v w w p p 8 7 q D b F o.+.a.O.o.m E m +.W W 0.l.q.5 3 Q 0.S W U n n :.,.O.O.K.i.O.O.,.1.1.d.3.d.G.>.P O.:.O.g O.i.a.a.#.#.j.o.0.W v S S h h D g 9 q v v h q S 5 w V Z A V o.Z w v Z v V Z v v q 9 q b $.q.W v v o.W G o.b F N i b $.o.v q 5 Q V 9 7 h V F Z Q 8.Q Q 8.o.m E m W W E E E E S m b Q Q v v D W Q W F b b D S v o.X.X.o.+.W F N c F b W W F #.$.W m m o.u.u.,.+.o.+.+.W E E W X.P P P P P W W W h m b v m F W W Q W +.W E o.W W o.W X.o.W o.$.o.+.X.W N F S S S G A Z Z V p p p V Z Z G o.o.o.Z V q w w w z D V v V G 0.q.Q S V G D S S h q w v F N X.+.+.W F W g b W W Q D S v S W W m g g v v b F b g q m F S S h w V V v p V Z Z Q Q W +.y.o.E P N #.X.P y.y.W P P P N N W #.N L :.,.P O.P.d.P O.d.,.O.H.K.:.,.O.U O.:.O.P L ,.d.d.a.y.a.a.q.D w h v w h v h q h D S q w V v w V V G G Z G v v v w v o.w Z 5 9 q F +.q.N +.9 o.+.+.q.F g b 9 F G S D h w G C 3 7 w h D Z v G Q o.o.D v v v S G v q v v v F q G X.m q N X.F N o.F v h q q v S b W Q S S W o.W g c P O.#.#.W m +.[.a.+.a.y.f.`.h.#.X.c q.a.y.c W F F W W D D Z Z Z 5 w V w C w Z V p 8 p V v w v v v b X.W N F o.o.E h g v F G F Z V p a p 8 7 w V v w v w q v 5 q v V S A C V V a a V a w 8 t 8 6 > * , , 6 , 8 8 8 8 8 8 8 8 6 5 5 6 6 8 6 6 , 6 8 , , 6 6 5 , 5 w 8 5 8 V w w p V p 8 7 w a 8 t a t w 8 8 8 8 8 8 8 8 8 , , 8 6 6 , > > > , < : , , , , , > > 6 8 8 8 8 w 8 8 8 r 8 6 6 6 8 , 6 , 6 6 6 8 8 ",
"Q Q 0.o.m m W o.S m b S D S h 7 m v g v b S S S V C G G w.8.9 v g W o.F X.o.F F W F o.G F D b X.U @.,.a.o.v v V p V p 7 w Z F q p V V w q w Z G Z w q w 8 5 > 8 G p V Z w v A p Z V Z Z v v V w 5 w h V Q Q F G o.F v v v V h 7 v v S S V D Z 9 q w S o.Z w w Z v F Z V v v w w p V Q h g W m c b E h m g Q W Q S h S 0.o.h q v g d.f.U N O.O.U ].O.:.d.d.d.d.U d.,.O.O.:.P.K.P ! ,.i.d.h.a.#.y.D o.Q V S V v S S S G Q V h S 0.V q w w V G w q s.Z V V 7 w D v v v b v v F W b q.q.j.W b o.m N N m b v q w V V Q V 7 q h V F F h D S h W +.o.F b W W m m W W S F v v S S Q +.Q F W W S b D W F b m b W X.W F F +.y.+.+.W v W N +.+.+.#.O.E E W W o.+.W m N N P P W ! W ! W E E W +.q.W b b D W +.S o.o.o.o.F o.W F W X.W o.q.$.a.y.+.F F D Z v v w v V Z V v b V v h w Z o.G w Z w w w w V G Z o.S v v V S G 8.Z V Z G v w h w b F G W o.o.D S D b v b v q h Q S S W W b q h D W W S g v F D h Q S V S V w v G o.v g b F W E v m m g N F W +.g +.X.E N c q m #.K.! ! :.O.d.Y.O.i.,.,.$Xd.P J.K.,.:.,.J.d.>.O.U ,.d.f.a.y.q.o.F q.S h V V C G C S v V V V G Z 5 v 5 w A q v q.w G V q q D 5 D q D v b S D h s.D j.+.v F b v Q b D V w V w 5 S V 5 h h v S v h V v h S o.o.D Z Q o.w o.G v v 5 m G v v ` 9.Z v G q q v F D S v S g o.0.F v W u.s.u.#.N c c m W X.N y.c f +.+.X.X.X.X.a.X.+.m X.W q.Q F F Q Q D Z G o.v G G w C w w q w v V Z v q D Q F W q.#.W F v E Q o.0.q.o.i F Z Z Z V a a a w V V w w w q v w i v p V C z 8 w w V Z t 5 8 a a 8 5 > 6 8 8 8 6 6 5 5 5 6 6 6 6 5 5 5 6 6 6 6 , r r 6 , 6 6 5 > , 8 8 6 8 t 5 7 w a w 5 > 7 p 8 t t 8 6 6 8 t 6 6 8 r u r 6 > 6 6 , > > * > > < , , , , , , > > 8 8 8 8 8 8 6 t t t t 8 8 8 8 6 8 8 r r r t t ",
"0.m b g Q v F v v Q D Q Q V Z w h Q W D 0.Q h S o.w v w D S q.8.Z V v v F Q 0.u.N W X.W F F W U I ;.1.O.N v w w 7 8 A Z i v F m 9 5 v Z w w v V q p V 8 6 8 8 w w 8.V G Z q o.V v v V S Z F S S h w w v D o.o.G o.Z h w S Q S q v v F F D G D v h h S G S h v S v h w v S S V w h V v w w m F W o.S w v o.o.D Q o.S 3 S W g b v +.c ! a.! m #.d.U :.#.P.g.3.O.$X:.).>.g T U g P $X,.g O.+.m X.j.S v h w w p t 8 8 8 v C V w w v V w w q w v v v D S o.s.0.v q S h 9 D u.W v F D v F Q W b v b Q b F q Q o.s.Q v o.v 9 9 v F W W F G o.v g N v W b b v b F F G D Z Z v v V v v D v b g v W m g o.o.v F W v F ~ m a.X.! X.O.+.#.! ,.#.! N P #.#.+.X.#.q.y.y.o.F o.X.+.+.o.W F F W c c X.X.+.y.W F b S W o.+.0.0.0.+.~ o.t.:.W E W y.+.F m c c v v o.Z q S Q V V q D v h v S D v q V w w w w w C G Q Q S S S S S S b S F D b b m m 9 v o.o.o.o.D S V S Z Z S v v v G G o.o.G q q F S Z Z v V S V h V A G Z v w v v h 9 q b o.o.W F g h j.W F o.q.v g W m g m N m W F u.o.k #.f.#.P K.,.].d.:.].K.J.@.n M O.g M $X,.M :.#.n W a.$.v V b v p 8 w 8 8 C C a 8 w V V w w a w 5 h Q G w w.q.Q v q h v h G 0.8.S S S S 8.S S S S S G S V Q D o.w.8.Q Q h 3 q h S Q S S 8.G h w S Q v h h h q Q S D 8.S Q w w V w w V V q w V Z v w h v V g q h F v W j.o.W $.i.#.X.W +.y.#.f W a.d.} M &XO.h.h.#.+.o.W W Q o.o.Q D D S S S S 7 V Q z w h Q m o.+.m m +.+.o.uXj.W N +.g v v V S S S V v v q V Z 8 5 5 6 > t w w 8 w 8 w 5 a 8 V a w 8 w 5 t w 0 w 0 6 V 8.w C C w & 5 w 6 t t 8 8 8 8 8 8 8 8 8 6 6 6 6 6 < < < < , , 6 6 , > 8 t 8 8 t 5 8 w w 6 5 5 8 8 w w w t V V w 6 6 8 8 r r 8 , * * , , , * * , 6 * , , , , , , , 5 8 8 8 8 8 8 8 5 8 8 r 8 8 8 8 w 8 8 8 8 8 8 6 ",
"o.F W v D h Q 8.q D Z Z v w G Z S o.Q Q o.Q v Q S S 0.0.s.D v 5 w w w w h h h h b N W W X.O.#.,.J.).P.:.N g v V C C A V q v F N Q v v h q q v V w p 8 8 5 8 8 8 w G w Z C q G v q w w h h h h h h v V S D V w 5 w v V v v S S S q v v v v V S S w h S A V w h S v v q w v V h w V V v h v Z D F h w 7 v 8.Q Z G S D g S F b q.$.$.X.W g 9 W d.#.U n P h.,.a.3.3.gX,X;.L G.K.O.d.,.i.O.#.+.W X.N Q D V w w 8 8 8 8 8 a C V w w v w 5 h G V 5 w 0.q w v v g g v F +.q.v v z.s.g q D D D D F F F F q W W W 5 g m 0.Q v q g v b m m v N 9.o.G o.F G F b v b F F F S v Z v w v V v D F S v b +.W m o.v v W 0.q.q.q.o.X.N ! O.! ! +.X.O.O.O.O.O.#.#.#.+.+.X.X.+.o.W +.W X.X.X.W W W W s.q.q.N c b c m b S S S b v h g ~ ~ ~ +.t.y.f.U.j.q.F m m N m v G Z h G o.S Z v S m v v S S v h v w w w w w V A D S S S S S S S m b F F b b m S D Q Q V h v v v S S S S S v v h F v v G G v v F S Z S v v S G Z w w V V v v v F S v v F G F F F G V q.v F 0.u.b v F E o.f.y.X.#.F v 9 m y.+.! #.n a.,.:.3.g.).<X,.O.,.J.,.J.].U n @.i.#.+.N v F v v w q 8 8 8 t a C C d w 8 w w w V z w w C Z V w h h h S Q o.Q 8.h w.l.S S Q 3 8.Q D S h h h h S h h S S S Q z 9 q 0 h V h 0 z 8.D S D G S z S S h G V h S h V 8 8 8 t t A G V 5 w v w h V S S 9.z.z.x.s.G o.+.X.X.! W ! #.f.h.:.O.#.P O.a.U O.X.d.d.#.+.o.D W S S D D D D Q 8.S G 0 h S h S S m g ! ,.X.E W m g u.F h v Q v D S S S V v v V Z 7 w 8 w 8 t t w w 8 6 6 w 8 8 6 t 5 a A 6 # & A 0 5 0 V C w w C C D C w 5 3 5 5 t 8 8 6 8 8 8 8 8 8 8 6 6 6 6 6 , , , , , , 6 6 6 > 8 8 6 8 t 6 w a V a w 8 w t w w 8 w V V a 8 6 6 , 6 6 6 , , , , , , * * , 6 * 5 5 5 5 5 5 5 5 8 8 8 8 8 8 8 8 8 t t t t t t 8 8 6 6 8 8 6 6 ",
"b b o.+.q.D D v V o.S S v w A V v D D S D S v Q S D S 9 Q v D q.C Z Z Z Z Z F F F b N X.X.! X.:.J.P.G.O.m q V A a 8 p 8 q v W F v q w V v v v w V p 8 5 5 8 w 8 w Z 7 V V w G w V S S S S S S S h v S D D V h q w V D V h h V V v v v v w v Z D h v S S h w h S o.F v h v V v w C V h h V D F v Z Z V Q 0.Q V D v +.o.Q F F q.#.c F X.m c y.h.#.+.X.K.sX#.d.].]. .1.T T d.,.n n P H.d.O.W y.K.o.W Z V w 7 6 8 8 8 8 8 a w w w w A w w A Z w q C S o.o.h q S Q D q S o.b 9 g b g v h q g v b v g m Q F b 9 h b o.D b v v S b v v c v 9.o.o.o.F F F F F F F N v v w Z v q v S S Z W W b W +.Q F o.W o.o.o.q.o.m v E N O.#.W N ! ! N P O.,.#.P N X.W X.X.W X.N F 9.X.X.W X.X.X.X.W g v o.X.F X.N F W W W W W W W W ~ +.+.o.O.y.H.U.j.9.N v N F v c v Z v G G v F v b b b b v v v V v w 7 w w w p C h z S S D S b m m b F S b b S S G Q G v v v S D Z S V S Z Z V v D c 9 v G G F N V S S v v S Q 8.w p V V v v i v F V S F F b b F V Z s.V g b Q D q.W h E y.X.N +.Q S E f.uXf.P P h.jX,.,.$XK.K.K.n U J.3.n n U ,.P.O.n X.f.$.F G v w q 7 7 8 8 t 6 8 a 8 w 8 V V t V C V w w C G G G S h h S v h Q z 9 5 9 h S S h h h V V S G Q S h w w h Q Q z S S S S G S V S q.( Q S S S S S V h S h h z h S V 5 6 a a A G A C A G G G G D S 9 o.F Q +.9 5 b +.W c q f n c g n O.+.9 n a.O.n U #.W v b m h h v S Q o.o.Q D D h D 0 q h h S D o.m m E E W Q F g Q g h h G v G V S D S v w V Z V p 8 a C V y t w 8 6 8 w t w 8 a a V t 8 a C w w 0 w C G C w w G C V w 0 3 & > 8 8 6 6 8 8 8 8 8 8 8 6 6 6 6 , , , , , , , , , 8 > 6 6 > 6 t w 8 8 a C V t 8 8 a 8 8 8 8 t t t 6 , > > , 6 6 6 , , 6 , , , , 6 , , , , , , , , 6 6 8 8 8 8 8 8 6 8 t t t t t t 8 6 6 6 6 6 6 5 ",
"j.W g q S W Q S V D v S G S Z q S Q o.o.Q Q Q 0.v Q W q o.h q Q Z Z V h v V D G G b N X.O.P P O.:.:.O.W v w w t 6 , 8 V V F F v q 9 h D V V V w p w 8 5 5 8 w 8 w V 5 w h w Z w q w v v b v v h v v V V V V S G D S V v V S S v F G G v h v S Z V V V V h h h V o.Q F v V V z z z z h h v S F S G G Z G Q V q v g Q q.0.W F o.o.F X.#.y.X.m N X.n m O.a.q n @.,.,.).G.:.d.J.,.d.O.Y.d.U c N #.m v v h h w w 8 5 8 8 8 8 q w w w Z C p w v C v 5 S o.o.v g b S g 0.v h v q +.s.b S v h v S W F m S S v v b Q F v F b b F D D D Q F N o.F v F c N F F F F F v m v v G V w V D Z Z F D W Q o.F F o.v D m v o.W m W W N O.,.W P O.#.,.O.,.h.d.O.W +.g X.#.+.W c v +.+.o.X.X.o.X.W F W N W m c W W o.S S S S F W Q Q E +.t.o.! +.t.+.q.o.b v m v v q v G F G S q F F S S S b V v v v v q 7 w w w w V 0 h S S D S v h N N F F S b S D v S Z Z S Z D Q S v v S G Q D F o.m q v G G v m v V S V v V Q 8.C V V v v i w w v v v F F F F F h G k.G g v v S T.q.E W o.X.W #.o.+.W m N o.! m ! ,.g n d.3.>.} ].,.K.G.5.,. .].,.@.N U X.m g G v v w q w 8 8 6 > 6 8 8 8 8 v V V V C A V w V 8.Q S h h v S D D 5 z S Q u.0.V S h z S S S h h V S V V h z Q Q h S h V S S S S h Q Q D h h V S S h h h h h z S G A 5 6 V V a V p G A C V V V h q v G q v +.W W o.+.o.! ! #.f.i.X.h.&X$X:.N n B n h.f.X.v W o.Q S S D o.o.W v h v q G h h S S S h +.N h v b F W S D o.h v v Z 7 v w V D G Z V v v Z p w V C t w t t 8 w w t t t w t C C w t e.8.6 V w w z C V z z G z w w w 5 5 6 8 6 6 6 8 r r 8 8 8 8 6 6 6 6 6 , , , , , , > > 6 > > 6 & 6 t 8 6 8 a a a t 8 w t 8 8 6 6 5 6 6 8 6 , , 6 6 6 6 , , , , , , 6 6 5 5 , , , , & & 6 6 6 8 8 8 8 8 5 6 8 8 8 8 8 t 8 6 6 6 6 6 6 5 ",
"j.o.q 9 v W W S q S h V S V Z w v S Q o.Q Q o.o.h Q o.S u.S h G G G V w q v v v b v F o.#.o.X.+.:.O.E S S w 5 > d 8 d Z Z b i 5 o.D G D w w C A 7 w 8 8 5 6 w 8 w p 5 w w v C w 5 7 h V S v h q S S v h w h v S V V v h V D G D v F F v h w h v S V h h V S V h V Z Z S v w w w w V V w w v F ` Z Z V A o.Z V o.v v W o.W E F +.q.F b X.W g m d.y.,.n P P ,.#.d.J.d.@.>.K.d.>.,.O.,.,.a.,.! #.+.b h q q w w 8 5 8 8 8 8 w w w w 5 t V w 5 w V C w v S V v v m v h D q 5 v w 9 G V V v h v Z Z v q V Q Z v h V S Z V V Z D D Q o.G v G v v v q v F S v v v v v v V o.Z v S G D D v S W W m h b W b W m h W F m o.W m W #.#.+.,.a.X.n N #.#.m g n m X.+.+.W v v o.o.X.W W X.X.W N $.W X.N F $.W W F S S b m m S S m o.+.Q W +.t.+.F b v v v h g g v o.F G v v X.Q Q F b b V V v h v w 5 w w w v V 0 h V S S b v g N F W F F S D D v v S Z S v v V S v v V D G D F o.F v v F v v v v v S V v v S G Z V V p p V V Z V h h F o.o.W F Q o.o.S D q.S v W W o.o.o.+.+.X.W u.y.m m a.K.#.N n >.>.,.K.J.J.d.,.K.,.d.d.U 3. .3.,.O.#.+.m 9 v v q w w 8 8 6 a d 8 8 8 w w w a w 8 V V 8 V G V h w h S D D Q S 3 h G 5 7 S 7 V h V S V w h V A V V V z G G w S h V G V G Q V V S S w w V V h S D S V V h V V A 8 8 C C t w w V w q w h V V V F v q q q b +.q 9 g c n W #.#.W n #.:.U n g n O.#.X.g 9 S Q V q S b m v h q S o.S 8.v S Q Q Q h h v v v F F v h S Z w C v V 5 w w h v S G G F v i 7 7 8 t 8 8 a a t 8 w w w w w 6 6 V A t 6 t V w w w w w w 8 t A w w t V w w 8 6 5 5 6 6 8 8 8 8 8 6 6 6 6 6 6 , , , , > > > > > & , 6 & 5 8 6 8 8 w a a a a a 8 8 8 8 5 5 5 5 8 6 6 6 6 6 , > , > * , , 6 e e 5 5 5 , , > > > 5 5 5 6 8 6 6 6 5 6 6 6 6 6 8 8 8 6 6 6 6 6 6 6 ",
"b W E o.W o.F S h o.Q D h 9 Z G h h D Q D D Q S D D S 9 D v o.l.S G G F S D F v v v F G o.X.W F 0.W k h w w 6 , d < 8 a p p i 7 o.D Q Q v w V V 7 w a w 5 5 w 8 w w w w w V V w h V D o.o.Q F b V V V V V V v v w S D V w w V D q v F S v v v h S V h w V S V h v v G Z V w w w w C C w q w Z o.G Z V Z Q G Z 0.o.b F S F F b +.q.X.c c W X.X.a.+.#.g c n O.U d.J.>.,.].$X,.U d.,.:.X.i.i.#.f.`.X.F g q q w w 8 w 8 8 8 w p v w a 6 5 w w 7 w V S v v Z F v b Q o.S w V 0.8.v q v V v q 9 w w 9 v Z 8.V v q V Z D S v v V V Z G F v G F v S q v S v v v v v v v Z G Z V Z S S D b b W W f q m b D o.o.D F v g m #.N P #.#.X.O.#.a.O.O.i.d.#.X.#.+.X.N b W E b W X.X.X.X.o.o.o.X.c c W X.q.s.X.b Q W D F F S F F W Q W E E W o.o.v v V v h h v v q F v v m v o.G o.D b m S S v v V w q w w p p V h z V S S b v g F W W F S b S D V V V V v v V D Z V v v V S v v G G G F v v v F v v V S V h v C G A C v w w v Z Z v g F o.o.W F Z Q D v v 0.S o.b b W E m W ,.X.q b o.X.W +.,.N U 9 O.@.U d.>.>.#.].&X,. .3.5.J.>.3.O.U f.[.y.g v v g q w w 8 8 C t 8 8 p p p p 8 6 6 w w w w V V V V S S h q q S h Q w.G V V h h 0 7 h h h S 8.G V h v h S G S G V G Q V G 8.V S G S h w z h w h S v S S h S C C 8 a A a a V w C h q w v V D Q v F G G q G j.b W +.+.N m ! X.U ,.`.a.O.O.} X.n X.o.F b 8.q.Q h h v F Q D v S Q 8.0.h h Q Q Q v h F v v D G D G q w q C p G V V V h w h V G Z V b i 8 8 w 8 8 t t t w 8 6 6 6 8 8 8 a V 8 6 8 5 w w a V V a w w C a w w V w w w 6 5 5 5 6 8 8 8 6 6 6 6 6 6 6 6 , , , , , > > > > & 5 8 , 6 8 5 8 w 8 8 8 8 8 8 5 5 8 8 8 6 8 8 6 6 , 6 6 , > & , * * , , 6 e 6 5 5 5 , , > & & , , 5 5 6 6 5 5 6 8 8 8 6 6 8 8 8 8 6 6 8 6 6 6 ",
"W o.m P g o.o.q.v o.Q Q v q S S Q S o.0.Q o.o.S Q D o.S o.v D G w V V v v V v q v v v v v F F v Q m h w w 6 6 r r > < p p i b b q q V G V v h w V V a 8 5 6 w 8 w w V w w V v w v v S Z F b v h h h v S D D S v h Z Q S h w h v w v D D D Z V h h V V h h V V v v v V C C V z t w V V w q w v V V v w w V w q v +.D Q v v W m F a.j.y.o.+.N c N O.X.U #.n N X.K.d.:.@.O.O.I :.].].P.O.P n n O.O.O.O.W F v w w w 8 w 8 8 w V v w G 8 5 8 C V 5 5 v w h v h q q h 3 5 8.8.& 3 S q D G Z v v Z Z v D v S q G S D w D V h v v v v v F v G G F G v G F v v v v v v v V V v V D v h D W b W S q g b v g v W Q b b W W y.E ! ,.O.P P P #.! ! #.,.O.W +.o.X.b b W F S W F W X.X.X.X.X.X.y.X.X.m b +.W X.m v v v m m m m Q S S S E S S D S V h h w h v V q F v v m m F v G F S b V V S S V w 7 w p p w v V z z v V b b b W W W F b b S S V v V S V v Z o.D Z S S v v v v F X.o.G v v v F V v v V V v h V A G A V w 7 w p V v w v F D G G 9 Q Q S q F h q.y.W o.o.m ! u.u.j.#.o.W N +.f.,.N n n P :.d.,.,.a.d.O. .>.J.).5.P  .O.U O.X.X.a.X.F v q q q 8 8 8 8 8 d V a V C w 8 8 t w w w w w w v V V h v Z G Q 9 & 7 5 w u.Q V h V V q q h G h h S V h S G h 5 h V 5 w S 7 Q S V h V V V V 7 h 7 v V w G C t 8 a a 8 a A C V w 5 9 7 7 q v q F v v v F q.G F o.X.m n X.#.#.n O.B M #.#.y.N g N b h v S h q h v Q q.o.m v W Q Q q v Q S S h G o.v q C G G 8.7 w 8 A 8 H A C C V w h v V V V Z S p w w 8 8 6 w w 8 6 6 6 8 w w t t 6 5 a a = w w t V A A V w t t t w w t w 8 8 6 , , 6 8 8 6 6 6 6 6 6 6 6 6 < < , , , > > > , * 6 8 6 8 t 8 8 8 6 6 8 8 8 6 > 5 5 5 5 5 8 8 8 5 > > 5 5 > > 5 , & & 5 6 6 , , , , , , > > > * , , , , , , , 6 6 6 6 , , , 6 8 6 6 6 6 6 , , ",
"! W m W m q.D b 5 q 9 v D D G q D h S D v S S 9 S h Q Q 0.o.s.u.G o.G v w v v q 9 v v 9 v o.o.D S S S V w > > 8 C d a A Z V Z S Z w w v w w V V G Z t 5 5 8 w 8 w w V w w V w w S S S S b v v h V h w h V V h q v V V S G Q S q v F D D D Z v q 7 v S h w h V V w q q w V C z w w w w q 5 q q q G A V Z o.D V D g v o.v b q.F m v +.q.$.X.g m U.d.m P f.N P O.O.U :.O.n O.].).O.d.].,.O.O.d.P.@.P o.u.u.W v w 8 5 6 8 5 w p w 5 6 C A t w V V w q w V V V v h w v q.D 9 v G v q v V v q v Q G v w 9 h 9 G V S 5 Z v h v v v v v Q v F S S F v o.G F v v v v v v v w q v D w q G 0.F F S f v F g Q W q.0.g g W E W m W i.#.! ! O.#.+.#.#.O.! W +.c W o.o.W v m +.b N N N m v m m o.X.y.+.$.u.o.o.W D F S b m v h b h m Q 0.Q E D Q V w 7 w h V v F o.F _ X.F F q b F F S v v Z Q V w 5 w w p w h S V h h v b F F F F F b v v v S v v V Z V h h V D G G D F S S F G o.o.G v c v v S v h V S v V V w p C V w w p V v q q q q v F o.w o.G D S +.q D W f m q.W N O.O.#.W W m m y.d.n n h.O.O.,.P O.d.n N O.{.P.@.K.).G. .U d.P.:.N #.f.y.W v q q w w 6 8 d C a 8 7 w 8 C A C t 8 8 w G S V h q 9 v Q S 5 V 8.h w S w w 7 w G Q V w w V 7 h Q S 7 w h h 7 S Z 5 v Q h Q V h h V S S G w S 5 w 7 3 h w w 8 a 8 > 8 A Z V w w v v h v Z s.s.v q o.F v v b X.X.n c W O.W O.#.n O.a.W X.W b +.o.v q q h S v g h v g q D u.S D h Q 0.S h h V G V w G G w p t C a C 5 C a 8 z V V V v v v w w q 5 > 8 a t > w w w 8 6 8 w t 8 & 8 C 5 # 6 A t 6 5 6 t C V 0 6 w t 6 0 t t 8 8 6 , , 6 8 6 6 6 6 6 6 6 6 6 < 8 < , , , , > > 6 > 8 t 8 t a t 8 8 8 8 8 8 8 6 , 5 > & & & 5 8 8 6 > > > 6 8 8 8 5 & & , 5 * * , , , , , > > > * * * , , , > > , , , > * & > > 6 6 , , 6 6 , > ",
"O.#.X.v g W o.q F m Q v S h D v v S D Q o.D v S v D D m v D Q Q v G o.F v V v q w w v V V Z Z Z V C C A a 8 6 6 , , 8 Z G Z p p Z v w 7 q v C A V V a w 8 8 8 8 w w w w V S C v v Z V o.0.o.q.Q V V v q q h v h V G G V V G G S 5 v F F v v v q v S S V h h h w w i p w V A A t t 6 w A G ` G i v V Z G D S Z Q S b F o.q.o.F F q.o.o.F q c W E ,.g m N #.d.P U n ,.O.U ,.d.K.,.).@.M @.J.K.d.n P #.o.s.o.0.h w 5 8 w 8 8 6 w V A t 6 8 8 a V C 7 A A Z A w 5 V v C A C w w v V w 8.8.5 & v o.G q V G G V w V o.v w w v v V V v w V S v S o.Q S v S G D h q S q.5 w v V v v V S F F F F b v b F g m o.Q v g m m E m P O.#.i.u.+.#.! P P ! ! F N +.W S W W b b F W o.X.F N N F N o.m m X.+.F N W W W W D b v v S F S D o.Q F S D S D S h h v h h q F o.G N F F N v h m D G D Z D A v w w w w w V h z S G S F W Q m $.u.q.q.Q S S v v v v v h S o.G S V D Q D V v G F F N c 9 v 9.V v h h v v h w C t a A ` C w w V ` 8.G v i S o.S Q Q Z Q 0.Q g b +.u.+.W +.+.+.#.q c m N +.X.N c U d.,.n P :.U N W d.P.d.J.J.@.L 1.G.K.3.n P ,.X.i.X.W v 5 V w a 8 5 8 8 a p 8 8 w 8 t a a V V A V o.v q V w S G C V C V w w Z w.w = h o.G V V 8.G V V V V V A h w w v V V v w V w w Z G V v S Z A 5 & V A w w 8 8 8 8 8 w C A V 7 q v h 5 9 v v 9.5 v o.v q.v b F N W #.#.P N O.n N N X.#.W o.o.v q h w w V o.h W v v b F o.v o.S v D G v h h o.v v A C V V V A a t t a t t 8 w h V Q o.G Z Z G Z Z C w 5 6 a w 8 6 6 w 8 w 8 6 6 6 8 8 8 6 > 8 8 6 t A A t 6 6 t C a w 8 w a 8 8 8 , , > , 8 8 8 8 8 8 , , , 8 < < < , , > > , , 6 6 8 8 w t 8 8 8 8 8 8 6 5 > > > > > > 6 8 8 5 5 6 6 5 6 6 5 5 5 6 6 8 8 8 , , , > > > , , , > * * > , , , > > , , , 6 6 6 6 8 8 r t t r 8 ",
"f.! N X.m g v b m b o.v v h D q v v h h S v v Q S Q W b v S D S 5 q v v v V V v q w v V Z Z Z G h w w 8 w 8 8 8 d 8 8 d a p p V w q w w w v w w v V a w 8 8 8 8 w p C V V C Z Z S D v D W b F h v V S S D G V q h D G v w V G D v F o.Q Z S V v G Q Q S h h h w v w w w a A J A V w t A A G G b V V C Z S h h v +.F v b F W o.q.q.+.v q N W E o.+.c m N #.f.O.O.d.O.g >.P.,.:.:.@.K.sX<XJ.>.3.d.O.d.i.u.b b w V V a 8 w 8 5 5 5 8 w 8 w 8 8 8 V 5 V v v Z v w G w v V v w q w w V v V G Z v V G Z Z V V w 5 w V Q Z w q 5 w v V S Z S h v D D v h v V V w q h D V v w q 7 w h v D S S F F b b F g v Q o.F F W E E m ! +.#.,.y.+.O.! ! ! E P E W o.E m S S m b F N W W W F W W F +.N m X.+.F N X.Q W F F b h g v b W o.W D Q W Z V C V h w v V v V X.o.F v N F v m v v m v v v S Z v w w w w w v D D D Q D F D W b X.W F F S v D G D G G S v v Z o.Z V D G Z S b q.X.m v F G G G o.G S V S S V w C 8 8 V ` ` C w w p V o.q.8.Z q Z o.Q h 9 q D o.F b m W #.y.y.y.W c N P ! #.P n N n :.K.:.! ,.d.,.X.,.h.O.M >.%X,X*XK.G.3.O.O.,.d.d.P N v 7 v 8 d 8 8 8 8 8 w 7 8 8 6 8 8 w w w V p G v w V q v C w q w w w V o.5 V A C S o.G w w w w w V C Z A w w w w h V V V S w v G G w 5 w w V q 5 V C w w a 8 > 5 8 V w q V S V w V Q S 3 q.q.G v b b v g W +.O.O.#.#.+.#.g g } N m N c F b q 9 h v v Z o.v F b F b g b v S D Q o.8.o.S w V q V o.A V w 6 5 5 6 t C C a t G S h w q q 5 5 Z w 5 8 8 8 5 & t 8 6 8 w t w 8 A V t t t t w 5 8 6 6 w a a w 6 6 8 8 w w w w 8 8 8 6 , > > , 6 6 6 8 6 6 , , , < < , , , , , > 6 6 6 8 8 8 t t 8 8 8 8 8 6 5 > > > 5 5 5 6 6 8 8 6 6 6 6 6 6 6 > > , , , , * & , , , > > > > , , > * * > , , , > > , , , , 6 6 , 6 8 8 8 8 8 6 ",
"Y.O.X.y.O.g m X.F E 0.v v v D 9 S S h v D S D o.v D D S S D Q S S G G v w v w 5 p p V V V V V p C p w 8 5 > 5 8 C d 8 t 8 w 8 v v v v V V V h w w w a a 8 w 8 8 5 V A C v V Z G S G v D W S W b S V h w h V V h q V S w 7 h S D v G X.G S V v v S D S h w h V C Z p w w t t x V V w t V w V Z V Q G G G Z h q q S v v S F F F F D s.+.o.s.F q #.g E i.O.n P ! d.U a.3.d.3.O.d.).].d. .n M >.5.5.1.:.U O.W o.V w V 8 5 6 8 8 w 5 5 6 8 t w 5 8 8 w V w V A V w V w w w w w w w w A w w G G w 5 w V w w w w w w V w w w w w w w w Q G S w h S S v v h v V v h h V V v v V V V w 5 F b m F W F m m b v F W F W o.W m c W #.,.a.f.i.O.O.O.O.! P W +.o.S m S S S S D b F W X.X.o.X.F $.F N X.X.F N X.W F S F F S m S v W Q v v G G v h V h w w v V V v D Z v 9 i v v D b v m v h v S V v v v w w w w G G D S Q W W D F X.F v F D D Q v v S Z S v v v G V v V Z D Z F G G F v v b G G G V h h S G Z V 5 d C a a p C Z V V p w v S G G v Q 8.G h q b o.m m m W W m W y.o.X.X.c N #.O.,.,.n n O.:.#.:.:.#.f.,.X.d.$X#XN. .Y Y  .,.3.3.d.O.O.U +.W q w 7 8 8 8 8 8 8 8 5 8 w 8 6 6 8 w p V a Z p w V q w C w w w w 7 w S 5 G G w 5 V C w 5 w h w w V V q w w w w w V C Z w 5 w V C w q w 5 v w w v v w p w 8 8 8 8 8 w w w V Z Z v q w V 9 9 q.o.q.j.g F g F X.+.+.W N W X.X.X.N W q.F v S q q v S S F G W o.X.y.o.g F o.Q Q v 9 q Q 0.Q D q 5 w 7 w G 8.V a a 8 8 8 > & 5 w h v G s.x.x.V w 5 w a t 8 > t w 6 8 w 8 w 6 t 8 8 8 8 t t 8 6 6 6 6 8 8 6 6 t 8 8 r a a t 8 6 8 , , > > > , , , , , , , , , > , , , , , , , 6 6 8 8 8 8 t t t 8 6 6 , , > * * > 6 8 8 6 6 8 8 8 6 6 8 8 8 6 5 5 5 5 * & & = , : > > > > > > : > * * > > > > > > > , , , , < , , 8 8 8 8 8 < ",
"d.i.y.O.P W #.W F W q.v v S Q 5 m S v S o.Q D o.S Q Q D S Q Q S v G G v v V Z v w w p a a p 8 w C a p w 7 5 7 8 a a a C a 8 8 w G D V v v v V V w w w w 8 8 8 8 5 w C V w w V Z D o.S Q Q W +.Q Z v 7 5 7 h v v q h v w q h V S v v F v v v h h w V V w w w V C V w w C A t w u t 8 t w 6 w V p q q v Z Q Q o.8.q v W W F v v v W u.u.y.u.v q +.W E P N +.d.,.X.d.K.@.@.3.:.>. .@.3.].$X<X<X5. .3.O.L O.a.s.G q w w 8 8 8 a t 8 6 8 8 t 8 6 6 w w p V A G V w w w w w v V V V v v V w 5 w V h 7 w 5 7 h C C V V 3 5 w v v w w w S V h 7 w v v w h v V V v v v V w v V Z G S v w b h h S W W b m W v m b g m W W X.W #.,.#.#.#.! +.o.O.+.#.W W o.o.S b F W S D Q W X.X.X.o.+.X.F #.W N W X.N N X.Q F S F W F b m v F F v v v S V h v h w w v V V G o.o.Z F G o.o.D S v b v v v S v v V V w w w w D S S S Q o.o.o.F o.o.W +.+.D D q w v v v h h v v v v v S D D F q F F v q v F G Z v q q v S S V 5 C A a 8 8 a V 7 w V Z V w w v v V G 8.+.D b v F m S E m m N +.h.`.a.c m W g N n #.f.d.i.d.Y.}.! a.d.a.3.U I <.#X X=X%XJ.d.@. .n O.,.a.X.9 q V 8 8 8 8 8 8 8 8 8 8 8 8 8 8 w w C C Z p v v w q V V V S V w q w A w 5 w w q 7 w 7 V V w w V w 3 w w w w w h V V q 5 5 w w w w V w w h w w w w w 8 8 a a w 8 w w h C o.8.v 5 v q.F h o.9 g o.g +.+.#.! m m N X.a.a.#.+.c v o.S q v h h F G G F F m F N o.W g F o.v b S v S D D v Q V Z A v q q 5 a t w 5 5 8 t t w V v 7 5 w q & w i p p t w t t w 8 6 8 w w 8 6 6 5 5 6 w 8 8 8 8 8 8 6 6 6 6 6 t r 8 t a a t 6 6 8 , , > > , , > > > , , , > > > > > > > , , , 6 6 6 6 8 8 w t t 6 6 > > > > * , 6 8 8 8 6 6 6 8 8 5 5 8 8 8 5 6 6 6 6 5 5 5 & , , > > * * * > , > $ $ > > > > > > > , , , , , 8 8 8 8 8 8 8 < ",
"! :.#.N g #.y.m N W q.v b F o.9 v m h v D S v S o.0.o.D D D S h v G G v v F Z V 7 q 8 p a a a a 8 w w p w q w v w w t V a w w w Z V w q q w v V w w 8 8 8 8 8 8 5 w w w w v V V Q o.Z G D b W F v h h V S S h q h h v v V S S v v v v S V v v v v Z G V w w w w p 8 w C A V V C 8 8 t 8 6 w a w w w w V V V V Z b W Q S g v W q.s.S g m b b Q y.E E N E i.U.f.O.#.N q @.g.I U >.@.5.J.>.>.5.>.).G.3.d.f.f.+.D v w w 8 8 8 8 8 8 t 8 8 t t 8 8 w 5 6 p C V w h v p v p V V C V p 5 V V 5 5 A ` V w w w V V w w w p w w w 5 5 w h w q 5 9 w v h q q w h w 7 q h S V V v w q h Z Q S v h F o.W F m b h b F g g S W E N +.#.O.O.#.O.y.o.O.,.y.W S E o.S S W Q S D Q W X.W W W X.X.W #.X.W X.X.F W X.+.Q D W F m g q G F S F F b V ` V V v w h v V v 5 7 q 7 q w h h v v v b v v h v w v V V w w w w V z h v D Q o.o.F o.W W +.o.S v V S S v v v v h v v V S Z D Z S F F m c v o.G h 8.D v h v V v w C C a 8 C A V 5 Z p w p C V w w D v w v S S S S o.m g g +.f.i.W 3 c m c #.h.#.#.c ! :.i.i.:.U n m #.#.X. .P  .).4.&.N.<.;.J.J.G.d.d.d.,.N 9 q G w w 8 8 8 8 8 8 8 8 8 8 8 8 7 7 V Z V w w w v w w w V C V w w w p & & A 8.V 5 w 5 w w 5 w C V 7 7 w w 7 7 w w 7 w w w w w 5 5 7 w w w w w w V V a 5 & 5 C A w > 5 Z G w 7 V V q S D b 9 q v v W +.$.X.W X.! N W W y.j.m 5 h h S w q v F _ X.X.o.b W m N N N +.o.S v b Q o.W D D D v S D v w w 5 w w w 5 5 w a V 5 h v w v Z V q q w 8 8 6 8 t y 8 w 8 w t t w 6 t 8 w w w w 6 6 8 r r 8 6 6 6 8 8 8 8 8 8 8 6 , 8 8 8 < , , , , > > > > > > > > > > > > > > , 6 , , 5 5 6 6 6 8 6 , > > > , , > r r r 8 6 6 6 8 5 7 5 5 8 8 w 5 6 6 8 8 8 8 8 6 , , : > > > > > > > * * > > > $ > > > > , , , , 8 8 8 8 8 8 < < ",
"O.! ! P P #.#.E m m o.v b F o.q D S g q v v h D D Q Q S S Q Q S G o.o.F V Z Z b v p a a a a d p p p i p i 7 7 q w w w w 8 6 t C w w w w v v V v w w 8 8 8 8 8 8 w w w w v C V v S Q V D F b Q D S V V S S V h h V v v S G G S v v v v S S v v v q V G S h w w w v w 8 8 w w t C 8 t V a 8 a V w G A Z C w 5 5 5 b W W b g b +.s.q.v v S g b +.+.c o.#.#.! N #.#.q N M @.,.} >.J.J.5.3. .5.G.;.#XP.5.1.,.f.o.W V q w a 8 5 5 8 t a 8 6 8 t t 8 w 8 5 w V 5 5 h h C V V p p w w w 5 w p w w w V p V w w w 5 5 w V w w V p w w p V w q q h S G S v q h v w 7 w h V V V V v w h S Q D v m W o.o.F b h g D +.E b E W N N #.,.O.#.i.i.:.W W +.+.W m b W S S Q Q S S W b F F N N W X.X.+.X.W X.X.W W X.o.Q W o.o.W S S G v v G Z i i ` S Z S v v v V v v V V V V S S S v v v F Z v v v w v V w w w w w V V V S S D W G X.o.W b W Q S S S S V v v V S V S D G D D D S v F G F N v v v v o.D V h h v v v a 8 8 8 a a 8 5 ` V w q w w V 8.v V v h q g S Q W F m m o.f.y.N N U O.N X.#.N n f.#.! y.f.! k ! m y.,.n @.).%XJ.L.&.B.>.;. XJ.,.G.1.d.O.U F q i p 8 8 8 8 a t 8 8 8 8 8 8 8 8 7 w C w w w w Z V V V p w w w w w 8 5 w V V w w w 5 7 7 5 7 p p w w w v w p C p 5 w w V A C w 5 5 V 5 5 w w V Z V t 8 5 8 C A V w C q.k.q.o.o.Q S 5 G F o.q.o.9.o.W X.W X.#.O.c f v Q u.S h S V V V Z G G N N ] _ X.$.F W X.o.q.o.Q v h S D S Q q.D h q q q v G Z q h v w 6 w w 5 h V h 7 5 w w 7 V p 7 7 w a y w t 8 8 t V V t t w w 8 8 8 w w 6 8 t r 8 8 8 8 8 6 8 t t 8 6 6 8 < 8 8 8 , , , , > > > > > > > > > > > > > > , 6 > > > > > > 5 6 > > * > , 6 6 , t t r 8 , , 8 8 5 7 6 5 w a t 5 6 6 8 8 8 8 8 8 6 , , : > > > > & & $ * > : > * > > > > , , , , , , , , , , , , ",
",.! W O.O.#.+.! ! m o.m F F o.h Q D h h S S v D v S v h v D Q S q b F F G 8.8.o.C V a t 8 8 8 8 Z b b b i q 9 q h h h w w 8 t A h h h V V C V V w w 8 8 8 8 8 8 w w w w v C V v h S v Z F b Q W G S V v h w h S V v v V S S V v v h v v V h q w 5 h D S h w w w v p 8 5 > 5 6 6 w t a t w V Z w 5 w C G S h v S h S W W F W o.W v D o.o.Q D E W q.o.f m ! N P f +.h.O.O.d.K.3.M 3.>.5.>.5.6.I *XP.;.@.O.K.q.+.Z q w a t 8 8 8 V t 8 6 8 8 8 6 8 a 6 V A w w w 5 V V p w w w w w w w w V w 7 5 w w w 5 7 5 5 w V 5 w V C C V V V V h w v G Q Z V V S S v v S V h v V C Z Z S V V F b m W Q W F b D v W 0.o.F W W u.y.d.i.W ! O.O.#.E E +.o.E m W W S S Q o.W S D v F X.W N F X.X.F F F W F N N W W W Q o.o.Q W o.v v v v b w i S F D F S V S S V V h h z z z z V S b S D D S V V w v w w w p w w V S S S S S S F W o.F v F D D Q v V v h v S Z S V D D F S D S v q N o.F q 5 q G S V v h h h V C 6 6 8 8 6 > 8 t 5 8 Z ` Z w w V h G o.S h v S F F W o.Q W E N N +.N #.X.U +.O.#.9 g P ! n 3 n iX#.+.h.).,.P T >.5.| ).N.;. XG. .;.;.d.O.+.q.v 7 C p 8 8 8 8 8 8 8 8 8 8 8 8 w w 8 G V V p 7 Z V V V p w 5 5 w w V a w w 5 5 q w w w 7 7 7 w 7 5 w V p w V G C 5 5 7 V Z Z V p V C 5 w V w p C w 6 t C C 8 8 V A 5 w Z G h 3 5 S 9.s.G F W G q.q.h.a.W c W O.+.y.g q v q h Q h 5 Z o.o.b i i b _ F N c F X.m G F q g S Q o.D m v +.D W Q D S q & & q w w w C A C V v h w i V Z Z V S a p t V V t w w w t V V a t 6 6 8 8 8 8 8 t 8 8 8 8 8 8 8 6 6 8 t t r r r r < < < < , , , , , , , , > ; ; ; , , > > > > , 6 > > > > > > 5 > > > > , 6 6 6 , 8 r r 8 8 8 8 t 8 w w 5 w C V 5 0 0 8 8 8 8 6 6 < < , : : ; ; ; $ $ & $ : : ; ; ; ; ; > , , , , , , , , , , < < ",
":.O.! W ! ,.+.c +.W +.F W F o.b S V h V Q Z v V S S v q q v v q h F G b V V V w 7 7 6 6 8 8 a a p i p b b b Z o.w w V A C z z C C V v v v V v p w w w 8 7 7 w p 7 w w w w V V v v Z v S v q v h v V G o.D w w w h w h w w w h v V v v V V w q q v G 8.G v w w w q a C 8 8 t t 6 t 8 t 8 8 V Z w q v G o.S q 7 h Q o.W W o.+.o.F q G q q u.a.E o.o.Q f N W c O.! c +.,.h.K.3.h.].d. .>.5.,X%X .).G.1.K.d.K.O.+.q.D A A C 8 8 8 8 , 6 8 8 6 > , 8 8 & a 8.8.G G 5 w w w w w w a V w w w w w C A C w w w w w w 5 5 w V p w 5 w w C V q 9 w V V h q D G S V S G V 7 V w q q h V S S S v v m F S b b u.D S Q W F W W m m X.+.! X.i.d.#.! W #.~ m E y.o.W W 0.0.Q D D b X.q.o.W F W W v v b m b v v b Q Q o.o.F v g v v S S b v V V V V Z Z Z S Z Z V A C V V S D G Q V v V Z S v h v w w w q w V v w h S S D S S S F v F b v S F b D G Q D V v S v w h V V v v S D S b v v N v q v G G G D V h h h V A 8 5 8 a 8 8 p G w 5 w Z V w w D o.G h g S D b +.F S o.,.W m c W B y.a.O.O.O.+.N P n N y.#.N P a.a.d.d.d.].).Y N.<.gXP. .K.G.5.3.G.].:.P $.F Z G V 8 5 8 8 8 6 6 7 , , > 5 8 8 a 8.G o.V q Z V 5 w w w t p a w V 7 w Z G V w 7 w 7 6 w w w w w w w 8 5 t A C 5 w w w w w w V Z A w V G w w w 5 w w 8 8 8 w w p V G Z q h 8.q.F W o.W N W W F W m W W X.y.o.m v S S Q S S Q S G h F F v i c X.q.F v c 9.9.m F Q v D F h g S D S q.Z v v V o.0.G Z G G w w a C p C v h v v v v v q Z o.Z w w t V 6 6 6 w a a t w V a t 8 6 6 8 t 6 , , 6 6 6 6 , > , , 6 r r r r , < 8 < , > > > , , , , : ; $ $ < , : > ; : , , > > > > > > > > > > > , 6 6 , , , 6 r r t r r t w w w w h A C 7 t t u t 8 8 6 6 8 < < , : : > ; # # # $ : : : $ ; ; ; : : , , , , , , , < < < < ",
"o.o.#.W W u.y.g o.S g g b S v w Q q 7 v q 5 S q.G 8.o.V v w h V V v Z V 5 7 V w p Z w 8 C 8 w 8 V p 8 p p 8 8 p p 7 7 p v V v v p v b p w w i p p Z Z p 5 5 w V a 8 8 8 p C Z V v V F F S b F G w v V C Z C V V w w v w 0 7 z C G p q w v p w w p V G G Z V p w 7 8 8 8 8 d t 8 > a A a > 5 b o.q G V 7 Z 8.o.8.F 9 q q W q.v G F X.o.+.+.+.o.o.q.X.+.a.u.q.+.N d.O.N N X.O.! P :.U K.K./.`.I U :.1.].1.,.d.$X:.9 Q S 3 5 6 * 6 8 6 6 6 < > , 6 6 , 8 8 w S Z w t 8 w w t C a 8 5 8 & 5 6 5 t 5 8 8 5 5 5 8 8 w > 5 8 8 a C a w Z G C h V G Z h V h w V G G V w v p p w w w v V F v G b v v g W S g u.T.E Q u.m y.W N X.,.+.X.O.! ! W ,.O.n E o.g E u.0.S F o.Q S F F F G G Q o.o.G D F v F o.F W W S g h F D V V V V V V V V V V C V p p V V v p V C Z Z V v w S V v w h V C Z G 6 t 6 w [ C h h v S D S S S W W W D D F F F D v S G G S V v v G V w w h V S G h v V V v v v V G Z S S V h h V > 6 a C a 8 w w A w 5 w Z G G G h v S Q +.0.W g v g m y.N E W N X.+.#.$.X.X.+.y.W K.#.i.+.N d.+.P U ,.,.n P @.U K.d.].P.U U 1.@.d.K.1.O.Y.d.9 q.v 5 & 5 r r < < , , , > , 6 8 5 a C h h G D h w w t a a t 8 6 5 > 5 > 5 t 8 > 6 > 5 6 6 6 5 6 8 6 a A a 8 w t V V V V V a w w w 8 5 G 8.w 8 C w w > 7 w 5 w V w Z q V v 3 g o.v +.dXP W O.y.d.W 9 v v q.s.v g o.W m k v m v b W s.s.b F +.G W o.F ` o.` S b V V V V 9 Z G w G Z G G Z w q w w w w A $ A 8 > C A 5 q N F G G b g F D v S o.V q A t t t y a a t t t t 8 6 8 t 8 > 8 8 8 8 8 8 8 8 < , , > , , 8 8 > > > , 6 8 6 , > , , $ * , , $ : : : : : : : : $ $ * : : > > > * & > , 6 > > 6 6 8 8 5 8 t y t 9 S h 9 h h 7 V w z t 0 w V y 5 r 8 < < : : $ # ; $ * : : : : : * * , , , , , 6 < , > > > , 8 8 ",
"m m E m m y.u.F b D Q o.G S v v q.w q V v w q 5 5 w w v G A V A 7 5 w p q S 8.Z w V 7 w C w V t w 7 8 8 w 8 7 w p w 7 i i v v i q 7 7 7 w w 7 7 p p p w 5 5 7 p 8 8 8 w p V V w V v v v v v v h w w w p v v p w w w a t 8 8 V C p 7 7 p V a p p p p w 8 7 w 8 p V V d 8 8 8 r < 8 d 8 8 p Z o.` w.9.p > q w v 8.o.Q G 9 c W c F g W +.+.o.q.f.j.X.m v N F +.q.+.m m N W X.O.a.U.a.U #.M N ,.M @.K.:.i.,.H.i.f.U k W h 5 t y 5 6 7 7 8 p < > > 8 t 8 8 d w C D h w w 8 8 w a t 8 w w & 8 6 & w t 8 w t a a a a a [ A C 8 w 8 8 5 h h h w V S V w w.8.D V V V V V G p w C G C v V o.q q v o.q.b g u.m W ~ g Q T.s.#.u.a.#.W N N X.W P N ,.,.N E E u.0.+.o.W Q o.S v v S S F v v q v v D G F D G m m q g W o.F S Q V V V V V V V V a C a 8 p a p p w w p v v v v v w t V a w w V C A 6 V w 8 A a w 7 h v S S S D W v v v v v v b v D D S V v h V V V V z V C S C z V V S V v v V V h w h v h w h V a a a a 8 5 w V G v w V o.0.q.q.h h g g b o.q.u.v g m +.g E W W y.X.+.j.[.h.W q m +.m +.#.W #.c N n U ,.d.K.d.P O.n O.d.O.,.K.:.].:.K.].d.U f n F b v a 8 , : < r r 8 6 6 8 8 6 w V V S 8.Q h w w t 8 w w 8 8 8 & 8 w 5 8 8 8 w t w w t a a a t A a 6 & > 8 8 8 5 w V C V V C A a w A A w a A C q w v w q V Z w 5 9 o.q.F o.q.m O.:.g }.$X#.+.'.F z.o.5 5 v Q q f 9 m u.+.f b z.W +.b F Q v S S ` Z p p p p v V q w w Z Q S Z V w w w 5 5 5 5 5 8 8.8 C 6 8 A w F b q 5 9 F u.f.f.u.o.D S 9 5 5 w t w t t t t w 8 8 6 5 8 t w 6 8 < < < < < < < < , , > > , < < 6 , , , 6 6 6 6 , , , * * 6 6 * * : : : : : : : $ $ $ $ * * $ & > & * , , > > 6 , 8 t 8 w t w 5 9 h h h S S S Q C A A V x C t 5 r r 8 6 6 < , : $ $ $ * : : : * * * : : * * : , < , , , > , , , ",
"X.+.+.E m o.+.b W Q Q F V V Z Q Z V Z G w 5 q 5 q 5 5 w G V w w Z i p p i S Z w 7 V 5 w V w V w p p p V a p p p p w w w p i w w V a p V G G A V p p w w 8 w w p 8 8 8 a C C p w C b w i v v h q v v p w w w 7 5 w w 8 w w w w w 5 7 w a V a p a V 8 7 5 7 w p p Z Z a 6 6 8 8 , 8 < , 5 w Z F v 5 q p G 8.v 5 q F Q Q 9 q b v X.+.W W +.W g 9 c X.F N m b o.#.W W S m N E W ! O.f.#.,.n n a.3.K.U.n j O.P.d.,.N P W b v S V w 8 5 8 d a 8 > , r r 6 8 8 w A Q V w w w 8 8 w w 6 > 6 t e.[ 6 5 6 5 8 a a 8 8 w C 5 5 8 t V V a t V v v V S V h h V S S S V v h w q 5 v ` C 5 q G F v G G W o.F o.E k m o.o.W F g N ,.y.W c m W W y.O.n O.+.! +.+.u.W F W W W Q F o.G v q q g v v q q F D v v N c o.b F +.+.b h S V V V S V V V V Z A A Z Z A Z V v v v v v V v V w V Z C V p V C V w C w w C V h v S S S S v S S h h v v b m m v S V h w h h h h w w w h z h w 0 S S S V V v V V w w h V V v V S V t 8 8 6 5 7 w q 5 q v Z V h q G Q Q S v v v v +.v 5 m N f.+.m X.X.m 5 5 m W m c F c +.#.N W g O.P P P P ,.f.d.,.n P ,.i.d.d.! n O.K.,.U i.,.P E F V V t 8 8 r d d 8 6 6 8 8 5 5 a V Z Q S h h t 8 8 6 6 6 w w 6 A A 6 5 8 8 8 t w 6 8 a V t w 5 a A A V t t w w V C V 8 w t C V a a w w w w w w ` A 7 w C v 9 v v G G b +.9.q #.W n O.m g m f.+.b 9 W q.Q W q +.o.c 9 W `.T.X.v b v Q D v o.Z ` p > 5 w p w V G Z G Z G 8.V h S S V V V Z V p 5 A 5 a w a A 8 b N X.X.X.X.F m m h v v h Z o.G 8 8 8 8 w 8 8 w 6 6 5 5 6 8 w 6 6 8 , , , , , , < , , > > > , , r 6 , > , 6 6 6 , , , * , 6 6 * * : : : * * * * $ $ $ $ $ $ $ * , > > , , > , 6 5 8 t t t t 8 6 V S S S Q V z G C G H A V t w 5 t t 8 6 8 6 6 , $ $ $ $ $ * % $ $ * * * $ $ $ * , , , , , > > > ",
"m E o.W E y.j.q.o.D v h v D Z V w V G G w w A A G v 5 w V q & q q 7 7 7 w S Z V w C 7 w V w w w w 7 8 w 8 > > 7 w p w w w h h w 7 7 7 w p p 8 w p p p p w 8 p a a t d C Z C a a V p w w v b v w V v p w w w w w p w w w w w 5 5 5 8 p a p w w 8 a 8 8 w a a p w a p 8 6 6 8 8 , , 6 8 8 5 7 q i q 5 w C G V v Z 9 v D v N b b o.$.X.W +.#.X.v q X.+.q.$.o.#.o.q F v g m E E m N N P ,.X.X.d.#.a.m g O.i.#.n ! d.O.O.Q o.G v w C w w p p 6 > > 8 6 , 8 8 8 C Z w w a a w 6 8 8 6 V a 6 t w > t a 8 a 8 5 > 5 w a 5 5 8 a a 8 8 6 Q S S G G V w h w h V G G G S V 5 w G 8.Z 7 v q.q F s.o.v v G z.u.~ S Q +.E m E m E N m N X.X.W ,.#.P #.y.O.+.o.S v F o.F b D W o.Q S v b F F F v v F v 9 q v v g v b v b Q o.Q v v V V V V V V w p a p p V V w Z Z V V V V v V v C A A C V C C V w V V w V V w S D Q S S S S v S v v v v m S S w w w v S V v w h w w 0 0 0 w w S V V v v V V S V V V C V v V S 8 8 8 8 8 5 5 w w w v V V v w q v S D D S b m h v o.X.o.g W o.y.X.y.f.o.c c +.h.W +.W #.X.g N W m W O.X.P N P m U.O.O.a.i.#.O.n f K.f.j U ,.O.! O.E v V Z C a 8 8 < < , 6 8 8 8 8 a v v V h q V 8 w 8 6 6 8 w t 6 A C 8 6 8 6 w 8 6 5 5 8 w 8 6 6 w w 5 & 6 V H A A C 8 5 5 8 t a A A C C w 5 7 w ` C 7 v V q q s.+.F v F s.s.v P O.K.O.g W m g g v b o.v v u.9.f m W X.E c g q W b v W v h 0.G Z 8 5 i Z p w w V w V 5 5 S 5 5 S v v S D G S w V V 5 C C 5 8 q q c N F o.#.+.W y.+.0.D 9 h V 5 t w 8 8 w t t t w 8 6 5 6 t t 8 6 , , , , , , , < , , > > > > > 8 6 , > > , , , , , : * * , , * * : : % * * * * $ $ $ $ $ > : , 6 , > , 6 , 6 8 8 8 8 6 6 w y V G Z D G G z h S z D G C z z t w a w 8 6 6 6 6 , > $ # $ $ $ $ $ * * * * $ $ $ * > > > , , , > > ",
"n N X.W E +.q.W h v S F D D v 5 S v V S D 8.8.S G V w V G v w Z 5 q q 7 q w w w v Z q q w 5 q 5 w 7 7 7 5 > 5 8 8 w 8 w w h z z h V A Z C V C Z w w p w w q w V 8 6 6 t a d a C w 8 w w w q w w w q w w w p V C V p w w a a w 5 8 8 p 8 8 7 w 8 p w 8 w p p 7 > 8 8 8 6 8 r 8 , , 8 C C w 7 q w 8.G V w q v Z F v S b Q o.b v W c +.+.m N y.#.c F X.#.+.X.#.+.c g m o.o.F c b X.9 m ,.#.#.,.X.P F F W +.O.! U #.i.X.! +.W b v V C p 8 6 6 , : , 8 6 8 8 w v h 5 8 t t 8 6 w w w t a & & > 6 a 5 C V 8 5 5 w 8 8 A C 8 8 8 5 8 A G V v V V w w h V w q 5 w w h h p p p p V Z V v v b o.G b G F +.0.Q m S Q E E u.+.N m W O.X.! ! N X.O.d.d.! E m o.F W +.W m S S F D W o.+.o.F v F F Q F g h F b g v v q q b D F h h h h h h w w 8 8 w 8 w V V v v V V V v v v h Z V v v V V v v v w w v w V V 5 7 h V v S S D S S S h h h h h v v v v V S Z S V V V z h h h z z v h w w w V V C h w w v w w w v w 6 8 8 8 5 5 w Z C w q w V G 8.h v v h S D Q D g o.+.+.m N N #.o.c c +.X.q q X.+.+.o.#.o.m N W W W N N X.X.m q y.o.o.#.o.F F N O.i.O.O.,.U L ,.:.#.X.W F S v 8 8 8 6 6 8 8 8 8 w t h v V w 7 V w w w w w w w 8 > 5 5 w V w 6 V 8 8 8 8 8 8 w w V 6 = & t H A a a w w 8 w w w w > 8 t t V 8 w V w v w w Z V w G o.G S v W s.q.g W m f.+.W +.E Q P m c W m c X.c m y.`.h.W v F +.+.F v D w q D w V w w V Z p w w Z V G w v q.G D b v v S D F v w Q G G 8.w.8.w.q._ F N N W 9.y.0.m F 8.Q V 8.w.G t w w w w w t w t t w 6 w t t w , , , , , , , > , , , , > > > > , , > > , , > * , * * * * * * * * : * * : * * $ $ $ & & ; : 6 6 8 6 6 6 6 6 8 r 8 8 8 6 5 8 t x z w z D C V C G V D D S V V C C V v w w w 8 6 5 > > $ $ $ * $ $ * * * * $ $ * > > > > > > > , , ",
"+.o.+.W F W F 9 g D o.D v v v h D S D Q D G D w v S Z o.0.Q S o.G o.F i v w 5 q q v 5 5 q 5 5 5 7 7 7 8 7 5 8 p 6 8 w w w w z z 5 w V w 5 5 w p w w V p w w w V a 8 6 t a 8 a A p a V V w q w w p i w w w w w w w w w w t a t 8 7 w w 7 5 8 8 p a p 8 8 8 8 7 5 w 8 8 8 8 8 < > 8 8 8 a V v h w w w V Z V Z Z v Z Z 9 v W v F o.m m N m 9 5 g X.#.o.X.N m X.#.X.m S W o.W S F W N W #.y.#.+.W W +.Q q N y.h.#.! K.O.N ! X.X.F q G p 7 6 6 , , , , > 6 8 8 C S w w w 8 6 6 8 t 8 & t 8 w V C t o 8 t a 8 8 a 8 5 t 8 8 8 a a A 8.V w w w w w h V w w 5 5 w w w 7 V Z V w w V V q v v Q F G o.v b q m F o.0.E m E W m P +.X.N W #.X.+.o.,.O.N W X.s.W m E F W D v Q W D D F F F D F D o.o.D W o.F +.F F W F q 9 v q q q w w w w w w p w w w p V v w v v V v b v v G V w w V C V v V v w V V V G q h v S v S G G S S S v h h h h h Z V h w w h V V w h C S V z h w w w w w w V V V w w w w w w w a C t 8 8 5 5 w w w v v w h V V h S Z Z Z D D b g W F q F +.u.m c +.W c 9 c +.y.#.X.N N X.#.o.N c X.o.F m W o.+.y.W +.$.o.F N W +.! g ! f.:.,.].:.P O.,.X.b v v Z 8 r 8 , 5 6 5 > 5 w V Z G h 7 v w w w 8 t 8 w w 6 5 5 t C 6 & t 8 t t 8 8 8 8 a 8 t V H e.e.C 5 8 8 w w V V w 5 8 w w w 5 5 t C C V w V Z w w Z v F F v v v v g 0.E +.g m E m +.P c g +.#.F W c +.#.m 3 q u.s.b D S h D S h S w v p p p p 8 p v 5 7 v 5 q S h q W F S W W F b v & q V 9 V G q.Z o.o.o.o.o.o.b q Q +.q.Q V Z Z w w w w w w w w 6 t t w w t V t w , , , , , , > > , , , , , > > > > > > > , > > & , * $ * * * * * * : * * * $ $ $ # # & $ > : , 6 8 6 6 8 8 6 8 t 5 6 8 w 8 > 3 8 6 5 w t w x A D C C S S V V V v S b v v v w w 6 6 > * $ $ * $ $ * * * * * * > : < , , > > > > > ",
"X.N m N W y.+.v W +.+.b q h Z G Z V D Q V v S S V Q Q o.8.Q V S v _ v v G o.Z ` q v 5 5 q 5 q 5 > > 5 7 5 > > 5 6 8 w w 0 8 0 h z C C V w w V A 8 t a t w 8 w t C 8 8 a a t a A a C C a a p t p V V p w w 7 5 5 w w 6 6 8 w w w 8 8 w 5 5 8 8 8 a a 8 8 8 8 w 8 8 8 8 , , 8 < > , > 5 8 V p w w q & 5 V w V o.G v Q 9 5 v D q.o.N g v o.N 5 v z.u.X.F b c N o.o.m f 9 m Q +.+.o.W W E o.Q m S W q o.o.+.N W ! P.K.O.O.O.! O.+.m S p 8 8 8 6 < 8 > & > 6 w Z Q Z w 8 8 6 8 t t 8 t C 5 5 w t A w 5 t a 8 8 a 8 5 8 8 a A C 8 5 w w w v w w V V V w V S G G A C V Z 8.9.` V V Z o.q v o.F b G b W W Q o.Q W E W W g m ! X.X.! O.,.i.a.O.O.P N #.u.+.E b m S Q Q v Q Q D b v b G +.W W o.o.D Q o.F F m N #.+.S F +.g g h v v v v v w w w 5 5 5 q 9 v v v v v v v m S v h v v S S v v S h S V v o.v S G Q S S Q D h S S S S z z z h V v h q 7 7 h V 7 w h z h w w w w w 0 w w z z h w w w z w w w V V w 6 6 6 5 8 w w V A G Q D h 5 q v D G Q Q Q S g S v +.+.o.g +.q X.X.g m a.a.N N m m N X.#.W B q X.o.o.q.+.W +.W u.u.o.G W o.+.F ! #.a.P ,.$XL U O.O.! P P E F 8 r 6 , 5 6 5 > 5 w w C G V w V w 8 w w w w 8 8 8 8 8 t t 5 & t t 8 8 8 8 w 8 8 w a a 8 > 5 w t w w t V V w 8 5 H C A A w a A C o.C V V w w v v o.o.W F F b b F E y.l.S +.W m g 3 f.f.m 5 m h.`.+.v v q.s.o.D o.S Q v S D h C Z p V a 8 7 p V w w C V V v v S h N c n m m v h b o.q.l.S D G o.h F F m v F o.Q F S Q Q v h h w w t w w w w w 6 5 w 8 w w a C V 8 6 6 , , , , , , 6 6 6 6 6 , , > > > * > > , , > , * $ * , * * * : : : : * $ $ $ * > : , , 6 6 6 8 6 6 8 r 6 6 8 6 6 8 t 8 & 3 8 8 6 t w & t A w z z V S S S h g m v m b S V w w 8 5 * & $ $ $ $ $ $ * * * * > , , , , , , > > $ ",
"y.E m m E +.o.q o.+.o.S S Q D h 8.q 5 w Z o.0.o.G o.D v Z S v v G o.v q F G v v V G w v C w V v V Z G G C 8 6 8 6 8 w w 9 9 0 0 5 5 5 5 > 5 5 w 8 8 6 6 w w 8 5 a 8 8 a a 8 8 C 8 8 8 8 a a a p w w w w w w w w V p w w 6 6 8 w 8 8 8 5 5 8 w 6 8 w 8 8 8 8 8 8 8 8 , * > , < : , , 8 w w 5 w C A 5 w 8.Z w v v V s.S 9 b 0.j.W b +.+.m m o.X.c N c m W N N F N +.o.W E m g m E Q E F y.y.E W o.8.8.q F X.+.n O.d.,.d.3.P ! i.#.v w a a t 6 8 r r , , 6 5 a Z p A C t 8 w t w 5 5 8 5 t a 6 w 6 8 A A 8 5 8 8 8 C 8 8 a t 5 8 a 5 h V w w V V w v V V w 7 5 w v V w w V V v v V G F G v v o.o.+.b m S b v m E m m X.+.X.+.y.,.O.! #.O.,.#.P o.X.m W q.+.S F D v q S +.q.+.W D D 0.Q W b h S Q F F X.O.P b F W F m b S S Z Z Z Z o.o.G V v V V v v h q q q q g g q q q w h h v v 9 v q v q 9 G h q v S h V Q Q V h h S S S V z h h v V V v h V S h h h w 0 0 z C w w w w z z w w z w w h w 0 w w 5 > 5 8 w 6 5 5 w w w 5 q V V h Z G G v w v Q 0.S b 9 +.s.u.v +.s.N c X.#.F m N m F X.m m X.X.X.+.o.q 5 G o.F F W a.q.G W +.o.W b +.b W #.O.d.d.G.1.O.O.,.i.O.g w t 8 6 8 t 8 8 6 5 5 w S v w G w 8 8 8 6 6 6 6 = t a 8 8 8 t A V w 6 6 w t t 8 t t t 8 8 8 8 6 a a t 8 w w t V t & w V 5 w A 5 V w V p 5 V o.V F v q F q.+.b b m Q E 9 W q m 0.+.+.m ,.h.X.m X.W W W F F W S g Q w.S v v 5 w A w Z C 8 w C V 5 q C q v v q o.Q N N N P m m m W F v +.v W v D W F F F G o.o.S g k Q S q h w 7 V V V t t t 8 8 5 5 w w 8 V C V 8 6 6 6 , , , , , , 6 6 6 6 6 , , , > & & > , 6 6 6 * * , , * * , : : : * $ $ $ $ 8 8 8 r 8 8 8 6 6 , 6 8 8 6 5 6 t 8 8 8 5 5 t C 6 6 u 6 = y H w t z C Q Q Q S h g g v b S V h w 8 5 > & & $ & # # $ $ $ * $ > : $ > , < 6 , > > ",
"+.W P m E E F b v v F v Z G h Z W h h v v b W D W W b h v F b 9 F G v q v F F F G S V D G V h w A A G ` ` A a p w 8 w G ( G S z w w v V w w h 7 w & w Z 5 & V V Z V a w 7 V Z 7 8 t a a 8 8 a A 7 S G V V Z V 7 w w 8 8 w w 8 5 5 w 8 8 5 8 6 > 8 8 8 8 w 8 5 5 8 8 8 6 6 < : $ , 8 t t 8 w h v q w w w w w v V v G G S Q Q D W W W W g X.W X.W N F +.y.#.$.$.X.0.o.0.u.q.W W u.W S W W S E S q Z w v o.s.a.,.#.J.:.d.).d.@.O.+.S 5 t C & * r , < , > > 8 8 w 5 5 6 8 w w w 6 6 6 8 t 8 t a a t 8 t a t a V C a C V t 8 V A C 8 7 w V p w w w 5 = 5 p V p V V p G v w p V V v v v o.o.Q G b b o.S W o.W b b F o.#.W W O.#.O.! ! N P ! ! ! W F N W W W W S W o.F S v S W b F Q W F v b Q W v b o.E P N ! X.W o.q.o.F o.o.v D 0.G o.0.0.G Z D D h S W o.W F S m v v v v v v v h g q h q 9 q F F h v v v S S v v v V V h h S G D V G S V S Z V h h V w 0 0 h h w 0 C V w w 6 5 6 6 w w w 8 w w w w w 8 8 8 5 > 6 t C h w h S G V w v Z v V G Z w D +.W o.S D q.o.$.X.g N m m y.+.c q.s.#.a.+.N a.+.o.j.9.b +.s.o.F o.o.v F G v v q o.o.j.h.#.#.d.d.G.d.$X:.n ,.! q 5 y t > 5 t 8 > 5 5 w w w 5 7 w 8 > w 6 8 t 8 t t 8 8 t V t w 8 A V 8 6 V [ A 5 a t a a 8 6 6 w C w 8 t 8 5 5 w w a C A 6 5 A w 7 p C V V V V Z s.G v D o.W W +.q.u.S h Q W o.y.E E #.+.X.X.n N N F Q g q W Q 0.G v w w h h v v w 5 5 w p w p V v v i w v F v q m a.g n ,.f.c W +.b g b +.0.D v N S F G v q m o.m h S Q Q V w v 5 w z & D w w V w 0 5 0 D 8.G 6 > > > > , , , , , > , 8 8 , * , > , 6 , , , 6 6 * , , , e u e * : : ; $ # $ $ $ > < 8 6 8 t 8 6 6 6 6 6 8 8 8 6 5 6 8 8 6 8 t C e 6 5 5 6 r t u w 0 w h S Q Q Q D F F b v w v Z C a 8 > & $ > > , , > $ $ * > > 6 , , > * * > > ",
"X.N m N W o.W F W W Q F Q o.v G o.h q h v S D b W v q v D Q Q W v v q 9 m N v G D G S w v Q o.S V V C C Z Z C p C V V C h h h S V v C A C A G C 8.C q.k.C q w & p 7 w V p p w 5 5 8 8 8 8 8 8 p p V V q 7 p V w w w 8 w w w 8 w 8 8 8 8 5 8 8 5 8 8 w 8 8 8 8 8 8 8 8 8 8 6 , * : , 8 t V V V V C A C V V V w q v D v q v S S D b +.a.o.a.X.N q o.X.W W X.X.m c W o.W m W u.y.S m m W E h m E m o.V V o.q.+.! U n  .,.,.,.P.`.#.S 5 8 t 6 8 a 8 : , , > 5 6 8 w 6 6 6 6 w 8 t t 8 a C t w 8 t 8 8 8 8 8 8 a a a a a 8 8 8 V a 8 w w p V V w w p C C w w q w p w V w w V Z Z Z Z q F o.0.u.+.F W v v m m m m b F W E O.i.d.,.O.! +.#.#.O.! W F E +.o.o.W m b S g b m S F b b S m F b b W Q Q W W n N E W W X.o.o.b F o.+.Q o.o.D S G o.Q G W D S S F F F S W W m W D F F D W W W l.u.D 9 9 b W F b g 9 h S S v h S V h h S S S h S v h V V v V V w w z h 0 w h C w w w w w w t V t a a w w w 8 w w w w w 6 5 6 t z C A S h h S Q w V w w v q 9 S D S Q W F F b +.s.X.f.y.c c W f.m N F X.m c X.N c W q.u.u.X.b F F F g b G b W F W o.u.i.W U ! O.1.:.P.].K.i.g 5 w 8 8 8 8 t w 5 6 5 5 w w 7 7 7 8 6 t 8 8 t 6 t a t t C A V a V 5 5 t A C 6 5 8 8 w w t 8 8 8 t w w w a a t C G 8 w 5 V C V A w w 5 w Z V 5 5 v Q o.q.u.+.F N W g W h S E m W o.c P y.X.c m U a.F v S v b W D o.h q w w h w w w 8 8 8 8 p 8 w w w V V v q h v v o.+.O.i.O.,.E W F F W o.W m v v v b F F h g m Q Q v h h h 7 5 5 5 w V 5 D 0 0 w 0 0 5 w G e.( 8 6 6 6 6 6 6 6 6 8 8 8 t u 8 6 8 6 , > , , , , , > , , , , e 6 $ $ $ # # # $ , 8 r r 8 > > 6 8 8 6 6 6 6 8 8 6 6 t a V y 8 6 6 6 8 6 6 6 8 8 8 6 t w w w h h z h S b S S v h V G C a 8 > & $ $ & , , : > : , , 6 , : : * * * * * ",
"+.E n m W Q S g W F F v S D q v Q g 9 g v b b g W g 9 m W D S W v v c N o._ N o.Q D v v S o.o.o.V C V w w V V p V G 8.8.D v S Q G V V F A o.o.Z Z w C o.V C 8.8.` w w S V p V V q w V a p 8 8 p V p w w q w w V p V V w w w 8 t w t w 6 5 6 8 6 w w 6 6 6 6 8 w w w 8 8 6 6 < , r 8 8 8 V V h q V V a t V V h 5 7 V S S Q Q S b 5 m X.g W m F m m m q g +.$.F W o.N g N o.#.#.+.W E W E m W o.F V w q v G F W X.P :.d.:.O.K.Y.X.S w 6 5 8 u u r < 8 8 6 5 6 8 C t 8 8 6 5 6 8 w 5 8 a t w 8 a V 8 8 8 w 8 8 8 8 8 8 8 8 8 8 w 8 w w w V V w w C C V V V A G C w w w v Z Z Z Z G b F v b o.W b b F v v v F W W W m N O.i.d.,.! P O.O.O.O.X.O.o.+.W E W F v S D v v m m S S S S S m E W S E Q Q S m O.,.#.O.+.+.o.b W Q o.0.0.o.W S S D Q D S F Q y.+.Q W O.#.O.N F F o.+.+.o.W F b W o.+.q.q.W g #.X.F F b v g h S S S h z S V h V v v v v h V Z h V z z h w z V w w w w w w w t 6 w w w 6 6 w w t t t t 8 5 6 t w V D C w 0 v G V A A C Z v v o.D h D Q Q S q W N q N W c g g F N N q.q.X.$.q.a.N g W z.a.m m X.W W m W X.m F b h F W W O.! U O.:.T :.d.Y.d.N S t 6 5 t a 8 8 8 t 5 > 7 a a w 7 8 5 8 6 6 8 5 w w w t t t 8 8 8 6 6 8 a 6 = 5 A 8 6 5 8 w w w t w V a w w w V C V A w A G w w q V V Z 8.o.A Z G b G Q F F o.W b g D Q q.W b +.o.u.f.'.i.P N P a.+.v D o.0.o.V Q w w V V w w V A a t 8 a a p w w 5 q v v v F o.o.y.E y.Y.m m W W f b o.o.D h h v q v v v h v S E E h 9 h V h w w w V A v G w w V 7 w w w A 8.G w 8 8 8 8 8 8 8 6 t 8 8 t t 8 8 8 8 , > > , , , > , 6 , * * , * $ $ # # # * , 8 r r r 8 5 > 6 8 8 8 6 , 6 6 6 6 > & > 8 t w 8 w w e e 8 r t t 8 6 8 5 5 5 6 0 w h h h v V V V S G C V 8 5 > & & & # # # # # # & & : * * * * * * * ",
"c f f n W o.W F +.o.o.S Q o.v Z W v v F F F F v g g h S W F m v m v F q.j.$.F o.o.v v o.o.v v 8.G Q C w 8 V a w w Z 9.9.W F o.u.0.V V Z Z G A v 8.v v v 5 w G o.o.b b G Z F F V v V C C V p p p p w p V C v w w w V C V w 8 t V 8 8 8 6 5 6 6 8 8 6 6 6 6 6 6 6 8 8 8 8 6 6 < < r r t 8 w w w w 5 5 5 8 w C V v Q G w 5 g S o.s.b N W c F c X.y.q.a.W m q.+.g m ,.O.O.,.+.N W #.y.O.W W Q 0.+.m h w w b F N ! O.d.i.d.f.,.#.y.q.h V 0 3 8 t 6 , u r 8 6 , 5 8 C t 8 8 5 5 5 6 6 8 w t w w t 8 8 8 w 8 w 8 5 5 6 8 8 8 8 5 w 8 8 V w w V w 5 7 V w w w C G G C w w v V C V V V G F F v q b v g g q q q g b F b b X.O.O.:.:.#.! W P W ! ! X.O.+.+.S m E E S W o.D W Q W E W E S W m W o.W m m W o.W d.h.i.#.,.#.o.o.q.W b +.0.Q +.o.S v v S v b Q u.y.o.o.y.i.,.W S F W o.o.W W F v v v v F +.+.W N X.o.o.F b F +.S D S S S S S z Z Z S S V h h S 8.S w h S D z 5 w w w w w w w 0 5 5 6 6 6 w w t t w t t w 6 6 w w w w w V z w 5 q w V C Z V V Z S 9 v D o.0.F W o.W X.W +.z.y.W c q +.W m X.W #.X.y.y.m g f.U.c X.+.W $.#.N m g g D F F +.+.! i.`.$XH.O.,.#.h q w 6 6 8 8 8 8 w t 5 > 5 a V 8 5 5 > 8 6 6 t 6 t a V V a t 8 w t w t w & & w V t 8 5 > 6 w w w t w V w 5 5 8 8 5 w G C A A & 5 V > V Z w w A Z q v v v q v F N v g v F o.v g +.W #.O.y.O.O.#.E X.E h F F D D q v V C Z V w w A w.t 8 8 a a V V V V v i v G o.G b #.W f.U.n g W F v v b W W b h q 5 q v q h S E m h q q V S V h w q 5 5 5 5 5 5 5 w v V V C S V w w 8 8 8 6 6 6 6 8 8 8 t t 8 8 8 8 , * > , 6 > & 6 , , * * * * * * $ $ $ , , < 8 , 6 8 8 8 8 8 5 8 6 6 , 6 , , > 6 8 t t 8 5 & 3 t r 8 8 t 8 8 6 5 3 3 5 5 6 8 0 8 w w V V a V A C C a 8 8 8 6 6 > > ; ; > > > : * * * * * * * * ",
"m m m m S F b b Q W W b D Q h S Q F o.q.o.Q W F q b W F b W W b N N W q.s.o.b W o.v b o.Q q h 8.( ( D w 8 p p w i b b c c N #.f.q.F V G G G D v o.G Q G V h w q c v F W W o.G 9 v b v v w w p p p w p Z G V w w 7 w C C V t a V 6 6 8 w w 8 8 w 8 w 8 8 w 6 6 5 8 8 r 8 6 < , , : < 8 6 5 5 h C 0 w w w w z C S G S 7 5 h V S 0.+.X.#.+.y.g g W N #.X.W j.s.+.a.O.h.K.O.N X.X.m +.W W X.W X.W v G G G W W P P U n j ! i.O.g m o.w z 0 5 8 6 , , u 6 > > > > 5 8 5 5 6 6 8 8 t a V t 8 8 w 8 5 > 8 5 5 8 8 8 8 a 8 8 8 8 6 w a a p 8 7 8 w 7 7 p V a w 8 7 8 w p p V V V v V V Z q S F G o.F g v q w v v b b F F o.o.O.O.O.#.O.O.U ! O.O.! ! E E o.W W W b D W m y.u.o.W W S m S ~ W W o.W m W y.O.i.f.+.W +.#.X.o.+.m g Q o.W o.o.S h v S m m m W E P ! i.f.i.O.+.o.W P m P X.+.u.+.N g g N W W N W X.o.X.N b F b S S S S S S S S Z G G S h w h 8.D z z D G V 0 6 8 w 8 t t t t w 8 t 8 w w t t t t t t t 8 8 t C w 5 w C D z 0 v w w V C C Z C w w S v D u.+.o.W o.+.c q W W #.s.#.U.a.X.y.#.f.f.+.+.O.U +.y.W X.O.W #.#.U O.P W 0.W b X.W P #.n #.E m W Q v w 5 t t 5 & w t 8 5 > & > 7 8 8 5 w 6 t w 8 V 8 V 6 w 8 w 6 6 8 w 5 t t 6 w V t 5 w 5 5 6 w w w 8 8 w 5 5 w A C 5 = w 6 t C 5 t 8.V 8.8.V v G G w v F o.o.v 5 9 v c c m o.N F y.X.o.S ! W O.:.m m S F o.S V G V S V V C V 7 5 V 8.8 w 8 8 8 a V V w w v G $.q.$.o.X.y.u.+.F b F F S v h v S v q 9 q v Z V S D S l h h S S V h w w 8.V q h h V V S w S Q G S v h w 8 t 8 8 8 8 8 6 t t t t t t 8 8 8 , * * > , > & , , * * * * * * * $ $ , 8 < , , , , 8 8 8 8 6 5 8 6 6 6 6 6 5 > r t y t 8 6 8 t 8 6 5 3 5 5 5 > 8 8 8 8 5 & & & 6 6 8 8 8 w w a a a V a a p t t 6 , , > > > > > $ * * * * * * * ",
"X.W W E m m v v v v S h v V 9 v F b o.0.o.W W F b +.+.b g F F g X.X.F W o.F b o.F Q W v h h D Q G D V w w p p p i i c c m X.@.#.+.m v G G _ G N q m F G W F G W N N N m v o.q.F b v v w w w v v b p w w v V V w 7 w V V V t t a 8 8 8 a a 8 8 t 8 t a V t w 6 5 6 8 e 8 6 , , , : 6 t 8 5 5 w S A A C w 5 0 w w 5 w v G 8.S 9 5 F v W o.s.m b o.$.s.q.+.$.N q c N X.X.X.O.a.,.X.m W +.+.m m W F Q G Q W W E N n W O.H.T.u.Q Q Q h 0 0 8 8 6 6 6 u < > > > * > 8 6 8 w 8 t t t t 8 6 5 6 w w 8 8 a 8 w a w 8 8 8 w 8 8 8 8 t a w 7 8 w w w 8 p a a a V a w 7 8 a V V V V C A Z V v G G F F v q v S F o.o.W W o.+.N E ! ! O.O.~ U P P X.O.O.! W W Q W W E m S F v o.y.W m Q W m Q 0.m g W +.Q W o.! ,.,.O.! O.+.+.E W m b W o.Q W S v v D Q W m h P E ! o.y.i.:.W E X.#.#.o.W W W E E W o.+.o.N g @.} N X.+.X.m g m b S v S S S S v v V Z S h h h S S D S z z V C V t a a t t t t V V a t w 8 8 8 t e 8 r w 8 8 t C w 0 6 w V D G 8.p w w w C G Z w G q.V q S b F +.+.a.#.o.N m h.a.$.y.X.m N N W i.n X.`.f.g g #.#.#.N ! ! P #.#.Q o.W b S m N ! [.[.u.u.q.V h w 5 V V 5 & w a 8 5 5 > > 5 w w 7 t 8 a w w a 8 t & 5 6 5 5 8 8 8 w 6 w a w > 6 V w 8 6 w 8 8 6 8 8 5 5 6 V A V 5 V C 5 w C V A V w w v C v q q V F F F F v 9 q N X.X.X.#.#.o.#.N y.o.:.W E W k m b D 0.S V 8.Q o.v v V C w w w A w w 8 6 8 8 w w & w G $.o.X.$.s.b y.+.g W F m b q q h v h q h V S F Q G D S k h k S S S h h C G Z 7 3 w 3 7 7 7 h S Q Q G V V V a t t 8 8 8 8 8 6 8 8 6 6 8 6 5 6 > * * > > > * * * * , * * * * $ # $ < r 8 , 6 t 8 8 8 6 5 5 6 8 6 6 6 6 6 6 > & > 6 8 8 t C A w 6 5 3 3 5 5 5 5 6 r r 8 , 5 , 6 , , < 6 6 6 8 w w 8 w w p V V 6 6 , > > & & & $ $ * * * $ $ $ ",
"g g g m E Q +.+.S W +.W G G h D S v b W b b F S F o.+.W F W b 9 W o.W N W F F o.F o.Q v h F Q D S z w C Z V b S q b ] X.#.3.@.N F q c F _ F G N F o.X.N v m F o.#.! P N m X.#.o.b v v v v V V v V b w 5 w V C w w w w w 8 w w 8 t t t y t 8 w y t t t y t t 8 8 6 8 r 6 , : * : < r y t 6 5 w h C C V w 5 0 w 0 G V q q V h h S b c m m a.y.s.j.v N F W X.W N N I c g X.a.d.a.3.W X.#.+.N E W F S S S S E W P P P W +.~ h q q 3 ( 0 6 y 8 6 u u u < , 6 , & 6 a t t t 8 w w 8 8 5 5 5 8 w w t A A a 8 a w 5 5 8 8 8 w 8 8 C a 8 5 8 p 8 8 a V p 7 w V G Z p p C C V V Z o.q.o.b F G F q g q q v v v F F N b F E k P W W ! ! ! P n N P ! ! ! W X.W E W W m D Q b h Q m m o.Q b +.o.E S W o.Q W W O.O.O.O.W O.o.#.W E W W W o.o.S v S W W W W W m o.t.y.y.:.#.! N n E ,.u.y.#.W E ! P m m W #.+.#.N M b X.#.#.#.+.b F F b v S S m v h h S S V V V h V S C h w z C A C V y t t t t y a y t 8 6 6 8 y 8 6 8 8 6 8 t z w w w w z S G D 5 5 w 5 w V w v C o.V q v q v m N +.q.f.#.B +.+.X.W X.m c W m f ,.K.,.,.d.O.n :.:.P U U n O.O.F S W W m m W W o.W q q 7 w G w w t w 6 w t 8 5 8 5 5 > 8 a p 8 8 6 t 6 6 t 6 w t a t t a A A C V t w w 5 = 6 A w w t a t 8 6 8 w 6 5 w w w 6 5 [ G t w w V A 5 Z Z 8.w.8.V V 8.G v 9 5 q b F F N o.m N X.m m c m g m k k E E ~ h q v q q V w V V v V V C a a V 6 w 8 w a V v w Z o.q.9.N 9 q F F F S 9 D h v v q w V S V v C G S S F Z S h h m S S S S C S G Q Q V V 0.h h w q h h V G G Z V w V t t 8 8 6 6 8 > 6 6 & & 5 5 & > > > * > > > > * * & 6 , $ $ * : # # , 8 6 6 8 t 8 8 8 8 > > 6 8 6 6 6 8 8 6 6 8 8 8 6 & & 5 8 w w 6 5 6 6 6 6 = & 6 6 6 1 e e r : : : , , 6 8 6 5 5 5 w p v V a s d d r 8 < < : : , , : * * * ",
"W m c c b m b v b W 0.Q G Z w Z Q v v S b F W F g v W y.j.s.o.m c W W N W W b b +.G D o.o.Q S S D w h G ` V b F v N X.X.@.3.>.X.W g v X.X.X.X.F o.a.q.G v c c N X.N O.d.y.X.N v v v v v S V v v p V p 7 w A Z w V v w 6 6 8 w w t w 8 w 8 5 6 t 8 8 8 8 8 8 8 8 8 8 r 6 , * * * > 6 8 t t t V V 6 w 6 6 w C C z G v 5 5 h h v Q v m m 9 X.+.o.v W F X.+.X.X.o.W X.:.@.I O.h.d.O.d.O.W P ! +.W g Q Q D E W ~ W E W h h v h h V S k.0 5 C 8 6 s r , * , 6 > $ , C 8 6 6 6 6 8 w w w 8 a a 6 > 6 V 8 5 5 a a 8 8 C 8 8 8 8 t C a w 5 a V 7 7 a p 7 V 8 w w w 8 w Z G F Z o.w.s.o.w 5 v v v F b g m F F F F F F F F ! o.O.! W ! ~ ! P W P N N N m F o.Q o.Q S W Q S h o.E m +.W g E W u.f.u.Q W W O.+.O.! ! X.W E W y.X.+.+.F o.q.F F o.+.F v E o.o.o.,.i.y.:.O.! P o.+.#.o.O.+.i.f.d.+.P N P W O.#.#.a.d.a.W c c W F W W S S S S S S v h V Z S S S S V w w h h w 0 t w w 8 w t y a t t y t t w t y y 8 5 6 6 6 8 w C z w V D D z w V 5 V G V V A v w & 9 w G 0.D D q X.,.N X.+.n X.W X.N +.+.W a.X.#.O.O.d.].d.O.d.U O.P O.O.n U P W F +.q.m N X.F v W h 9 w e.x.8 t 6 > w V 8 5 > 6 5 > & 8 a p 5 8 6 t 8 w V w a 8 w 6 5 6 t 8 6 8 a V w w a t 5 8 w a C a 8 6 w w 6 8 w 8 5 w V 5 w w w 5 V 8.w Z 9.s.w.A w 7 9 9 F o.v q b F c F $.c c X.F o.q.o.m W m W 0.E E Q w v v V v q v Z w w w w a V C 5 w a C A A Z v V S F G N c m X.+.h b h D q S v o.G D G Q Z V v p q q h w 7 h D S D S S S V h 0 D S o.z.V v 9 5 h w w V G G h 5 w w 6 5 5 5 5 5 5 8 8 > & 6 6 > * > > > & * * : * * , 6 , $ $ * 6 # o * 6 6 6 t 6 5 8 a a 8 > , 8 6 6 6 8 8 8 6 > 5 6 6 5 8 u x 6 5 5 5 6 6 5 & , , 6 , * * , 1 u : * : : , 6 8 6 5 5 5 8 8 V V d d r r 8 , : : 6 6 r e e < , : ",
"E h m m m W Q F D F 0.Q Q o.w G v h q o.0.m o.f.m +.y.~ W y.y.! N i.n f X.n g E f +.Q h S h h q.Q Q Q Q S w q v v 9 g O.:.U U :.:.O.! W N P X.+.F N F X.X.N v m N W W N m W o.o.m S D S V v V V C V w w w w 6 5 6 w w w 8 w 8 8 6 w w 8 5 > 5 6 8 6 6 6 t r 8 6 > 6 8 8 6 6 8 t a 8 6 8 w w p V t t V A C w w z G h w S 0.0.0.0.v E W E N X.#.y.E N a.E c m f.#.$X,.:.O.P n N H.d.#.O.i.#.n N ,.#.m b o.o.o.W S S v w w w w a a w 8 8 8 8 r r 8 , * & > , > > , 8 8 a 8 8 8 t 8 a a C C t 5 6 t 8 5 5 8 t 8 5 6 6 8 t a 8 5 5 8 p w 7 7 8 w w w V w q w V Z V w V V D G D D F F b F D F v v v F i v v F G o.o.+.F o.W o.E n E m W N m N F F G X.Q Q Q D E E S k m o.#.W W ! #.d.#.W ! i.d.+.! O.+.O.N n P W E X.E E F F W o.+.+.W F b v b F b m m d.,.N O.,.,.,.+.W W o.#.o.W F O.W #.X.+.+.m m y.X.N N +.#.X.b o.D b S G Q D S V V v h h h v V w w w h V V v h w t z w w w w 5 w t y a y t 8 6 t w t t V V C V 0 w w w V D V w V t 8 a C Z V w w Z 0.0.o.G G o.N O.! U #.,.,.c a.N P #.:.d.`.`.! X.X.P ! a.f.O.O.d.O.N P :.i.c n X.#.+.W W F v h q 7 w t V a t 5 6 6 8 8 8 6 , > 8 8 , > 6 8 8 8 t 8 8 a A V 8 A C 8 5 5 w t a 8 8 8 8 8 8 8 8 8 8 8 6 5 8 8 5 5 5 w w 5 w w w w q p Z V 7 p 8.V V Z Q G S S W o.Q v g F F g q m q.+.W a.j.W h W o.S g v D S S h v v S V v w v C G G C z 0 0 C a p V V V p Z 8.Z o.v v N m X.`.v q 9 F q.S g 0.o.h Q u.Q S D w V V V v V S S V S v v S S v S o.v q q q v F F F 9 5 D v h D q v V a 8 w 8 8 8 8 t 8 8 8 6 , > > * $ * $ $ * * * * * * : : $ $ $ & $ $ & 6 t t 6 t 6 5 8 8 8 5 > 8 5 5 6 6 > & 5 & 5 6 8 e e u 8 > , 6 6 8 6 , < r 6 , $ $ : < 1 1 , * * , e 6 , , * & * * * * * , , > > : > > > : , , : * $ * * ",
"o.m m S m E m g g g W S V C w G h S q q S ~ o.g ~ +.Q k l W ~ W ! K.i.O.O.N E 0.g W D S Q S 9 q S m h V v S W o.b W O.O.! O.1.H.:.:.:.#.O.! N m W X.W c q c F _ F o.+.o.W S v h S D S S v v v V 0 8 w w V V t w 8 w w 8 w 5 5 5 6 8 8 t 8 w 5 > 6 , > , 6 6 6 , 8 r t r 8 8 8 a w 8 5 8 w w w p C w 6 w w z V V 7 5 5 w v S S S U.y.W o.#.#.#.y.y.m g 9 X.m E P ! P O.! ! O.n P d.K.K.,.,.d.d.:.W N W +.Q Q 0.0.V w w w 8 8 8 8 8 8 6 8 8 8 8 6 8 6 6 6 , & > 6 8 8 t 8 8 8 8 8 a 8 8 8 8 8 t C 8 8 6 8 t 8 8 8 8 8 8 d 8 6 8 8 8 8 7 7 8 w w w w w q w h v v h V v v v F G F v G F v v v F G o.G F N v q c b G v G b W W b W N o.X.X.X.F v b F W o.Q D S D S k m N P O.,.O.! #.X.O.#.#.! N #.K.#.,.O.! #.O.m m +.+.o.W F S b b D G G Q o.o.o.X.#.,.#.O.d.G.3.:.y.#.+.o.o.+.#.#.a.N c q g N W j.X.X.X.W E S F F W F S m S S S S h V Z G S h q 7 v h w w w h w w w V V w w w w 6 6 6 6 6 6 6 6 6 t 8 6 6 w w w w w w h h h V V v V C C V V w w w & q S G o.q.u.u.,.O.U ,.a.O.,.a.g c I U U :.,.c f.#.! P N O.f.K.,.d.,.f.d.#.#.P i.#.X.X.+.9.W w w w w 8 a a t 8 6 r t r 8 6 6 8 , 6 6 > > 6 r 8 V a 8 5 8 t 8 8 8 8 w t a a 8 5 8 8 8 8 8 6 5 5 8 8 8 6 6 8 8 8 6 6 w w 5 w w w p w b S b w p G w V V h w v b v 9 q 9 g F W F W v v q g W F b o.W 0.Q v V S h h q.` v q w v C G C Z z w w w z G 5 8 p v p V Z o.G 9 v v q +.f.m v h v Q o.b b 9.W o.S b +.F g Q V V V w w V V v V V S D W b b b _ F F F F v q 5 Q v h 9 7 S D Q Z V p w 8 8 8 8 , 6 , , > > > > * * * $ % * * * * * * : : $ $ $ & & & & 8 a t 6 5 6 w w 5 > 6 d 8 5 5 6 6 5 5 6 5 5 6 6 6 6 6 6 , : : : : : : : : : : $ $ * : : e , * , e e e 6 , , , , * * * , , : , , , , < < & * > > > > , , ",
"S g h b S Q W h m v Q D S v w D h W l 9 h o.t.l m S W Q Q W k 9 ! f.y.E g 9 g q h h q h S Q S h S h h h h v v D 9 X.d.i.,.d.d.:.U.i.O.P P P W X.F o.X.c c X.X.m 9 m W Q W W D F S D S S v h v v C V C C A A C V t V V V w w w w w 8 8 8 a 8 6 > 6 5 > > , 6 6 , > , 6 , * & > 5 w 6 5 6 w w w w A w & 5 w v h w S G Q D S S S S o.m m E m 9 q N +.f.i.! y.N N f.i.:.#.n U d.O.P j N O.i.d.i.U g #.X.o.o.D o.0.Q v w w 7 8 8 8 8 8 8 6 6 8 8 8 6 6 8 r r > & * 6 8 8 t 8 8 t d 8 C t 8 8 8 8 8 t d 8 6 8 8 8 8 d 8 8 8 8 8 6 8 a 8 7 7 8 w w w w w w v v h h V S Z v v v F G G v v v q g v F F F v b G G F v v N b F v F W F W b F F X.o.F b F o.S Q Q D m k S S W m g W y.o.N o.E W X.W m m ,.[.y.#.N c P P m m h m S S S F W o.q g v F F b b b ,.,.K.P.d.,.d.K.O.#.+.N n N ! W W c X.i.y.W g W +.#.,.#.o.W W o.F F F b v v V S Q Q Q G S V S S G S V h h h h h z V z w w w w 0 6 6 6 6 6 8 r t t w 6 6 6 w w 8 w z v w w v V V & 5 w V w v C Q G G S h h F D F +.#.n n P X.:.U g.a.,.O.X.a.d.#.U c P i.O.c n X.,.,.O.,.#.N ! O.a.X.N W q.+.S q w w 8 w t t 8 > 8 r d r 6 > 6 r u 8 6 6 , > , 8 a a 8 8 8 V a 8 8 w 8 8 a a 8 8 > 6 8 8 8 8 8 8 a a t 8 6 8 8 6 w 6 w w 5 w a w q w w w w w i p v G o.V v G Q v q v b W o.F F q.W W F W +.D b o.q D S v S Q S D q.C w V Z v v V G Z h w C C D 8.5 a Z V v V V V q v g g o.q.F q v h W o.S v D o.o.+.b v o.b q G v V V w w h v w Z G Q Q Q Q W F v i v F ` o.G F q.0.v v V V S q Z C w 8 5 5 6 6 > * ; > > > > > * * * * % * * * * * * : * $ $ $ & ; & & 6 t w 6 5 6 w w 5 > 6 a 6 5 5 6 8 6 6 8 8 8 5 5 * * * * 6 , , * $ * * : : , , , , , , , 6 * * * e e e 6 , , , * , , 6 6 * > , , 6 8 8 8 , < < , > * * * ",
"v 9 q v D o.o.F W b Q 0.Q D S D W o.E W S h Q 0.o.S h h S S S S z.T.j.u.o.o.u.v q.W S v h S S 9 Q S h h v v q 9 9 F +.,.i.H.1.P y.! W i.a.X.N N +.X.m m X.#.X.c v W o.E m v m b S S S v h h v V V w 5 5 5 5 5 5 t V V C V V V V w w 5 5 6 8 8 6 8 8 6 6 6 6 6 8 8 8 r 8 6 6 8 8 w 6 5 6 8 6 w w V w 8 w S C w q 9 h V q 9 q q 9 W X.y.a.y.W X.#.m #.o.m #.y.o.N N P :.#.d.}.i.P Y.d.:.O.O.O.O.#.y.X.F F W q.8.w v w w 7 8 8 6 6 8 6 6 6 6 8 6 6 , , 6 8 , & * 6 8 t a t t a a d 8 8 8 a t 8 6 5 8 6 5 6 8 8 8 8 t 8 8 8 8 6 8 a w w w 8 8 8 w w w w V V V v S D V v v v F F v v q g v b F F v v q v _ o.X.F F W G o.F W W m W b v v F W W F F X.S o.+.Q S S Q o.+.W m m +.o.E o.N m m E X.o.#.a.d.y.W N O.#.+.#.W W W F v v b D v v F G F b m N #.#.P.P.:.O.d.d.X.i.f.+.W X.#.O.O.N ,.y.,.W g E +.! N N W W F b b b F S S V V S w w q 7 9 7 w h Q G S V V v v v w w w w w w w 6 w w 8 8 8 t u u t w 8 8 w w w 8 0 w w w h V S V v C A Z v w h S v v h v b F Q +.X.d.,.O.U O.,.X.,.I I :.#.U n n `.d.Y.}.f.#.a.`.,.d.#.#.O.X.i.#.P N X.#.+.F h v w w w w t w 6 5 6 8 8 6 , > , 6 t 6 6 6 , & , a 8 a a C C C 8 8 a w 6 5 8 8 8 8 > 5 8 8 8 8 t a d t 8 8 8 8 8 8 w w w w 5 w V w w V Z V Z ` ` Z w V Z v h v h 5 b S S F F g q F N o.o.b S W S g D o.G v S S h 9 V q w G o.V w v v v w w V w q V 7 Z G V p V v 5 5 S S o.u.m 5 F v h W o.h v W F q.v D +.b v b 9 w V V w w v v v v V v q g S D F _ F v v b F G G 5 V q Z 8.o.w.C C a 8 5 > > , 6 * > > > > : : : * * * * % * * * * $ * * * $ $ $ $ $ & & > 8 w 5 t w 6 6 8 8 8 6 6 6 6 6 6 6 6 8 8 8 5 5 5 * * & 6 , , , : > : : , , , < < < < < , * * * , , , , * * * * * * , , $ * > , , < , , 8 8 8 < , > > > ",
"G w w h v D Q S m g m y.+.W O.m O.O.O.f.+.f m Q 8.S q q h S S Q F F F W v D u.S Q D Q Q S S h 3 Q S v v V S v q v b E ! O.:.:.:.,.c c #.y.N n X.f.+.m N ! W W ! S o.+.Q m m m S v v h h h v v V D C w w t C A A 8 w 8 8 w w w w w w 8 6 5 5 6 8 8 8 8 8 6 6 8 8 < 6 8 8 8 8 8 t 8 6 6 8 8 8 8 8 w w V Z G Z V v S Q Q G W 0.+.o.m m c m +.f.+.m X.#.u.+.W f.h.X.! P :.#.:.,.n f n i.H.,.,.K.d.N X.F b F Q q.0.h V h w 8 8 6 6 5 6 6 , 6 6 6 6 , 6 , , 6 , > * > 6 8 a t t a a t $ > 8 8 8 8 8 8 5 5 5 6 8 8 8 8 a 8 8 8 8 6 8 8 8 p p p p 8 w w w w w w h V V V w v V V v w q q w v Z D Z S V v F F S i q q F o.D o.W Q F h F b b v S W W F b b W +.y.+.W W o.t.o.y.o.m W o.W W m h h E o.o.Q W ! O.! o.d.i.o.X.y.y.+.F v v b W F b F D F v m F a.+.:.O.O.i.3.L U i.d.#.O.,.i.i.#.O.:.P P O.! ,.,.X.N m F E F b v v v S Z Z V v w v D Q Q G S S v v V v h h h w z w w w w 6 6 0 8 8 8 8 8 8 8 8 8 8 w t t t t w w w w w V C V w G G Q G Z D D W o.W o.s.q.m g m U ,.d.].,.c O.h.a.O.X.a.g.:.O.,.O.X.,.#.n g P #.#.i.#.i.i.+.#.N W W #.u.+.b v Z w w w 6 8 8 8 8 8 , , , 6 8 6 6 * * , 6 > & 8 A a a a V a 8 > & 5 5 6 8 8 8 5 & 8 8 8 8 8 6 8 8 5 , 5 6 8 t C A w w 8 w 5 w V w w V V p V G F p v w w w w 5 5 5 F D v b D m b o.F F h 9 9 F o.D Q o.S q S S h 9 G v h S S V S 8.v v v V S q 9 V 5 V Z v p V v q v 9 9.z.b 5 v b b h D G v S Q v 0.h S o.V v Z q w V C V v V V V v V v q h D W F o.F b i v v V V 8.w.V v w q C 5 t 8 6 > & > , 6 > > > : : : : : * * * * % * * * * $ $ * * $ $ $ # # & & > 8 w 6 w w w 8 t a 8 6 8 w w 8 6 6 6 8 5 6 8 8 8 6 4 & , : , , , , : > : > > * > > , < 6 , * * * * * * * * * * * * * , * * , , , : : : * : , < < 6 r u ",
"A w w w w V G S D h m u.#.P ! j W :.O.i.f.+.~ h S h h v S V h w h S D Q h h q.0.h v S v h S S v Q S h 9 7 h h q h b o.y.O.U ~ i.f.N q g c g N a.f.y.y.i.O.n P #.m W 0.+.Q W W W h h h h v V V v 5 5 5 5 8 6 6 5 8 w w w 5 5 5 6 8 w a a w 6 6 6 6 8 8 8 6 6 6 6 & & * * * > 5 6 8 6 6 w w 8 w a 7 7 w p v v V G G D S v F o.W N N W E m W y.y.E W E +.y.5 f +.y.Y.i.i.O.U N j P U #.O.N N O.:.! P E +.o.D G G V v w 8 8 8 6 6 5 6 , , , 6 6 , , r 6 , 6 8 , * & > 6 8 8 8 8 8 8 6 8 d 8 > 5 8 a 6 8 8 8 8 t t 8 a 8 8 8 8 6 8 8 a p a p 8 8 w p V w w w V S V v h V D Z v w w v v V S v h w v V F S b i w i v F v W S D b g F F S v S W o.W W F W +.#.X.N N X.#.W f.j.o.o.+.W E h m m S m m F W m P N m O.O.W W S m b v v F o.q.v 9 9 q g q g N y.,.,.O.O.i.1.U n W ! P U #.i.f.O.,.d.#.O.i.#.O.i.u.y.o.E S F W h h v b S S v w 5 7 q w q 7 7 7 w w h h h h h h C z w w w w w w w w t t 8 8 6 5 6 6 8 t t t w 0 w w w w V C h 9 w h v S D o.+.0.v g v o.+.E o.f.N U P :.,.U O.X.O.O.N n X.,.,.d.! #.i.,.P P O.O.d.#.P y.y.n N N y.+.X.X.G S v V w w 6 5 6 8 8 r 8 , > , 8 r 8 , > 6 8 6 & $ , a t 8 8 8 w w w 8 a 8 8 8 8 w 8 5 8 8 8 8 8 8 8 8 8 6 6 8 8 8 8 a w w w w 6 t V w 5 w w w w p w 7 8.Z v v v w v S S S v v D Q o.q.o.q q D D S Q o.h S q 9 S Q D S G S V V v v S Q G Z V v F c v 8.Z G G C v V v w v F o.G v q v q Z v S G D D D v D Q w q o.Z w Q w V C V V V V V S Z D D Q o.D v i i q b F G G Z q v q 5 w Z 8.A w 8 6 > > , 6 6 : * > * $ $ $ $ * * * * % * * * * $ $ * * $ $ * # & $ ; , t t 8 5 w C t 8 8 8 a 8 8 t w 6 6 8 8 5 8 8 e 8 8 6 5 * > : , , , > * , , > > > : , < 6 6 , , , , , , * * * * * * , , , , , , : : : : : , , < < 6 r r ",
"V w w t w V G S Q b W f.O.n :.P :.,.T O.i.i.y.h +.W h 9 7 h S S C G Z G w 5 D Q 8.u.Q g h q q S G S w 5 5 q w q g m o.u.y.O.O.O.N F F N N X.X.W ,.,.i.i.:.U U O.+.y.y.o.E m m v h h h h V V h w z t t a a w 8 5 w 8 8 w 8 6 8 w w w a t 8 8 6 5 > 6 8 8 6 , , , < < , < 6 8 8 8 6 5 6 8 w 8 8 a w q q w w w b G o.F v v F N b N E #.+.E c m E X.f.y.W +.W a.y.+.N N i.d.d.i.O.,.Y.f.f.`.K.O.g f W F o.+.S h v v w w 8 6 6 6 6 > 6 , , , , 6 , , 6 , 6 6 6 > & * & 5 8 8 8 8 8 6 C C a 8 5 6 8 8 8 8 8 6 8 a a t 8 6 5 8 8 8 8 8 8 w 8 8 w w p V C V h v V S C v V S Z S v v v F S V v v h v v V v i b S F Z V v v F v S b h W S h h S W Q W W Q E o.+.X.P ! #.,.E u.s.y.0.o.W W m E W E m b E X.o.#.P N ! O.#.f.W E b b m m S F F v q v F b N X.W y.d.d.,.O.:.d.O.! ! ! :.i.f.H.f.y.i.! ! ,.:.,.o.O.W W m m m m v v b b v v v v S V h w q w v V h h V v v v V S C z w w w w w t t t t 8 8 8 8 8 6 6 8 8 w w 6 6 w t t w V C V h S b m m m b b b 0.o.E m m P O.+.#.#.N N #.d.d.N P #.O.#.f.a.! ! Y.f.d.#.! #.K.`.K.d.O.,.#.N O.#.+.o.F v v v v q w w 6 6 6 5 6 8 6 , , , 8 8 , > 8 r 8 > & & & & w 6 6 w 8 w a A A a 6 5 6 w a V 6 5 6 8 a a t 8 8 8 8 8 8 6 5 6 w 5 w w w V C w V C C C V V V V V p w 7 w v V V q S h 9 h b b b S 9 v +.D h h q S Q S q h h h h z S S V V S V w Z v q v v q q ` q.8.` Z p w w w v o.w 5 Z v 5 V S S V G 8.D v V D G w w o.Z w G w C Z V v h v v h q w V F b g q F F F G G Z p q w w V w p G v 5 w 8 6 , * : , , * * $ * * $ $ $ * * * % % * * * * $ $ * * $ $ * # $ $ $ , t a x 5 z V w 5 7 8 V 6 8 a w 6 6 w 8 8 8 8 6 6 6 8 8 , , , , , , > > 6 6 6 6 6 6 6 , , , , , , , 6 6 , , , * * * , , , , > * * * : : < < < < : * : : ",
"V t V V w w C v h g S H.O.L G.1.E.G.U U ! P ! m S W Q D G Q S h o.A w V V q S G D u.8.S o.D h Q h S V w w V C v Q b h m :.i.,.W m #.$.c c y.f.+.y.O.n j P O.:.O.E E S m m E o.+.h h h v V v w q C a w w 8 w w w 6 8 w w w w w w C t 8 5 5 6 6 5 > 6 r r 8 6 , , < , : : , , , , > > 6 8 8 8 8 V G Z S Z S V v F G v m F W W o.q.y.,.#.+.X.N m N c U.y.W E f.W X.m N O.N N ! P #.m P N n ! ,.#.m W g v D S v V v w 7 5 5 6 5 5 > , , > , , , , , $ & , 6 > & * , & 5 8 8 8 8 8 6 6 8 8 5 6 8 8 , 8 8 8 5 6 a a a 6 > > 6 8 8 8 8 8 7 8 8 8 w V C V V h h h v v h V v w q w v v S D Z Z G Q Q D V F b i i b V v v v F h S F b W S S S Q Q S h h b ! #.#.#.#.,.d.K.P o.o.X.W m m X.W W W W W X.Q ! m P P N ! O.o.u.o.Q W E W D F S G v v F W F F X.P X.! :.d.:.U ,.O.! ! ,.i.i.,.:.! n ! O.:.,.! :.#.E m E +.0.W v S D D S h q v F w h V S V v h w v V V v h h V D C w w w w 5 6 w t w 8 6 6 6 8 r t r 8 8 8 8 6 6 6 w t w z S G G h v b b S F W o.g W X.W #.K.f.O.i.#.P #.! g O.f.d.,.P O.d.P g O.P m ! #.O.W ! P n ,.+.O.P P O.n m W W b v v v q 6 8 8 8 6 5 5 5 > , 6 6 , > & & , 6 > $ * 6 6 & 8 8 8 t w 5 > 6 6 6 6 8 t 8 8 5 8 8 8 a C a 6 & 5 > 5 8 t 8 8 8 w 5 w w w V C w 7 w w w p w w V 5 w V w v G D w v 0.0.S F o.Q W S b Q Q h v Q v q S S h h h h S C D V w V G S q 9.Q F o.q.X.N o.8.G V p w 7 w v o.5 5 F w 5 v Z v S v D 0.S q S 8.w V 8.S S Z 5 w C Z V w w w q Z v h D Q D F D D F D G G Z v w V w V 5 w 9.p 5 8 6 5 * * * $ $ $ $ * * * * % % * * * % % * * * * $ $ * * $ $ * o # # $ : t a x C V 8 > 5 w w 7 5 8 a w 6 8 8 8 y t 6 > & 5 8 8 t r 6 , , , , , > , , 6 , , * & $ * * * * , 6 e , , * * * * * * > * $ $ $ $ * : $ * : : * : : , ",
"V 5 8 t 6 a A w w h E f.H.:.1.;.1.T L H.P.T i.K.W o.Q m l.8.D D 8.Q v v S h q D h S S h S q.u.S S z h w w V V w q Q W f n i.H.:.N a.s.W m N m g O.y.:.n j ~ ,.:.t.o.E S m h m W h v S h w h v V G C w w 8 t w 5 A A V w w w 8 w t w 8 6 5 8 8 8 8 8 6 , > > , , : < r r 6 , < 8 8 , , 8 t a 8 5 w i 7 w o.9.G S v v v v F W F m W E y.a.E m ! m y.X.W X.W E +.f.N ,.f.,.O.#.,.+.f.f.y.d.f.! f W W 0.W S Q Z w v 8 a C a 6 & > 8 , , , , 6 6 6 6 , , , * * * * * 6 > 5 8 8 6 6 8 8 8 8 8 6 5 8 a 8 8 5 5 8 8 8 8 8 5 5 8 8 6 8 C a 8 8 8 w p p p w v C S V v h h v v h h h h V Z V V h h S Q Q Z b o.8.V w V v 5 v V V v v S S m S S S S D W S b W a.,.,.,.@.,.d.#.d.f.P f.y.P ! d.! o.i.W O.y.X.#.P #.! g ! W N E E W o.0.+.F h F v v F F b F +.+.N N :.H.d.:.O.Y.O.n ! ! n O.Y.O.P P O.:.y.i.O.#.E N W W m v b F F F F Z D Q o.D v v V h V Z V S S V v h w h h w z z 0 5 w w w 6 6 6 6 8 8 8 8 t t t r 8 8 8 t t t t 8 8 6 8 V V S o.+.F b F b m N P W ! P ! #.i.d.! O.O.W ,.O.O.O.#.n O.d.U ,.d.Y.i.E +.y.,.H.y.f.d.+.! W ! W +.W b v v w w w C a 6 6 8 6 6 , , 6 8 8 8 6 6 6 > , , > * & * > 6 8 8 8 8 6 8 8 6 8 w 6 8 w 8 8 8 & > a t > > C 8 8 8 8 6 8 8 8 w w w w p a w w V V V V V V a w w w 7 w w V V V V 5 w 0.q.S S 0.q.S v Q S 5 q o.h h S S h h C D S V q h Q h q 0.h W F v m b F o.8.Z w q v G Z v 5 p V w 5 w V V V v v w v v v v v Z q q G Z 5 q 5 p C V w w w w 8.Z Q Q h v W v v S Z S V V V i Z S a p 8 7 5 > 6 , * * , < , , : $ o % : % % % $ $ * * * * $ $ * * $ $ $ % $ $ $ O O # * 6 t t w w z v w w w w 8 w 7 > 5 a V w w t t 8 8 t 6 = 8 6 , , 6 6 6 , , 6 6 > > , 8 r , , * * * * * * * * * * * * * * $ * * $ $ # $ * $ $ $ * * * * * ",
"C 6 w w 6 t C w h v m ,.:.;.1.2.N.G.G.G.;.1.H.f ,.N P P t.o.z.T.b o.W h h b D o.h S h q h S Q Q C z w 5 w v v w v q m o.u.y.:.O.#.a.y.+.P N m N y.i.,.O.,.i.O.g m m W +.+.W S b h D o.8.o.Q D V C t w 8 V C C V V V t t a V t w 5 5 5 5 5 6 8 8 8 8 6 , > > > , , < r r , : , 6 8 , > 6 8 t 8 5 w p 7 7 Z Z w q v N F F F m c g W m o.a.a.f.u.E E N W y.y.W c g P E o.i.i.o.W W O.o.m g g 9 k u.o.+.D v S w 5 5 8 8 a t 6 > > 6 , * , , 6 6 6 , 6 , , , , , , , > & > 8 8 6 6 8 8 6 6 8 6 5 8 t 8 8 6 6 8 8 6 6 a 8 8 8 8 8 8 8 8 w 8 w p a v p V V V V V V V V 9 q w h h h h v h V V v V S S V p w w p i 7 q v v V Z S D D D S q q h v S W W W P #.O.:.3.>.,.:.#.K.:.P f.P O.O.O.O.! i.U.f.O.P N f N N N X.N m Q E b W o.+.W b F v v F F v N X.N +.f.P.,.T ,.].,.O.:.i.y.! W O.Y.d.H.K.i.O.P j O.X.X.o.o.W W o.D Q o.o.Q S v v D v S D V D G S D D Z S v h w q 5 w w 0 6 8 V V 6 6 6 6 6 8 8 8 u u t t r t t t 6 8 t t w w V V 5 q W +.F S F b F X.W m m P ! ! ,.f.d.d.#.N O.P O.,.f.! P U g O.i.P ! f.i.E ! u.n n k m ! :.y.+.v b b F S V w 5 C t 8 6 6 6 , > , 6 8 8 6 6 6 6 > , 6 , > > > , 5 6 w w 8 6 6 w 6 w w 6 8 w w 6 6 8 8 5 6 8 8 5 8 8 8 t 8 8 8 8 5 w w w w w w V C V w w w w w 5 6 8 w w w w w q v w v S D v m S q h h q q S S h w h S S S z C S 3 D 8.8.0.Q S o.v S N F o.o.F W v w w V Z C V w p p w 7 w A Z w w w w w w w v v 5 p q 5 v w 5 q w w p p V C o.q.v q w v g v F S G o.o.G V V p q V p w 8 7 5 > > , , , , , < , , : $ $ % 2 % % % $ $ * * * * $ $ * $ $ $ $ * % $ % $ # $ : 6 t a A w 5 5 w p w 7 5 p V 8 8 8 8 & = 5 6 6 6 8 8 8 8 6 , , , > , , 6 8 8 6 6 8 8 6 , , * * * , * * * * * * * * * * $ $ * $ $ $ $ * $ $ $ * * * * * ",
"S w w w 6 w t 6 5 h b O.;.2.L.n.^ Y G.*XL f ;.L O.f ! i.,.O.h.a.o.Y.f.m g E o.o.m W S h S h z 0.G ( ( G A Z V w q o.s.W f k ~ :.P N N ! O.o.,.d.P ! O.O.! O.! U E m S W Q W b m S S S S V S S v V V V V V V V V t w t V V V t 8 w w 8 8 w 8 5 > 8 8 6 , > > > > , < < < : $ : , , > & > 6 r 8 8 w V p w V v q q w F o.o.W b b N a.X.E E N W ! m +.E m W o.W m m g N X.X.N m m N c E W +.f.y.m f S S h v G V v A 8 8 t t 6 , : , , , , , , , , * , , , , , , 6 6 > > > 6 6 6 6 8 8 6 6 8 8 5 6 8 8 8 8 8 6 5 5 5 8 6 5 5 t C a 8 8 w w p a V p w Q G C h h h h h q w h V v v v v h V S V h h v v A a p V C V Z ` v V D D D G S v S S S S m m m m O.,.! :.d.,.,.@.d.].n n O.9 O.O.:.K.,.O.i.:.#.].K.+.! P #.,.E O.Q S v m W Q W F o.o.o.o.W b b W h.X.n n O.:. .P ,.y.i.i.i.d.d.d.O.P ! O.W ! ,.y.W o.+.X.W W o.o.D Q o.+.o.G S V S v S G S D G V h h h h h h w q w z z w w w w w 6 6 6 6 6 6 8 8 r 6 6 6 8 r 8 6 & 5 w t t t a V v v Z S q q F W o.u.q.m m X.#.+.m O.O.,.#.W O.W ! X.O.N P ! g n y.n W O.g m o.E o.y.u.o.m m m E W o.G v h v v w a t w 8 6 , : : , 6 6 6 6 , , 6 , 6 6 6 6 , 6 8 5 5 8 8 8 8 8 t 8 t w 8 8 w w 6 8 8 8 > 5 8 8 > 5 8 t a t 8 8 8 w p V p w w C G Z V w 8 w 8 6 5 a V C C C V V V w V S w w S Z h h D D v S 0.Q 9 S S S z h h h h h Q v 3 g W S g +.0.+.+.o.v 9 h q q v Z V w w w a a 8 8 a A C 8 q w w w w w w w 5 w w w w q q V V w w V V V G q.v v w q b S v S h S D D G G G Z 8 w 8 8 5 , , , , , , , 6 6 < : < : $ * : * % % $ $ * * * % $ $ $ $ $ $ $ * * * % O O $ > 6 t a C z w w w v w q > w C V p a a w 6 8 a w 6 6 8 w 8 8 8 6 > > 6 8 5 8 8 6 6 6 5 & , , * * * , * * * * * * * * * * $ $ * $ $ $ * * $ $ $ $ * * * * ",
"S h w w w w t w > h S O.;.1.P.n.N.L.P.E.2.=X9X>.1.2.P.#Xd.:.:.U O.H.d.n f N E W 3 m g 9 h 5 = w z S C z w w w w Z o.b 5 k i.H.:.O.! W ! ! W ! ! i.f.H.i.! N P W O.W S E W W S v o.Q S v V Z S V w a V V w w w w V V w t t t w w a a a a t 8 8 6 8 8 6 , > > * * : < : : $ $ > , , > & & , 8 8 8 5 V V w w w q w q S o.o.Q F D W X.X.o.W N o.f.'.y.! c g m W #.a.m +.X.9 9 m E g N W E W u.f.o.v u.0.G Q Z q & 5 8 8 t r 8 6 , > , , * * , , * * * * * * , , , 6 8 8 6 6 5 5 5 5 8 6 8 8 8 6 6 8 6 8 8 8 8 5 5 6 > 6 6 5 8 C a 8 8 8 p p a a p w Q A V w h h h w V V v h w w h V V V V h h h h h V Z V 7 w G G p V C Z S S S V h h v S S S E W o.#.y.! :.d.,.:.O.,.K.:.G.Y. .:.O.T d.H.d.,.T O.d.:.P g g X.P 5 c W m v g v b S S G v v v b v b F N N O.d.K.d.>.T :.O.W E ! O.,.d.$Xh.d.,.U N W ! W #.y.X.F E W F D W W W D D D D S h V S V V S v G G G G G Q G G C C C z w w w 6 6 6 6 6 6 6 6 8 6 , > > 6 8 6 > & 5 8 w t w w w G V V h 5 q S F o.0.o.W F +.y.i.,.#.X.#.d.f.d.,.! ! ! X.,.a.#.#.O.N n m g m o.P #.f.U.d.o.! O.#.o.+.Q h q w V w t a t r 6 , : : , , 6 , , > , , , 6 6 6 6 6 8 8 6 8 8 8 8 8 8 8 8 t t 8 6 8 8 6 C 6 > 8 8 , > 8 > 5 8 8 8 8 8 8 w p V V p V Z G V p w w w w w 8 8 8 5 > & > 5 w q V V w w Z D v S h h D Q S h q G S h 0 0 w h h v Q Q D u.uXT.Q F W F W b q v u.V w w V w 5 5 p 7 V A a 8 8 8 t 5 q w w w w w w w v v w w w V G p w p A A w w V S Q v h Q W v F D Q o.D V V p w 8 w 8 6 6 < < , > , , < 6 < : : < : $ * * * O o $ $ % * * * $ $ $ $ o O $ * * * O O O O $ , 8 a 0 V Q G v q q v 5 8 8 8 w V A A V C A a 8 5 6 8 t 8 8 8 5 5 8 8 5 6 6 5 5 6 , & 6 , * * , , , * * * * * * * * * $ $ $ $ $ * * * $ $ $ $ $ $ * * ",
"S v w w t t t t w C D ! U :.L.N.N. X<.*.Y I.&.*.L.-XG.2.;.*.Y &.&.2.&.L U O.,.H.E u.Q h Q S 7 h 0 z w 3 = 5 A w.w.o.D +.y.+.O.O.! O.O.U U ~ ! n j j P #.d.f.i.,.m E W o.q.0.W h S S S S G G V q 7 w a a 8 w w w V w w w 8 w t t t w 8 8 8 8 8 8 8 8 6 , > > * * : : : : $ $ : : , * & & > 6 8 8 5 p w 5 5 5 q v w v V S S v h h +.f.U.f.+.W X.y.X.W W O.o.X.W W o.0.E 9 g +.+.h m Q +.Q E +.f.z.g 9 w S Z V V V w 8 t r r 8 , : 6 , * * * * * * * * * * , , 6 6 8 8 8 6 6 6 6 6 8 8 8 8 8 8 8 8 5 8 8 8 8 6 6 8 8 a a 8 6 8 8 5 8 8 8 p a V V V V w w w h V V h V V h w 7 7 w h S v w w v V V V p Z V 8 w A Z w V V V v v S S S v m E E F E W o.O.,.U :.d.:.,.d.G.2.O.;.1.1.1.P.i.;.:.>.;.>.1.T O.! #.i.`.K.W u.S S b v h h v S v q 5 q F o.q.a.#.y.d.d.,.O.,.d.,.! ! #.#.N N X.+.W #.a.f.f.d.#.o.y.i.o.F E W F D D F b v v v v D v v v w h V h V h w w w h h w V z z z a a t t 6 6 6 6 6 6 6 8 r < , 6 r r 8 5 > 5 8 8 w t t V w q h V V V V q Z v S D F b W q.U.d.,.#.i.d.,.O.N O.,.,.! P #.a.P k 9 W f.W k t.o.o.~ +.p.f.y.W q v D v v v p w t a y r 6 < , , , , , , > > > , , , , 6 6 8 8 8 t t 8 8 8 8 8 8 8 t w 8 6 8 8 6 8 6 5 8 8 > 5 a 5 8 8 8 8 8 8 8 q q w p V V V p w w a w w w t V V V a 8 8 8 C A 5 w w w h V v h v 5 9 Q Q h h S h h 0 0 h S D D q b W N b W o.F S b v v m g b u.Z v w w w 7 w V 8 C A C 6 > 6 8 7 w w w w 7 7 8 w w w 5 5 5 V C w 5 w G o.V v Z v Z h w Q Q b D v D Q G V V V w p w 8 6 , > > > > : , 6 < < : : : : $ $ $ $ O o $ $ $ $ * * * * $ $ o $ $ * * % O O O O # > r a 6 V G G v q q v V p 7 5 7 w 8 8 8 8 w w 8 6 6 w 8 8 8 8 6 6 8 8 5 6 6 > , 6 6 > 6 , * * * , , * * * * * * * * * * * * * * * * * * * * * % % * $ ",
"m m h w C V t a V C v m P :.-X-X X9X X X&.L j rXN..X=.^ <.M.&.V. XL.2.2.2.:.,.K.,.f.Q 9 h h 0 0 w C D t 5 w C G C w.z.s.E g P :.P O.O.U ! :.:.! ! ! ! P N N N n E E E E W W S h h h h h v S V w z V C V w w w w w w 6 6 8 a C C A A a 8 w 8 8 8 6 6 6 , , > > > : : : : : : : : : > & & > , 6 8 w V w 5 0 w w h w w w w h v h h 9 c m N o.+.+.i.o.+.y.a.y.O.m f m E o.+.W m F +.g E u.f.+.q.u.+.D v S S w w 8 & 8 8 8 8 6 < , , 6 , * * * * * * , , , , , 6 e 6 6 8 8 6 8 8 8 8 8 8 6 8 8 8 6 8 5 6 8 8 8 8 8 8 8 a a 8 8 8 8 8 8 8 w p V Z A A V v w w h h w w w h h V v h h h S h 7 w V V V V C p p Z Z a v V v V V v V D Q Q W W W W S m m m X.#.U ,.d.1.H.].#X2.T L L 1.1.P.P.;.1.2.Y 2.P.d.#.! O.+.i.d.y.U.E E W F v v v S D v q v F +.y.u.$Xa.P n ! ,.:.O.f.#.+.a.i.W W y.#.N N +.+.+.X.c X.+.#.W E E F F b S W W D S V v Q V V V w h V h S S V S G o.8.o.C z z V V w w w 8 8 8 6 6 6 8 6 6 < 6 6 r r 8 5 5 6 6 8 w t V C V w w V h v v 7 V w h D S g v o.E W ,.+.O.o.! #.,.,.#.,.N f N m ~ +.m m y.~ m +.y.y.+.+.+.o.m 9 F F F S v w w 8 t t r 8 6 6 < < , , , > > > > , , , , , 6 8 8 6 t t 8 8 8 8 8 8 8 8 8 6 8 8 8 6 & t a > & 8 d 8 t t 8 8 8 8 8 8 w q i b C Z v w w w t 8 6 6 w z 5 6 8 8 w w w w p w v V V h w h V v v S S h z S h z S D D S S S u.+.X.m q v W W +.W h v W S g v v w w w V V V p C C C a 8 6 , 5 8 w w w w w w w V q w w 5 w V p w w w C S V V Z S Z v v F S v v 5 h S S Z A G ` w 8 6 < > > ; ; > > , , : : : : : , $ # $ % $ o $ $ $ $ $ $ * * $ $ # o $ $ $ $ O O O $ $ > t V C v h w w v v v Z V p w p p 8 5 w 8 8 w w 6 8 w 8 8 5 5 6 8 6 5 > 5 5 > & > 5 > 6 , * * , , , * , * * * * * * * , * * * * * * * * * * * $ $ $ $ ",
"k m h w D V w a w w q b P O.#X*XL.eX-XL.-.9XL.OX XZ.F.OX@X4X|.4X@XR.=.^ T L L O.H.p.o.S S S S D 5 w t w 6 5 & = 5 v v 9 h y.U.i.W.i.1.O.! P P n ! y.i.N f m #.a.W W E m h m m v Q Q S h v Z G G D A C V w w 6 5 6 5 5 w w V C C A A V 8 8 8 8 8 6 6 6 6 6 , , , : : : : < < < < : : * * > , 6 6 8 V t 6 z z w w w w h h V S S S W o.m g E E m E +.+.+.+.#.+.E m q v +.s.o.q g o.W m F W m F W g v h V V w S G 8 8 8 8 6 : > , < 6 , * * * , , , , , , , 6 6 e 6 > 6 8 6 8 8 8 6 8 6 > 6 8 6 5 6 8 8 6 6 8 8 8 6 8 5 5 8 8 8 8 a 8 8 p V C Z C C C C V h w 7 7 q h v V S V V V V V w w V S V h h 8 7 7 w w 5 5 w p V V v V Z Z Z v m m E W W ! W ! O.P ,.K.i.H.P.G.L.N.*X X*XG. .&.N.-X-XL.J.L.G.f.O.O.P P ,.y.f.W W F N S F S S v v q 9 9 q c c g m O.d.P.].K.d.,.X.F N F W +.u.f.X.N W X.+.+.W X.! ! W W E F W b S D W G D G G G V V V h v V w q q w v G Q G D D V w z t w 6 6 w w 8 8 8 8 8 8 6 6 6 e 6 6 , , 5 6 6 8 w t t a A a a 8 5 w V v V v V S V v V Q g n +.O.W :.o.d.f.u.#.d.+.P #.n t.U.f.m k W ~ E W t.y.+.W E E E u.o.v b w q w a t 8 6 , < 6 e < , , , > > > , 6 6 , , 6 8 8 8 6 t t 8 8 8 e 8 8 5 8 8 5 8 e r 6 > 8 t > > t t 5 8 8 8 8 8 8 8 a i v V S S V V V V w w w w w u t a a V C A A V a Z C V V v w w w h h h 9 9 q q 9 z S D D D x z h g g W +.X.q.u.F v m h h W Q S D q v v w p Z Z p A a 8 8 8 8 , > 8 w w w w w w V V w V C w w V w w w w w w w v v G S S S h g g 9 h S G S v w w 8 8 8 6 < > ; ; ; > > , , > ; : , < , ; O $ : * O # # $ $ $ $ * * $ $ o o $ $ $ O + + O O # * t C A v w q w v v v b p p V V a p p t a V C t 6 6 t 8 6 5 6 w t 8 5 & 6 w 6 & & > > 6 , , * , , , * , , * * * * * , 1 , * * * * * $ * * * $ $ $ $ $ ",
"g S h q S V 6 t 5 5 9 S m k ,.1.N.V. X4X2.9X@XxX8X-.^ 8XoX3X+X4XR.R.n.&.*.;.1.P.;.n m E h w h S C z 5 & 5 w w w w 7 q v S S +.H.f.,.O.O.! n n ! ! +.+.N m X.X.m f m Q o.o.Q W m S S S S V v h 7 V V a w t w w w 5 7 q w h V v w 5 5 5 5 6 8 w 8 5 6 6 6 6 6 6 , : : : < e r 6 < : : > > > , , 6 6 w 6 6 V V w 5 C C S S V h h h 9 b v v W v 9 g m c g m o.y.#.E W F m o.y.q.b 5 F S q.s.W F o.Q 8.G o.V 5 p C & 6 8 6 , $ & : < 6 , * * * , , , , , , , , , , 6 > 8 8 6 6 8 8 > 8 5 > > 5 5 5 5 t 8 6 5 6 8 6 5 t > & 5 8 5 5 8 a V C Z Z C p w w v v w w w z C V V h w w w V V w w V Z S w w w w Z Z w 5 p V w v V V v v v h w W W W W W W m g P ! n O.d.:.,.,.G.).T P.L. X=X2.2. XL.N. X XG.P.:.P ,.,.O.d.,.E o.E v m F W D b q v S v q q h b W P P O.,.f.d.i.y.a.#.W W +.$.o.+.N F +.+.+.X.m ,.O.W +.+.W W o.Q W S v h h V Z S w V S v v v q v v S Z G Z v q w 7 5 w z w w w w w w 8 8 8 8 8 r r u u r 8 6 6 6 6 6 8 6 6 6 6 5 8 A A V V A Z v V S v v V G Q o.m E c h E f m c m W d.E g +.W o.Q f.f.m k ~ ! +.+.~ W W o.o.Q D w q S C 7 > 6 t 6 > * , 6 < , , , , > > > , 6 8 6 , 6 8 8 8 6 w 8 5 5 8 8 8 8 5 8 8 6 8 8 t 8 t 5 > 8 8 8 6 6 & > 5 6 8 8 t V w p V V p w p V C w 6 w V A V w C a w w 8 t w w C A V q 7 w w q h w q w v v V S h h z h h z D Q v X.a.o.9 v +.Q h o.o.m q 9 g D w Z V q 7 V Z a 8 8 8 6 5 > > 5 5 q w w w w v C w q Z G w w p 5 5 7 w 8 v C V v w 5 w v 5 9 h 9 5 h S V w w w w 8 8 8 6 , , , > > > > > ; ; : < < < : $ ; : : $ # # $ $ $ $ * * * $ $ o $ $ $ O O O O o o $ 8 C w C S S v v v F p p p w 7 5 w w 7 w C A t 5 w C w 8 6 w V C t 5 5 V A C w 6 6 6 6 6 5 * 5 5 5 , 6 , , , * , , , e , * * * * * $ * * * % $ $ $ $ ",
"w V S S D D z 0 h w 7 q l m E W i.P.P.G.L. XOX;XeX.XS.C.+Xm.L 8XM.-.V.E.L.*.Y G.j ! U k m m v Q 0.h 7 V h 3 3 h D v 7 9 h D D h S h g F o.o.o.+.g y.f.O.N W O.m g g m E S m v m h Q D V V h q w w V C v w w w w Z V S Q o.F b S G V w 5 5 w a C 8 V 8 > w 5 = 6 5 5 , , , , > > > , , , : , , 6 , 6 8 8 t t w 6 6 w w w 0 7 0 w S v h v g 9 h W v v o.o.g N y.o.q.o.S W y.s.0.S f h S Q o.o.Z Z w V V 7 w Z A t 6 6 , & * 6 , $ : : < < , * * * : * & * , 6 6 , r 8 8 r 8 , 6 u t t r 8 , , 8 r t > & > 5 5 6 8 8 a a w 8 w w V w V C V w w V A V a w w w t z V w w w a C C V w z V z w w w z V C w w w w w V w w v S S v v S Q D Q o.o.o.Q W D m m S m W #.i.i.d.G.5.J.J.J.=X-XN.L.#X2.T I.2.&.1.5.J.1.U ,.n U #.E v F o.o.o.G F v w h h h h S v m m P O.o.Q F m X.a.#.,.O.m i.[.y.N W #.W n ! N ! O.X.! W W W E S S S m v F o.V V C Z V v F o.N X.+.W S F G G h h V V v w h p 8 8 8 5 5 5 8 t 8 6 8 6 5 > 6 5 > 5 6 8 8 8 8 8 8 t a 8 w 8 w w w w w w w h V S v F F v m W E m q.W m m X.+.+.W F o.q.u.u.o.m f W ~ 0.8.o.D V v Z V w Z A V t 8 6 6 6 , , , 6 6 , , , * & & , 6 > 6 8 8 6 6 6 6 w t t 6 8 t a t t 8 6 6 8 8 6 5 & t 5 t 8 & t w t w w w t V z h v V S V v Z A S 7 w 8 8 a C w 5 t a a t w 8 w t y t w 8 8 V Z Z V w w V C V h v 5 h v h S Q D q E +.F b o.S h w.S v q h S v h W 9 v v q p V t t 8 5 5 8 w 5 5 5 v w q w S G Z V q Z o.G v q 9 9 q w w w w w p p 8 p V V v h h h V V V V S C z z C t w w 8 6 , > < ; ; , < , , 8 8 : & > 6 r , $ $ # $ $ $ * $ $ : * $ $ * * * $ o $ $ + O o , d 6 z S h 9 5 i Z w q 5 q v V v 5 5 w v v v V V w 5 v w w V w 3 w 0 w w 5 5 5 5 5 V 8 & & 6 w w 8 > 5 5 5 , , , 6 $ * * * 6 6 , * $ * * $ O O $ : ",
"w z z w z V h 7 q h h S S S Q o.U.Y.L.<.&.<.(.;X!.JXAX!.F.-.F.Z.m.Z.2XOXOX4Xn.^ 2.1.;.T :.! k m q S S w w V v 7 3 q S G S h h S D D o.u.s.0.F v v o.#.m n W +.o.g m S W W m h h S D v h V S V S w V C v w h h w S v S o.+.+.o.o.5 q V V V w 5 5 w V 6 > 6 5 & 8 5 5 5 5 5 , , > * , , : > > , 6 u u u t t t w 6 w w 8 8 0 w w h w w v G D h v F D S W F q v W N v g q q h m m k k m S Q Q Z C V p V p 7 7 8 8 5 > 6 , * * , , & : : : * $ $ * : , : > , 6 8 8 8 r 8 8 r 8 , 6 t 6 6 8 8 r 8 6 > 6 > > 8 8 8 5 8 C a w w w V C Z w V C Z C V w 5 w w w 6 0 w t V A C A C a t w t A A C V 8 w w 8 Z p V V h V V w v V V S b b b S S D G D S S S S F W W E W +.u.d.d.d.>.3.J.K.-X).kXG.1.2.1.N.2.E.P.L.P.).1.d.T d.d.,.+.X.F b F o.X.F h v C z h v v E O.X.m m S W u.a.K.i.#.X.m #.X.W N #.f.#.m m ! ! ! P N m E Q W F S b m v F o.` A V v v v F o.X.y.j.a.+.W S v D S V v V V v w w w 8 6 8 8 8 8 8 8 8 8 6 5 6 6 6 6 6 8 8 8 t a 8 V C a 8 a V V 5 w w v V V v v h V v h h D o.o.W m m m E W W X.m F b v g m E ~ Q Q Q Q D C V V a w 8 a C y e 8 e 6 6 , , , , , 6 , * * , , 5 , > 6 8 w 8 6 0 8 6 8 8 6 6 8 8 8 8 8 8 8 8 8 6 5 = 8 & w w 6 A V 0 w z V V h h h V Z S h w w w 7 w w 8 8 8 V a 8 a a a t t y C C y y t w t C Z V C w w V V V v V D S V v h h v v m W S S Q v w G w V D D S q g +.v o.Q v V V t t a 8 > > 5 5 q w w w v V S V v v q F o.o.G v i 9 w w w v p a a a V a V V C C S V C 5 5 w C z z D C z u t w 8 6 : , ; $ ; , : , , , > * > 6 6 , $ $ $ $ $ $ * $ $ * $ o $ * * * $ $ $ $ O o o : d y A Q D S v Z G q v Z G D S v w 5 q q 9 q w h q q h 7 7 C h 5 w V h w 7 5 7 w h 5 5 & 5 6 8 w 8 & & & > , , * $ * * * * , , * * $ $ $ # o o O $ ",
"C V w 0 h z h 7 7 h S S S h S S ! :.K.J.&.&.B.B.M.8XoX.XZ.A.8XOXSXeXrXOXoXOXn.n.j 2.;.! :.i.y.+.h 0.0.h 5 w w & v h h h w w h S h 9 5 q m W 0.u.o.q.#.E m ! O.W f g m m m m h q Q Q S h v V w w w V Z V h h h q m v v W o.X.W F o.Q G V w h D 8.w t 6 > 5 > & 6 * 5 5 5 5 5 , , * , , : > : , < u u t r r 8 6 6 w w 5 5 7 w w w 7 w V G G v v S Q D W F v b F v q.q.q.W m h g k S S S S S v w w 7 q 7 8 8 8 8 8 & 5 , , * , * $ : : * $ $ $ : < , , , , 6 8 8 8 6 6 8 r 8 6 6 r > > , 6 r r 6 & 8 8 8 t t 8 8 8 V w 7 w h V C V ` Z w w V V t w w w w 6 6 w u t z V V w w w t C V a a w 8 8 t V C p V C v V v q V v h V D W F v Z Z Z S S V S S D W W m m W o.+.d.K. .@.K.K.J.G.-XG.L.G.E.*XE.E.OXL.L. XN.1.I ,.P ! ,.f.a.+.W W X.b v V S S h v o.N n n N N m g m g X.X.W #.y.h.+.O.W X.y.#.W W ! ! ! P m N E W m m F W W b v v 8.A V v v v b F m ! +.+.o.o.9.9.8.Q S V Z Z C V p w 5 5 8 w 8 5 8 8 8 8 6 6 6 8 8 8 6 6 6 8 t a a C C 8 8 8 w w 5 7 w v v v v v o.0.o.S v b S b W F E o.W m N +.F F b v v m m E o.Q D S v w w w w 8 w t t 8 6 6 e e 6 , , , , , 6 , * , 6 r 6 & 6 6 8 w w 8 w 8 6 6 8 6 6 8 6 5 5 8 t t 8 6 5 6 8 t 8 t t 8 V w 5 w V V V S G Q V Z Z V v V V h w w 8 5 8 a a w 8 w 8 8 w t y y 8 t t w t C V p V p w p V v v v S h h V v q h Q m b F Q Q V V A 5 w w q 9 9 E z.v o.Q v v w 8 w 8 8 8 8 w w q w v Z o.o.D v v v o.o.+.o.X._ F v h h h v V a V a Z p w w V Z S v D 5 5 C G z z Q x z u w 8 6 5 : > ; $ > : : : , : : , 6 8 6 , * $ $ $ $ $ % $ $ $ $ o $ * * * $ % $ O @ o O , d 6 w S S z w 8 w V V v v v v S Z D D Z v v S Z S S S h V Q Q S S S V w q q w w w w 0 5 5 5 5 > & 6 5 > 6 r 8 > $ * * * * * * * * * * * $ $ $ * : ",
"C z w 0 w z h 7 q h S S h h q g P n O.:.n &. X@X.XN.=.OX8X8XVXtXC.A.oXoXoXOXR.4X/ E.-X;.P O.,.W q 7 w w w h S 8.q v V w w v h q S v h h v S F W +.q.u.y.#.W E N W o.o.o.o.+.o.Q 9 h h h S S h w w V C V h h w q h g g m F W F b S S S V v w w V w w w 6 5 & & > * 5 5 5 5 5 , , , , , : > > : 6 6 5 , 6 8 6 6 8 V w 5 5 w w w 5 v v v V v h v S b v b D o.o.E v q v F F m W o.0.Q E S h h w w w 7 5 7 p p 8 8 t & > 6 6 , * * * * : : * $ : , 6 : > > > , , 6 6 , 6 8 8 8 8 6 6 6 , , , , , 6 6 8 8 8 8 6 8 8 C 8 w w w V h w q 8.Z w w V C C C a t t w w w u w t 8 8 5 5 w V C 5 6 w w w 8 a V V w w V w w v q h w h V W o.W F S S S S S S S S S F F m m m E P ,.G.U T K.G.5.G.1.G. X X-X*XE.L.@X|.L.*X X).2.1.$Xd.#.O.O.X.W F b v v v S v V S g g c B c c m E E q W X.N #.y.d.h.h.#.N W X.X.+.O.#.,.,.#.W W W m m b F F m v v Z C V V S v v c W ! X.F F F G o.G Z S V Z Z C V w w 5 5 5 6 8 8 8 8 8 8 6 6 6 6 6 5 5 5 6 8 8 8 8 t a w 8 8 w w h w w w h v V S v S D Z D Q D b X.E X.y.+.m N X.o.F b W +.o.E g Q E m h h w w 7 V V a t 8 5 5 6 e e 6 , , , > > , * * , 6 8 6 , 6 6 6 8 8 6 6 6 6 8 8 8 8 8 6 5 > 5 6 8 6 5 6 8 t t 8 w w 8 w 6 V z w w h V Q 8.q h h h w w w w w w 8 w 8 a a 8 8 7 5 6 8 8 8 5 > 5 6 6 8 a p 8 w w w w w w w q w q v G W b b W m v F o.Z V Z A A Z h h F o.u.[.q F V w w 7 6 w 5 8 8 V V w w w S Q 8.o.Q S b S b b F F X.$.$.o.h h w w w p a p Z a w w V C V w V w z G ( C h x h w 8 6 5 > > * , ; & : , : , < > : , , , , , , $ $ $ $ * % $ $ $ $ $ * * * * $ % $ O @ o O : d 8 w V S S V p p G v 9 9 h v S Z G D S v h h h h V h w h S S h V S V V S S V w 7 z z w w 6 5 > & 8 w 8 8 t 8 5 * * , , * * * * : : : : : : : : : ",
"w w 6 5 0 h w 9 w h h h v S m m N f n U n  ./.L.(.L.*XN.%..X8XoXoXrXtXS.D.5X4XE.n.-X=XG.R ! O.E y.D v S v 3 5 v 3 Q 8.q 3 h Q Q D D S v h h q 9 b W +.q.+.W E W F E S m m F S v h D D v V v q w v V V v h h w q v h g v W o.o.D h h h h V h w 5 w w a a 6 > & = * , 5 5 5 5 , , > , : : > > : , 8 5 > 8 t 8 w t C z w a C C z w V v w w w w v V g q 9 h W Q F m v b F b g g g f Q W S S h w w w p w w V p 5 > 8 & 5 6 6 , * * : $ $ * : : : : , > > > > > > , , , 6 6 6 8 8 8 6 6 8 8 6 > * , 8 > 5 5 > > 5 8 8 5 w p V w w w w p V Z G A C t w 8 w t V V t u w A V w w 8 V V V w w w w w 6 6 8 V w w w q w v w w h v S D D D D h v V S S S S S F W Q W S F S m n :.n P d.1.1.G.).;.&.L.OXN.N.R.Z.R.V.@X*X9X XN.=XJ.:.O.O.O.O.X.m m v N v v S W #.N n } a.d.y.+.P 9 m N g m N P u.f.y.o.+.+.X.X.P P X.O.! N m m #.E v g g v D o.V V C Z V v m F m U o.+.o.F v v v V S S V V v h C V 8 5 > > 5 w 8 8 8 8 8 8 8 8 > 5 5 6 8 8 8 8 > 8 a a a C Z Z Z C V v V V S Z w w w v D Q S h b v m o.X.m c N W b m F W Q o.+.m m h h V V V V V C V 8 8 6 6 5 e e 6 , , > > > * > > > , , 6 8 6 6 5 6 6 6 6 5 6 8 8 8 8 8 8 8 8 6 > > 5 6 6 6 & & 5 5 6 w 6 w A V w 5 w h v h Z Z S V v q 7 7 w V C V C A C t w w 8 t y y 8 5 6 8 6 5 6 8 p w 7 w w w h w w 5 D G Q Q o.W b g b v b S w w V V 7 h h h v g 9 g q v v q w w 6 t 8 8 6 5 5 w V Q W W Q Q W S S S E W W W W N g 5 h w q w w w w 8 C C C V V V V v 5 w C V h w 0 9 w w 0 6 5 > > > : ; & > , : , , $ * > & & & > , * $ $ $ * * % $ * $ $ $ $ $ $ $ * $ O @ o O : r t w h h V v 8 w v v V D D V v v V v v h w q q q S h V V h h h V S G G Q Q G S V V z h w w 8 w t w 8 8 6 , > & & * , , , , , , e , : * * * * * $ ",
"5 w w w w z h 7 z h h h v S v v m f m O.U U  .I  .&.).I j L. X.XS.C.m.%.m.rXtXtXOXn.n.I.1.;.:.,.v V S S S S S S w 0.q.S h Q o.V q h q 9 q h v v q v F F m m m W y.u.y.o.o.0.+.W Q q.o.S V V V D V V V v h h h q Q W b b F W F h S h w h V A D C w w A A w 5 5 = * 5 5 5 6 6 < < > , : > > > : , r 5 5 8 t 8 8 8 w w w t C C V h w w w w w w h v S v 9 9 b S b o.q v b b W +.+.o.Q Q Q D S V v v w q w p w 5 , 8 > > , 6 , * * : # $ * * $ $ * * > : , > > > , 6 , 6 , , 6 8 8 6 > 8 d t 6 * > 6 & 6 8 8 8 8 w 8 5 8 V w w w V G p V C C V w 8 6 5 8 w t V V t t C w 8 w V A C V a V V w w w 8 w V w w w w w V v v V Z Z S b S F h V S Z S S S S F W Q W E E E m n O.P P :.W O.;.J.&.L <.OX X.XL.Z.oXV.OXOX8X X<.>.>.5.J.d.,.O.O.} N F F b v b X.#.N B M U N f 9 g 9 m n g m m E N X.W W +.y.+.#.f.a.a.d.i.#.#.a.W E F W o.W W Q A Z C V v v W y.m N W X.W F b F V Z G G Z V v v 8.G A 8 5 > 5 w 8 8 t a t 8 8 8 5 5 8 8 8 8 8 8 5 8 C C a V V V v V V V S V v v G S h h v S v h g g h S W E m N F F o.o.F m W u.W Q Q G S v v v w w 8 8 8 8 6 5 e e 6 , , , > > * , , , > > 5 8 6 5 5 5 6 6 6 5 6 5 6 8 8 8 6 8 a 8 6 5 6 8 6 5 6 > w 6 8 w 5 w v w w w S Z v q Q D S S v q w w w w a a a a t 8 7 8 8 a V y t 8 t t w 6 6 8 w 7 w w p V V V v w Q G S v b S v g E W F v h w w V V o.8.G S g g F g b w 7 w 7 5 8 w t t w w V G o.Q W E S W W W W y.y.o.m n c g g v h q 7 w 8 7 5 p a C C h w h v 5 w z 5 5 w h 0 w w w 8 6 5 , : ; $ # $ > $ > : : : > > > > , 6 * * $ $ * * $ $ $ $ $ $ o o o o % $ O @ O O : < 8 w h h w q 7 7 v S o.o.v 9 w D V v V Z S V V V Q S A G v h S S S S S V S S G Q A C z z a V z t w w 8 6 & * & 5 * , 6 6 , , e r r e : : : * $ # ",
"w z V h h z h h S S S m h h g h 0.E m k g n P  .U P  .Y  .L.9XeXSX3X3XwXtXtX3X5XrXV.V.I.N.;.;.U E o.o.S h h q 9 q S 0.u.l.l.D & h Z 8.0.o.D h 3 h b b g q g v v W X.W E W o.Q m v F S h D o.0.u.Z Z V v h v v w q.o.F m b F v 9 5 5 w V A V w 3 w 8 A A w 8 t 5 , 5 5 5 6 6 < < > , : > $ * > , 8 & > 8 t 6 5 6 5 5 6 w w w w w w w w w w w h w D G v h b h g W +.o.W F S W E m S E Q Q G V h w 5 7 w w 8 7 8 8 6 & & > , * $ * $ * * * $ $ : , > , , , > > , 6 , 6 , > , 8 r 6 , 6 r 8 , > , 6 5 8 t t a C a w w t V p w v Z o.V V w w 5 5 w t w w w w w t t w 6 5 5 w C A V w w w w w w w w t V w w p w v V w V S S S v v v b D D G Z S S S D F W W S m E W E ~ :.W W P n T T I &.Y >. X>XeXZ.2XrXoXeX2X@X@X X X).J.5.;.U U O.$.N m v S S F W X.a.`./. .q m y.#.+.#.W E N g X.m m g m X.o.o.,.O.! ! O.! N N O.m N X.#.u.+.W F ` A V v v F +.a.y.+.W F v q 9 q S S S Z Z C V v 8.` A V 8 8 6 6 8 8 t t 8 8 8 8 6 6 6 8 6 8 8 8 8 a C t w 8 7 5 w w w v V v h h h w w h v D o.0.v b b m m E W W F W o.q.o.b m Q o.0.8.Q v q q w w w w 6 8 t 8 & 6 6 6 , > > > , , , , , , , 5 , 6 6 5 5 6 6 6 6 5 > 5 8 8 8 8 8 t 8 8 8 8 8 8 8 t 8 A t 8 a 5 w w w v C Q Q D v w q 7 7 5 5 7 w 5 w 8 8 8 8 8 6 7 8 8 8 w 8 8 8 t t t 8 w 8 8 7 w V V V V Z Z V S h q h v h v F F o.F h V v w A h C V q q g m +.v v q 7 w 8 5 8 8 V A C C D Q Q o.W W E W ~ ~ ~ E ! W m N O.d.U.S v w q w 8 7 > 8 p a w w w h V w w 0 5 w h z h 0 w u t 8 6 , : ; $ # $ ; $ * > > > , 6 6 6 6 < * * $ $ % * $ $ * * $ $ o $ % * % o O O O O ; , a C D S V v w p Z V V V w 9 v o.v v v S S v v V S 7 w V 7 w V h w h h h w w V G Q D C V C C t 8 t t w 8 8 6 6 5 * , e e , , , e u e < < < : * $ ",
"w z V w 0 0 w h 0 h S S S v m S m S m W o.P n U P ,.I L L Y P.L.oXoX3XD.D.3X3X3X5X4X4XE.2.N.G.U g v S v 9 9 h Q Q S h v S Q u.z.G G S w q w h h h b b g g F b g g m E E o.y.o.b o.+.D m Z Z v h G G Z v v V v v o.Q S v F o.W h S V q 5 3 5 w z w 5 A A w w C t * , 5 5 6 6 6 6 > , : > $ $ > , 6 & > t t 6 5 8 6 6 8 8 0 0 w w V V w 5 q w w w v D S v S q 3 h Q W S v m W ~ ~ h m S Q S V w 5 w p a w 7 5 5 6 6 & $ & * & $ $ < : < : : : < r > : , > > > > 6 , 6 , * , 8 8 6 8 6 , * & > 8 t 8 8 6 5 8 a a 8 w t V V V V V V w w w v p w w 8 A C t w w 6 8 w w 8 a V V t w 5 6 w 8 8 w w w w V w p V w h v q S v v v m b b b G D S V h h v S W W W m m W o.o.0.~ E W E U i.>.I  .Y N.B.<.oX+XS.+XC.rXOXS.@XrX XJ.N.G.J.1.O.M O.b q q S G W F X.B B @.g.g.,.o.W X.W c m m f o.N m m N +.W m N #.O.,.d.i.O.X.#.o.E b F W o.o.o.G C V V D W o.$.N N W +.o.F v v w q 5 q w v w w G A C V V a w 5 5 6 8 8 8 8 6 6 6 6 5 > > 6 8 8 5 8 8 w 8 8 w w v h h h v S D D q h V V h q h S S W F g q m W W o.v f m o.Q E E E Q Q S h 7 w V V V 8 8 w t 6 = 6 6 , , > > > , 6 , , 6 r r 5 = 8 6 5 5 6 8 w 6 6 > 5 8 8 8 8 a > 5 8 8 8 8 8 t 5 & C 8 w V 7 C C C V C S V v h Z v v V v w V G w w 8 8 8 8 8 8 p p a 8 6 5 5 8 & 5 8 8 8 a p 8 V V V w V A G Z D w h D S q h o.g W m q S v w G V V h h Q +.o.o.v b q q a p 8 t V C t 5 5 h Q o.W W E E E E W W P :.f.i.O.U P m Q V w w w w 7 5 p p w w w w V A C 6 5 w S V h 0 5 0 u t 8 , > * > $ $ ; : > > , # # & , 6 , * $ * * $ % * * $ $ : * * $ $ * : 1 $ o O O O O ; > 8 t V V h q 5 7 Z q 9 V o.Q Z S G Z F D Z V v S G 7 w V w V G h 7 h V V w 7 w h V h w V A A V w V w 8 8 t t 8 & * , e e , * * , : * * * : : : $ "
};
