/* XPM */
static char * west_xpm[] = {
"600 600 468 2",
"  	c #000000",
". 	c #262626",
"+ 	c #353535",
"@ 	c #333333",
"# 	c #373737",
"$ 	c #313131",
"% 	c #363636",
"& 	c #323232",
"* 	c #2D2D2D",
"= 	c #080808",
"- 	c #2D292A",
"; 	c #2B2728",
"> 	c #333031",
", 	c #373637",
"' 	c #373636",
") 	c #363334",
"! 	c #363536",
"~ 	c #343333",
"{ 	c #353334",
"] 	c #303030",
"^ 	c #2E2E2E",
"/ 	c #171717",
"( 	c #222222",
"_ 	c #302E2F",
": 	c #373435",
"< 	c #302D2D",
"[ 	c #1E1B1C",
"} 	c #343434",
"| 	c #110D0E",
"1 	c #181818",
"2 	c #292929",
"3 	c #2A2A2A",
"4 	c #363435",
"5 	c #333132",
"6 	c #070406",
"7 	c #232323",
"8 	c #2F2F2F",
"9 	c #333233",
"0 	c #272526",
"a 	c #101010",
"b 	c #242424",
"c 	c #1A1A1A",
"d 	c #2F2C2D",
"e 	c #1C1B1C",
"f 	c #323031",
"g 	c #202020",
"h 	c #2C2C2C",
"i 	c #262727",
"j 	c #272827",
"k 	c #363737",
"l 	c #0E0C0D",
"m 	c #2F2D2E",
"n 	c #222021",
"o 	c #070707",
"p 	c #2D2C2D",
"q 	c #151415",
"r 	c #302F30",
"s 	c #2E2D2D",
"t 	c #292728",
"u 	c #181718",
"v 	c #211F20",
"w 	c #313433",
"x 	c #343635",
"y 	c #323534",
"z 	c #2F3030",
"A 	c #353737",
"B 	c #343736",
"C 	c #363736",
"D 	c #1F1C1D",
"E 	c #2C2A2B",
"F 	c #191818",
"G 	c #0F0F0F",
"H 	c #1F1D1E",
"I 	c #121212",
"J 	c #282727",
"K 	c #252223",
"L 	c #100E0F",
"M 	c #313030",
"N 	c #181A1A",
"O 	c #272A2A",
"P 	c #232222",
"Q 	c #1C1A1B",
"R 	c #1F1F1F",
"S 	c #2D2B2C",
"T 	c #2B2A2A",
"U 	c #0F0D0E",
"V 	c #272727",
"W 	c #2D2E2D",
"X 	c #373536",
"Y 	c #322F30",
"Z 	c #0A0708",
"` 	c #080607",
" .	c #1B1B1B",
"..	c #2A292A",
"+.	c #2B2B2B",
"@.	c #2B2D2C",
"#.	c #303231",
"$.	c #353636",
"%.	c #312E2F",
"&.	c #0C0A0B",
"*.	c #131313",
"=.	c #0F1110",
"-.	c #333433",
";.	c #2E302F",
">.	c #323333",
",.	c #333030",
"'.	c #343132",
").	c #1F1E1F",
"!.	c #2D2F2E",
"~.	c #303130",
"{.	c #313332",
"].	c #2C292A",
"^.	c #0D0D0D",
"/.	c #020202",
"(.	c #1C1C1C",
"_.	c #1D1C1D",
":.	c #262425",
"<.	c #0A0A0A",
"[.	c #1A1819",
"}.	c #282828",
"|.	c #252424",
"1.	c #151515",
"2.	c #242223",
"3.	c #161616",
"4.	c #252525",
"5.	c #1A191A",
"6.	c #020000",
"7.	c #1E1D1D",
"8.	c #242324",
"9.	c #2A2829",
"0.	c #151213",
"a.	c #353233",
"b.	c #363333",
"c.	c #201F1F",
"d.	c #191919",
"e.	c #060304",
"f.	c #030303",
"g.	c #171516",
"h.	c #151314",
"i.	c #0C0708",
"j.	c #2D2A2A",
"k.	c #110F10",
"l.	c #1E1E1E",
"m.	c #282526",
"n.	c #030000",
"o.	c #332F30",
"p.	c #373334",
"q.	c #272425",
"r.	c #1D1D1D",
"s.	c #151012",
"t.	c #212121",
"u.	c #111111",
"v.	c #121011",
"w.	c #040404",
"x.	c #222122",
"y.	c #1B1A1A",
"z.	c #0C0C0C",
"A.	c #272627",
"B.	c #0B0B0B",
"C.	c #2E2B2C",
"D.	c #302D2E",
"E.	c #1C191A",
"F.	c #060606",
"G.	c #2B2829",
"H.	c #040000",
"I.	c #373436",
"J.	c #312D2E",
"K.	c #1F1B1D",
"L.	c #040203",
"M.	c #0B080A",
"N.	c #161515",
"O.	c #2D2A2B",
"P.	c #2A2727",
"Q.	c #1C1A1A",
"R.	c #141213",
"S.	c #131112",
"T.	c #272424",
"U.	c #141414",
"V.	c #1A1718",
"W.	c #181617",
"X.	c #080304",
"Y.	c #141011",
"Z.	c #242222",
"`.	c #0D0B0C",
" +	c #1D1A1B",
".+	c #191617",
"++	c #030002",
"@+	c #333636",
"#+	c #181515",
"$+	c #0B0607",
"%+	c #333534",
"&+	c #292627",
"*+	c #151112",
"=+	c #211F1F",
"-+	c #1A1818",
";+	c #0E0E0E",
">+	c #171415",
",+	c #262324",
"'+	c #120E0F",
")+	c #1A1517",
"!+	c #252827",
"~+	c #212423",
"{+	c #151716",
"]+	c #2B2E2D",
"^+	c #232021",
"/+	c #333635",
"(+	c #222322",
"_+	c #282B2A",
":+	c #272928",
"<+	c #2A2D2C",
"[+	c #100C0D",
"}+	c #2C2D2D",
"|+	c #2A2B2A",
"1+	c #282A29",
"2+	c #303333",
"3+	c #2D302F",
"4+	c #1C1819",
"5+	c #232424",
"6+	c #211E1F",
"7+	c #1B1819",
"8+	c #0A0406",
"9+	c #242625",
"0+	c #202221",
"a+	c #130F10",
"b+	c #242122",
"c+	c #221F20",
"d+	c #F0F0F0",
"e+	c #FFFFFF",
"f+	c #7C7C7C",
"g+	c #898989",
"h+	c #777777",
"i+	c #8D8D8D",
"j+	c #CFCFCF",
"k+	c #B3B3B3",
"l+	c #B9B9B9",
"m+	c #AEAEAE",
"n+	c #C0C0C0",
"o+	c #A7A7A7",
"p+	c #DADADA",
"q+	c #DEDEDE",
"r+	c #D5D5D5",
"s+	c #E4E4E4",
"t+	c #6A6A6A",
"u+	c #F8F8F8",
"v+	c #3F3F3F",
"w+	c #F9F9F9",
"x+	c #F4F4F4",
"y+	c #494949",
"z+	c #FCFCFC",
"A+	c #343031",
"B+	c #7A7A7A",
"C+	c #878787",
"D+	c #767676",
"E+	c #919191",
"F+	c #B2B2B2",
"G+	c #B8B8B8",
"H+	c #ADADAD",
"I+	c #363233",
"J+	c #373335",
"K+	c #D9D9D9",
"L+	c #DDDDDD",
"M+	c #D2D2D2",
"N+	c #E3E3E3",
"O+	c #181315",
"P+	c #696969",
"Q+	c #F7F7F7",
"R+	c #F3F3F3",
"S+	c #4A4A4A",
"T+	c #797979",
"U+	c #858585",
"V+	c #909090",
"W+	c #B1B1B1",
"X+	c #B7B7B7",
"Y+	c #A8A8A8",
"Z+	c #BEBEBE",
"`+	c #DBDBDB",
" @	c #A6A6A6",
".@	c #D8D8D8",
"+@	c #DCDCDC",
"@@	c #E2E2E2",
"#@	c #B4B4B4",
"$@	c #3C3C3C",
"%@	c #F2F2F2",
"&@	c #464646",
"*@	c #7D7D7D",
"=@	c #EFEFEF",
"-@	c #838383",
";@	c #686868",
">@	c #8E8E8E",
",@	c #B0B0B0",
"'@	c #B5B5B5",
")@	c #BDBDBD",
"!@	c #D1D1D1",
"~@	c #E1E1E1",
"{@	c #676767",
"]@	c #3A3A3A",
"^@	c #FBFBFB",
"/@	c #818181",
"(@	c #666666",
"_@	c #AFAFAF",
":@	c #BCBCBC",
"<@	c #A5A5A5",
"[@	c #D7D7D7",
"}@	c #D0D0D0",
"|@	c #DFDFDF",
"1@	c #F6F6F6",
"2@	c #F1F1F1",
"3@	c #444444",
"4@	c #FAFAFA",
"5@	c #757575",
"6@	c #7E7E7E",
"7@	c #656565",
"8@	c #8A8A8A",
"9@	c #CECECE",
"0@	c #BBBBBB",
"a@	c #D6D6D6",
"b@	c #414141",
"c@	c #828282",
"d@	c #727272",
"e@	c #626262",
"f@	c #888888",
"g@	c #A4A4A4",
"h@	c #F5F5F5",
"i@	c #EEEEEE",
"j@	c #7B7B7B",
"k@	c #606060",
"l@	c #868686",
"m@	c #A3A3A3",
"n@	c #3B3B3B",
"o@	c #808080",
"p@	c #5F5F5F",
"q@	c #A2A2A2",
"r@	c #CDCDCD",
"s@	c #7F7F7F",
"t@	c #EBEBEB",
"u@	c #5C5C5C",
"v@	c #CACACA",
"w@	c #6B6B6B",
"x@	c #A1A1A1",
"y@	c #D4D4D4",
"z@	c #646464",
"A@	c #747474",
"B@	c #737373",
"C@	c #EDEDED",
"D@	c #5A5A5A",
"E@	c #ABABAB",
"F@	c #6C6C6C",
"G@	c #A0A0A0",
"H@	c #D3D3D3",
"I@	c #CBCBCB",
"J@	c #707070",
"K@	c #585858",
"L@	c #ACACAC",
"M@	c #AAAAAA",
"N@	c #9F9F9F",
"O@	c #6F6F6F",
"P@	c #565656",
"Q@	c #9E9E9E",
"R@	c #636363",
"S@	c #ECECEC",
"T@	c #717171",
"U@	c #535353",
"V@	c #6E6E6E",
"W@	c #848484",
"X@	c #9D9D9D",
"Y@	c #C9C9C9",
"Z@	c #E0E0E0",
"`@	c #CCCCCC",
" #	c #8B8B8B",
".#	c #9B9B9B",
"+#	c #FDFDFD",
"@#	c #C8C8C8",
"##	c #6D6D6D",
"$#	c #C1C1C1",
"%#	c #4F4F4F",
"&#	c #A9A9A9",
"*#	c #939393",
"=#	c #B6B6B6",
"-#	c #424242",
";#	c #FEFEFE",
">#	c #E8E8E8",
",#	c #EAEAEA",
"'#	c #C5C5C5",
")#	c #4D4D4D",
"!#	c #0E0A0B",
"~#	c #999999",
"{#	c #9A9A9A",
"]#	c #C7C7C7",
"^#	c #4B4B4B",
"/#	c #989898",
"(#	c #C6C6C6",
"_#	c #E9E9E9",
":#	c #5D5D5D",
"<#	c #484848",
"[#	c #979797",
"}#	c #BFBFBF",
"|#	c #929292",
"1#	c #4C4C4C",
"2#	c #474747",
"3#	c #969696",
"4#	c #C2C2C2",
"5#	c #787878",
"6#	c #C4C4C4",
"7#	c #959595",
"8#	c #525252",
"9#	c #454545",
"0#	c #E7E7E7",
"a#	c #949494",
"b#	c #201D1E",
"c#	c #393939",
"d#	c #545454",
"e#	c #575757",
"f#	c #636262",
"g#	c #C3C3C3",
"h#	c #E6E6E6",
"i#	c #404040",
"j#	c #5B5A5A",
"k#	c #9C9C9C",
"l#	c #E5E5E5",
"m#	c #383838",
"n#	c #3D3D3D",
"o#	c #8C8C8C",
"p#	c #8F8F8F",
"q#	c #0F0B0C",
"r#	c #C9C8C8",
"s#	c #9D9C9D",
"t#	c #0D080A",
"u#	c #575657",
"v#	c #555555",
"w#	c #3E3E3E",
"x#	c #BABABA",
"y#	c #484748",
"z#	c #181516",
"A#	c #070203",
"B#	c #444343",
"C#	c #161314",
"D#	c #5E5E5E",
"E#	c #505050",
"F#	c #434343",
"G#	c #454444",
"H#	c #8D8C8D",
"I#	c #4E4E4E",
"J#	c #3A393A",
"K#	c #424142",
"L#	c #515151",
"M#	c #4B4A4A",
"N#	c #535253",
"O#	c #989798",
"P#	c #5B5B5B",
"Q#	c #2A2728",
"R#	c #B5B4B4",
"S#	c #3F3E3E",
"T#	c #888787",
"U#	c #A5A4A5",
"V#	c #AAA9AA",
"W#	c #0C0407",
"X#	c #322D2F",
"Y#	c #252122",
"Z#	c #7E7D7D",
"`#	c #333736",
" $	c #343737",
".$	c #060002",
"+$	c #191516",
"@$	c #1F1A1C",
"#$	c #1A1C1B",
"$$	c #161113",
"%$	c #363133",
"&$	c #1B1718",
"                                            . + @ # @ # $ # % % % % % # # # # # # # # # # # # # # # # # # # # # # # # % % & * * $ =                                                                       - ; > , ' ) ! ~ ! { % # # + + # # # # # # # # # # # # # # # # # # # # # # # # # # # # # # # # # # # # # # # # # # # # # # # # # # # # # # # # # # # # # # # # # % % + @ @ @ @ @ @ ] ^ + # /                                                                                             ( # # # # # # # # # # # # # # # # # # # # # # # # # # # # # # # # # # # # # # # # # , , { _ : < , [                                                     ^ } % @ $ @ # # # # # # # # # # # # # # # # # # + % # # # # , , , { ' |                                         1 % @ 2 # # ] % # # # # # # # # # # # # % % % # # # ] # # + *                                           3 + $ } } + % % # # # # # # # # # # # # % # # # # # # % 4 , 5 ' , 5 , 6                                                                   7 } * + # 8 ] @ } + % % # # # # # # # # # # # # # # # # # # # # # # # # # # # # # # # # # # # # # # # # # # # # # # % % + ~ 9 ' 0                                                                 1 # @ } # % % % # ",
"                                          a ] @ % } # $ # # # # % % % # # # # # # # # # # # # # # # # # # # # # # # # % % % b % c                                                                       , d , : ~ , , 5 , , ' + # # # % # # # # # # # # # # # # # # # # # # # # # # # # # # # # # # # # # # # # # # # # # # # # # # # # # # # # # # # # # # # # # # # # # % + } @ & & & & @ # % % e                                                                                               ( # # # # # # # # # # # # # # # # # # # # # # # # # # # # # # # # # # # # # # # # # , , , 5 ! f , '                                                     g h # # # % # # # # # # # # # # # # # # # # # # # # # % % + ! ' 4 , 9 ,                                           i # j } k ^ k # k # k # k # # # # # % % % # # + h # # * # @ 2                                         l # ^ # } + % % # # # # # # # # # # # # % % # # # # # # 4 , ! , m , f 4                                                                     # $ $ % & + @ } + % % # # # # # # # # # # # # # # # # # # # # # # # # # # # # # # # # # # # # # # # # # # # # # # % % + ~ 9 5 n                                                                 o # & @ # } % % # ",
"                                          @ @ @ + # # # % # # # # # # # # # # # # # # # # # # # # # # # # # % # # % # , ~ p , q                                                                       { 5 r f ~ % , # # % # # # # # # # # # # # # # # # # # # # # # # # # # # # # # # # # # # # # # # # # # # # # # # # # # # # # # # # # # # # # # # # # % % % % % % % % } # # } ] % , s ! t , n                                                                                                 u 9 , { # # # # # # # # # # # # # # # # # # # # # # # # # # # # # # # # # # # # # # # # $ @ } # s ! v                                                     0 , r , 4 , ! # # # # # # % % # # # # # # # # # # # # # # # # ] # $ 3 ,                                           k w x y z A k A k B C B k k # # # # # # # # # # # # % + } ~ D                                         _ 5 , m , & } # # # ] # # # % % % # # # # # # # # # # # # % # # # + @ ]                                                                     , 9 E 4 , * @ # # # # % ] # # # # % % # # # # # # # # # # # # # # # # # # # # # # # # # # # # # # # # # # % % % % % + { ~ , F                                                                   % # ] & + + % # ",
"                                        G @ @ @ + # # # % # # # # # # # # # # # # # # # # # # # # # # # # @ # % ] # # 5 r , H                                                                     I @ % ] ] & } % # # # # # # # # # # # # # # # # # # # # # # # # # # # # # # # # # # # # # # # # # # # # # # # # # # # # # # # # # # # # # # # # # # # # # # # # # # # # # % 8 $ # $ m , J , K                                                                                                   L M , , # # # # # # # # # # # # # # # # # # # # # # # # # # # # # # # # # # # # # # # # # + $ % 8 % ]                                                       , E { , 0 , # # # # # # # # # # # # # # # # # # # # # # # # # % ] # ] G                                         N A O y A B A A A A A A A k # # # # # # # # # # # # % + } { >                                           , 5 r 5 % # # @ 8 # # # # # % # # # # # # # # # # # # # % # # # + @ ] 1                                                                     , , P , ] & @ @ @ % # # % # # # % % # # # # # # # # # # # # # # # # # # # # # # # # # # # # # # # # # # # # # # # % 4 { , Q                                                                   ^ # $ @ & + % # ",
"                                        % @ @ @ + # # # % # # # # # # # # # # # # # # # # # # # # # # # # } # % ] # # 5 , J                                                                     R # # $ & $ @ } % # # # # # # # # # # # # # # # # # # # # # # # # # # # # # # # # # # # # # # # # # # # # # # # # # # # # # # # # # # # # # # # # # # # # # # # # # # # # % # @ * # # S T , 0                                                                                                       f ' , % % % # # # # # # # # # # # # # # # # # # # # # # # # # # # # # # # # # # # # # # @ * @ ] $ # 2                                                     U , f , , 4 # # # # # # # # # # # # # # # # # # # # # # # # # * ^ # V #                                           W x W k k k k k k k k k k # # # # # # # # # # # # % + + { X Y                                         Z ! 9 f # @ % # 8 # # # # # # # # # # # # # # # # # # # % # # # + @ % #                                                                     ` ! f p % + + % % % # # % # # # % % # # # # # # # # # # # # # # # # # # # # # # # # # # # # # # # # # # # # # # # % ! 4 , F                                                                   b % & } ] + % # ",
"                                       .# @ @ @ + # # # % # # # # # # # # # # # # # # # # # # # # # # # # # } + % % % , ,                                                                     * # 8 8 } } @ } % % # # # # # # # # # # # # # # # # # # # # # # # # # # # # # # # # # # # # # # # # # # # # # # # # # # # # # # # # # # # # # # # # # # # # # # # # # % % % $ # # @ ] % 4 S E                                                                                                         ' 4 , % % % % % # # # # # # # # # # # # # # # # # # # # # # # # # # # # # # # # # # # & } $ @ + $ @ # Z                                                     .., M , p % % % # # # # # # # # # # # # # # # # # # # # # # } @ @ * } +.                                          k @.#.$.$.$.x x $.C k k # # # # # # # # # # # % % % + + > %.K                                         P , { + ] # # $ # % % # # # # # # # # # # # # # # # # % # # # + @ # 8 #                                                                       , ~ & $ @ # # # } @ + % # # % % % # # # # # # # # # # # # # # # # # # # # # # # # # # # # # # # # # # # # # % % { ~ { &.                                                                   .# @ % $ + % # ",
"                                      8 8 @ @ @ + # # # % # # # # # # # # # # # # # # # # # # # # # # # # } 3 @ % ] # _                                                                     * # # +.# # } + % % # # # # # # # # # # # # # # # # # # # # # # # # # # # # # # # # # # # # # # # # # # # # # # # # # # # # # # # # # # # # # # # # # # # # # % % % % % + + + % +.% # . 8 , S                                                                                                           , ! { + % % % % # # # # # # # # # # # # # # # # # # # # # # # # # # # # # # # # # # # & # # % # # @ # M                                                       9 r M , @ } } + % % # # # # # # # # # # # # # # # # # # # # # ] # 3 # *.                                        =.k -.;.>.>.>.>.-.x $.C # # # # # # # # # # # % % % + + ) ,.'.                                          _ ~ +.# # 3 * @ % % # # # # # # # # # # # # # # # # % # # # + @ @ % # .                                                                       ! ] ] ] ] $ } + } @ + # # % % % # # # # # # # # # # # # # # # # # # # # # # # # # # # # # # # # # # # % % + @ 9 5 ,                                                                     a # } % } + % # ",
"                                    b @ 3 @ @ @ + # # # % # # # # # # # # # # # # # # # # # # # # # # # # @ * + @ $ # `                                                                   # & & # # # # # # # # # # # # # # # # # # # # # # # # # # # # # # # # # # # # # # # # # # # # # # # # # # # # # # # # # # # # # # # # # # # # # # # # # # # # # % % % % + } } @ # 8 & * +.# P                                                                                                             , , M + + + % % % # # # # # # # # # # # # # # # # # # # # # # # # # # # # # # # # # # % # # @ # # @ % , ).                                                      , 5 ~ & & @ } + % # # # # # # # # # # # # # # # # # # # 8 # & + # 3 %                                           k k !.~.~.~.#.{.-.x $.# # # # # # # # # # # % % % % % f , %.].                                          r # } +.3 # 2 } % # # # # # # # # # # # # # # # # % # # # + @ + @ ] %  .                                                                      * # # $ h & # # @ } % # # % % # # # # # # # # # # # # # # # # # # # # # # # # # # # # # # # # # % % % % } @ 5 M ,                                                                       # + % % + % # ",
"                                    @ $ ] @ @ @ + # # # % # # # # # # # # # # # # # # # # # # # # # # # # } @ & % @ ^.                                                                /.# + +.h # # @ $ # # # # # # # # # # # # # # # # # # # # # # # # # # # # # # # # # # # # # # # # # # # # # # # # # # # # # # # # # # # # # # # # # # # # # # # # # # # % % + + } } % # 8 3 8 (.                                                                                                              5 , M } } + % % % # # # # # # # # # # # # # # # # # # # # # # # # # # # # # # # # # # # ] # @ + # & % ~ '                                                       _., ..$ & @ } % # # # # # # # # # # # # # # # # # # # # 8 & + & # . @ _                                           ] @ ] ] ] $ & @ + % # # # # # # # # # # % % % % % % m , , f :.                                          # ^ V # # 3 } + # # # # # # # # # # # # # # # # % # # # + @ } +.% & ] <.                                                                      [., ' m 5 ! 5 5 { ' , , ' ' ' # # # # # # # # # # # # # # # # # # # # # # # # # # # # # # # # # # # % + @ 5 f r                                                                       % + @ % + % # ",
"                                  8 } $ # @ @ @ + # # # % # # # # # # # # # # # # # # # # # # # # # # # # @ 8 }.# ]                                                                 R # 7 +.% # @ } # # @ # # # # # # # # # # # # # # # # # # # # # # # # # # # # # # # # # # # # # # # # # # # # # # # # # # # # # # # # # # # # # # # # # # # # # # # # # # # % % % + + % 8 }.# V                                                                                                                 T , 9 @ } + + % % # # # # # # # # # # # # # # # # # # # # # # # # # # # # # # # # # # # * # # # # ] # 5 ~ m                                                       E , & @ @ + % # # # # # # # # # # # # # # # # # # # # # ] # % ] # 2 ! |.                                        a + ] ] ] $ @ } % # # # # # # # # # # # % % % % % % , 5 9 , { q                                         1.& # % }.# @ + # # # # # # # # # # # # # # # # % # # # + @ h # & # @ ]                                                                         v 9 _ M _ 0 f ~ ' , , ' ' ' # # # # # # # # # # # # # # # # # # # # # # # # # # # # # # # # # # # # % } 9 5 2.                                                                      & + & } + % # ",
"                                3.% b # ] @ } + % % # # # # # # # # # # # # # # # # # # # # } + # # # # @ * ] % +                                                                 +.# 4.^ } } } + + % % % # # # # # # # # # # # # # # # # # # # # # # # # # # # # # # # # # # # # # # # # # # # # # # # # # # # # # # # # # # # # # # # # # # # # # # % % % # # * + # # 8 2 % # 1.                                                                                                                  5.~ , @ @ + % % # # # # # # # # # # # # # # # # # # # # # # # # # # # # # # # # # # # # # # # # # # # M ! 9 e                                                       , @ # & ] # # + # # # % % # # # % # # # # # # # # # # % } @ } + % f ' U                                         b } }.8 # } ] + + # # # # # # # # # # % % + + } @ 4 r , 9 S ,                                           * @ & @ ^ } # # + % # # % # # # # # # # # % # # # # % } @ V # # h + # 3                                                                         L , ~ T 4 s ~ , ' ! , , , # # # % % # # # # # # # # # # # # # # # # # # # # # % % % # # # # + # # ] # p ' 6.                                                                      } # } # % % # ",
"                                V } V # ^ @ } + % % # # # # # # # # # # # # # # # # # # # & # # % @ + # # # ] %                                                                 * 2 V # ^ ^ 8 ] & } % # # # # # # # # # # # # # # # # # # # # # # # # # # # # # # # # # # # # # # # # # # # # # # # # # # # # # # # # # # # # # # # # # # # # # # # % % % # 2 # # 2 7 % } } # /                                                                                                                       ' 9 @ @ + % % # # # # # # # # # # # # # # # # # # # # # # # # # # # # # # # # # # # # # # # # # # # { M f 5                                                         ] $ # % $ % # % # % % % # # # % # # # # # # # # # # + @ @ @ } + ' 7.'                                           8 # & 3 ] } @ # % # # # # # # # # # % % % + } } , 9 , ! f , 8.                                          8 * % ] } # # # % % % + # # # # # # # # % # # # # % } @ # @ V # # V * ^                                                                           t , _ E f ' , ' , , ! # # # # # # # # # # # # # # # # # # # # # # # # # # # % % # # # # 8 # # % % { {                                                                         $ # } % % % # ",
"                              1.# @ * % ] } } % % # # # % # # # # # # # # # # # # # # # # ] # # @ } # % % $ * =                                                               * # ] +.} ^ * ^ ] & + % # # # # # # # # # # # # # # # # # # # # # # # # # # # # # # # # # # # # # # # # # # # # # # # # # # # # # # # # # # # # # # # # # # # # # # % % % % # + & } # # # 8 #                                                                                                                           , _ @ @ + % % # # # # # # # # # # # # # # # # # # # # # # # # # # # # # # # # # # # # # # # # # # # 4 S p , ..                                                      R * @ } # # + # % + + % # # # # # # # # # # # # # % + @ @ @ } } @ }.% 3                                           s , 9.~ , ~ ' + % % % % % # # # # % % % + + + % } # % @ # % b                                           # & } % % # # # @ + # # # # # # # # # # # # # # % + } % @ ^ # % }.] % 0                                                                           0., a., , , b.: , , % % # # # # % % # # # # # # # # # # # # # # # # # # # # % % % % # ] # + # * , t                                                                         h % } % % % # ",
"                              + # @ % @ } + + % % # # # % # # # # # # # # # # # # # # # # % # } ] # # ^ * & R                                                               $ # V # # 3 & + + % % # # # # # # # # # # # # # # # # # # # # # # # # # # # # # # # # # # # # # # # # # # # # # # # # # # # # # # # # # # # # # # # # # # # # # # # # % % % + + # $ @ # @ ^ #                                                                                                                             { f @ @ + % % # # # # # # # # # # # # # # # # # # # # # # # # # # # # # # # # # # # # # # # # # # # 4 r f T , c.                                                      b # 3 # # h # } @ @ + # # # # # # # # # # # # # # % + } + + % & # b # d.                                          , ' 9 ! 9 ~ } } } + % % % % # # # % % % % + $ # # % } & & %                                           (.# + % & & + + @ } # # # # # # # # # # # # # # % % + 8 # # @ % # @ g , F                                                                             X : b.) , , b.T ~ } % # # % } @ # # # # # # # # # # # # # # # # % # # # # % % % ] # + $ & ] 5                                                                           . + + % % % # ",
"                            ` } + % # $ # % % % # # # # % # # # # # # # # # # # # # # # # # } * ^ & ] 8 @ @                                                               # + ] ] @ # # % # # # # # # # # # # # # # # # # # # # # # # # # # # # # # # # # # # # # # # # # # # # # # # # # # # # # # # # # # # # # # # # # # # # # # # # # # # # % % + + } # ] # & V % }.                                                                                                                              n ! @ @ + % % # # # # # # # # # # # # # # # # # # # # # # # # # # # # # # # # # # # # # # # # # # # ! { , t _ , e.                                                      @ & 3 8 & + @ @ @ } % # # # # # # # # # # # # # # # % % # # # @ 8 + $ f.                                        g., { 9._ , @ @ @ } + % % % # # # % % % % % @ # # } # + 8 ] #                                           * # # & ^ ] & @ @ } # # # # # # # # # # # # # # % % # @ $ } # # } $ E , h.                                                                            i.) , X j.j._ f @ } + + } @ $ # # # # # # # # # # # # # # # # % % # # # % + } 3 # +.] @ # k.                                                                          ( } % } % # # ",
"                            ! * ] # # @ # % % # # # # % % # # # # # # # # # # # # # # # # # @ + @ +.* % %                                                               { # }.] # * # # @ # # # # # # # # # # # # # # # # # # # # # # # # # # # # # # # # # # # # # # # # # # # # # # # # # # # # # # # # # # # # # # # # # # # # # # # # # # # % % + } } # $ & + % .                                                                                                                                   ! @ @ + % % # # # # # # # # # # # # # # # # # # # # # # # # # # # # # # # # # # # # # # # # # # # 9 M , f 9., r                                                         # # 8 # @ @ @ & @ % # # % # # # # # # # # # # # # # # # # % + @ } $ %                                           0 , m m , & @ @ } + % % % # # # # # % % % # # % ] % # $ ^ } 2                                           + # # % @ } # # } # # # # # # # # # # # # # # # # # @ # # # # ] # r ! !                                                                                 K a.: ) b.f & @ @ @ @ & $ # # # # # # # # # # # # # # # # % % # # # % } @ ] # }.% # %                                                                             l.+ # @ # # # ",
"                          h., ] ] # % # % % # # # # # % % # # # # # # # # # # # # # # # # # & # # 2 @ ] =                                                             ! ' R @ # h ] # # $ + + % % % % % # # # # # # # # # # # # # # # # # # # # # # # # # # # # # # # # # # # # # # # # # # # # # # # # # # # # # # # # # # # # # # # # # # # # % + } @ @ @ h ^ # c                                                                                                                                     r @ @ + % % # # # # # # # # # # # # # # # # # # # # # # # # # # # # # # # # # # # # # # # # # # # M f r { f m { _                                                       f.# # ] } @ @ & @ % % % % # # # # # # # # # # # # # # # # & # h % @ & #                                           m., a.f & @ @ } + % # # # # # # # # # # # % @ @ @ & ] ] V # V                                           3 % # + @ # # } # # # # # # # # # # # # # # # # & # # # @ # ^ h , { ..,                                                                                 n.o.p.q.9 @ @ @ @ @ @ @ # # # # # # # # # # # # # # # # % % # # # % @ @ # @ ] # &                                                                               r.% # & # # # ",
"                          4 ' # ] # ] # + # # # # # # % % # # # # # # # # # # # # # # # # % * # + 2 # r.                                                            5 ! 5 + % @ @ # # @ % # # # % % % % % # # # # # # # # # # # # # # # # # # # # # # # # # # # # # # # # # # # # # # # # # # # # # # # # # # # # # # # # # # # # # # # # # # # % + } @ @ + + &                                                                                                                                         9.@ @ + % % # # # # # # # # # # # # # # # # # # # # # # # # # # # # # # # # # # # # # # # # # # # { , :.5 , s r , ~                                                       1.# 3 ] @ @ & @ + % % + # # # # # # # # % % # # # # # # # @ % }.@ ] } }.                                          , , E @ @ @ } % % # # # # # # # # # # # @ % # % * * $ # 3 & .                                         I 2 % 8 3 & + ] # # # # # # # # # # # # # # # # # & # @ % # & # m 5 9 m !                                                                                   s., 4 } } @ @ } } + # # # # # # # # # # # # # # # # % % # # # % @ & + V # 8 1                                                                               (.% # $ # # # ",
"                        t.& $ $ @ % # # % # # # # # # # # # # # # # # # # # # # % % # # # # 8 # 8 b #                                                             +.# $ & } ] ^ ] + # # # # # # # # # # # # # # # # # # # # # # # # # # # # # # # # # # # # # # # # # # # # # # # # # # # # # # # # # # # # # # # # # % % % # # # # # # # ' 5 ! , 9 r 5 f , _.                                                                                                                                            % ] @ } @ # # % # # # # # # # # # # # # # # # # # # # # # # # # # # # # # # # # # # # # # # # # } @ & & @ } } @ + c                                                       l.# 3 8 # @ * # # & # % % # # # # # # # # # # # # # # % @ ] ] $ ] * 3 c                                           , _ # % ] ] # # # + # # # # # # # # # # % } @ & & & # & $ % u.                                        v.! ~ _ E , ! , , , , ' , , , # # # # # # # # % # # # # @ ] * # % & * } %                                                                                     _.}.+ # + $ @ # @ + # # # # # % # # # % + } % # # } @ # # @ & + :.! ,                                                                                   4.& # & # # # ",
"                        & & $ $ @ % # # % # # # # # # # # # # # # # # # # # # % % % % # # } # + V #                                                             . + * & $ } ] ^ ] @ # # % # # # # # # # # # # # # # # # # # # # # # # # # # # # # # # # # # # # # # # # # # # # # # # # # # # # # # # # # # # # # # # % % # # % + % # # # , ! ! , , f f r                                                                                                                                                 } # $ $ # # # % # # # # # # # # # # # # # # # # # # # # # # # # # # # # # # # # # # # # # # # # + } @ @ } + } @ V #                                                         ( # 3 @ % } # # # @ + % % # # # # # # # # # # # # # # @ ] ] @ @ ] h # u.                                        k., ^ ] # % * @ # & # # # # # # # # # # % + @ @ @ @ h % 8 } %                                           )., r , ~ ' , , ' ! ! ' ' , # # # # # # # # % # # # # } & ] ^ 8 @ @ @ # (                                                                                       w.* # # & ^ # # % $ ] @ % % + % # # # # # # 8 @ # # # } $ @ { ,                                                                                     V + # } # # # ",
"                      g # @ & & @ % # # % # # # # # # # # # # # # # # # # % % % + + % % % % # 8 & +.                                                          R # & @ # ] % @ $ $ } % % % # # # # # # # # # # # # # # # # # # # # # # # # # # # # # # # # # # # # # # # # # # # # # # # # # # # # # # # # # # # # # # % % # # + } % % % } .., , m p , t                                                                                                                                                   r.# $ * # % % % # # # # # # # # # # # # # # # # # # # # # # # # # # # # # # # # # # # # # # # # % + } } % % + } ] # +                                                         % ^ ] # # ] & # % @ } + % # # # # # # # # # # # # # + @ @ + + @ ] % 8                                           x.# $ # # h & # + # # # # # # # # # # % % + + % % + 3 # # } *                                           0 , m 5 p ! 4 4 { 4 4 ! ! # # # # # # # # # # # # % % + } ] 8 } % ] @ # &                                                                                           }.# # 2 ] # # # % } $ + % # % % + % % # # + 8 8 } # # |.                                                                                      4.@ # ^ # # # ",
"                      ] % @ @ & @ % # # % # # # # # # # # # # # # # # # # % + + } } + + % # } & %                                                           1 # }.@ # @ # # # + % # # # % # # # # # # # # # # # # # # # # # # # # # # # # # # # # # # # # # # # # # # # # # # # # # # # # # # # # # # # # # # # # # # % % @ } % # # % @ ] , S S , ! &.                                                                                                                                                      # % * # % # % # # # # # # # # # # # # # # # # # # # # # # # # # # # # # # # # # # # # # # # # # % % % # # % } # b # #                                                         @ } & $ @ & @ # & @ } % % # # # # # # # # # # # # % + + # # % + & ] #                                           # + ] ] } % # # # # # # # # # # # # % % % # # # # ^ # # b # .                                           M r 4 , { ~ ~ ~ ~ { { 4 # # # # # # # # # # # % % # # # # % + % & ] $ & 8                                                                                             a & # # @ ] $ + % # # # @ $ @ % % @ % # # # %  .                                                                                          b @ + }.# # # ",
"                    +.8 } } @ @ } % # # % # # # # # # # # # # # # # # # # + + } } } } + + # } %                                                           / % ] V # @ +.# # # # # # # # % # # # # # # # # # # # # # # # # # # # # # # # # # # # # # # # # # # # # # # # # # # # # # # # # # # # # # # # # # # # # # # % % & + # # % } } % 9 9 , ..                                                                                                                                                          l.# @ # # # % # # # # # # # # # # # # # # # # # # # # # # # # # # # # # # # # # # # # # # # # # # % # # # % } $ } 3 $ *                                                       /.* @ 3 # # ] ] & @ } % % # # # # # # # # # # # # % % % # # # # $ # % 2                                           3 # 8 # % 8 # # # # # # # # # # # # # # # # # @ # % . } # h }.                                          { p , 9 5 5 5 9 ~ { { # # # # # # # # # # % % % # # # # # # % # # $ * @ +                                                                                                   ( @ # # @ * & @ ] 8 & & ] % + * ( u.                                                                                              2 # # * # # # ",
"                    # 8 } } @ @ } % # # % # # # # # # # # # # # # # # # # % + + } } + + % # # (                                                         G } * $ @ h @ # % # # % % % % + + # # # # # # # # # # # # # # # # # # # # # # # # # # # # # # # # # # # # # # # # # # # # # # # # # # # # # # # # # # # # # # % % # # # + @ @ % # 5 4 g.                                                                                                                                                              } # % # # + # # # # # # # # # # # # # # # # # # # # # # # # # # # # # # # # # # # # # # # # # # # # # # % @ h # ] . # 2                                                       /.# % @ % & & @ } + % # # # # # # # # # # # # % % # # # # # # $ ] 3 % t.                                          # % % % $ # # # # # # # # # # # # # # # # # @ # @ * # @ h # y.                                          ! r 5 5 f 5 5 9 { { # # # # # # # # # % % % # # # # 8 # # + # % @ + } 3 *                                                                                                         z.c b +.h * ^ 3 b                                                                                                         ^ # # @ # # # ",
"                  2 % ] @ + } @ + % # # % # # # # # # # # # # # # # # # # ! ! 4 4 4 4 ! ! , p                                                           # ^ 2 % + }.# # 8 % % % % % + + + # # # # # # # # # # # # # # # # # # # # # # # # # # # # # # # # # # # # # # # # # # # # # # # # # # # # # # # # # # # # # # % % # + @ @ + } ] h ~                                                                                                                                                                   d.# @ # } # # # # # # # # # # # # # # # # # # # # # # # # # # # # # # # # # # # # # # # # # # # # # # # + @ @ ^ # $ 3 # (                                                       h., s ..4 ' + % % # # # # # # # # # # # # # % % # # % % # # # ] # & # c                                           * + + # # # # # # # # # # # # # # % # # # # ] % # * * @ 2 , 6.                                        [.! f f f 5 5 ~ { 4 # # # # # # # # % % % % # # # # & # # @ % ] * # ^ # + +.                                                                                                                                                                                                                                @ } % # # # # ",
"                  # } ] @ % } } + % # # % # # # # # # # # # # # # # # # # ' ! ! 4 4 ! ! ' { l                                                         # ] # } ] # # } ] # % # # # # % % # # # # # # # # # # # # # # # # # # # # # # # # # # # # # # # # # # # # # # # # # # # # # # # # # # # # # # # # # # # # # # # % % & 8 8 } # % V c                                                                                                                                                                       + $ # @ # # # # # # # # # # # # # # # # # # # # # # # # # # # # # # # # # # # # # # # # # # # # # # # } & @ 3 & # ] + @ R                                                       ..4 _ , s % % # # # # # # # # # # # # # # % % # % % % % # * # @ $ @ % ^.                                        1 @ & # + # # # # # # # # # # # % % % % # $ # # 8 & } $ @ f ,                                           2.f f f 5 9 ~ { 4 # # # # # # # # % % % # # % % % # # @ + # @ 3 # @ % * $ #                                                                                                                                                                                                                               # @ @ # # # # ",
"                % $ & # + @ @ } + % # # # # # # # # # # # # # # # # # # # 9 , ! , S , 4 _ 0                                                         * # ] $ $ & @ + % % # # # # # # # # # # # # # # # # # # # # # # # # # # # # # # # # # # # # # # # # # # # # # # # # # # # # # # # # # # # % % # # # # % @ % # # ^ 8 # $ } @ @ @ 1                                                                                                                                                                           t.# } & # % % % % % % % % # # # # # # # # # # # # # # # # # # # # # # # # # # # # # # # # # # # # # # # # ] ] $ @ + + @ & r.                                                      A.5 r , ^ } # + } # # % # # # # % % % # # # # # # # # # ] % @ ^ @ # V z.                                        r.# $ # # @ # # & } # # # # # # # # # # % % + } @ @ @ & f 5 ,                                           v _ ! m r , , f % % % % % # # # # # # # # # # # # # # % + } @ @ * $ % 8 8 # B.                                                                                                                                                                                                                        (.@ $ % + % # # ",
"              o 8 # % + # } } + % % # # # # # # # # # # # # # # # # # # # ' ~ , m , , A.,                                                         g # } $ @ @ @ } + % % # # # # # # # # # # # # # # # # # # # # # # # # # # # # # # # # # # # # # # # # # # # # # # # # # # # # # # # # # # % % % # # # % # # & $ # # # & # # + g                                                                                                                                                                                 + % @ # % % % % % % % % # # # # # # # # # # # # # # # # # # # # # # # # # # # # # # # # # # # # # # # # @ @ @ + % % } @ ] 1.                                                      5 M _ # * +.% # # @ $ + % # # # % # # # # # # # # # # $ } & * & # # h                                           l.# + ] # ] 8 # # h # # # # # # # # # # # % % + + } } { , :...                                          v , S ~ 9 t ! % % % % % % # # # # # # # # # # # # # % % + } } # $ + % ] % @ 1                                                                                                                                                                                                                       4.# + # $ % # # ",
"              & @ # + # # % % % # # # # # # # # # # # # # # # # # # # # # , '.: C., a.D.E.                                                      3.# % @ # + + % % % % % % # # # # # # # # # # # # # # # # # # # # # # # # # # # # # # # # # # # # # # # # # # # # # # # # # # # # # # # # # % + + % % % + ] } + $ * * $ @ # .                                                                                                                                                                                     = # } +.} + % % # # # % # # # # # # # # # # # # # # # # # # # # # # # # # # # # # # # # # # # # # # # # % % % # # # + @ $ # F.                                                      , 5 +.$ + } @ } } & @ + % # # # # # # # # # # # # # # # % @ @ % # # T                                           V # g # # }.% # & # # # # # # # # # # # # # # % % % 9 , 9 , 5                                           x., ! m M , % % % % % % % # # # # # # # # # # # # # # % % % # 8 # # & 8 # # ).                                                                                                                                                                                                                    ^ # @ # ] % # # ",
"            (.8 # @ ] # & # # # # # # # # # # # # # # # # # # # # # # # # , ) '., d '.'                                                         8 % ] @ # # # # # # # % % # # # # # # # # # # # # # # # # # # # # # # # # # # # # # # # # # # # # # # # # # # # # # # # # # # # # # # # # % + } + % % + @ # $ * ] $ ^ * 8                                                                                                                                                                                           ( + V @ } + % # # # % # # # # # # # # # # # # # # # # # # # # # # # # # # # # # # # # # # # # # # # # # # # # # # + @ ] * # w.                                                      { S @ # @ ^ 8 @ # @ } % # # # # # # # # # # # # # # # # # # @ @ % p ,                                           * $ & # & +.# # & # # # # # # # # # # # # # # % % 4 _ , m p ..                                          J , 9 ~ 4 + + % % % % % % # # # # # # # # # # # # # # # # @ } # # @ @ @ . { s                                                                                                                                                                                                                   @ @ * # @ % # # ",
"            # ^ # % @ # @ # # # # # # # # # # # # # # # # # # # # # # # # , a.) , G., H.                                                      % # # % & % # # # # # # # # # # # # # # # # # # # # # # # # # # # # # # # # # # # # # # # # # # # # # # # # # # # # # # # # # # # # # # # # % + + + % % @ & t.% # * & @                                                                                                                                                                                                 * } $ @ + % # # # # # # # # # # # # # # # # # # # # # # # # # # # # # # # # # # # # # # # # # # # # # # # # # % } & # ^ @ %                                                         , $ 8 + # @ $ @ @ + # # # % % % # # # # # # # # % & @ # # # % % , r A.                                          # 3 +.# # % # + # # # # # # # # # # # # # % % % , , s , 5 4 9.                                          9., m 9 + + + % % % % % # # # # # # # # # # # # # # # # # # # @ ] # # 2 J , 5                                                                                                                                                                                                               a # @ h # % % # # ",
"          n ] # V # # @ # # # # # # # # # # # # # # # # # # # # # # # # , , Y , '.b.G.                                                      4.# ] + # & # # # # # # # # # # # # # # # # # # # # # # # # # # # # # # # # # # # # # # # # # # # # # # # # # # # # # # # # # # # # # # # # # % % + % % % @ $ # * & % o                                                                                                                                                                                                     % ] $ } % # # # # # # # # # # # # # # # # # # # # # # # # # # # # # # # # # # # # # # # # # # # # # # % # # % } & # # $ & +                                                       Z ^ # $ h # # 3 @ + # # # % % % # # # # # # # # # + & + # # # # 4 9 , H                                           ] # * } % $ # # # # # # # # # % % % % % % % % , , { 9 4 , M Q                                           E , f } + + + % % % % # # # # # # # # # # # # # # # # # # # + & ] @ % , T 9 , U                                                                                                                                                                                                           V # # $ } % % # # ",
"          , V # h # # & # # # # # # # # # # # # # # # # # # # # # # # # , , I.p.o.J.                                                      c.$ ] 2 ^ @ % # # # # # # # # # # # # # # # # # # # # # # # # # # # # # # # # # # # # # # # # # # # # # # # # # # # # # # # # # # # # # # # # # % % % % # % @ $ $ # 1                                                                                                                                                                                                         F.8 ] @ % # # # # # # # # # # # # # # # # # # # # # # # # # # # # # # # # # # # # # # # # # # # # # % % # # # + @ h # # ^ % #                                                         # ] b @ # ] ] @ % # # # % % # # # # # # # # # # # + % # % @ 9., E r y.                                        w.# 3 h % + # # # # # # # # # % % % % % % % % { 4 , 0 m , A., k.                                          { r } } + + + % % % # # # # # # # # # # # # # # # # } % # # % * 3 @ 5 4 A.9., u                                                                                                                                                                                                         % + # % ] # % # # ",
"        A.# ] h # ] % % # % % % # # # # # # # # # # # # # # # # # # # # , '., J., K.                                                    L.% h 8 + $ } # @ % % % # # # # # # # # # # # # # # # # # # # # # # # # # # # # # # # # # # # # # # # # # # # # # # # # # # # # # # # # # # # # # % % % # # % @ $ =                                                                                                                                                                                                               ^ ] @ % # # # # # # # # # # # # # # # # # # # # # # # # # # # # # # # # # # # # # # # # # # # # # # # # # # % } $ ^ * ] # # 9.`                                                       % # V h # ^ $ % # # # # # # # # # # # # # $ % # # # # % $ 5 .., r , Q                                         w.# # + # & # # # # # # # # # # # # # # # # , , 9.f { r , 9 , M.                                          M { } } + + % % % # # # # # # # # # # # # # % % % % # # @ # # } @ { M , ! S , A.                                                                                                                                                                                                    v.# h % # * # % # # ",
"        % } % % } } # # % # # # # # # # # # # # # # # # # # # % # # # # ' : > C.%.                                                      + 8 ] ] & } % # # # # # # # # # # # # # # # # # # # # # # # # # # # # # # # # # # # # # # # # # # # # # # # # # # # # # # # # # # % # # # % + + + } # # ] } # c                                                                                                                                                                                                                     * # +.% # $ # % % % % % % % % # # # # # # # # # # # # # # # # # # # # # # # # # # # # # # # # # # # # # # # # @ @ } + + + } }                                                       f.# ] 3 # % @ # # % % # % + % # # # # # # # # # # # # # # ] @ ] 3 % # F.                                        N., , , 5 # @ + # % # # @ # # # # # # # # + + + } @ @ @ @ * # z.                                          4 5 f { ! ' , , ' ' ! ! ! ' , , # # # # # # # # # # # # # # # # + + } + % % + @                                                                                                                                                                                                   V } ] # 8 # # # # # ",
"      1 # ] & @ & @ # # # # # # # # # # # # # # # # # # # % } @ @ } } @ & , O.'.n.                                                    8 } + + % % % # # # # # # # # # # # # # # # # # # # # # # # # # # # # # # # # # # # # # # # # # # # # # # # # # # # # # # # # # # # % & ] @ # # % ] # . * # *                                                                                                                                                                                                                           # # V @ # & % % % % % % % % # # # # # # # # # # # # # # # # # # # # # # # # # # # # # # # # # # # # # # # # + + % % % % + } ]                                                       c # ^ ] @ 8 & + @ @ # # + % # # # # # # # # # # # # # # ] % # % # # * w.                                        v , A., @ ] @ % } + # # # # # # # # # # % % % % % + + + # $ @ /.                                          f , t , , m 4 ! 4 4 4 4 ! ' ' # # # # # # # # # # # # # # # # % % + + % + } @ # ^.                                                                                                                                                                                              % # @ # $ # % # # # ",
"      } # ] & @ & @ # # # # # # # # # # # # # # # # # # # # % } @ } } @ $ , X P.                                                    t.# # # # # # # # # # # # # # # # # # # # # # # # # # # # # # # # # # # # # # # # # # # # # # # # # # # # # # # # # # # # # # # # # # 3 # # 8 h % % +.3 # #                                                                                                                                                                                                                                 # } +.# # } + % % # # # % # # # # # # # # # # # # # # # # # # # # # # # # # # # # # # # # # # # # # # # # # # # # % % + } # #                                                       c # V % & $ } } & & } + % # # # # # # # # # # # # # # # # # # + # # # F.                                        F 9 9 ] 8 & # # + % # # # # # # # # # # # # # # # % % # @ % @                                             M , M m { , { { ~ ~ { 4 ! ! # # # # # # # # # # # # # # # # # % % % } @ @ @ + # b                                                                                                                                                                                           R # # % # } # @ # # # ",
"    . # ^ } % % } } # # % # # # # # # # # # # # # # # # # # # % + + } @ $ > ,                                                       # * # # # # # % % % % # # # # # # # # # # # # # # # # # # # # # # # # # # # # # # # # # # # # # # # # # # # # # # # # # # # # # # # # # h h # % +.8 # #                                                                                                                                                                                                                                       # # V ^ @ } + % # # # % # # # # # # # # # # # # # # # # # # # # # # # # # # # # # # # # # # # # # # # # # # # # % + @ @ 2 } #                                                       R % # % & } # } ^ ] + % # # # # # # # # # # # # # # # % % # } % # @ #                                           n ~ 8 ^ * @ # # % # # # # # # # # # # # # # # # # # # % 3 & #                                             9 4 t f , { ~ ~ ~ { 4 ! ' # # # # # # # # # # # # # # # # # # # % @ & & @ +.h } & f.                                                                                                                                                                                      } # } # % % # @ # # # ",
"  f.+ @ 3 } % % } } # # % # # # # # # # # # # # # # # # # # % @ @ @ @ $ ] : q.                                                    % 3 # & % % % % % % % % # # # # # # # # # # # # # # # # # # # # # # # # # # # # # # # # # # # # # # # # # # # # # # # # # # # # # # # # b $ # + $ ] 2 R                                                                                                                                                                                                                                           % # t.$ @ + % # # # # # # # # # # # # # # # # # # # # # # # # # # # # # # # # # # # # # # # # # # # # # # # % % } @ & ] $ @ ]                                                       4.] % @ ] # % ] @ + % # # # # # # # # # # # # # # # } % % % # # +.3 #                                           ..] @ * h # # # # # # # # # # # # % % % # # # # # # ] % % @ &                                             M , p 9 { { { { 4 ! , , # # # # # # # # # # # # # # # # # # # % @ $ & @ } @ ] & % g                                                                                                                                                                                   1 % @ @ # % % # } # # # ",
"  * % @ } ] & @ & @ # # # # # # # # # # # # # # # # # # # # % + + % + @ & ,                                                     3 ] 3 # @ % % % # # # # # # # # # # # # # # # # # # # # # # # # # # # # # # # # # # # # # # # # # # # # # # # # # # # # # # # # # # # # # % # ] * # *                                                                                                                                                                                                                                                 # % ] $ } % # # # # # # # # # # # # # # # # # # # # # # # # # # # # # # # # # # # # # # # # # # # # # # # % + } @ & # % V @ #                                                       c + # ] + % $ % + % # # # # # # # # # # # # # # } # # % $ # # * } ] %                                           . # # 8 # # % # # # # # # # # # % % % % % % # # % # % 3 8 # * f.                                          S , r { { { { 4 ' , , # # # # # # # # # # # # # # # # # # # % & ] & } @ # % 3 8 # 4.                                                                                                                                                                                # + & # # # # # + # # # ",
"B.% @ % # ] & @ & @ # # # # # # # # # # # # # # # # # # # # # % % # # % + Q.                                                    # 7 # 3 # % # # # # # # # # # # # # # # # # # # # # # # # # # # # # # # # # # # # # # # # # # # # # # # # # # # # # # # # # # # # # # # # f M , ~                                                                                                                                                                                                                                                       T 8 ] @ % # # # # # # # # # # # # # # # # # # # # # # # # # # # # # # # # # # # # # # # # # # # # # # # # % + } @ $ & @ @ # #                                                       q ! 5 4 4 M ' + % # # # # # # # # # # # # # # # # # # ] } % * # +.+.#                                           R # + # # @ # # # # # # # # # % % % % % # # # } # * ( # # * }                                             S f 9 9 9 ~ { ! ' , # # # # # # # # # # # # # # # # # # # % $ ] @ % # 8 }.+.} # # @ c.                                                                                                                                                                          l.# % % # # # # % # # # # ",
"# + @ % @ } % % } } # # % # # # # # # # # # # # # # # # # % } @ @ + + } @                                                     } +.@ & ^ # % % % % % % % % # # # # # # # # # # # # # # # # # # # # # # # # # # # # # # # # # # # # # # # # # # # # # # # # # # # # # # # # { ! N.                                                                                                                                                                                                                                                          ^ ] @ % # # # # # # # # # # # # # # # # # # # # # # # # # # # # # # # # # # # # # # # # # # # # # # # # # % % + * & # & . } } 1.                                                    P s 4 ' 9 , + % # # # # # # # # # # # # # # # @ % # # # % * h % 8 * #                                           3 @ # # @ # # # # # # # # # % % % # # # # # # 8 % # ] $ # @ ,                                             s f f 5 5 ~ 4 ! ' # # # # # # # # # # # # # # # # % # # + $ ] @ # ] } % & ^ ^ ] $ r ~ L                                                                                                                                                                     z.# ] % # # @ % # } # # # # ",
"+ # * & # # # # # # # # # # # # # # # # # # # # # # # # # # # * # * # % R                                                   :.# $ + 8 # @ # # # # # # # # # # # # # # # # # # # # # # # # # # # # # # # # # # # # # # # # # # # # # # # # @ % # ] 3 } # + % $ @ % & } # } ,                                                                                                                                                                                                                                                                 d.# @ % # ] & ^ $ % # # # # } # # # # # # # # # # # # # # # # # # # # # # # # # # # # # # # # # # # # # # # # % % % % + } @ & q                                                     T 4 f , ~ @ ] % # # * * # # # # # # # # # # # # # # # # # # ] @ } % }                                           +.# $ $ & & ] # # % % # # # # # # # # # # # # # # # # # # f ,                                             t ~ , , , 5 M , % % } @ } % # # # # # # # # # # # # # # # # # # # # # # # # # # , ~ ! E                                                                                                                                                                   @ # 8 @ + # # # % # # # # # ",
"# $ # # % # # # # # # # # # # # # # # # # # # # # # # # # @ } % & @ ] &                                                     ~ + ] % * # # # # # # # # # # # # # # # # # # # # # # # # # # # # # # # # # # # # # # # # # # # # # # # # # # # ] ] # # ^ h & h % # % ^ @ ] l.                                                                                                                                                                                                                                                                    1.% 3 * % * ] & + % } @ % # # # # # # # # # # # # # # # # # # # # # # # # # # # # # # # # # # # # # # # # # % % % % + } @ & , R.                                                    x., A.M # # $ 3 * # # ] # # # # # # # # # # # # # # # # @ & # # @ # 2                                           +.# * & } * 8 % # # # % # # # # # # # # # # # # # # # # , s _ e.                                          8., 8.~ , m 9 % + } @ } % # # # # # # # # # # # # # # # # # # # # # # # # # # ~ 9 4 , , ).                                                                                                                                                            V @ b # @ + # # # % # # # # # ",
"+ h # # $ # # # # # # # # # # # # # # # # # # # # # # # # @ # # ] + @ (.                                                  S , * @ # ^ # # # # # # # # # # # # # # # # # # # # # # # # # # # # # # # # # # # # # # # # # # # # # # # # # # # $ +.@ # & ] # @ @ ^ h # %                                                                                                                                                                                                                                                                             # @ 4.} @ } # # # @ % # # # # # # # # # # # # # # # # # # # # # # # # # # # # # # # # # # # # # # # # # # # # % % } @ & , , q                                                     [ , s +.% # @ $ % # @ # # # # # # # # # # # # # # # # + % # # 8 # # ]                                           3 # * + ] ] # # # + } # # # # # # # # # # # # # # # # @ ] % }                                             h., , _ 9 , + } } @ } % # # # # # # # # # # # # # # # # # # # # # # # # # # & # # * * % 3 I                                                                                                                                                       g # ^ ^ + @ + # # # % # # # # # ",
"$ $ # + + # # # # # # # # # # # # # # # # # # # # # # # # # # ] + @ +                                                   S., ~ 2 # # & # } # # # # # # # # # # # # # # # # # # # # # # # # # # # # # # # # # # # # # # # # # # # # # # # # } # @ * } # % # } V & # *.                                                                                                                                                                                                                                                                                ] } & ^ ^ } # # # + # # # # # # # # # # # # # # # # # # # # # # # # # # # # # # # # # # # # # # # # # # # # % % } @ @ ..S , A.                                                    T., A.h % # # $ $ # # # # # # # # # # # # # # # # # # % % % & % # ^ {                                           3 % ^ & } # # + @ # # # # # # # # # # # # # # # # # @ # }.V + ^.                                          n ! p 5 ~ } @ @ } + % # # # # # # # # # # # # # # # # # # # # # # # # # # # } 8 3 * @ % + (                                                                                                                                                   B.# * +.# * @ + # # # % # # # # # ",
"} # % } # # # # # # # # # # # # # # # # # # # # # # # # # # % ^ } % 1                                                   ' 5 p * # # } # @ # # # # # # # # # # # # # # # # # # # # # # # # # # # # # # # # # # # # # # # # # # # # # # # # $ # # @ @ } ] h ] } h                                                                                                                                                                                                                                                                                       (.# & 8 8 @ # # % + # # # # # # # # # # # # # # # # # # # # # # # # # # # # # # # # # # # # # # # # # # # # % + @ @ 4 , { , 2.                                                    c., @ +.+.] @ @ $ # # # # # # # # # # # # # # # # # @ @ # # # & 3 ' s                                           +.8 % & 8 # # % # # # # # # # # # # # # # # # # # # @ } @ & % f.                                            ~ 9 E @ @ @ } + % # # # # # # # # # # # # # # # # # # # # # # # # # # # $ $ # # @ V t.@ @ t.                                                                                                                                            F.# * ^ & 8 # @ + # # # % # # # # # ",
"} @ @ + % # # # # # # # # # # # # # # # # # # # # # # # # # ] # & &                                                   s ! m r + % ] @ # # # # # # # # # # # # # # # # # # # # # # # # # # # # # # # # # # # # # # # # # # # # # # # # # # # @ } % ] $ % } # 1                                                                                                                                                                                                                                                                                           a + # # + @ # # # % % % % % % % % # # # # # # # # # # # # # # # # # # # # # # # # # # # # # # # # # # # # % + } @ ' , 9 p { 2.                                                    _.@ # * 3 % # * % % % % % % % % # # # # # # # # # % # # # } ] $ M 5 _                                           3 # % * # # % % # # # # # # # # # # # # # # # # % @ } # # + V U.                                            f , $ & @ } + % # # # # # # # # # # # # # # # # # # # # # # # # # # + # # + * h & # V 2 % #  .                                                                                                                                      M.% # 3 % % * # @ + # # # % # # # # # ",
"] $ @ } % # # # # # # # # # # # # # # # # # # # # # # # # # % # + F.                                                  , r ~ { # @ $ + % # # # # # # # # # # # # # # # # # # # # # # # # # # # # # # # # # # # # # # # # # # # # # # # # # # ^ @ + 3 + # b                                                                                                                                                                                                                                                                                                    .# # + # # # % % % % % % % % # # # # # # # # # # # # # # # # # # # # # # # # # # # # # # # # # # # # % + } @ r T , ' J , A.                                                      % # ] @ % ] % % % % % % % % # # # # # # # # % # # # # $ * & , ~ S 9                                           R # @ # # @ @ # # # # # # # # # # # # # # # # 8 # h +.# # * # B.                                            J ] $ @ } % % # # # # # # # # # # # # # # # # # # # # # # # # # # % } $ ] % # # + # # @ b } # (.                                                                                                                                S., @ & % @ @ % $ @ + # # # % # # # # # ",
"* # # % # # # # # # # # # # # # # # # # # # # # # # # # # ] # 3 #                                                   , ~ 9 ' 4 % @ # # ] # # # # # # # # # # # # # # # # # # # # # # # # # # # # # # # # # # # # # # # # # # # # # # # # # 8 * # # 3 # *                                                                                                                                                                                                                                                                                                       t.# % # # } % % % % % % % % # # # # # # # # # # # # # # # # # # # # # # # # # # # # # # # # # # # # % % } @ , M 9 , 5 p f ,                                                     = $ % @ @ } % % % % % % % % # # # # # # # # % # } } # # ] ] ~ s ' , s                                           ^ } @ $ ] # # # # # # # # # # # # # # # # # # # # ] +.# # 2 # B.                                            ] $ @ } % % # # # # # # # # # # # # # # # # # # # # # # # # # # # % % # # $ ] + + ] } # % * ] # q                                                                                                                           V., 4.# % $ # @ h } @ + # # # % # # # # # ",
"# # # # # # # # # # # # # # # # # # # # # # # # % } ] s S ~ ' , 6                                                 Z # ] @ # # # # # # # # # # # # # # # # # # # # # # # # # # # # # # # # # # # # # # # # # # # # # # # # + # # 8 ^ % % * 4 r E f , n                                                                                                                                                                                                                                                                                                             , , T s & ] $ + @ ] 8 & + % # # # % # # # # # # # # # # # # # # # # # # # # # # # # # # # # # # # # # # # # # % + @ @ } #                                                     F.$ @ * ^ ] @ } % % ] * @ # # # # # # # # # # # # # # # # # # % ] % #                                           S 5 M ' t , 9 5 , , 4 { , , , , , , , , , # # # # # # # # +.# l.                                            e , _ 5 , f f 9 ! ' ~ 9 , , , # # # # # # # # # # # # # # # # # # # # # # # # # # # # # # # # # $ W.                                                                                                                    V ~ * + % % # # # # % # # # # # # # # # # # ",
"# # # # # # # # # # # # # # # # # # # # # % % # # % + ~ 5 f 5 >                                                   & & ] @ # # # # # # # # # # # # # # # # # # # # # # # # # # # # # # # # # # # # # # # # % % % # # # # # # 8 * % % ^ 8 # T S , , &.                                                                                                                                                                                                                                                                                                                x., f # # $ 2 ^ # # & } % # # % % % # # # # # # # # # # # # # # # # # # # # # # # # # # # # # # # # # # # # % } @ @ @ b }                                                     o 3 $ ] # } @ ] 8 # # ^ # # # # # # # # # # # # # # # # & } # # % # 7                                           , ~ e , ..f ' ! , , , ! , , , , , , , , # # # # # # # # # 3 + t.                                            u ! T M , r ' ~ M f 4 , , 4 # # # # # # # # # # # # # # # # # # # # # # # # # # # # # # # # @ } } ] t.                                                                                                              * # ] 4.+ % % # # # # % # # # # # # # # # # # ",
"# # # # # # # # # # # # # # # # # # # # # # # # % % % 4 4 s 5 X.                                                r.# 3 ] @ # # # # # # # # # # # # # # # # # # # # # # # # # # # # # # # # # # # # # # # # % % % # # # # # % + @ @ @ @ & ] r , s                                                                                                                                                                                                                                                                                                                       ` , +.8 } % % @ ] * } % # # % % % # # # # # # # # # # # # # # # # # # # # # # # # # # # # # # # # # # # # % @ & & @ * + #                                                     o ] @ @ ] # # ^ % # 8 # # # # # # # # # # # # # # # # + } # # & @ # @                                           8., p p 9 , , , , , { , , , , , , , , # # # # # # # # @ # $ % 3                                               , ' 9.! , ! 4 , , , ' 4 # # # # # # % % # # # # # # # # # # # # # # # # # # # # # # # # ] ] $ % # % b I                                                                                                     $ # @ V ^ # + % % # # # # % # # # # # # # # # # # ",
"# # # # # # # # # # # # # # # # # # # # # # # % + @ @ 9 5 5 9.                                                  # * @ ] } # # # # # # # # # # # # # # # # # # # # # # # # # # # # # # # # # # # # # # # # # # # # # # # # @ # # $ ] % @ 3 , t                                                                                                                                                                                                                                                                                                                             h @ % @ $ } % + + % # # # % # # # # # # # # # # # # # # # # # # # # # # # # # # # # # # # # # # # # # % @ $ $ & $ $ @ @ F.                                                    ] @ & @ } @ 8 ] % # # # # # # # # # # # # # # # # # # # # @ $ @ @ #                                           P M , r r , , 5 5 , , , , , , , , , # # # # # # # # % * 8 + % V                                               f ! 9 m f ! , , 4 ' , # # # # # % % % # # # # # # # # # # # # # # # # # # # # # # # # $ + % ] * ] # # # V /.                                                                                        /.* % } * 8 ] @ # + % % # # # # % # # # # # # # # # # # ",
"# # # # # # # # # # # # # # # # # # # # # # # % + @ @ 9 5 ,                                                   }.% h # 8 # # # # # # # # # # # # # # # # # # # # # # # # # # # # # # # # # # # # # # # # # # # # # # # # # # ] ^ % # $ ] # H                                                                                                                                                                                                                                                                                                                                 F.# # 3 3 @ % % # # # # # # # # # # # # # # # # # # # # # # # # # # # # # # # # # # # # # # # # # # % @ & & @ # @ 2 8 # U.                                                    3 # $ . % % 8 # # # # # # # # # # # # # # # # # % # # % # # $ * # $ f.                                        _., f M , , 5 4 , , , , , , , , , # # # # # # # # * @ + * 8 # }.                                              H , M r _ _ f ! , , # # # # # % % % # # # # # # # # # # # # # # # # # # # # # # # # # # % % # # $ 3 # % # # * <.                                                                              3.] ^ # # ^ * # # $ +.+ % % # # # # % # # # # # # # # # # # ",
"# # # # # # # # # # # # # # # # # # # # # # # # % % % 4 4 ..                                                  # . # + h + # # # # # # # # # # # # # # # # # # # # # # # # # # # # # # # # # # # # # # # # # # # # # # # # # % $ ] # # $ (                                                                                                                                                                                                                                                                                                                                       b # & +.] + % # # # # # # # # # # # # # # # # # # # # # # # # # # # # # # # # # # # # # # # # # % + @ @ } + h % @ +.# (                                                     }.# & # # ] # # # # # # # # # # # # # # # # # ] # # } % % $ @ ^ & #                                           y.f , , ~ , , ! , , , , , , , , # # # # # # # # 8 # 3 }.# @ V #                                               R., , 4 r { , , r % % % % % # # # # # # # # # # # # # # # # # # # # # # # # # # # % @ 8 ^ } # # % % @ ] 8 & } % + v                                                                   B.. @ # % h ( $ # # } ^ 8 # + % % # # # # % # # # # # # # # # # # ",
"# # # # # # # # # # # # # # # # # # # # # % % # # % + ~ 5                                                   . % 3 # * ] & # # # # # # # # # # # # # # # # # # # # # # # # # # # # # # # # # # # # # # # # # # # % % % % % + # # 3 $ # B.                                                                                                                                                                                                                                                                                                                                          l r 4 ! ~ 4 ' ' ! 4 ! ' # # # # # # # # # # # # # # # # # # # # # # # # # # # # # # # # % # # # % + % % }.# # * # # ^ +.                                                    v , , 5 f r % % % % % % % % # # # # # # # # } # # @ # @ * % # @ ^ # f.                                        L.! , 9 , , M , , , , , , , , # # # # # # # # # 7 +.# 8 8 # ] ,                                                 n ' ! { , , M + % % % % # # # # # # # # # # # # # # # # # # # # # # # # # # # @ # # % @ & & $ $ % # # % @ & @ , , ' s _.                                                    h.# ] $ # } 3 * # % } h h % # } % + % % # # # # % # # # # # # # # # # # ",
"# # # # # # # # # # # # # # # # # # # # # # # # % } ] s S                                                   * % # V ] # % # # # # # # # # # # # # # # # # # # # # # # # # # # # # # # # # # # # # # # # # % % % + } } } @ # + ] $ } 1                                                                                                                                                                                                                                                                                                                                                 ).9 5 ~ 4 4 { ~ { 4 # # # # # # # # # # # # # # # # # # # # # # # # # # # # # # # # % # # # % % # # # +.@ # ] ] # & p                                                     :.9 5 , ..+ + + + + + + + # # # # # # # # # # ] + # # ] # # % # } # *.                                        N.4 ~ r ~ , , , , , , , , , # # # # # # # # ] # # ] # # } ] 4 , v.                                              A.9 E f , , } } + % # # # # # # # # # # # # # # # # # # # # # # # # # # # # # # # } + # # # } % % # # # # # 9 ! , , , ! 4 ! M c.6                               N.J 5 ! , , + # # # % % # # % # + + # # & + + % % # # # # % # # # # # # # # # # # ",
"# # # # # # # # # # # # # # # # % % % % % # % # & & + '                                                   * $ + % @ @ + # # # # # # # # # # # # # # # # # # # # # # # # # # # # # # # # # # # # # # # # # # # + 8 $ # # @ } @ +.# 1.                                                                                                                                                                                                                                                                                                                                                      S 5 r _ ' ' f M # # # # # # % % # # % % # # % % # # # # # # # # # # # # # # # # # # # # # # # # % # # } @ % % @ r E                                                     H , A.! @ % @ % # 8 h # # # # % % % % % # # # # # # # # # } # % + # u.                                        &.' 5 r 4 M 9 4 , , , 9 , # # # # # # # # # # # # # # % % S , , g.                                              S., r T , % * @ # $ } # @ # # # # # # # # # # # # # # # # # # # # # # # # # # # # # # # # # # # # # # # # , , , ' ! 4 { ~ ! ! ' ' ' , , , , , , ' ' ' ! ! , , ' ! 4 { { { # # # # # # # # # # # # # # # # # # # # # # # # # # # # # # # # # # # ",
"# # # # # # # # # # # # # # # # # % % % % % } $ # h + n                                                   ] @ % % } @ % # # # # # # # # # # # # # # # # # # # # # # # # # # # # # # # # # # # # # # # # # @ # # # $ * & # V # #                                                                                                                                                                                                                                                                                                                                                             y., _ 0 m f T $ & @ + % % # # % % % % # # # # # # # # # # # # # # # # # # # # # # # # # # # # # # # } @ + + @ M ~ 9                                                     &., _ 3 # + 3 $ # % # # # # % % % % % # # # # # # # # # @ # % * % @ 3.                                          ! ' 9 { 9 ' { M , , ' # # # # # # # # # # # # # # % % , 9 ! , 7.                                                _ , 2.] ] & & @ # # # # # # # # # # # # # # # # # # # # # # # # # # # # # # # # # # # # # # # # # # # , , , ' ! 4 { ~ 5 5 5 9 9 9 ~ ~ , ' ' ' ! ! ! ! { { { { 4 ' , , # # # # # # # # # # # # # # # # # # # # # # # # # # # # # # # # # # # ",
"# # # # # # # # # # # # # # # # # # # # # % # @ % $ #                                                   ] @ + % % } @ % # # # # # # # # # # # # # # # # # # # # # # # # # # # # # # # # # # # # # # # # # } # # 8 ^ % @ V & % F.                                                                                                                                                                                                                                                                                                                                                                O., C.G., % # # # # % % # % % % # # # # # # # # # # # # # # # # # # # # # # # # # # # # # # # # @ @ } } & , r ! , Z                                                   Y.{ % 2 ] # ] @ # & % % # # % % % + # # # # # # # # % ] # # ^ ^ # # e                                           M , r r , , r ! , ~ % % % % % % % % # # # # # # % % 5 M m 9 , 8.                                                )., 3 3 h } % * ] # # # # # # # # # # # # # # # # # # # # # # # # # # # # # # # # # # # # # # # # # % # # # % % } } } } } } + + % % % % % % % + + + @ @ @ @ + % # # # # # # # # # # # # # # # # # # # # # # # # # # # # # # # # # # # # # ",
"# # # # # # # # # # # # # # # # # # # # # % # # 4.# 4.                                                  # % % % + @ @ % # # # # # # # # # # # # # # # # # # # # # # # # # # # # # # # # # # # # # # # # # # # @ 8 $ % $ 3 #                                                                                                                                                                                                                                                                                                                                                                       0., , J ' # # # # # # } # # # # # # # # # # # # # # # # # # # # # # # # # # # # # # # # # # # @ @ } @ $ 5 , m S , F                                                     S ] ] @ } ] ] # % % # # # # % % # # # # # # # # # $ # # } * ] ^ , 0                                           A.' { 4 , , ' 9 { # # # # # # # # # # # # # # % % _ , ' S 9 , 0                                                 W.# # 3 h # # % % # # # # # # # # # # # # # # # # # # # # # # # # # # # # # # # # # # # # # # # # % # # # % % + + # # # # # # # # % % % % + + + + + } } } } + % % # # # # # # # # # # # # # # # # # # # # # # # # # # # # # # # # # # # ",
"# # # # # # # # # # # # # # # # # # # # # @ # # h @                                                   ] + % % + @ @ @ } % # # # # # # # # # # # # # # # # # # # # # # # # # # # # # # # # # # # # # # # % # @ + # # 3 * #                                                                                                                                                                                                                                                                                                                                                                             Z.! 9 } @ $ } # # # # # # # # % # # # # # # # # # # # # # # # # # # # # # # # # # # # # # @ @ } } & , { ~ T T , v                                                     @ # g @ % +.# # # # # # # # # # # # # # # # # # % @ @ @ } + ] m p 8.                                          A., 4 p , , f , # # # # # # # # # # # # # # % % { M ~ , ! E S !                                                   V # * $ # # + # # # # # # # # % # # # # # # # # # # # # # # # # # # # # # # # # # # # # # # # % # # # # % % % + + + + % % % % % % % % % + + + + + } } } + % % # # # # # # # # # # # # # # # # # # # # # # # # # # # # # # # # # # # ",
"# # # # # # # # # # # # # # # # % % % % % } + # # o                                                 B.# $ + + } } } } } + # # # # # # # # # # # # # # # # # # # # # # # # # # # # # # # # # # # # % % % % ] # # @ % # * U.                                                                                                                                                                                                                                                                                                                                                                              0.M # # # + # # } % # # # % + % # # # # # # # # # # # # # # # # # # # # # # # # # % # # } @ % % } ' 9 { ' 5 5 { 9                                                     b # $ $ # @ # # % % % # # # # # # # # # # # @ # # } } % % + _ p ' S                                           P , , , ' 9 , # # # # # # # # # # # # # # % % f S S 5 ~ s E m 4 N.                                                *.% # ^ ] # # # # # # # # # % % % % # # # # # # # # # # # # # # # # # # # # # # # # # # # # % % # # # # % % } } } + + % % % # # # % % % % % @ @ } + % # # # # # # # # # # # # # # # # # # # # # # # # # # # # # # # # # # # # # # ",
"# # # # # # # # # # # # # # # % % + } @ @ % & % ]                                                   ] % @ + + + % % % % + # # # # # # # # # # # # # # # # # # # # # # # # # # # # # # # # # # # % % % % % ^ # # . $ # w.                                                                                                                                                                                                                                                                                                                                                                                    ^.* # # + & * ] @ % % @ @ % # # # # # # # # # # # # # # # # # # # # # # # # # % # # + + # # % |., , 9.! , 4 , 9                                                     V * * # * # % } @ @ + # # # # # # # # # # ] # # # # + ] $ , , f ! {                                           Q ' ~ M ~ 4 + + + + + + + + # # # # # # % % ! , , _ { , , _ A., P                                                   ] # # @ + + + + + + + + % % % % % # # # # # # # # # # # # # # # # # # # # # # # # # # # % % # # # # # % % % % # # # # # # # # # # # % % % % % % % # # # # # # # # # # # # # # # # # # # # # # # # # # # # # # # # # # # # # # ",
"# # # # # # # # # # # # # # # % % } @ & & & * ,                                                   d.# 8 # + + % # # # # % # # # # # # # # # # # # # # # # # # # # # # # # # # # # # # # # # # # % % % % % # } & % @ I                                                                                                                                                                                                                                                                                                                                                                                           3 + % } ] h 8 @ @ & & % # # # # # # # # # # # # # # # # # # # # # # # # # % # # % % # # # , f ~ , r _ , ! m {                                                     b # 2 # % } & ] $ @ % # # # # # # # # # # # $ } # % & # ~ ' , 4 4 ~                                           u M , , |.@ @ @ @ @ @ @ @ # # # # # # % % ! ! , , , 9 f ~ , m r p                                                   r.# 3 @ @ @ @ @ @ @ @ % % % % % # # # # # # # # # # # # # # # # # # # # # # # # # # # % % # # # # # # % % % % % # # # # # # # # # # # # # # # % % % % # # # # # # # # # # # # # # # # # # # # # # # # # # # # # # # # # # # ",
"# # # # # # # # # # # # # # & # # % % @ @ ..' ,.                                                  % 4.# +.# # # # # # # # # # # # # # # # # # # # # # # # # # # # # # # # # # # # # # # # # } % # } @ % % r f { , [.                                                                                                                                                                                                                                                                                                                                                                                              y.4 9 p , ! r M 4 f 5 , # # # # # # # # # # # # # # # # # # # # # # # # # # # # # # # # # % % + } @ @ @ + % # 1.                                                  w.@ # 8 & @ ] $ + % % # % % % % # # # # # # # # # # # # # % + # # }.1.                                        W., A.f + # } + # @ ] % + % # # # # % + % % % # # # % % & $ } # 2                                                     f 4 r m 5 4 9 _ m # & ] # # # + # % # # # % % # # # # # # # # # # # # # # # # # # # # # # # # # # # # # # # # # # # # # # # # # # # # # # # # # # # # # # # # # # # # # # # # # # # # # # # # # # # # # # # # # # # # # ",
"# # # # # # # # # # # # # % # # @ ^ $ & + ,.)                                                   3.@ } @ ] # # # # # # # # # # # # # # # # # # # # # # # # # # # # # # # # # # # # # # # # @ # # # % @ & ] , f , :.                                                                                                                                                                                                                                                                                                                                                                                                    :.4 r ! 4 ~ ' ~ _ 5 % % % % % % % % % # # # # # % % # # # # # # # # # # # # # # # # # % % + } } } } # ] }.+ 7                                                     # ^ V 2 % # & ] % # # # % # # # # # # # # # # # # + # # % % # ] b I                                           , _ +.% # @ # # + @ % % # # # # % % % % # # # % % % ] % ] 3 & & F.                                                  J , , S J { , m + # # # # # + + % # # # % % # # # # # # # # # # # # # # # # # # # # # # # # # # # # # # # # # # # # # # # # # # # # # # # # # # # # # # # # # # # # # # # # # # # # # # # # # # # # # # # # # # # # # ",
"# # # # # # # # # # # # # } # # $ & @ @ @ , D                                                   # + # 3 % # # # # # # # # # # # # # # # # # # # # # # # # # # # # # # # # # # # # # # # # @ # # 8 $ % + % 9 , T                                                                                                                                                                                                                                                                                                                                                                                                         6., f 9.f , { r , % % % % % % % % % % % % % % % % # # # # # # # # # # # # # # # # # % % + } } } } & % # @ @ h                                                     ] $ ] * $ # # + # # # # # # # # # # # # # # # # + # # + & } } $ # 1                                           , @ @ 8 $ % ] 8 # % # # # # # # % # # # # % % + } } @ ] & % % * 7                                                     9., 5 |._ , 3 & % @ ] + # # % # # # % % # # # # # # # # # # # # # # # # # # # # # # # # # # # # # # # # # # # # # # # # # # # # # # # # # # # # # # # # # # # # # # # # # # # # # # # # # # # # # # # # # # # # # ",
"# # # # # # # # # # # # # % # + } # % @ 8 ,                                                   1 % # * ] # # # # # # # # # # # # # # # # # # # # # # # # # # # # # # # # # # # # # # # # # # # ] h + # @ } 9 r                                                                                                                                                                                                                                                                                                                                                                                                               7., ~ :.S ' , # # # # # # # # # # # # # # # # # # # # # # # # # # # # # # # # # % % + + + + + # * % # * # *                                                     ( # ^ . # # } # # # # # # # # # # # # # # # # # # # @ 8 ] $ ] $ + c                                           3 # # } } % % # # # # # # # # # # # # # % % } } % @ } # & 2 3 @ 9                                                     `.9 4 S J % # # # # # # # % # # # % % % # # # # # # # # # # # # # # # # # # # # # # # # # # # # # # # # # # # # # # # # # # # # # # # # # # # # # # # # # # # # # # # # # # # # # # # # # # # # # # # # # # # # ",
"# # # # # # # # # # # # # @ # ] # # * + }  +                                                  $ ^ % * # } # # # # # # # # # # # # # # # # # # # # # # # # # # # # # # # # # # # # # # # # % # # # # @ 8 $ ,                                                                                                                                                                                                                                                                                                                                                                                                                     A., ~ m 9 # # # # # # # # # % % % % # # # # # # # # # # # # # # # # # # # # % % % + + % % % % & # # +.V #                                                     g # } $ } % # # # % % % # # # # # # # # # # # # # } & & ] ^ * ] # V                                           1.# } 8 # # ^ # # # # # # # # # # # # % % } } $ # % * ] # % V , m `                                                     v , 9 ] h 8 # # # % % + % # % % + % # # # # # # # # # # # # # # # # # # # # # # # # # # # # # # # # # # # # # # # # # # # # # # # # # # # # # # # # # # # # # # # # # # # # # # # # # # # # # # # # # # # # ",
"# # # # # # # # # # # # # @ # + # $ V # &                                                   7 + % $ # # $ # # # # # # # # # # # # # # # # # # # # # # # # # # # # # # # # # # # # # # # # @ @ # # 8 8 # # M.                                                                                                                                                                                                                                                                                                                                                                                                                      H ' { ' } } } } } } } } + } @ @ @ + % # # # # # # # # # # # # # # # # # # % % % % % % % @ # # $ ] # # & , .+                                                  1 # & +.% % % + + % % # # # # # # # # # # # # % % # # + $ + # $ @ @                                           B.} # ] +.+ # % % % % % % # # # # # % % + } @ % % } } # # % t ~ , 5.                                                      { + ] * ] @ @ % # } + % % } @ } % # # # # # # # # # # # # # # # # # # # # # # # # # # # # # # # # # # # # # # # # # # # # # # # # # # # # # # # # # # # # # # # # # # # # # # # # # # # # # # # # # # # ",
"# # # # # # # # # # # # # # # } # ] ] #                                                     # % # @ # # @ # # # # # # # # # # # # # # # # # # # # # # # # # # # # # # # # # # # # # # # # # ] # } V + # c                                                                                                                                                                                                                                                                                                                                                                                                                             ).m @ @ @ @ @ @ @ @ } @ @ @ @ + % # # # # # # # # # # # # # # # # # # % % % % % % # # }.@ # * + # & , , 7.                                                    :.5 4 @ @ @ @ + % # # # # # # # # # # % % % # # # # % # * # # h & F.                                          @ } & # % % + } } + % % % % # # # % % % # @ % # # 3 8 # 5 ..9 , ).                                                       .] # % ^ $ @ ] @ @ } } @ & @ } # # # # # # # # # # # # # # # # # # # # # # # # # # # # # # # # # # # # # # # # # # # # # # # # # # # # # # # # # # # # # # # # # # # # # # # # # # # # # # # # # # # ",
"# # # # # # # # # # # # # # % 3 % @ # *                                                   ^ @ # @ # * # # # # # # # # # # # # # # # # # # # # # # # # # # # # # # # # # # # # # # # # # # # $ # # ] # 4.                                                                                                                                                                                                                                                                                                                                                                                                                                l @ @ @ @ @ @ @ @ % + } @ } % # # # # # # # # # # # # # # # # # # % % % % % % # # $ # # % # % + # { f , f                                                   6., { & & & @ } % # # # # # # # # # # % % # # # % % # 8 # # ] ^ # $ B.                                          # # 4.% + } @ @ } + % % % % # # # % % % # % } # # # * 4 , 5 E , ,                                                         b & @ # # 3 & @ @ @ & $ & @ # # # # # # # # # # # # # # # # # # # # # # # # # # # # # # # # # # # # # # # # # # # # # # # # # # # # # # # # # # # # # # # # # # # # # # # # # # # # # # # # # # # ",
"# # # # # % # # # # # # # # # ] # h + =                                                   % % % # # % % % # # # # # # # # # # # # # # # # # # # # # # # # # # # # # # # # % % % % % % % % # # # h # #                                                                                                                                                                                                                                                                                                                                                                                                                                       c # # ^ ] } # # ^ 3 ] + } % # # # # # # # # # # # # # # # # # # # # # # # # # # # # # # # # # , S 9., ' 6.                                                  5 + ] ^ ] $ % # % % % % # # # # % # # # # # # # # # % + @ & $ ] ] [.                                          * # + ] 8 } # # } @ # + % # # % % # % % # # # % @ & 9 ~ ~ 9 5 f r r                                                         } ] 3 # } @ * ] # % ] @ } # # } ] @ # # % % % # # % % % # # # # # # # # # # # # # # # # # # # # # # # # # # # # # # # # # # # # # # # # # # # # # # # # # # # # # # # # # # # # # # # # % # # ",
"# # # # # # # # # # # # # # $ # @ # R                                                   ( % % % # # % % % # # # # # # # # # # # # # # # # # # # # # # # # # # # # # # # # % % % % % % % % # ^ # 8 # B.                                                                                                                                                                                                                                                                                                                                                                                                                                          }.# # 8 * } % + @ + # % $ # # # # # # # # # # # # # # # # # # # # # # # # # # # # # # # # T , , ..r ' S.                                                  b 8 % $ ] # # } # # # # # # # % # # # # # # # # # # # + } @ @ @ ..[.                                          ( & # # @ @ # # & # % % # # % % # % % # # # % @ @ ~ ~ ~ ~ 9 5 M r E                                                         G } $ ] + $ ] + + & % @ + # # # # # & % # # # # # # % # # # # # # # # # # # # # # # # # # # # # # # # # # # # # # # # # # # # # # # # # # # # # # # # # # # # # # # # # # # # # # # # % % % ",
"# # # # # # # # # # # % % # } # ] #                                                     # % % % # # % % % # # # # # # # # # # # # # # # # # # # # # # # # # # # # # # # # % % % % % % % % + # * # t.                                                                                                                                                                                                                                                                                                                                                                                                                                              r.% @ $ ] } % @ 8 & # # % % % # # # # # # # # # # # # # # # # # # # # # # # # # # # # # @ # } ^ } # # 3                                                   1.# & } % @ # # # # # # # # % # # # # # # # # # # # % } @ @ @ 4 , |.                                          R 2 + # } ] @ # # % % # # % % # % % # # # % } @ { { { { ~ 9 5 f , ~ Z                                                          .@ # @ * & + @ @ % @ & + # % @ $ # # # # # # # # # # # # # # # # # # # # # # # # # # # # # # # # # # # # # # # # # # # # # # # # # # # # # # # # # # # # # # # # # # # # # # # # # # # ",
"# # # # # # # # # # % % + } # & # g                                                   R # % % % # # % % % # # # # # # # # # # # # # # # # # # # # # # # # # # # # # # # # # # % % % % % % # # $ @                                                                                                                                                                                                                                                                                                                                                                                                                                                     b # $ ^ $ # # } @ # % % % % % # # # # # # # # # # # # # # # # # # # # # # # # # # # # $ 8 # # h ^ # 8                                                   = # ^ +.# @ # % % % # # # % # # # # # # # # # % % } @ @ @ @ , f 9 ..                                            + % h } # 8 # % % # # % % # % % # # # % + } 4 4 4 4 4 { ~ 9 5 E 5 J                                                           I % # } * ^ # % % # # # + # # # % % % % % % # # # # # # # # # # # # # # # # # # # # # # # # # # # # # # # # # # # # # # # # # # # # # # # # # # # # # # # # # # # # # # # # # # # # ",
"# # # # # # # # # % + } @ $ + % %                                                   F.& @ % % % # # % % % # # # # # # # # # # # # # # # # # # # # # # # # # # # # # # # # # # # % % % % % % 8 #                                                                                                                                                                                                                                                                                                                                                                                                                                                         / % % @ 8 ] } % % + % % % % # # # # # # # # # # # # # # # # # # # # # # # # # # # @ # # } @ % % @ $ # 3.                                                  % + 3 # @ @ & @ + # # # # # # # # # # # # % % + } } } + , f _ ! r                                             * # ] h $ # % + % % } + # % # # # # % % % ! ! ' ' ! ! 4 { M s ~ , _ e.                                                          I } # # ] * 8 @ # # } @ } % + } } } } + % # # # # # # # # # # # # # # # # # # # # # # # # # # # # # # # # # # # # # # # # # # # # # # # # # # # # # # # # # # # # # # # # % % + ",
"# # # # # # # # % % } @ & % +.# 1.                                                  +.# h % % % # # % % % # # # # # # # # # # # # # # # # # # # # # # # # # # # # # # # # # # # % % % + + 3 # c                                                                                                                                                                                                                                                                                                                                                                                                                                                             d.# % h & # % + + + % % % # # # # # # # # # # # # # # # # # # # # # # # # # # @ # # @ } # # @ $ 3 ] b                                                   +.$ # $ ] ] ] @ % # # # # # # # # # # # # # # % # # # { , { m , , M.                                          b @ & % % @ @ } + @ + # # # # # % % % % ' ' , , , , ' ! 5 , , E M , v                                                             r.] # # # ] h 8 & ] 3 + } @ @ @ @ } + # # # # # # # # # # # # # # # # # # # # # # # # # # # # # # # # # # # # # # # # # # # # # # # # # # # # # # # # # # # # # # # # @ & $ ",
"# # # # # # # # % + @ & $ @ & 7                                                     + # * % % % # # % % % # # # # # # # # # # # # # # # # # # # # # # # # # # # # # # # # # # # % % % + + h &                                                                                                                                                                                                                                                                                                                                                                                                                                                                   h # % 8 V } } + % % % # # # # # # # # # # # # # # # # # # # # # # # # # # # + } # # % + # ] 3 @ # R                                                   ] V @ $ ] ] @ % # # # # # # # # # # # # # # # # # # 5 , , 9 { , f 8.                                          / # 2 } $ ] @ @ @ + # # # # % % # # # , , , , , , , , , r 4 , ! 9.5 ,                                                               (.+.% # & ] # # % % + @ @ @ @ + % # # # # # # # # # # # # # # # # # # # # # # # # # # # # # # # # # # # # # # # # # # # # # # # # # # # # # # # # # # # # # # # # @ & ] ",
"# # # # # # # # % + @ $ ] V #                                                     ] # 8 @ % % % # # % % % # # # # # # # # # # # # # # # # # # # # # # # # # # # # # # # # # # # % % % + + #                                                                                                                                                                                                                                                                                                                                                                                                                                                                       c & + # @ } + + % % # # # # # # # # # # # # # # # # # # # # # # # # # # % % % # # # % # % } ^ +.# #                                                   +.{ @ f $ ~ % , # # # # # # # # # % % % % % % # # , , 4 { 9 9 { ! 0                                             # @ ] 8 $ @ @ + # # # % % % # # # , , , , , , , , 9 ' , , 5 ' 4 0 , 0                                                               F.] % 8 ] @ ] % % } @ @ } % % # # # # # # # # # # # # # # # # # k # k # k # k # k # k # k # k # k # k # k # k # k # k # k # # # # # # # # # # # # # # # # # # } @ 5 ",
"# # # # # # % # } # # .., f 0                                                   1.# ] 8 @ # # # # # # # # # # # # # # # # # # # # # # # # # # # # # # # # % % # # # # # # # 3 # # h # ! ! n                                                                                                                                                                                                                                                                                                                                                                                                                                                                           x., ^ +.+ # } # # & # # % # # # # # # # # # # # % % # # # # # # # # # # # # # # # # + ] @ % & ] +.g                                                 i.9 , p j.' , , # + + # # % # # % % # # # # # # # % } & $ $ $ & & ^                                             3 # 3 8 } * % # % # # + # # # & # # # # # # # # # # % % + + } @ % % 8 z.                                                              o ] # # } @ & & @ + % + @ % # # # % % # # # # # # # # # % k A k A k A k A k A k A k A k A k A k A k A k A C B C B C B C C # # % # # # + % % # # # # # # % ! r < ",
"# # # # # @ # # 8 # # ..M ~                                                     }.# + % + # # # # # # # # # # # # # # # # # # # # # # # # # # # # # # # # % % # # # # # % } # @ % # $ p !                                                                                                                                                                                                                                                                                                                                                                                                                                                                               ++# # } @ # % $ # & # # } & + # # % # # # # # % % # # # # # # # # # # # # # # # # # $ @ # + % % * S                                                   ,.q.X , > , _ $ # # % @ % + % % # # # # # # # # + @ & & @ @ $ ] h w.                                          & # ] # } $ # # % % # # % # # # # # # # # # # # # % % % + } } # ] 8 } 7                                                                   g # @ % # # + & @ % # # % % % # # % % % % + } % # # $.@+B B B B @+@+A A A A A A A A A A A A A A A A A A A A A A A k # + @ + + } % # # # # # + @ % # Y , , ",
"# # % % % @ # # } # $ 5 { l                                                    .% % @ % ] # # # # # # # # # # # # # # # # # # # # # # # # # # # # # # # # % % # # # # % % ] # @ + # } _ k.                                                                                                                                                                                                                                                                                                                                                                                                                                                                                  }.# 3 $ # } # # # # @ % # # $ % % # # # # % % # # # # # # # # # # # # # # # # # ] $ @ & % # @ 9 , ++                                                C., '.X 9 , # % @ + # # @ % % % # # # # # # # % } @ @ } } % ] # # 1.                                          ^.# 2 b # $ # # # # # + % # # # # # # # # # # # % % % + + + 3 # # * $ # F.                                                                   .V @ + ] 8 + # # % % # # # # + # # # # + } % # k k k k k k k k k k k k k k k k k k k k k k k k k k k k k k k k # # # # # % # # # % & + # # # & , '.D.",
"% % % % % % # + # & * , t                                                     + # ] $ $ * # # # # # # # # # # # # # # # # # # # # # # # # # # # # # # # # % # # # # % % % } # # % +.# 0                                                                                                                                                                                                                                                                                                                                                                                                                                                                                         V # % 3 # } % # # # # + @ % % % # # # # % # # # # # # # # # # # # # # # # # & & @ ] @ % ] { v , J                                                 #+, , _ , # $ ] % # % # + + % # # # # # # # % % + + % % % % % % # }.                                            ] % @ # ] # # % + # # & # # # # # # # # # # # % % % % + % @ & & 8 +.* &                                                                       7 # # # % # # % @ @ } } } % # # # # # % + k k k k k k k k k k k k k k k k C C C C C C C C k k k k k k k k % # # # # # % % @ # # # @ ] + # '.) D ",
"% % % % + } ] @ # h % !                                                     c % % @ # @ } # # # # # # # # # # # # # # # # # # # # # # # # # # # # # # # # % # # # % % + + # 3 # $ * #                                                                                                                                                                                                                                                                                                                                                                                                                                                                                             d.% # ] 8 $ # # @ 3 ] # + + % % # # # % # # # # # # # # # # # # # # # # # % # # + % # & 9 , _ 5 5                                                 $+: , 9.^ ] + # ] h # } } % % # # # # # # # % % % % # & # # ] } # 2                                             * # & @ @ & & + # # # # # # # # # # # # # # % % % % % # $ & # # ] ] # # 1                                                                         R * ] @ % % } } # # @ $ $ @ # # % @ -.-.>.>.-.%+x $.k k k k k k k k C C C C C C C C $.$.$.$.$.$.$.$.@ + % % % + } @ @ ^ * @ # # ] b X.    ",
"% % + + + } @ % @ ] # v.                                                    # $ @ # # % # # # # # # # # # # # # # # # # # # # # # # # # # # # # # # # # # % # # # % % } } # ] $ ] # c                                                                                                                                                                                                                                                                                                                                                                                                                                                                                                 ] $ # % ] @ @ ] ] @ } } % % # # # % # # # # # # # # # # # # # # # # # % # # # # # + , ! , f M , L.                                                t ' % 3 h # # * @ @ } + % # # # # % % % # # # # # # @ + # ] ^ @ + N.                                          1 h # & * } @ +.] # # # # # # # # # # # # # # % % % & # # ^ ] # # V }.@ @ o                                                                           1.h # # @ * 3 # # + @ @ @ @ $ } -.>.>.>.%+$.C k k k k k k k k $.$.$.$.$.$.$.$.x x x x x x x x % + @ ] & % # % # % ] @ $ d.          ",
"% % + } } % # + 8 # 7                                                     t.% % } % # % # # # # # # # # # # # # # # # # # # # # # # # # # # # # # # # # # # # # % % + } @ % # ] % &                                                                                                                                                                                                                                                                                                                                                                                                                                                                                                     R.s M M m 9 , ~ t @ } + % % # # # # # # # # # # # # # # # # # # # # } # # } % # + , S 9 , 9 ' 9 Q                                                 ).@ * 4.% # & @ @ @ + % # # # # + % % # # # # # # ^ * # @ * $ # , c.                                          `.9.m ~ 5 p E M , # # # # # # # # # # # # # # # # # & 8 @ ] 2 ] # @ h + # 7                                                                               ` x.5 , _ ~ , , 4 f M & + } @ @ } % # # # # # # # # # # % % % % % % % % % % % % % % % % , , 4 ~ ! , { p 9.p :.++              ",
"% + + } @ % } * * #                                                       # V # # % % # % # # # # # # # # # # # # # # # # # # # # # # # # # # # # # # # # # # # % % + } @ ^ # @ # <.                                                                                                                                                                                                                                                                                                                                                                                                                                                                                                        7., 9 t M , 4 @ } + % % # # # # # # # # # # # # # # # # # # # # % # # @ + # % 4 , ' 5 r _ 5 , E                                                 / # ] +.* * % @ @ } % % # # # } + % % # # # # % % % & & # # 2 p ! m                                             2., E J , , f # # # # # # # # # # # # # # # # } # # # } $ @ + @ + % & % # r.                                                                                  Z _.r , , ~ { , @ & ] ] $ @ + % # # # # # # # # % % % % % % % % % % % % % % % % { ' , , , ' 9.y.                      ",
"% # % } @ + ] # $ a                                                     @ @ + # # # % # # # # # # # # # # # # # # # # # # # # # # # # # # # # # # # # # # # # # # % + } } * # 3 *                                                                                                                                                                                                                                                                                                                                                                                                                                                                                                               S , ~ M { % + } + % # # # # # # # % % # # # # # # # # # # # # # # # # # # { { { { { { { { { 5                                                 F.@ ] ] # & # 3 ^ # % % # @ # # # # # # % % % + @ & & @ + % ! 5 , '                                             y., f E 4 , # + + # % @ # # # # % % % # # # % % + } @ @ @ & } @ & $ $ & @ } [.                                                                                        W.A._ } # # # } & @ % % % + @ @ @ @ } + } @ @ @ @ + + % $ * h $ % # # , { T [.                              ",
"# # % } @ + $ @ (                                                     F.} @ + # # # % # # # # # # # # # # # # # # # # # # # # # # # # # # # # # # # # # # # # # # % % + } % ^ #                                                                                                                                                                                                                                                                                                                                     e.k.N.).v P 8.8.P v ).q k.Z                                                                                                                                                   e 4 5 ..^ $ @ + # # # 8 # # # # % % % # # # # # # # # # # # # # # # # # 4 4 4 4 4 4 4 4 t ~ ~ `.                                                ^ % & 8 } @ + + + # # + % # # # # # % % % % } @ @ } % % ~ _ m ~ 5 L                                             f , , 4 # # # % # # # ] # # % % % # # # % % % + } @ @ @ $ $ ] ] ] ] $ $ ~ 5 h.                                                                                                B.r.3 @ # % % # # # # # # # # # # % + @ & # # # # } ( o                                         ",
"# # + @ @ # * #                                                       @ } @ + # # # % # # # # # # # # # # # # # # # # # # # # # # # # # # # # # # # # # # # # # # % % + } % @ 3                                                                                                                                                                                                                                                                                                                         r.( 3 @ # # % @ $ % # # # # # # % # # # # # + * V h r.                                                                                                                                        O., @ & # # # ^ @ # @ % # # # % % # # # # # # # # # # # # # # # # # ! ! ! ! ! ! ! ! 4 5 , , Q                                                 r.# 3 3 % # # # % } # % % # # # # % % # % % + + % % # ~ 4 r r , , [.                                            &+) ~ % # # & @ # # # % % % % % # # # # # % % % + + } $ $ & & & & $ $ } ] # @                                                                                                                                                                                               ",
"# % @ @ @ @ # *.                                                     .^ @ @ + # # # % # # # # # # # # # # # # # # # # # # # # # # # # # # # # # # # # # # % % % # % % + } ] #                                                                                                                                                                                                                                                                                                                   g } # + $ # # # # # # # # # # # # # # # # % @ $ $ } # # # % @ @ # # h d.w.                                                                                                                              L , } & @ % % % + ] @ % # # # % % # # # # # # # # # # # # # # # # , , , , , , , , , , s m , 5                                                 *.# % # ^ ] # @ * # % % % # # # # % # # % % % % # # ' , ' 9 M 9 ' ,                                             *+, 4 $ & # # # & ] % % % % % # # # # # # # % % % % } + % % % % + } % $ @ # # +.                                                                                                                                                                                          ",
"# % + + % } ^                                                       ] $ @ @ + # # # % # # # # # # # # # # # # # # # # # # # # # # # # # # # # # # # # # # % % # # % % @ @ # r.                                                                                                                                                                                                                                                                                                            * & # # # + @ @ # # # # % @ $ ] } } } } } } } } # # # # # # @ $ # % % # # # + $ # & 7 /.                                                                                                                          1 # # $ # + 4.8 & % # # # % % # # # # # # # # # # # # # # # # , , , , , , , , M , , m 4 , S                                                   @ # 8 3 % # & % + + % % # # # % # # # # # # # # , { 4 , ! 9 ' , , ++                                            5 % + 8 8 } % @ } + % % # # # # # # # # # # # # % # # # # # # % # # } * h # # 2                                                                                                                                                                                       ",
"% # # # % +                                                       4.# # + @ + # # # % # # # # # # # # # # # # # # # # # # # # # # # # # # # # # # # # # # % % # # % + @ $ #                                                                                                                                                                                                                                                                                                         a 3 @ } @ @ & @ % # # & @ % # # # # # # # # # # # # # + # # # # # # # # # + $ ] ] & } $ * * % # } U.                                                                                                                      w.} # % @ } 8 & % # # # # # # # # # # # # # # # # # # # # # , , , , , , , , ! 4 , , , 9 ~ , =+                                                r.# # @ @ @ $ } } % % # # # % # # # # # # # # 4 , , , , , , M 9 , c.                                            1.# # h @ # # @ } + % # # # # # # # # # # # # % # # # # # # % # +.] # + 3 h @ @ 8 w.                                                                                                                                                                                ",
"% # # @ *                                                         ] % @ # @ + # # # % # # # # # # # # # # # # # # # # # # # # # # # # # # # # # # # # # # % # # # % } $ 8 F.                                                                                                                                                                                                                                                                                                    d.% # # & @ $ ] ] @ % % % # # # } @ @ + % % % % # # % % % # # % @ $ $ @ } @ + % + @ $ ] ] # # + * h @ # # # 4.                                                                                                                    l.} } @ ] @ % # # # # # # # # # # # # # # # # # # # # # , , , , , , , , , r S , , ! _ 5 , '                                                 1 % @ 8 & ] @ } + % % # # # # # # # # # # # ! , , 4 { , , ! f p 4 f                                             o @ # # @ 3 & @ + % # # # # # # # # # # # # # % % % % % % # # # # * ] # # ( # % % 3                                                                                                                                                                               ",
"# , ' E P                                                       * # V 8 # @ + # # # % # # # # # # # # # # # # # # # # # # # # # # # # # # # # # # # # # # # # # # % @ ] ^                                                                                                                                                                                                                                                                                                   I # # ] h 8 ] % & ] $ + # # % } + % # # # # % % # # # # # # % } % # # # # # # # # % } } } + + * & % % # # } * h & # # V                                                                                                                   f % 5 } ' # , # , # # # # # # # # # # # # # # # # # , , , , , , , , 5 , , 4 ~ , , m 5 M '.l                                               F.] % + $ @ } + % % # # # % # # # # # # % , , ' , , , ' , ' f m f p L.                                            t.% % # & @ + % # # # # # # # # # # # # # # % % % % # # # $ } % ] 8 } % 3 + # % # ]                                                                                                                                                                           ",
", : , G.                                                      G % h + 3 # % % % # # # # # # # # # # # # # # # # # # # # # # # # # # # # # % % % # # # % % # $ # & # # +.                                                                                                                                                                                                                                                                                                w.} } } } } } } } @ @ @ } + % % % # # # # # # # # # # # # # # # # # # # # # # # # } } } @ @ @ @ & } } } } } } } } $ @ + # # + @ $ /.                                                                                                            Q '.! X ~ : , , 4 # # # # # % } } # # # # # # # # # # # # # # # # % % # # # % @ & & 2 _ # e                                                 ..{ r % & $ % # % % # # # # # % % # # # # # # # # # # * + } +.$ # 3.                                            l r E r 5 { 4 , , , 4 # # # # # # % # # # # # # # # # # % } @ & & @ } + + + } @ @ @ @ R.                                                                                                                                                                    ",
"'.: X                                                         ^ + * @ } & % % % # # # # # # # # # # # # # # # # # # # # # # # # # # # # # % % % # # % % % # @ # # @ + r.                                                                                                                                                                                                                                                                                              t.@ + + + + + + + + @ } } + % % # # # # # # # # # # # # # # # # # # # # # # # # # # % % % + + } } } + + + + + + + + @ } % # # % } @ * $ 4.                                                                                                            -+, , : ) , , 4 } } + + % # # # # # # # # # # # # # # # # # # % % # # # % @ @ +.# } 3 ] +.                                                x., }.% # % } # # 8 % # # # % % # # # # # # # # # # } % + * * # } l.                                              2., , 9 f ~ ' , , # # # # # # # # # # # # # # # # # # + @ @ @ } + % % + + + } } } % & r.                                                                                                                                                                ",
"> D.6.                                                      V # @ % & # $ % % % # # # # # # # # # # # # # # # # # # # # # # # # # # # # # % % % # # % % % @ # 3 # V #                                                                                                                                                                                                                                                                                               3 # # % % % % % % % % + + % % % # # # # # # # # # # # # # # # # # # # # # # # # # # # # # # # % % % % % % % % % % % % + % % % % % % + # # # + h ;+                                                                                                        H.) , d O.! , # # # % % % % # # # # # # # # # # # # # # # # % % # # # % } @ } # & * # # h =                                               L.# h 3 # # % @ # % # # # % % # # # # # # # # # # % @ # # @ } # # {                                               k.S , M s , , ~ # % + + # # # % # # # # # # # # # # % + } + + % % % % % % % % + # # # # 3                                                                                                                                                             ",
", .+                                                        # } $ # $ # # % % % # # # # # # # # # # # # # # # # # # # # # # # # # # # # # % % # # # % % + ^ + ] 3 @ 1                                                                                                                                                                                                                                                                                             # % h # # # # # # # # # % % % # # # # # # # # # # # # # # # # # # # # # # # # # # # # # # # # # # # # # # # # # # # # # # # % % % % # # @ ] ] % # # ^ r.                                                                                                        -+, , 9.5 } % # # # $ 3 # # # # # # # # # # # # # # # # % % # # # % + } # @ @ # + 3 ] # 7                                                 ( # ] 3 # # $ + % # # % % % # # # # # # # # # # & % # # % @ * 5 , |.                                              .., f T _ ~ % % @ @ % # # % # # # # # # # # # # # % % % % # # # # # # # % % ^ 3 +.@ # # 2  .                                                                                                                                                      ",
"&+                                                        & + 8 + # @ @ # % % # # # # # # # # # # # # # # # # # # # # # # # # # # # # # # # # # # # % % + ] 3 # 4.#                                                                                                                                                                                                                                                                                           ;++ # + @ # # # # # # # # # # # # # # # # # # # # # # # # # # # # # # # # # # # # # # # # # # # # # # # # # # # # # # # # # # # # % % # # # # # # ] +.8 # # # R                                                                                                         < , _ ] ] ] @ % } ^ # # # # # # # # # # # # # # # # % # # # # % % % # # # # # + ] ^ # V                                                 V # ] ^ @ % @ + # # % % % # # # # # # # # # # % } } @ # # @ f 5 , s                                               L.~ , s S @ } @ & + # # % # # # # # # # # # # # # # # # # # # # # # # # # # # + ] * 8 % # & b <.                                                                                                                                                ",
"                                                        r.# h # # @ # @ # # # # # # # # # # # # # # # # # # # # # # # # # # # # # # # # # # # # # % % + } & & * #                                                                                                                                                                                                                                                                                           6 # ] }.} # & # # # # # # # # # # # # # # # # # # # # # # # # # # # # # # # # # # # # # # # # % % % % # # # # # # # # # # # # # # # # # # # # @ + + @ } % @ ] @ & % 3 /.                                                                                                    >+' # # } 8 $ } @ # # # # # # # # # # # # # # # # # # # # % % % % % % % # # % & 8 ( } # z.                                              = # # ] + @ } % # # % % # # # # # # # # # } # # # ] % # % , t A., , S.                                              H ' , * @ } & @ # # % # # # # # # # # # # # # # # # # # # # # # # # # # # # # # % * V + + # # * f.                                                                                                                                          ",
"                                                        # @ ] # # + # @ # # # # # # # # # # # # # # # # # # # # # # # # # # # # # # # # # # # # # % % + } & # b .                                                                                                                                                                                                                                                                                         c.9 # $ } # + & # # # # # # # # # # # % % % % % # # # # # # # # # # # # # # # # # # # # # # # # % % % # # # # # # # # # # # # # # # # # # # # # h % # # % $ ] ] # $ } # # ] 1                                                                                                     y.4 , 5 _ f 9 , , , , , , , , # # # # # # # # # # # % % # # # # @ @ # @ +.] # # 8 % # R                                                 8 # b & } % # # % % % # # # # # # # # @ % # # % } + ^ _ ' , { 5 ~ u                                                 S }.$ % @ @ # # % # # # # # # # # # # # # # # # # % % # # # # # # ] % # } ^ 8 # # @ + & * ] + ] .                                                                                                                                       ",
"                                                      * h @ # @ } # # @ # # # # # # # # # # # # # # # # # # # # # # # # # # # # # # # # # # # # # % % + } @ * #                                                                                                                                                                                                                                                                                         g.! 9 8 } # @ ] # # # # # # # # # % % % % % % % % # # # # # # # # # # # # # # # # # # # # # # # # # # # # # # # # # # # # # # # # % # # # # # # % # % 8 ^ + # # & @ +.h ] & # # } T                                                                                                   v.M ~ f 9 { , , , , , , , , # # # # # # # # # # % % % # # # # # # # # # } ] & } % % # ^                                                 r.# $ @ % # # % % % # # # # # # # # # @ } # # # # @ 9 f f _ M , , S                                                 b $ # + @ % # % # # # # # # # # % % # # # # # # % % % # # # # # # + @ @ + + @ ] ] # # @ @ # # ^ 4 4 E &.                                                                                                                              ",
"                                                    1.$ & } + % % # # # # # # # # # # # # # # # # # # # # # # # # # # # # # # # # # # % % # # % @ # # @ + $ % ^.                                                                                                                                                                                                                                                                                        ~ r r ] ] $ @ + % # # # # # # # # # # # # # # # # # # # # # # # # # # # # # # # # # # # # # # # # # # # # # # # # # # # # # # # # # # # # # # # # + + + + + + + + + + + + + + + + r , , R.                                                                                                J _ T f ' , ! ! , ! { , # # # # % % # # # # # # # # # # # # # % % % + } $ @ } } & * 2 .                                               z.% 8 + # # # # ] } # # # # # # @ # # # # # # # # ~ 9 5 5 5 M m S , e                                                 @ # @ # # $ # @ & # # & @ # % % # # # # # # # # # # # # # # + + + + + + + + } } } } } } } } f { ! , , _ L                                                                                                                         ",
"                                                    8 ^ # } + % % # # # # # # # # # # # # # # # # # # # # # # # # # # # # # # # # # # % % % # % % # # @ @ & $                                                                                                                                                                                                                                                                                         T , 9 9 & @ @ + % # # # # # # # # # # # # # # # # # # # # # # # # # # # # # # # # # # # # # # # # # # # # # # # # # # # # # # # # # # # # # # # # # % % % % % % % % % % % % % % % % { _ S 5 { _.                                                                                              h., 9 m { 5 5 , , M m + % % % + } % % # # # # # # # # # # # # % % + + + % # # + & ^ h E                                                 2 # + # ] * # ] + # } $ & + # # # # # # # # # { { { ! ' ' { 9 A., E                                                 u.% @ ] # @ # # % } # # $ % % # # # # # # # # # # # # # # % % % % % % % % % % % % % % % % , , 9 _ ~ , 5 0 A.[.                                                                                                                  ",
"                                                  +.# ^ # } + % % # # # # # # # # # # # # # # # # # # # # # # # # # # # # # # # # # # % % } + % # # % @ & #                                                                                                                                                                                                                                                                                         ,., r ' ! % % % % # # # # # # # # # # # # # # # # # # # # # # # # # # # # # # # # # # # # # # # # # # # # # # # # # # # # # # # # # # # # # # # # # # % % % % % % % % % % % % % % % % # # # # # + h b                                                                                               ,+, : d D.b.%.D., @ } } } @ @ } % # # # # # # # # # # # # % % % % # # # # % } @ $ ' , 6.                                              ( # V @ # * # + & } % } $ 8 # # # # # # # # , ' ' , , , , 4 , S , , L                                                 t.# @ }.^ + % 8 +.] # % % % # # # # # # # # # # # # # % % % % % % % % # # # # # # # # + # # @ + # # # % % % @ }.1                                                                                                       F.( ",
"                                                ^.# 8 @ + } + % % # # # # # # # # # # # # # # # # # # # # # # # # # # # # # # # # # # % % % + # % @ } # } b                                                                                                                                                                                                                                                                                       Z., { m , , # # # # # # # # # # # # # # # # # # # # # # # # # # # # # # # # # # # # # # # # # # # # # # # # # # # # # # # # # # # # # # # # # # # # # # # # # # # # # # # # # # # # # # # # # % + % } @ # g                                                                                               G., d &+a.' M 9 @ @ @ & & @ % # # # # # # # # # # # # # % % % # # % % + } @ @ r { ~ 7.                                                # # 3 @ % @ @ # # @ ] $ # # # # # # # # , , , , , ' { 5 , p E 9 ! 9.                                                  3 # $ V 8 # % & @ + + % # # # # # # # # # # # # # # # # # # # # # # # # # # # # # & # # # # % & * * ] @ # # # # % % +. .w.                                                                                z.r.* # + % % ",
"                                                # * 3 } @ } + % % # # # # # # # # # # # # # # # # # # # # # # # # # # # # # # # # # # % % # % # + ] # # 8                                                                                                                                                                                                                                                                                         , G.E , , , # # # # % % # # # # # # # # # # # # # # # # # # # # # # # # # # # # # # # # # # # # # # # # # # # # # # # # # # # # # # # # # # # # # # # # # # # # # # # # # # # # # # # # # % } # # # & +.+.# # & ;+                                                                                          '+a., X C.s ~ @ @ @ & @ + # # # # # # # # # # # # # # # # % # % % + } @ @ @ , |.M , ..                                                3 % } * $ # % ] * @ # # # # # # # # # , , , , , ' ~ f 4 ! 4 E E , f 6.                                                a * # # 8 @ + ^ } } % % # # # # # # # # # # # # # # # # # # # # # # # # # # # # # # % } + # # % # # @ 8 * ^ ] @ @ @ % # # # 8 V 1.B.                                                    f.I d.r.3 3 8 + % + + # } ] * ",
"                                              ] # 8 % @ + } + % % # # # # # # # # # # # # # # # # # # # # # # # # # # # # # # # # # # % % # % # } & # } B.                                                                                                                                                                                                                                                                                      : a.,.m ! ! ' # # # % % % # # # # # # # # # # # # # # # # # # # # # # # # # # # # # # # # # # # # # # # # # # # # # # # # # # # # # # # # # # # # # # # # # # # # # # # # # # # # # # # # # # # # ] h @ # } } ] $ # + U.                                                                                          j., , , ~ @ @ & & @ % # # # # # # # # # # # # # # # # # # # # % % + } @ { 4 , _ .., H                                               }.* # # $ ^ & # % $ # # # # # # # # , ' ' , , , ' 4 , r ' , 4 t p , p                                                   R # # $ @ % @ } + % # # # # # # # # # # # # # # # # # # # # % % % % % % % % # # + % # # # # % % + } } @ @ & # @ * 3 3 8 @ % # # % + @ ] 3 4.r.c 1.;+F.          G / c R }.] 8 $ } % % % # # # % + % % @ @ + # # # ",
"                                            r.# @ # # + + } + % % # # # # # # # # # # # # # # # # # # # # # # # # # # # # # # # # # # % % % + # } } # /                                                                                                                                                                                                                                                                                       O., Y X _ f 4 ! % # # % % % # # # # # # # # # # # # # # # # # # # # # # # # # # # # # # # # # # # # # # # # # # # # # # # # # # # # # # # # # # # # # # # # % % % % % % % % % % % % % % % % # } @ # # # 8 3 } # # % } # # } D                                                                                         )+p.O.9 @ @ $ $ @ % # # # # # # # # # # # # # # # # # # # # % % } @ & 4 f 4 ! r 4 ' 9.                                              B.* ] 8 ^ % # % V # # # # # # # # ' ' ' , , , ' 4 S , , 5 ! , _ x., T                                                     7 # # } @ @ + % # # # # # # # # # # # # % % % % % % % % % % % % % % % % + % # # # # @ ] + + % # # # % @ ] } # # # % } @ & @ + # # # # # % + } + % # % % @ % # # # # # # # # } ] 8 $ % # % @ $ @ + } + # ] ] ] ",
"                                          <.# ^ @ # +.# ] } + % % # # # # # # # # # # # # # # # # # # # # # # # # # # # # # # # # # # % % % } , @ 4 #                                                                                                                                                                                                                                                                                       Q.) J b...E , { 4 % # # # % % # # # # # # # # # # # # # # # # # # # # # # # # # # # # # # # # # # # # # # # # # # # # # # # # # # # # # # # # # # # # # # # # % % % % % % % % % % % % % % % % # # % # # @ @ % & $ @ # # } $ $ , , &+                                                                                        j.9 @ & ] ] & + # # # # # # # # # # # # # # # # # % % % % + @ ] ] ' 4 m 5 , 9 S ! ,                                                 c # # 8 & % } # # # # # # # # , , ' ' ' 4 9 M ~ , M _ ' 5 s , s M , 0                                                     +.% @ @ } % % # # # # # # # # # # # % % % % % % % % # # # # # # # # % % # # + + # # @ ] ^ 8 @ % % % & } } & ] ] + # # # # # % % # # } @ @ + # # # # # % } % # # } ] $ } # # # + @ @ + @ } # # # % % + # # ",
"                                          % } } % % } % # $ @ % # # # # # # # # # # # # # # # # # # # # # # # # # # # # # # % % % # # % } , r , ' b.J                                                                                                                                                                                                                                                                                       J ! 3 M @ 8 % # # # # # # # # # # # # # # # # # # # # # # # # # # # # # # # # # # # # # # # # # # # # # # # # # # # # # # # # # # # # # # # # # # # # # # # # # # # # # # # # # # # # # # # # # # # # # # # # # # # # # # # # 8 @ ' # m B.                                                                                      t.# # @ # # % % # # # # % % % # # # # # # # # # # # # # # # # + + + + + + + + } # c                                               l ! , { 5 ~ 5 , , ~ , , 4 { # # # # # # # # $ @ + % % } $ 8 @ } % # ] =                                                   e.& % # % % # # + # # # # # % } @ + % # # # # # # # # # # # # # # # # # # # # # # + + + + + + + + # # # # # # # # # # # # # # # # # # # # # # # # # # # # # # # # % % % % % % % % # # # # # # # # + + + ",
"                                        !+% } } % % + % # @ } % # # # # # # # # # # # # # # # # # # # # # # # # # # # # # # % % % # # % } > , D.a.,.                                                                                                                                                                                                                                                                                      c # # ] # # } # # # # # # # # # # # # # # # # # # # # # # # # # # # # # # # # # # # # # # # # # # # # # # # # # # # # # # # # # # # # # # # # # # # # # # # # # # # # # # # # # # # # # # # # # # # # # # # # # # # # # # # # # % % @ @ # # +.d.                                                                                    g } ] ] @ @ # & @ # @ h & # # # # # # # # # # # # # # # # # % % % % % % % % # @ % *                                                 s 5 S ~ , ' p _ 4 M f , # # # # # # # # + % # # # % + @ @ } % # # @ 1.                                                    B.# # ^ & + * ^ 8 $ } + % % % + % # # # # # # # # # # # # # # # # # # # # # # % % % % % % % % # # # # # # # # # # # # # # # # # # # # # # # # # # # # # # # # % % % % % % % % # # # # # # # # % % % ",
"                                      ~+A % @ } # # % % # } % % # # # # % # # # # # # # # # # # # # # # # # # # # # # # # # % % % # # % } ) '.b.X                                                                                                                                                                                                                                                                                         @ # # 8 # # @ # # # # # # # # # # # # # # # # # # # # # # # # # # # # # # # # # # # # # # # # # # # # # # # # # # # # # # # # # # # # # # # # # # # # # # # # # # # # # # # # # # # # # # # # # # # # # # # # # # # # # # # # # # # % ] ] + % @ % =                                                                                     & # & $ @ ] * ^ # # # ^ # # # # # # # # # # # # # # # # # # # # # # # # # # # # @ o                                               u , ! 8., , S s , , M # # # # # # # # # # # # # # # % # # % @ # # # @ G                                                     c # % ] + # % 8 * 8 & & ] + % # # # # # # # # # # # # # # # # # # # # # # # # # # # # # # # # # # # # # # # # # # # # # # # # # # # # # # # # # # # # # # % % % % % % % % # # # # # # # # # # # ",
"                                    {+A ]++ @ @ % # # # # % # # # # # % % # # # # # # # # # # # # # # # # # # # # # # # # # % % % # # % } , ^+, K                                                                                                                                                                                                                                                                                       s % # 8 * # % $ % # # # # # # # # # # # # # # # # # # # # # # # # # # # # # # # # # # # # # # # # # # # # # # # # # # # # # # # # # # # # # # # # # # # # # # # # # # # # # # # # # # # # # # # # # # # # # # # # # # # # # # # # & # # # @ $ 8 h $ # # g                                                                                   G } # +.@ % $ ^ & % # # # # # # # # # # # # # # # # # # # # # # # # # # # $ 7 $ # l.                                                r { f M , , s E , # # # # # # # # # # % % % % % # # # # ] 8 & @ & } 3                                                       *.@ # * ^ 8 @ # # + * + % # # # # # # # # # # # # # # # # # # # # # # # # # # # # # # # # # # # # # # # # # # # # # # # # # # # # # # # # # # # # # # # # # # # # # # # # # # # # # # # # # ",
"                                    k O B @ ] $ % # # # # # # # # # # % % # # # # # # # # # # # # # # # # # # # # # # # # # % % % # # % } ) j.a.                                                                                                                                                                                                                                                                                        , } & ] + # % @ # # # # # # # # # # # # # # # # # # # # # # # # # # # # # # # # # # # # # # # # # # # # # # # # # # # # # # # # # # # # # # # # # # # # # # # # # # # # # # # # # # # # # # # # # # # # # # # # # # # # # # # # # % # # % + % # # % * 3 @ # 2                                                                                   7 # $ ^ & $ * & # # # # # # # # # # # # # # # # # # # # # # # # # % # # @ $ @ & *                                                 T r M f 5 S s , # # # # # # # # % % % + + % % # @ % # % % # + & 2 # # ^.                                                      u.3 @ # @ ^ ] @ % + % # # # # # # # # # # # # # # # # # # # # # # # # # # # # # # # # # # # # # # # # # # # # # # # # # # # # # # # # # # # # # # # # # # # # # # # # # # # # # # # # # ",
"                                  %+z /+y & 8 8 + # # # # # # # # # # # # # # # # # # # # # # # # # # # # # # # # # # # # # % % % # # % } < , 6.                                                                                                                                                                                                                                                                                      0 ~ @ & % # # } @ % # # # # # # # # # # # # # # # # # # # # # # # # # # # # # # # # # # # # # # # # # # # # # # # # # # # # # # # # # # # # # # # # # # # # # # # # # # # # # # # # # # # # # # # # # # # # # # # # # # # # # # # # # # % & ] ] ] ] ] % + * ] # # h                                                                                   b # + + # # ^ # # # # # # # # # # # # # # # # # # # # # # # # % # # # } +.* % # <.                                              ` , { p ' ! T # # # # # # # # # # % % % # # # + % # # # # } ] # . }.# &                                                         I ] # ] * ] } + % # # # # # # # # # # # # # # # # # # # # # # # # # # # # # # # # # # # # # # # # # # # # # # # # # # # # # # # # # # # # # # # # # # # # # # # # # # # # # # # # # ",
"                                k -.(+A _+] * * @ # # % % # # # # # # # # # # # # # # # # # # # # # # # # # # # # # # # # # % % % # # % } D.G.                                                                                                                                                                                                                                                                                        4 M % @ % # @ & } } # # # # # # # # # # # # # # # # # # # # # # # # # # # # # # # # # # # # # # # # # # # # # # # # # # # # # # # # # # # # # # # # # # # # # # # # # # # # # # # # # # # # # # # # # # # # # # # # # # # # # # # # } + % # # % + + +.@ % ] h ] } + , n                                                                                 2._ ..f , , # # # # # # # # # # # # # # # # # # # # # # # # % # + ] $ % @ +.$ # +.                                                J , S A.' # # # # # # # # % % # # # # # # # # # # + ] * +.] # # * & % U.                                                        L .., ! s + % # # # # # # # # # # # # # # # # # # # # # # # # # # # # # # # # # # # # # # # # # # # # # # # # # # # # # # # # # # # # # # # # # # # # # # # # # # # # # # # # # ",
"                              :+>.@.%+<+/+8 h * @ # # % + # # # # # # # # # # # # # # # # # # # # # # # # # # # # # # # # # % % % # # % } >                                                                                                                                                                                                                                                                                         p ! ' # } % % ] } # % # # # # # # # # # # # # # # # # # # # # # # # # # # # # # # # # # # # # # # # # # # # # # # # # # # # # # # # # # # # # # # # # # # # # # # # # # # # # # # # # # # # # # # # # # # # # # # # # # # # # # # # # # # # % @ ] ] & @ $ @ # # # + } ~ ' , ..                                                                                { 9 _ , # # # # # # # # # # # # # # # # # # # # # # # # # % % # + $ $ @ $ @ % % 1.                                              H ' 5 ~ # # # # # # # # } + % % # # # % } + # # % @ & @ } $ ] @ % % } }                                                           W.~ , + % # # # # # # # # # # # # # # # # # # # # # # # # # # # # # # # # # # # # # # # # # # # # # # # # # # # # # # # # # # # # # # # # # # # # # # # # # # # # # # # # # ",
"                             .k k C %+A A # # # # # # # # # # # # # # # # # # # # # # # # # # # # # # # # % # # # # # # % @ ] % * + # +.# [+                                                                                                                                                                                                                                                                                        r 5 { # # # # # # # # # # # # # # # # # # # # # # # # # # # # # # # # # # # # # # # # # # # # # # # # # # # # # # # # # # # # # # # # # # # # # # # # # # # # # # # # # # # # # # # # # # # # # # # # # # # # # # # # # # # # # # # # # # # # # # # # # # # # # # # # ! , M p , ,                                                                               x., f + # % % # % @ # + @ @ @ % # % } # # # # # # # # # # # # # # # # % # % @ # *                                               L.! , % } @ + + @ @ % % # % + } + # # # # # # # # # # # # # % % + @ @ ! T                                                           &.$ % % ] 8 % # + % & & + @ ^ $ # # % + @ @ + % # # # # # # # # # # # # # # # # # # # # # # # # # # # # # # # # # # # # # # # # # # # # # # # # # # # # # # # # # # # # ",
"                          1.# x }+$.$.A A # # # # # # # # # # # # # # # # # # # # # # # # # # # # # # # # % % % # # % % % @ ] & + 8 $ } b                                                                                                                                                                                                                                                                                         ` ' ! , # # # # # # # # # # # # # # # # # # # # # # # # # # # # # # # # # # # # # # # # # # # # # # # # # # # # # # # # # # # # # # # # # # # # # # # # # # # # # # # # # # # # # # # # # # # # # # # # # # # # # # # # # # # # # # # # # # # # # # # # # # # # # # # # ~ , , M s 5 f p                                                                               f ^ # + * @ # # % % } @ @ % # # % # # # # # # # # # # # # # # # # + # % h ] # 2 ;+                                              ).} ] ] @ + @ % # } + % % % + % # # # # # # # # # # # # % % + @ @ M , , 7.                                                            t.# % ] @ # ^ @ # # % 8 * ] * & % # # % % % # # # # # # # # # # # # # # # # # # # # # # # # # # # # # # # # # # # # # # # # # # # # # # # # # # # # # # # # # # # ",
"                        = # # |+}+k k B B # # # # # # # # # # # # # # # # # # # # # # # # # # # # # # # # % % % # # % % % @ % ] % ^ % @                                                                                                                                                                                                                                                                                           v , { ! # # # # # # # # # # # # # # # # # # # # # # # # # # # # # # # # # # # # # # # # # # # # # # # # # # # # # # # # # # # # # # # # # # # # # # # # # # # # # # # # # # # # # # # # # # # # # # # # # # # # # # # # # # # # # # # # # # # # # # # # # # # # # # # # # % } } $ 8 # # # ^ <.                                                                          (.] # # # 8 +.] % + @ @ % # # # # # # # # # # # # # # # # # # # @ # # ] * + # # g                                               f.4.# & * @ + ^ & } # # # % % % # # # # # # # # # # # % % + @ @ E T ! , f                                                               r.@ } ] # % * 2 h } # # + # # % @ @ % # # # # # # # # # # # # # # # # # # # # # # # # # # # # # # # # # # # # # # # # # # # # # # # # # # # # # # # # # # # # ",
"                      z.# h @ 1+#.k %+/+A # # # # # # # # # # # # # # # # # # # # # # # # # # # # # # # # % % # # # # % % $ % ] 8 @ # w.                                                                                                                                                                                                                                                                                          r , 9 ! # # # # # # # # # # # # # # # # # # # # # # # # # # # # # # # # # # # # # # # # # # # # # # # # # # # # # # # # # # # # # # # # # # # # # # # # # # # # # # # # # # # # # # # # # # # # # # # # # # # # # # # # # # # # # # # # # # # # # # # # # # # # # # # # # @ ^ % # & 2 . + ^ % % ^.                                                                          + % 8 % # @ % + @ @ + # # # # # # # # # # # # # # # # # # # % # # % @ ] * 3 # ]                                                 R % ] * @ # @ + # # # % % # # # # # # # # # # # # % % + @ @ , f S A.m , J                                                                 3 $ # # % @ % + ] % % % } @ } # # # # # # # # # # # # # # # # # # # # # # # # # # # # # # # # # # # # # # # # # # # # # # # # # # # # # # # # # # # # # ",
"                    Z @ ] * % !.!.#.~.A A # # # # # # # # # # # # # # # # # # # # # # # # # # # # # # # # # # # # # # # # ] ] + $ @ 3.                                                                                                                                                                                                                                                                                          L , , { , # # # # # # # # # # # # # # # # # # # # # # # # # # # # # # # # # # # # # # # # # # # # # # # # # # # # # # # # # # # # # # # # # # # # # # # # # # # # # # # # # # # # # # # # # # # # # # # # # # # # # # # # # # # # # # # # # # # # # # # # # # # # # # # # + + } @ & @ + % }.+ # @ @ @ B.                                                                        B.# @ 2 # @ } } } + % # # # # # # # # # # # # # # # # # # # + ] & % % + + ] # # 1.                                                @ # ] 3 + % % % % % # # # # # # # # # # # # # % % + @ @ , 9 , , E s , , R.                                                                c @ # & $ % # 8 ] @ # # # % @ # # # # # # # # # # # # # # # # # # # # # # # # # # # # # # # # # # # # # # # # # # # # # # # # # # # # # # # # # # # ",
"                    , @ 3 ] % W ;.>.k A 2+# # # # # # # # # # # # # # # # # # # # # # # # # # # # # # # # % # # # # # # % % * # # r.                                                                                                                                                                                                                                                                                            2.! ~ ~ ' # # # # # # # # # # # # # # # # # # # # # # # # # # # # # # # # # # # # # # # # # # # # # # # # # # # # # # # # # # # # # # # # # # # # # # # # # # # # # # # # # # # # # # # # # # # # # # # # # # # # # # # # # # # # # # # # # # # # # # # # # # # # # # # # } # % ] ^ % # # # & ^ @ ^ 2 ^ @ '+                                                                        V # * $ @ } + + % # # # # # # # # # # # # # # # # # # # + @ @ & @ % # # b +.# ]                                                 4.# ^ % % % + } % # # # # # # # # # # # # # % % + @ @ r t f , , r ..9., ~ `                                                                 = }.% % ] # # # % + % % % # # # # # # # # # # # # # # # # # # # # # # # # # # # # # # # # # # # # # # # # # # # # # # # # # # # # # # # # # # # ",
"                  , m # + * 8 @.x k k A 3+# # # # # # # # # # # # # # # # # # # # # # # # # # # # # # # # + % % % % % % + # @ # }.                                                                                                                                                                                                                                                                                              _ M f ~ ~ # # # # # # # # # # # # # # # # # # # # # # # # # # # # # # # # # # # # # # # # # # # # # # # # # # # # # # # # # # # # # # # # # # # # # # # # # # # # # # # # # # # # # # # # # # # # # # # # # # # # # # # # # # # # # # # # # # # # # # # # # # # # # # # # # # + @ } % ] 2 +.] + } % # # 2 a.' 0.                                                                        # ^ $ } % + + % # # # # # # # # # # # # # # # # # % # # + $ 8 ^ 8 3 % # & @ # z.                                              a # & @ } + } + # # # # # # # # # # # # # % % + @ @ ! , { p r 4 , , p :.r ! e.                                                                  G V h ] + } $ ] } # # # # # # # # # # # # # # # # # # # # # # # # # # # # # # # # # # # # # # # # # # # # # # # # # # # # # # # # # # # # ",
"              M., m , # ] # } ;.k -.z k k # # # # # # # # # # # # # # # # # # # # # # # # # # # # # # # # @ @ } + + } @ @ $ % *                                                                                                                                                                                                                                                                                                 , f { , ! # # # # # # # # # # # # # # # # # # # # # # # # # # # # # # # # # # # # # # # # # # # # # # # # # # # # # # # # # # # # # # # # # # # # # # # # # # # # # # # # # # # # # # # # # # # # # # # # # # # # # # # # # # # # # # # # # # # # # # # # # # # # # # # # % % # # # @ % # # } # # & 8 % # ~ s b., '+                                                                      h ] } % % } + % # # # # # # # # # # # # # # # # # # + & } # # } # $ ] @ } # % 3                                                 ^ ] @ + + } + + # # # # # # # # # # # % % + @ @ 9 , 9 f , ' m { 5 , , { , ..                                                                      z.3 # # } $ & # # # # # # # # # # # # # # # # # # # # # # # # # # # # # # # # # # # # # # # # # k # k # k # k # k # k # k # # # # # ",
"            U.% +.% # ] # # # # # # # # # # # # # # # # # # # # # # # # # # # # # # # # # % # # # # # # % { M 5 { r _ 4 , p , n                                                                                                                                                                                                                                                                                               1.$ % # @ # # # # # # # # # # # # # # # # # # # # # # # # # # # # # # # # # # # # # # # # # # # # # # # # # # # # # # # # # # # # # # # # # # # # # # # # # # # # # # # # # # # # # # # # # # # # # # # # # # # # # # # # # # # # # # # # # # # # # # # # # # # # # # # # # # # # # # # # # # # # # # # # # # # 5 +.m b                                                                         ! , ..s 4 9 2 % # + % # # ] # # # # # # # # # # # # # # # # # % } } + + + } & F.                                              y.# } >.$.$.>.# + & $ ] ] } # # # # # # # # # # # # # # % % % % # % & $ & & r                                                                         S.T ! , 5 4 ' ~ _ m 9 , @ % # # # # # # # + & ] $ } % # @ @ } + % # # # # # % % # # # % C B C B C B C B k A k A k A k k % % + ",
"          /.] # 8 # # ] # # # # # # # # # # # # # # # # # # # # # # # # # # # # # # # # # % % % # # % % % s , , 9 ! 5 s 9 4 T                                                                                                                                                                                                                                                                                                 ( # } % @ # # # # # # # # # # # # # # # # # # # # # # # # # # # # # # # # # # # # # # # # # # # # # # # # # # # # # # # # # # # # # # # # # # # # # # # # # # # # # # # # # # # # # # # # # # # # # # # # # # # # # # # # # # # # # # # # # # # # # # # # # # # # # # # # # # # # # # # # # # # # # # # # # h & @ & # # + 4.                                                                      W.4 _ ..5 # * 2 + # 8 @ # % % % % % % % % # # # # # # # # # % } } + % + } 3 # t.                                                ^ -.C 2+$.+.@ # + % # # 8 # # # # # # # # # # # # # # % % % # % @ $ @ & r , 4+                                                                            P E 4 , , { ~ { + } @ ] * * 8 ] @ @ @ @ @ @ & $ + } } } + % % % # # % # # # # # C B B B B B B B A A A A A A A k # # # ",
"        / % # & ] # # @ # # # # # # # # # # # # # # # # # # # # # # # # # # # # # # # # # % % % % % % % % { , r s , ' m ' ~                                                                                                                                                                                                                                                                                                   @ # & % % % # # # # # # # # # # # # # # # # # # # # # # # # # # # # # # # # # # # # # # # # # # # # # # # # # # # # # # # # # # # # # # # # # # # # # # # # # # # # # # # # # # # # # # # # # # # # # # # # # # # # # # # # # # # # # # # # # # # # # # # # # # # # # # # # # # # # # # # # # # # # # # # # % % @ * +.8 @ @ 8 $ B.                                                                    0 9 ~ 2 % # ] ] # # } % % % % % % % % # # # # # # # # # % } } + % + } # ^ % #                                                 5+C -.}+] } } ^ * @ # # # # # # # # # # # # # # # # # # % # % @ & @ @ M q.) , 6+                                                                              W.p { { 9 } % # # # # # # & @ } + } @ & ] % % % % # # # # # # # % % % + + k k k k k k k k k k k k k k k k @ @ @ ",
"      r.# @ ^ ] } @ @ # # # # # # # # # # # # # # # # # # # # # # # # # # # # # # # # # # # # % % % % # # , ~ f M r f ' ,                                                                                                                                                                                                                                                                                                     # # $ # # @ # # # # # # # # # # # # # # # # # # # # # # # # # # # # # # # # # # # # # # # # # # # # # # # # # # # # # # # # # # # # # # # # # # # # # # # # # # # # # # # # # # # # # # # # # # # # # # # # # # # # # # # # # # # # # # # # # # # # # # # # # # # # # # # # # # # # # # # # # # # # # # # # # } ^ ] } + @ $ # $ } 8                                                                     v., # @ @ % # % } } # # # # # # # # # # # # # # # # # % + } % % % } % 3 ] # ] u.                                                5+k # ] ^ } # % @ } % % % % % % % % # # # # # # # # % # # @ @ } } $ , &+m., , 7+                                                                                  Z * ] } + @ ] ^ * @ } } } } % # # 8 ] $ @ } + % % # # # # # # # # k k k k k k k k k k k k k k k k # # # ",
"    4.@ } 8 ^ + # & % # @ # # # # # # # # # # # # # # # # # # # # # # # # # # # # # # # # # # # % % # # # r _ , , t { { L                                                                                                                                                                                                                                                                                                     # # $ # # & # # # # # # # # # # # # # # # # # # # # # # # # # # # # # # # # # # # # # # # # # # # # # # # # # # # # # # # # # # # # # # # # # # # # # # # # # # # # # # # # # # # # # # # # # # # # # # # # # # # # # # # # # # # # # # # # # # # # # # # # # # # # # # # # # # # # # # # # # # # # # # # # # ] ^ % # # # % 8 @ % % + 3                                                                     * @ @ ] $ # # + # # # # # # # # % # # # # # # # # % + + % % % + & # # 2 h # *                                                 f.# + & $ + # # } % % % % % % % % # # # # # # # # # # # } @ + + @ > ' X ].]., X D                                                                                       /.t.^ @ } % # # % @ ] 8 8 + % % # # # % % ] @ % % % % # # k k k k k k k k k k k k k k k k # # # ",
"  3 # % @ @ $ $ ] @ # # ] # # # # # # # # # # # # # # # # # # # # # # # # # # # # # # # # # # % % % % # # f m ! ~ 5 , v.                                                                                                                                                                                                                                                                                                    v.& % @ # # @ # # # # # # # # # # # # # # # # # # # # # # # # # # # # # # # # # # # # # # # # # # # # # # # # # # # # # # # # # # # # # # # # # # # # # # # # # # # # # # # # # # # # # # # # # # # # # # # # # # # # # # # # # # # # # # # # # # # # # # # # # # # # # # # # # # # # # # # # # # # # # # # # + + + + $ * * 8 # % % @ ] % % 3                                                                     # % $ # # ] # # # # # # # # % % % % # # # # # # + + % % % + # ] & # @ ^ } # d.                                                R # # +.$ # # # # # # # # # # % % % # # # # # # # # } @ % % @ M D.D.O.O., , ,., 8+                                                                                              <.c . ^ } # # $ @ } % % % % % % # # # % } } + % C C C C C C C k k k k k k k k & @ } ",
"] * 2 } @ + @ ] ] % # # % # # # # # # # # # # # # # # # # # # # # # # # # # # # # # # # # # % + } } + % # ' M ..m 4 u                                                                                                                                                                                                                                                                                                       |.] # } $ % # # # # # # # # # # # # # # # # # # # # # # # # # # # # # # # # # # # # # # # # # # # # # # # # # # # # # # # # # # # # # # # # # # # # # # # # # # # # # # # # # # # # # # # # # # # # # # # # # # # # # # # # # # # # # # # # # # # # # # # # # # # # # # # # # # # # # # # # # # # # # # # # # @ # # % & @ # # $ * @ # } ] $ ] , ).                                                                  x.4 p p , ! ! ! ! ! ! ! ! % % % % % # # # # # % + % % % + ] % % + % @ $ # # 2                                                 G + # @ 8 8 % % % % % % % % + % % % % % # # # # # + } % % } , m p , , ~ 5 5 M , ! q                                                                                                         N.[.c.A.m { , , 5 ! , , ' 4 ! # % % % % % % % % # # # # # # # # ' , , ",
"# @ & } # # # # # # & & # # # # # # # # # # # # # # # # # # # # # # # # # # # # # # # # # % + @ & & @ + % _ 4 M , |.                                                                                                                                                                                                                                                                                                        f @ # + h & # # # # # # # # # # # # # # # # # # # # # # # # # # # # # # # # # # # # # # # # # # # # # # # # # # # # # # # # # # # # # # # # # # # # # # # # # # # # # # # # # # # # # # # # # # # # # # # # # # # # # # # # # # # # # # # # # # # # # # # # # # # # # # # # # # # # # # # # # # # # # # # # # % # # @ } # # } # % # # + # # % _ ~ f R.                                                                ++9 ' T { { { { { { { { % % % % % # # # # # % % % % % % } # % ] # # + + ] % $ ^.                                                8 # @ # @ @ @ @ @ @ @ @ } + + % % % % % # # # + } % % + { ' , , f ' , 4 ' 9 r 9 M N.                                                                                                                      6 R.[.7.n A.E + + + + + + + + # # # # # # # # , ! 5 ",
"& } % % % # # # # # # # # # # # # # # # # # # # # # # # # # # # # # # # # # # # # # # # # # * # % @ # ] % 9 9 _ :.                                                                                                                                                                                                                                                                                                          { % # % & } # # # # # # # # # # # # # # # # # # # # # # # # # # # # # # # # # # # # # # # # # # # # # # # # # # # # # # # # # # # # # # # # # # # # # # # # # # # # # # # # # # # # # # # # # # # # # # # # # # # # # # # # # # # # # # # # # # # # # # # # # # # # # # # # # # # # # # # # # # # # # # # # # # # # # # # # # % # # # # # # % m 5 ! ' s 6                                                                 Q , { , f _ 4 { r f & } % # # # # } # # # # # % % % # # # # # # # # h +.} # }.                                                1 # 8 ^ V 8 % ] $ % ] $ ] @ # # # % # % % % % % # # # , , , , , , , , , , 4 m 5 , E F                                                                                                                                                                       ",
"} % # # # # # # # # # # # # # # # # # # # # # # # # # # # # # # # # # # # # # # # # # # # ] # # ] @ % 8 % 9 J 9                                                                                                                                                                                                                                                                                                             , } } % + } % # # # # # # # # # # # # # # # # # # # # # # # # # # # # # # # # # # # # # # # # # # # # # # # # # # # # # # # # # # # # # # # # # # # # # # # # # # # # # # # # # # # # # # # # # # # # # # # # # # # # # # # # # # # # # # # # # # # # # # # # # # # # # # # # # # # # # # # # # # # # # # # # # # # # # # # # % # # # # # # % , ' 9 f 4 9 v `                                                                 ~ ~ r 9 , 4 m f 8 $ } } @ @ # # # # # # # % % % # # # # # # # # 8 # ] b 8 }                                                   b ^ # @ 3 @ # % + % } % # # % + # % % % % # # # # , , , , , , , , 5 { ~ M ~ , ! s , H                                                                                                                                                                   ",
"+ % % # # # # # # # # # # # # # # # # # # # # # # # # # # # # # # # # # # # # # # # # # # + # h h # } ^ ] r 9                                                                                                                                                                                                                                                                                                               , $ ] % # } + # # # # # # # # # # # # # # # # # # # # # # # # # # # # # # # # # # # # # # # # # # # # # # # # # # # # # # # # # # # # # # # # # # # # # # # # # # # # # # # # # # # # # # # # # # # # # # # # # # # # # # # # # # # # # # # # # # # # # # # # # # # # # # # # # # # # # # # # # # # # # # # # # # # # # # # # % # # # # # # % 8 $ ] * $ # # # *                                                                  +, X D., ' E # @ ] + # % + % # # # # # # % % # # # # # # # # + + ] +.} # $ r.                                                u.@ % @ # @ 4.% # + + # # + + % # # # # # # # # # # # # # # # # % % % } & & } # 8.9 , J                                                                                                                                                               ",
"@ @ + % # # # # # # # # # # # # # # # # # # # # # # # # # # # # # # # # # # # # # # # # # # } 4.% # 2 } @ S                                                                                                                                                                                                                                                                                                               L., ] $ + # @ } # # # # # # # # # # # # # # # # # # # # # # # # # # # # # # # # # # # # # # # # # # # # # # # # # # # # # # # # # # # # # # # # # # # # # # # # # # # # # # # # # # # # # # # # # # # # # # # # # # # # # # # # # # # # # # # # # # # # # # # # # # # # # # # # # # # # # # # # # # # # # # # # # # # # # # # # % # # # # # # % 8 + # % @ @ ] +.* # V                                                                 < , '.C.' , & @ # # + & % # # # # # # # # # # # # # # # # } ^ @ # @ 4.+.# * I                                                 * ] } # + + @ @ @ } + % % # # # # # # # # # # # # # # # # # # % % % $ +.* + ! ! r T S J `.                                                                                                                                                        ",
"& @ + # # # # # # # # # # # # # # # # # # # # # # # # # # # # # # # # # # # # # # % % % % @ ] } # h }.# +.                                                                                                                                                                                                                                                                                                                v., & } } # $ % # # # # # # # # # # # # # # # # # # # # # # # # # # # # # # # # # # # # # # # # # # # # # # # # # # # # # # # # # # # # # # # # # # # # # # # # # # # # # # # # # # # # # # # # # # # # # # # # # # # # # # # # # # # # # # # # # # # # # # # # # # # # # # # # # # # # # # # # # # # # # # # # # # # # # # # # % # # # # # # % & } } @ & } + } # ] ] $ 1                                                               E.: X , S 8 % # + 8 } # # # # # # # # # # # # # # # # # 8 } % & @ % % $ k 9+0+                                                z.# $ * # @ @ @ @ + % # # # # # # # # # # # # # # # # # # # $ ] % % ] ] % 5 f M f 4 , , 9 F                                                                                                                                                     ",
"+ % # # # # # # # # # # # # # # # # # # # # # # # # # # # # # # # # # # # # # % % % + + } # @ + + * # ]                                                                                                                                                                                                                                                                                                                   Q 4 @ % @ # ] # # # # # # # # # # # # # # # # # # # # # # # # # # # # # # # # # # # # # # # # # # # # # # # # # # # # # # # # # # # # # # # # # # # # # # # # # # # # # # # # # # # # # # # # # # # # # # # # # # # # # # # # # # # # # # # # # # # # # # # # # # # # # # # # # # # # # # # # # # # # # # # # # # # # # # # # # % # # # # # # % & ] ^ ^ ] } % % # + @ # # 3                                                                 ]., , + ] $ % # # % % % # # # # # # # # # # # # # # @ # # ] } # # ^ >.-.k >.                                                  ( # * } % % + % # # % % % % % % # # # # # # # # # # # # @ & # # % @ + ~ f M 5 f r 9 , , , f l                                                                                                                                               ",
"# # # # # # # # # # # # # # # # # # # # # # # # # # # # # # # # # # # # # % % % + } @ @ @ # @ * 2 % *                                                                                                                                                                                                                                                                                                                     t ' } # @ # ] # # # # # # # # # # # # # # # # # # # # # # # # # # # # # # # # # # # # # # # # # # # # # # # # # # # # # # # # # # # # # # # # # # # # # # # # # # # # # # # # # # # # # # # # # # # # # # # # # # # # # # # # # # # # # # # # # # # # # # # # # # # # # # # # # # # # # # # # # # # # # # # # # # # # # # # # # % # # # # # # % # # # # # # % } h # # $ % # # t.                                                              V.{ @ ] ] # # # +.% % % # # # # # # # # # # # # # # % # # # $ @ # !.A k >.$ c                                                   # ] @ + @ } # # } @ @ } + % % # # # # # # # # # # # # # # # % } @ , , ! ! , , , , f 9 { , , P                                                                                                                                           ",
"# # % + } # # # # # # # # # # # # # # # # # # # # # # # # # # # # # # # # % % + } @ @ @ & ] @ @ * }                                                                                                                                                                                                                                                                                                                       ~ , @ % } # ] # # # # # # # # # # # # # # # # # # # # # # # # # # # # # # # # # # # # # # # # # # # # # # # # # # # # # # # # # # # # # # # # # # # # # # # # # # # # # # # # # # # # # # # # # # # # # # # # # # # # # # # # # # # # # # # # # # # # # # # # # # # # # # # # # # # # # # # # # # # # # # # # # # # # # # # # # % # # # # # # % % + + % % + # # # # } % % } } % , H                                                               4.# # ^ ^ } % % % % # # # # # # # # # # # # # % + % # # # # # k ~.z ~.& # p                                                   V * ] ] @ % # @ & & @ } % % # # # # # # # # # # % # # + @ % # # 5 , , , 4 , , ! ~ , { m 9 , ' t l                                                                                                                                     ",
"# # # # # # # # # # # # # # # # # # # # # # # # # # # # # % # # # # # # % , ' 9 5 5 9 4 , 5 f 5 ~                                                                                                                                                                                                                                                                                                                         4 ! % # # # # % # # # # # # # # # # # # # # # # # # # # # # # # # # # # # # # # # # # # # # # # # # # # # # # # # # # # # # # # # # # # # # # # # # # # # # # # # # # # # # # # # # # # # # # # # # # # # # # # # # # # # # # # # # # # # # # # # # # # # # # # # # # # # # # # # # # # # # # # # # # # # # # # # # # # # # # # # # # # # # # # # # # # # # # # % # # # # + @ $ @ + $ 1.                                                            c.9 f ! ! p ' 5 5 , , , ' , # # # # # # # # % # # # # # # % ] @ % + ] 8 & % 2                                                   3 # ^ ] % @ ] ] & } % % # # # # # # # # # # # # # # # # # # # # # # # # # # % % } @ & & @ @ # # * z.                                                                                                                              ",
"# # # # # # # # # # # # # # # # # # # # # # # # # # # # # % # # # # # # % ~ ' ! f r 9 ' ' :., J                                                                                                                                                                                                                                                                                                                           4 ! % # # # # % # # # # # # # # # # # # # # # # # # # # # # # # # # # # # # # # # # # # # # # # # # # # # # # # # # # # # # # # # # # # # # # # # # # # # # # # # # # # # # # # # # # # # # # # # # # # # # # # # # # # # # # # # # # # # # # # # # # # # # # # # # # # # # # # # # # # # # # # # # # # # # # # # # # # # # # # # # # # # # # # # # # # # # # # % # # # # + @ & 2 & % $ V                                                               E 5 _ ' S 9 , , ! M 9 , # # # # # # # # % # # # # # # % ] @ + } $ ] & } # +.                                                    @ + * @ @ + @ @ # # # ] % % % # % % % % # # # # # # # # # # # # # # # # % % + } @ @ @ @ ] 8 & # # b                                                                                                                           ",
"# # # # # # # # # # # # # # # # # # # # # # # # # # # # # # # # # # # # # , 4 9 { ! ~ r s , y.                                                                                                                                                                                                                                                                                                                            4 ! % # # # # % # # # # # # # # # # # # # # # # # # # # # # # # # # # # # # # # # # # # # # # # # # # # # # # # # # # # # # # # # # # # # # # # # # # # # # # # # # # # # # # # # # # # # # # # # # # # # # # # # # # # # # # # # # # # # # # # # # # # # # # # # # # # # # # # # # # # # # # # # # # # # # # # # # # # # # # # # # # # # # # # # # # # # # # # # # # # # + @ @ # # ] V @ # R                                                             R., , P , , 9 M , , _ # # # # # # # # % # # # # # # % @ @ @ @ @ @ @ @ & # # R                                                   1.} } 8 * @ # # ^ & # % % % % % % % % # # # # # # # # # # # # # # # # + + + } } @ @ & # $ h ^ } # + ] V w.                                                                                                                  ",
"# # # # # # # # # # # # # # # # # # # # # # # # # # # # # # % % % % % % # , 4 5 9 5 _ M { x.                                                                                                                                                                                                                                                                                                                              4 ! % # # # # % # # # # # # # # # # # # # # # # # # # # # # # # # # # # # # # # # # # # # # # # # # # # # # # # # # # # # # # # # # # # # # # # # # # # # # # # # # # # # # # # # # # # # # # # # # # # # # # # # # # # # # # # # # # # # # # # # # # # # # # # # # # # # # # # # # # # # # # # # # # # # # # # # # # # # # # # # # # # # # # # # # # # # # # # # # # # % % } @ & @ } @ ] & % #  .                                                            t , M p ! , ' 4 , # # # # # # # # % # # # # # # % } @ $ & } + @ $ V * % # .                                                     t.# @ ^ ] % # # % # # % % # # # # # # # # # # # # # # # # # # # # & & @ @ @ & ] ] & % # & 2 V ] # @ + } * 1                                                                                                             ",
"# # # # # # # # # # # # # # # # # # # # # # # # # # # # # # % % % % % % # 5 , , s m ! m 7.                                                                                                                                                                                                                                                                                                                                4 ! % # # # # % # # # # # # # # # # # # # # # # # # # # # # # # # # # # # # # # # # # # # # # # # # # # # # # # # # # # # # # # # # # # # # # # # # # # # # # # # # # # # # # # # # # # # # # # # # # # # # # # # # # # # # # # # # # # # # # # # # # # # # # # # # # # # # # # # # # # # # # # # # # # # # # # # # # # # # # # # # # # # # # # # # # # # # # # # # # # % % % + & 8 % # # ] 3 ] ] # d.                                                          g.s , ! f , , 4 # # # # # # # # % # # # # # # % % @ $ @ + % } & } # * 4.% # 1.                                                    3 # % ] # # 8 % % + + % % # # # # # # # # # # # # # # # # # # & @ @ } } @ & $ 8 $ % # # % @ $ @ @ % # # % ] 3                                                                                                       ",
"# # # # # # # # # # # # # # # # # # # # # # # # # # # # # # % % + + % % # r , ' _ , ,                                                                                                                                                         a+D Z.K b+c+D a+                                                                                                                                                            4 ! % # # # # % # # # # # # # # # # # # # # # # # # # # # # # # # # # # # # # # # # # # # # # # # # # # # # # # # # # # # # # # # # # # # # # # # # # # # # # # # # # # # # # # # # # # # # # # # # # # # # # # # # # # # # # # # # # # # # # # # # # # # # # # # # # # # # # # # # # # # # # # # # # # # # # # # # # # # # # # # # # # # # # # # # # # # # # # # # # # % % % % # # + & } # % $ # ^ + @                                                             f , ! , , r % % % % % % % % % # # # # # # % % + @ } % # % @ # } % # % h +.@                                                     G # # % & } @ & $ $ & @ } % # # # # # # # # # # # # # # # # % % % # # % % % # @ ] ] @ % # % & @ @ @ } % % @ , : j.E.                                                                                              ",
"# # # # # # # # # # # # # # # # # # # # # # # # # # # # # # % + } } + % # ! 9 f 9 J                                                                                                                                                 x.s p M 5 ~ ~ 9 ~ ! , 5 { , , m q                                                                                                                                                     4 ! % # # # # % # # # # # # # # # # # # # # # # # # # # # # # # # # # # # # # # # # # # # # # # # # # # # # # # # # # # # # # # # # # # # # # # # # # # # # # # # # # # # # # # # # # # # # # # # # # # # # # # # # # # # # # # # # # # # # # # # # # # # # # # # # # # # # # # # # # # # # # # # # # # # # # # # # # # # # # # # # # # # # # # # # # # # # # # # # # # % % % # $ # # + } # # % + # # # # 7                                                           y., ...., + + + + + + + + % # # # # # # % # % % % # # % % @ + % # # # } +.! 7.                                                    _._ p E $ ] ] 8 ] $ @ } # # # # # # # # # # # # # # # # # # # # # # # # % # # # # % } } # # # # # # + ] , ' 4 { 4 ~ r p                                                                                       ",
"# # # # # # # # # # # # # # # # # # # # # # # # # # # # # # % + } } + % # ' T M _                                                                                                                                             9.m T 9 , , ~ ' , , , ! ! ' , ! r 5 , , ! m y.                                                                                                                                              4 ! % # # # # % # # # # # # # # # # # # # # # # # # # # # # # # # # # # # # # # # # # # # # # # # # # # # # # # # # # # # # # # # # # # # # # # # # # # # # # # # # # # # # # # # # # # # # # # # # # # # # # # # # # # # # # # # # # # # # # # # # # # # # # # # # # # # # # # # # # # # # # # # # # # # # # # # # # # # # # # # # # # # # # # # # # # # # # # # # # % % % # # # # # + } % % } @ # # * ^ # }.B.                                                          4 , S } } } } } } } } % # # # # # # % # # # # # # # # # # % % % # # # , , p                                                       s , & $ ] ] ] & } % # # # # # # # # # # # # # # # # # # # % # # # # # % @ @ % # # # } # % @ } # # % 5 9 { ' , , ! ~ , 4 f ..5.                                                                            ",
"# # # # # # # # # # # # # # # # # # # # # % % % % + + # # # % @ } @ ] & % f , e                                                                                                                                         c.~ ~ ~ 9 9 5 5 f 4 4 4 ! ! ' ' ' 5 5 5 5 5 5 5 5 r , H                                                                                                                                           , , + # % ] # + # # # # # # # # # # # # # # # # # # # # # # # # # # # # # # # # # # # # # # # # # # # # # # # # # # # # # # # # # # # # # # # # # # # # # # # # # # # # # # # # # # # # # # # # # # # # # # # # # # # # # # # # # # # # # # # # # # # # # # # # # # # # # # # # # # # # # # % % # # # # # # # # # # # # # # # # # # # # # # # # # # # # # # # # # # # # # # # # # # # # # # # # # } @ + } ] ] & m                                                           n , % + 8 +.} # # ] + # # } @ # # # # # # # # # # # % % # # # % @ & 5 r 9 M S.                                                      8 # @ +.& # & * @ # # % } % # # # # # # # # # # # # # # # # # # # # # # # # # # # # # # # % % % ! 4 4 { { 4 4 ! , ' 4 { { 4 ' , _ e                                                                   ",
"# # # # # # # # # # # # # # # # # # # # # % # # # % % # # ] # # $ ^ @ % @ f Z                                                                                                                                       ..! ~ ~ ~ ~ 9 9 9 9 9 4 4 ! ! ! ' ' ' 9 9 9 9 9 9 9 9 , p 5 ~                                                                                                                                         4 ' @ # % & # % # # # # # # # # # # # # # # # # # # # # # # # # # # # # # # # # # # # # # # # # # # # # # # # # # # # # # # # # # # # # # # # # # # # # # # # # # # # # # # # # # # # # # # # # # # # # # # # # # # # # # # # # # # # # # # # # # # # # # # # # # # # # # # # # % # # # # # % % # # # # # # # # # # # # # # # # # # # # # # # # # # # # # # # # # # # # # # # # # # # # # # # # # + } + } $ ] @ _ f N.                                                          % % # # @ * & # @ % % } } % % + # # # # # # # # % % # # # % @ @ , 5 t 9., M                                                       I % ^ }.& % & & # # # # # % & # # # # # # # # # # # # # # # # # # # # # # # # # # # # # % % % 4 { { ~ ~ { { 4 ' 4 { 9 9 { 4 ' M 5 ! , , { t c.                                                      ",
"# # # # # # # # # # # # # # # # # # # # # % # # # % % % # # % % % % @ ] ]                                                                                                                                     x.! 9 f { 4 ~ ~ ~ ~ ~ { { { + % % % % % % % } } } } } } } } # # & @ # V                                                                                                                                     f , @ # # + # # # # # # # # # # # # # # # # # # # # # # # # # # # # # # # # # # # # # # # # # # # # # # # # # # # # # # # # # # # # # # # # # # # # # # # # # # # # # # # # # # # # # # # # # # # # # # # # # # # # # # # # # # # # # # # # # # # # # # # # # # # # # # # # # # % % # # # # % % # # # # # # # # # # # # # # # # # # # # # # # # # # # # # # # # # # # # # # # # # # # # # # # # # + } % + & $ @ 4 ' , ~                                                           1 # + $ # # * # % % # # # % % # # # # # # # # % % # # # % } @ t , , m _ , 9 Q                                                       (.# @ 3 } * + # % @ % # # # # # # # # # # # # # # # # # # # # # # # # # # # # # # # % % % } } @ @ @ @ } } + } @ & & @ } + * ] % # % & 8 ^ # # # # % & 3 4.*.^./.                            w.G ",
"# # # # # # # # # # # # # # # # # # # # # % # # # % } + % @ # # * # # /                                                                                                                                   m ~ 5 p f , ! J ~ ~ ~ { 4 4 ! ! % % % % % % # # % % % % % % % % $ % & * % # b                                                                                                                                   p , @ + # % # % # # # # # # # # # # # # # # # # # # # # # # # # # # # # # # # # # # # # # # # # # # # # # # # # # # # # # # # # # # # # # # # # # # # # # # # # # # # # # # # # # # # # # # # # # # # # # # # # % % % % % % % % % % % % % % % % # # # # # # # # % % % % % % % % % % % # # # # % # # # # # # # # # # # # # # # # # # # # # # # # # # # # # # # # # # # # # # # # # # # # # # # # # % + % % @ @ } , 4 r _ 9 ).                                                          @ # ^ * # # + } # # # % # # # # # # # # # % % # # # % + } ! 4 9 m S _ 4 , t                                                         }.@ ^ ^ & + # # # % ] % % # # # # # # # # # # # # # # # # # # # # # # # # # # # % % % % + + } } + + % + } @ @ @ @ } + # # # @ ] ] + # ] $ @ % # # + @ # # # # # # # % # % } @ @ + # # @ } % ",
"# # # # # # # # # # # # # # # # # # # # # + % % + @ & & @ # ^ ^ # @                                                                                                                                 ++A., , , 4 M m 5 , , { { 4 4 ! ' ' ' % % % % % # # # % % % % % % % % @ + # # + h @ # o                                                                                                                               0 , } @ # % # } # # # # # # # # # # # # # # # # # # # # # # # # # # # # # # # # # # # # # # # # # # # # # # # # # # # # # # # # # # # # # # # # # # # # # # # # # # # # # # # # # # # # # # # # # # # # # # # # % % % % % % % % % % % % % % % % # # # # # # # # % % % % % % % % + + % % # # # % # # # # # # # # # # # # # # # # # # # # # # # # # # # # # # # # # # # # # # # # # # # # # # # # # % % # # } } % { , ! m 9 , J l                                                         (.# # ] % ] ] + % & @ # # # # # # # # # % # # # # % % % , f m , , 9 T E , 4 N.                                                        ^ # # @ 8 ] + + $ + + % % % % % # # # # # # # # # # # # # # # # # # # # # # % % % # % % % % % % # % % % + + % % % $ & @ } % % + + # # # # # % } @ @ @ & & } + + } # # # # # % % % % % # ",
"# # # # # # # # # # # # # # # # # # # # # % % + @ ] ] ] & # } @ }.                                                                                                                              v.t r 9 4 r m { , , , f M ! ! ! ' ' ' ' ' % % % % # # # # % % % % % % % % # # % @ # # # 8 # =                                                                                                                             Q , % @ # % % } # # # # # # # # # # # # # # # # # # # # # # # # # # # # # # # # # # # # # # # # # # # # # # # # # # # # # # # # # # # # # # # # # # # # # # # # # # # # # # # # # # # # # # # # # # # # # # # # % % % % % % % % % % % % % % % % % % % % % % % % % % % % % % % % } } % % # # # % # # # # # # # # # # # # # # # # # # # # # # # # # # # # # # # # # # # # # # # # # # # # # # # # # % % # # % + # 4 ~ , , , T p , J                                                         *.# $ ] ] $ @ @ $ @ % # # # # # # # # # # # # % % % % 9 , , , , ~ 9 { ' m 5 M                                                           c # # } ^ } # @ @ @ } } + % % # # # # # # # # # # # # # # # # # # # # # % % % # # # # # # # # # # # # # # # # # # # # # # % @ } } } + % # # # # # # # # # # # @ @ } + + } @ @ % % # ",
"# # # # # # # # # # # # # # # # # # # # # # # + $ 8 8 $ @ . + 1                                                                                                                             U E , , , { E , { 9 ~ 5 5 , , , , , , , ' ' ' % % % # # # # # % % % % % % % % # & @ # # ] ] # ^ # *.                                                                                                                          L ' % & # % % % # # # # # # # # # # # # # # # # # # # # # # # # # # # # # # # # # # # # # # # # # # # # # # # # # # # # # # # # # # # # # # # # # # # # # # # # # # # # # # # # # # # # # # # # # # # # # # # # % % % % % % % % + + + + + + + + + + + + + + + + % % % % % % % % @ } + % % # # # # # # # # # # # # # # # # # # # # # # # # # # # # # # # # # # # # # # # # # # # # # # # # # # # # # # # # % % # , , , J A.! ' .., f U                                                         * V 8 % + @ @ } } # # # # # # # # # # # % % # # # , , ~ r { , , ~ M { { 9 ~ H                                                           3 # % $ 8 $ $ & @ @ @ } } # # # # # # # # # # # # # # # # # # # # # % % % # # # % % # # # # # # # # # # # # + @ @ + # # # # # # # # # % # # # % # # # # # # # # # # # # # % # # ",
"# # # # # # # # # # # # # # # # # # # # # # # 4 $ m 8 f } m                                                                                                                             8.m , , 5 T _ ~ f ~ 9 ~ ' , , , f , , , , , ' ' ' % % % d+e+e+e+e+e+e+e+e+e+e+e+e+e+e+e+e+e+e+e+e+e+e+e+e+e+e+e+e+e+e+e+e+e+e+e+f+                                                                                                ++{ % $ # % % # # # # # # # # # # # # # # # # # # # # # # # # # # # # # # # # # # # # # # # # # # # # # # # # # # # # # # g+e+e+e+e+e+e+e+e+e+e+e+e+e+e+e+e+e+e+e+e+e+e+e+e+e+e+e+e+e+e+e+e+e+e+e+e+e+e+e+e+h+# % % % % % % % % + + + + + + + + } } } } } } } } % % % % % % % % @ } + % % # # # # # # # # # # # # # # # # # # # # # # # # # # # # # # # # # # # # # # # # # # # # # # # # # # # # # # # # % % # ! ~ , , , M p 9 p f , ..i+e+e+e+e+e+e+e+e+e+e+e+e+e+e+e+e+e+e+e+e+e+e+e+e+e+e+e+e+e+e+e+e+e+e+^ , , , # , # # # # # % % % # # # { , , , ! _ m 9 , { E 9., , S `.                                                          9 , 5 ] ] ] $ & @ @ @ # # # # # # # # # k # k # k # k # k # k # C % % # % % % % % % # % # # # # # # % % # # # # % + + } % # # # % % % # # % % # % + @ # # % % % % # # # # # ",
"# # # # # % % # # # # # % # + + # # + + # 4 , , _ ].{ > e                                                                                                                           ( @ # @ @ & $ $ & @ @ @ } + + % % # # # # # # # # # # # # # j+e+e+e+e+e+e+e+e+e+e+e+e+e+e+e+e+e+e+e+e+e+e+e+e+e+e+e+e+e+e+e+e+e+e+e+k+                                                                                                  , }.# $ + # @ # # # # # # # # # # # # # # # # # # # # # # # # # # # # # # # # # # # # # # # # # # # # # # # # # # # # # l+e+e+e+e+e+e+e+e+e+e+e+e+e+e+e+e+e+e+e+e+e+e+e+e+e+e+e+e+e+e+e+e+e+e+e+e+e+e+e+e+m+k @ @ % # # + } % ] & } # # # + & # # # # # # # # # # + & ] @ # # # % @ + # # # } + } % # # # # # + } + # # # # # # # # # # % % + # # # # # # # # # # # # # # # # # # # # # # # # # # # # # # # # % # # % @ @ % # } # % } n+e+e+e+e+e+e+e+e+e+e+e+e+e+e+e+e+e+e+e+e+e+e+e+e+e+e+e+e+e+e+e+e+e+e+, ' X , , , ! , , , , # # % % # # # # # % % + } @ @ } + + @ @ } + J                                                             ' { ! { f M { ! { , , ' ! ! 4 ! # C B C A k B $.@+k A k A k A k k # # # # # # # # # # # # # # # # # # # # # # # # # # # # # # # # # # # # # # # # # # # # # # # # # # # ",
"# # # # # % % # # # # # # & # # } @ # # } , ,.j.> , )                                                                                                                           g @ % % } } @ @ @ @ @ @ } } } + % % % # # # # # # # # # # # # # o+e+e+e+e+e+e+e+e+e+e+e+e+e+e+e+e+e+e+e+e+e+e+e+e+e+e+e+e+e+e+e+e+e+e+e+p+                                                                                                  , +.# @ % # @ # # # # # # # # # # # # # # # # # # # # # # # # # # # # # # # # # # # # # # # # # # # # # # # # # # # # # q+e+e+e+e+e+e+e+e+e+e+e+e+e+e+e+e+e+e+e+e+e+e+e+e+e+e+e+e+e+e+e+e+e+e+e+e+e+e+e+e+r+@.# # @ $ ] ] @ # # # + @ @ @ @ & * h +.+.* ] } % @ # # # # # & ^ # } $ ] & % # # # # } ] ] } # # # # # % + } } + # # # # # # % % # # # # # # # # # # # # # # # # # # # # # # # # # # # # # # # # % # # } ] ] @ % 8 & @ % s+e+e+e+e+e+e+e+e+e+e+e+e+e+e+e+e+e+e+e+e+e+e+e+e+e+e+e+e+e+e+e+e+e+e+_ , , , '.a., , f ! ' % % } } % # # # # % % + } @ @ @ + } @ @ @ } ^ ^ *.                                                          q :.5 f r ~ ! 9 p 9 , , , , , # C B A A A B B B A A A A A A A k # # # # # # # # # # # # # # # # # # # # # # # # # # # # # # # # # # # # # # # # # # # # # # # # # # # ",
"# # # # # % % % % % # # # # # } ] @ # # } , > , '                                                                                                                           r.% # $ ] @ } } } + + + + } } + + + % % % # # # # # # # # # # # # # t+e+e+e+e+e+e+e+e+e+e+e+e+e+e+e+e+e+e+e+e+e+e+e+e+e+e+e+e+e+e+e+e+e+e+e+u+3.                                                                                                , ] # @ # + } # # # # # # # # # # # # # # # # # # # # # # # # # # # # # # # # # # # # # # # # # # # # # # # # # # # # v+w+e+e+e+e+e+e+e+e+e+e+e+e+e+e+e+e+e+e+e+e+e+e+e+e+e+e+e+e+e+e+e+e+e+e+e+e+e+e+e+e+x+k # # % # # # + + 3 g u.                                F./ 7 * @ ^ @ # # # # # % @ # # # # # % ] } } } } % # # # % % % % # # # # # # # # # # # # # # # # # # # # # # # # # # # # # # # # # # # # % # # } ] ] $ @ } } @ y+z+e+e+e+e+e+e+e+e+e+e+e+e+e+e+e+e+e+e+e+e+e+e+e+e+e+e+e+e+e+e+e+e+e+e+{ A+, , , , , , { , , # # % % # # % # # # % % } } @ @ } } @ @ @ } # % % h                                                             L.J m r M r , , , , ! 4 4 } C C k k k k k k k k k k k k k k # # # # # # # # # # # # # # # # # # # # # # # # # # # # # # # # # # # # # # # # # # # # # # # # # # # ",
"# # # # # # % % + % % # # & @ # # # } $ @ , ) -+                                                                                                                        2 # # % ] 8 + # % + % % # # % % + + % % % % # # # # # # # # # # # # # # # d+e+e+e+e+e+e+e+e+e+e+e+e+e+e+e+e+e+e+e+e+e+e+e+e+e+e+e+e+e+e+e+e+e+e+e+B+                                                                                                9 % & @ # @ % # # # # # # # # # # # # # # # # # # # # # # # # # # # # # # # # # # # # # # # # # # # # # # # # # # # # C+e+e+e+e+e+e+e+e+e+e+e+e+e+e+e+e+e+e+e+e+e+e+e+e+e+e+e+e+e+e+e+e+e+e+e+e+e+e+e+e+e+e+D+$ $ @ @ b /.                                                          / ( +.@ # ] % # & @ # # # % # # # # # # % @ @ } } + % % # # # # # # # # # # # # # # # # # # # # # # # # # # # # # # # # # # # # % } @ + % # # % E+e+e+e+e+e+e+e+e+e+e+e+e+e+e+e+e+e+e+e+e+e+e+e+e+e+e+e+e+e+e+e+e+e+e+e+{ , p.,.X , X { ' , , # # % # # # % # # # % % + + } + % + } @ } % * # % ] } 4.                                                            L.! , { ~ 5 f 9 , , , ] % C C C C k k k k k k k k k k k # # # # # # # # # # # # # # # # # # # # # # # # # # # # # # # # # # # # # # # # # # # # # # # # # # # ",
"# # # # # # # % + + % % # + # # ^ +.$ % % 6+                                                                                                                        & # @ $ ] + # # # % # % % # # # # % % % % % % % # # # # # # # # # # # # # # # j+e+e+e+e+e+e+e+e+e+e+e+e+e+e+e+e+e+e+e+e+e+e+e+e+e+e+e+e+e+e+e+e+e+e+e+F+                                                                                                9.# 8 @ # @ # # # # # # # # # # # # # # # # # # # # # # # # # # # # # # # # # # # # # # # # # # # # # # # # # # # # # G+e+e+e+e+e+e+e+e+e+e+e+e+e+e+e+e+e+e+e+e+e+e+e+e+e+e+e+e+e+e+e+e+e+e+e+e+e+e+e+e+e+e+H+& 1.                                                                            (.}.} # # # @ h ^ @ + & $ } % } & & $ & @ } + % # # # # # # # # # # # # # # # # # # # # # # # # # # # # # # # # # # # # # # # # % + # n+e+e+e+e+e+e+e+e+e+e+e+e+e+e+e+e+e+e+e+e+e+e+e+e+e+e+e+e+e+e+e+e+e+e+e+  I+J+b.,.%.,.f M 5 ~ @ @ @ @ } % % # # # # % % % % # # # % % % # & # # +.] # +.f.                                                              4 4 , ' M p f ' # % $.x x $.C k k k k k k k k k k # # # # # # # # # # # # # # # # # # # # # # # # # # # # # # # # # # # # # # # # # # # # # # # # # # # ",
"# # # # # # # % % + + + + # # ] . & # 7                                                                                                                       G h $ @ + @ # # @ # # @ @ # # # # # # # # # % % % # # # # # # # # # # # # # # # # # o+e+e+e+e+e+e+e+e+e+e+e+e+e+e+e+e+e+e+e+e+e+e+e+e+e+e+e+e+e+e+e+e+e+e+e+K+                                                                                                u # 8 @ % + # # # # # # # # # # # # # # # # # # # # # # # # # # # # # # # # # # # # # # # # # # # # # # # # # # # # # L+e+e+e+e+e+e+e+e+e+e+e+e+e+e+e+e+e+e+e+e+e+e+e+e+e+e+e+e+e+e+e+e+e+e+e+e+e+e+e+e+e+e+M+                                                                                        I . + # @ # # + & % # + & $ ] ] $ @ } % # # # # # # # # # # # # # # # # # # # # # # # # # # # # # # # # % % % # # # # # # # # N+e+e+e+e+e+e+e+e+e+e+e+e+e+e+e+e+e+e+e+e+e+e+e+e+e+e+e+e+e+e+e+e+e+e+e+    O+, , D.D.4 ! 5 9 @ @ @ @ + % % % # # # # % % # # # # # # # # # } + # # V * # }.                                                                [.{ , ' 9 ~ { + %+%+-.%+$.k k k k k k k k k k # # # # # # # # # # # # # # # # # # # # # # # # # # # # # # # # # # # # # # # # # # # # # # # # # # # ",
"# # # # # # # # # % } @ & 4.* @ @ h z.                                                                                                                    R V ] @ # # # @ % $ ] % # # # } # # # % % # # # # # # # # # # # # # # # # # # # # # # # P+e+e+e+e+e+e+e+e+e+e+e+e+e+e+e+e+e+e+e+e+e+e+e+e+e+e+e+e+e+e+e+e+e+e+e+Q+3.                                                                                                # @ } # # + # # # # # # # # # # # # # # # # # # # # # # # # # # # # # # # # # # # # # # # # # # # # # # # # # # # v+w+e+e+e+e+e+e+e+e+e+e+e+e+e+e+e+e+e+e+e+e+e+e+e+e+e+e+e+e+e+e+e+e+e+e+e+e+e+e+e+e+e+e+R+                                                                                                q 2._ 9 { , ! r ~ 9 5 f 5 ~ 4 ! # # # # # # # # # # # # # # # # # # # # # # # # # # # # # # # # % % % # # # # % # # S+z+e+e+e+e+e+e+e+e+e+e+e+e+e+e+e+e+e+e+e+e+e+e+e+e+e+e+e+e+e+e+e+e+e+e+e+      H.G.,.Y 9 , ~ 4 % % + % # # % % # # # # # % # # # # # % # # & # # % % # ] 7 % #  .                                                                F r , ! s } @ @ & @ } % # # # # # # # # # # # # # # # # # # # # # # # # # # # # # # # # # # # # # # # # # # # # # # # # # # # # # # # # # # # # ",
"# # # # # # # # # % } & ] } & ] 1                                                                                                                     G * @ @ + + $ ^ @ # & # # % & % # + # # % % % % # # # # # # # # # # # # # # # # # # # # # # # d+e+e+e+e+e+e+e+e+e+e+e+e+e+e+e+e+e+e+e+e+e+e+e+e+e+e+e+e+e+e+e+e+e+e+e+T+                                                                                                } % % # # @ # # # # # # # # # # # # # # # # # # # # # # # # # # # # # # # # # # # # # # # # # # # # # # # # # # # U+e+e+e+e+e+e+e+e+e+e+e+e+e+e+e+e+e+e+e+e+e+e+e+e+e+e+e+e+e+e+e+e+e+e+e+e+e+e+e+e+e+e+e+e+t+                                                                                                      c.9 , 4 ! { ~ 5 9 { ! ' # # # # # # # # # # # # # # # # # # # # # # # # # # # # # # # # # # # # # # # % @ # V+e+e+e+e+e+e+e+e+e+e+e+e+e+e+e+e+e+e+e+e+e+e+e+e+e+e+e+e+e+e+e+e+e+e+e+w+          ].a.....5 9 @ @ @ @ % # % % # # # # # # % # # # % % # # # # % @ & $ } # % 8 @ ]                                                                   L r , @ @ $ $ & @ % # # # # # # # # # # # # # # # # # # # # # # # # # # # # # # # # # # # # # # # # # # # # # # # # # # # # # # # # # # # # ",
"# # # # # $ # # # @ ] } # # u.                                                                                                                    (.% # ] 8 ^ ^ ^ ] @ + # # # # # # # # # # # # # # # # # # # # # # # # # # # # # # # # # # # # # # j+e+e+e+e+e+e+e+e+e+e+e+e+e+e+e+e+e+e+e+e+e+e+e+e+e+e+e+e+e+e+e+e+e+e+e+W+                                                                                                & + # @ # # # # # # # # # # # # # # # # # # # # # # # # # # # # # # # # # # # # # # # # # # # # # # # # # # # # # X+e+e+e+e+e+e+e+e+e+e+e+e+e+e+e+e+e+e+e+e+e+e+e+e+e+e+e+e+e+e+e+e+e+e+e+e+e+e+e+e+e+e+e+e+Y+                                                                                                            e M ! ! f ' , , S # % + # # # # # # + } # # $ } # # # # # # # # # # # # # # # # # # # # # # # # # # # Z+e+e+e+e+e+e+e+e+e+e+e+e+e+e+e+e+e+e+e+e+e+e+e+e+e+e+e+e+e+e+e+e+e+e+e+`+            >+, { s 4 # @ @ % # @ # # # # # # # # # # # # # # # # } # # # @ $ @ % $ $ ] + # 3                                                                     3 @ % ] h $ % # # % @ @ % # # # # # % + @ } # # # # % % % % % % # # # # # # # # # # # # # # # # # # # # # # # # # # # # # # # # # # # ",
"+ # # # } # + ^ } # + 3 b                                                                                                                     c % # ] $ % 8 8 ^ ^ ] & } % # # # # # # # # # # # # # # # # # # # # # # # # # # # # # # # # # # # # #  @e+e+e+e+e+e+e+e+e+e+e+e+e+e+e+e+e+e+e+e+e+e+e+e+e+e+e+e+e+e+e+e+e+e+e+.@                                                                                                3 % @ } # + # # # # # # # # # # # # # # # # # # # # # # # # # # # # # # # # # # # # # # # # # # # # # # # # # # # +@e+e+e+e+e+e+e+e+e+e+e+e+e+e+e+e+e+e+e+e+e+e+e+e+e+e+e+e+e+e+e+e+e+e+e+e+e+e+e+e+e+e+e+e+M+                                                                                                                  A., { r 4 , @ & @ # # # % % } @ } # # # # & # # # # # # # # # # # # # # # # # # # # # # # # # # @@e+e+e+e+e+e+e+e+e+e+e+e+e+e+e+e+e+e+e+e+e+e+e+e+e+e+e+e+e+e+e+e+e+e+e+#@                T , m 2 @ # $ $ # # # # # # # # # # # # # # # # # + # # # @ & @ % # # # @ % # }.U.                                                                    R # # + $ $ # # # # # } } + # # # # # # + @ # # # # # # # # # # # # # # # # # # # # # # # # # # # # # # # # # # # # # # # # # # # ",
"# ] ] % # ] # # ] $ 2                                                                                                                     ( ^ # % # # # $ @ & & $ & @ + % # # # # # # # # # # # # # # # # # # # # # # # # # # # # # # # # # # # # # P+e+e+e+e+e+e+e+e+e+e+e+e+e+e+e+e+e+e+e+e+e+e+e+e+e+e+e+e+e+e+e+e+e+e+e+Q+3.                                                                                              r.# * % # $ # # # # # # # # # # # # # # # # # # # # # # # # # # # # # # # # # # # # # # # # # # # # # # # # # # $@u+e+e+e+e+e+e+e+e+e+e+e+e+e+e+e+e+e+e+e+e+e+e+e+e+e+e+e+e+e+e+e+e+e+e+e+e+e+e+e+e+e+e+e+e+%@                                                                                                                        &+: 4 # # # # # # # + # # # $ @ # # @ # # # # # # # # # # # # # # # # # # # # # # # # # &@z+e+e+e+e+e+e+e+e+e+e+e+e+e+e+e+e+e+e+e+e+e+e+e+e+e+e+e+e+e+e+e+e+e+e+e+*@                  e p # } 8 @ # # % % % # # # # # # # # # # # # # + # # # } @ } % * @ + $ ^ & # # r./.                                                                    &._ , , { ~ ~ 4 , , , , $ $ & } % # # # # # # # # # # # # # # # # # # # # # # # # # # # # # # # # # # # # # # # # # # # # # # ",
"% # # @ 2 + } + .                                                                                                                     R * # # # } @ + @ 8 # # % % % % # # # # # # # # # # # # # # # # # # # # # # # # # # # # # # # # # # # # # # # # =@e+e+e+e+e+e+e+e+e+e+e+e+e+e+e+e+e+e+e+e+e+e+e+e+e+e+e+e+e+e+e+e+e+e+e+h+                                                                                              o # 3 # # ] # # # # # # # # # # # # # # # # # # # # # # # # # # # # # # # # # # # # # # # # # # # # # # # # # # -@e+e+e+e+e+e+e+e+e+e+e+e+e+e+e+e+e+e+e+e+e+e+e+e+e+e+e+e+e+e+e+e+e+e+e+e+e+e+e+e+e+e+e+e+e+e+;@                                                                                                                          e.p } % & $ % # + ] # # & * @ # # # # # # # # # # # # # # # # # # # # # # # # # # # >@e+e+e+e+e+e+e+e+e+e+e+e+e+e+e+e+e+e+e+e+e+e+e+e+e+e+e+e+e+e+e+e+e+e+e+w+(.                      @ # $ @ % & @ } + + % % # # # # # # # # # # % # # # + } + % } + # # # + @ } # @ +.                                                                        5., , , ! f r 5 ! # # % % % % % } } } } + % % % % # # # # # # # # # # # # # # # # # # # # # # # # # # # # # # # # # # # ",
"3 * + # # ^  .                                                                                                                    * % % # $ @ # # # @ @ # # # # # # # # # # # # # # # # # # # # # # # # # # # # # # # # # # # # # # # # # # # # # # # j+e+e+e+e+e+e+e+e+e+e+e+e+e+e+e+e+e+e+e+e+e+e+e+e+e+e+e+e+e+e+e+e+e+e+e+,@                                                                                                % * # % ] # # # # # # # # # # # # # # # # # # # # # # # # # # # # # # # # # # # # # # # # # # # # # # # # # # '@e+e+e+e+e+e+e+e+e+e+e+e+e+e+e+e+e+e+e+e+e+e+e+e+e+e+e+e+e+e+e+e+e+e+e+e+e+e+e+e+e+e+e+e+e+e+o+                                                                                                                                t.% @ 8 ] @ 3 ^ @ % % @ % # # # # # # # # # # # # # # # # # # # # # # # # # # )@e+e+e+e+e+e+e+e+e+e+e+e+e+e+e+e+e+e+e+e+e+e+e+e+e+e+e+e+e+e+e+e+e+e+e+`+                          c + % ] ^ $ & @ @ } % % % # # # # # # # # % # # # % % % % # # + # # # # # # # @ } (                                                                           0 , , , ~ ~ ] & } % # # + @ @ @ @ } + % % % # # # # # # # # # # # # # # # # # # # # # # # # # # # # # # # # # # # ",
"# # + 3 l.                                                                                                                    & $ ^ % # } # @ 3 $ # # # # # # # # % % % % # # # # # # # # # # # # # # # # # # # # # # # # # # # # # # # # # # # # # #  @e+e+e+e+e+e+e+e+e+e+e+e+e+e+e+e+e+e+e+e+e+e+e+e+e+e+e+e+e+e+e+e+e+e+e+.@                                                                                                3 } % @ @ # # # # # # # # # # # # # # # # # # # # # # # # # # # # # # # # # # # # # # # # # # # # # # # # # # `+e+e+e+e+e+e+e+e+e+e+e+e+e+e+e+e+e+e+e+e+e+e+e+e+e+e+e+e+e+e+e+e+e+e+e+e+e+e+e+e+e+e+e+e+e+e+!@                                                                                                                                    3.# # * # % ] & % % % # # # # # # # # # # # # # # # # # # # # # # # # # # ~@e+e+e+e+e+e+e+e+e+e+e+e+e+e+e+e+e+e+e+e+e+e+e+e+e+e+e+e+e+e+e+e+e+e+e+k+                              $ # # ] ] $ @ } % % # # # # # # # # # # # # # # # # # } @ @ @ @ @ % # # 3 ^ # % # ;+                                                                          &.0 { , % % % @ & & } % @ @ } + % # # # # # # # # # # # # # # # # # # # # # # # # # # # # # # # # # # # # # # ",
"+ % c                                                                                                                   c # # @ & $ V 3 # & % # # # @ @ % % % % % % % % + # # # # # # # # # # # # # # # # # # # # # # # # # # # # # # # # # # # # # # {@e+e+e+e+e+e+e+e+e+e+e+e+e+e+e+e+e+e+e+e+e+e+e+e+e+e+e+e+e+e+e+e+e+e+e+Q+^.                                                                                              (.# $ * # # # # # # # # # # # # # # # # # # # # # # # # # # # # # # # # # # # # # # # # # # # # # # # # # # ]@u+e+e+e+e+e+e+e+e+e+e+e+e+e+e+e+e+e+e+e+e+e+e+e+e+e+e+e+e+e+e+e+e+e+e+e+e+e+e+e+e+e+e+e+e+e+e+%@                                                                                                                                          @ 8 } + ] ] + # # # # # # # # # # # # # # # # # # # # # # # # # # &@^@e+e+e+e+e+e+e+e+e+e+e+e+e+e+e+e+e+e+e+e+e+e+e+e+e+e+e+e+e+e+e+e+e+e+e+f+                                l.$ ] $ & @ % # # # # # # # # # # # # # # # # # # # @ # # # # # # # @ # # & 8 * ] #                                                                               6.^ @ # # @ ] ] & & @ @ } % # # # # # # # # # # # # # # # # # # # # # # # # # # # # # # # # # # # # # # ",
"                                                                                                                    U.3 + ] ] * 8 % @ ] % # # # & @ # # % % # # # # # % % # # # # # # # # # # # # # # # # # # # # # # # # # # # # # # # # # # # # # # # =@e+e+e+e+e+e+e+e+e+e+e+e+e+e+e+e+e+e+e+e+e+e+e+e+e+e+e+e+e+e+e+e+e+e+e+D+                                                                                              a # ^ 3 # # # # # # # # # # # # # # # # # # # # # # # # # # # # # # # # # # # # # # # # # # # # # # # # # # /@e+e+e+e+e+e+e+e+e+e+e+e+e+e+e+e+e+e+e+e+e+e+e+e+e+e+e+e+e+e+e+e+e+e+e+e+e+e+e+e+e+e+e+e+e+e+e+e+(@                                                                                                                                             .# # & + # } # # # # # # # # # # # # # # # # # # # # # # # # i+e+e+e+e+e+e+e+e+e+e+e+e+e+e+e+e+e+e+e+e+e+e+e+e+e+e+e+e+e+e+e+e+e+e+e+u+3.                                  (.$ & @ + % # # # # # # # # # # # # # # # # # # # # # # } + # # } # ] & @ 8 } + V # 4.                                                                                z.3 # # } & ] ] $ @ } % % # # # # # # # # # # # # # # # # # # # # # # # # # # # # # # # # # # # # ",
"                                                                                                                 .8 # # @ % } & ] $ @ % # # # # # # # # # # # # # # # # # # # # # # # # # # # # # # # # # # # # # # # # # # # # # # # # # # # # # # # # j+e+e+e+e+e+e+e+e+e+e+e+e+e+e+e+e+e+e+e+e+e+e+e+e+e+e+e+e+e+e+e+e+e+e+e+_@                                                                                                # @ ] @ # # # # # # # # # # # # # # # # # # # # # # # # # # # # # # # # # # # # # # # # # # # # # # # # # #@e+e+e+e+e+e+e+e+e+e+e+e+e+e+e+e+e+e+e+e+e+e+e+e+e+e+e+e+e+e+e+e+e+e+e+e+e+e+e+e+e+e+e+e+e+e+e+e+o+                                                                                                                                                :., 5 M ' & # # # @ % # # # # + % # # % + # # # # # # # # :@e+e+e+e+e+e+e+e+e+e+e+e+e+e+e+e+e+e+e+e+e+e+e+e+e+e+e+e+e+e+e+e+e+e+e+p+                                        3 # 3 ] # % } # # # # # # # # # # # # # # # # # # # # # # # # % % + } @ @ @ & # @ *  .                                                                                    x.! 4 ~ 5 5 ~ 4 , , # # # % % # # % # # % + + % # # % # # # % % % # % % % % % % % % % # # ",
"                                                                                                          w.R } # # # @ * % + @ @ @ } % # # # # # # # # # # # # # # # # # # # # # # # # # # # # # # # # # # # # # # # # # # # # # # # # # # # # # # # # <@e+e+e+e+e+e+e+e+e+e+e+e+e+e+e+e+e+e+e+e+e+e+e+e+e+e+e+e+e+e+e+e+e+e+e+[@                                                                                                ^ @ & @ # # # # # # # # # # # # # # # # # # # # # # # # # # # # # # # # # # # # # # # # # # # # # # # # # K+e+e+e+e+e+e+e+e+e+e+e+e+e+e+e+e+e+e+e+e+e+e+e+e+e+e+e+e+e+e+e+e+e+e+e+e+e+e+e+e+e+e+e+e+e+e+e+e+}@                                                                                                                                                    u 9 , # ^ h # # # ] ] # % # # # # # # # # # # # # # # |@e+e+e+e+e+e+e+e+e+e+e+e+e+e+e+e+e+e+e+e+e+e+e+e+e+e+e+e+e+e+e+e+e+e+e+F+                                          r.# & ] # # } % # % } % # # # # # # # # # # # # # # # # # # % % % + } @ @ @ 3 8 + # } *.                                                                                    l Q S , , , ! { } # # } @ % # # @ + % # # # # # # # # # # % # # # # # # # # # # % % % ",
"                                                                                                      z.* ] # # % @ + # % % % + + + % % # # # # # # # # # # # # # # # # # # # # # # # # # # # # # # # # # # # # # # # # # # # # # # # # # # # # # # # # {@e+e+e+e+e+e+e+e+e+e+e+e+e+e+e+e+e+e+e+e+e+e+e+e+e+e+e+e+e+e+e+e+e+e+e+1@^.                                                                                              ( # # @ # # # # # # # # # # # # # # # # # # # # # # # # # # # # # # # # # # # # # # # # # # # # # # # # ]@Q+e+e+e+e+e+e+e+e+e+e+e+e+e+e+e+e+e+e+e+e+e+e+e+e+e+e+e+e+e+e+e+e+e+e+e+e+e+e+e+e+e+e+e+e+e+e+e+e+2@                                                                                                                                                        h.& # # ] 3 & # # @ + % % % % # # # # # # # # # 3@4@e+e+e+e+e+e+e+e+e+e+e+e+e+e+e+e+e+e+e+e+e+e+e+e+e+e+e+e+e+e+e+e+e+e+e+B+                                            1.$ 8 } + } # # % % # # + # # # # # # # # # # # # # # # # # # % % % + + } # # } h % # }.                                                                                          `.c._ , & # # # + } + } # # # % @ & @ @ # % + + + % + } % % % % % % % % + + % ",
"                                                                                                  z.8 # # + # # @ @ % # # % % # # # # # % # # # # # # # # # # # # # # # # # # # # # # # # # # # # # # # # # # # # # # # # # # # # # # # # # # # # # # # # =@e+e+e+e+e+e+e+e+e+e+e+e+e+e+e+e+e+e+e+e+e+e+e+e+e+e+e+e+e+e+e+e+e+e+e+5@                                                                                              a # # ] # # # # # # # # # # # # # # # # # # # # # # # # # # # # # # # # # # # # # # # # # # # # # # # # 6@e+e+e+e+e+e+e+e+e+e+e+e+e+e+e+e+e+e+e+e+e+e+e+e+e+e+e+e+e+e+e+e+e+e+e+e+e+e+e+e+e+e+e+e+e+e+e+e+e+e+7@                                                                                                                                                          3.% } * } # @ } } @ ] & % # % # # # # # # # 8@e+e+e+e+e+e+e+e+e+e+e+e+e+e+e+e+e+e+e+e+e+e+e+e+e+e+e+e+e+e+e+e+e+e+e+u+3.                                                +.# 4.] @ @ $ + # # @ # # # # # # # # # # # # # # # # # # # # % % % % @ # # ] +.8 # # g                                                                                               g 3 @ + @ @ } + ] & @ + % # # # & ] ] $ } % % % % % % % % % % % + + % ",
"                                                                                              4.# % $ ^ h # # # # # # # % # # # # # # # % # # # # # # # # # # # # # # # # # # # # # # # # # # # # # # # # # # # # # # # # # # # # # # # # # # # # # # # # 9@e+e+e+e+e+e+e+e+e+e+e+e+e+e+e+e+e+e+e+e+e+e+e+e+e+e+e+e+e+e+e+e+e+e+e+m+                                                                                                @ # ^ # # # # # # # # # # # # # # # # # # # # # # # # # # # # # # # # # # # # # # # # # # # # # # # # k+e+e+e+e+e+e+e+e+e+e+e+e+e+e+e+e+e+e+e+e+e+e+e+e+e+e+e+e+e+e+e+e+e+e+e+e+e+e+e+e+e+e+e+e+e+e+e+e+e+e+<@                                                                                                                                                              3 % * 3 $ # % ] * $ # # } # # # # # # # 0@e+e+e+e+e+e+e+e+e+e+e+e+e+e+e+e+e+e+e+e+e+e+e+e+e+e+e+e+e+e+e+e+e+e+e+K+                                                    G # & @ $ h ] # # @ # # # # # # # # # # # # # # # # # # # # # # # # @ $ + # # $ ] } # } h                                                                                                   a ( * $ @ % # % $ h 3 3 % % % # # # # # } } } } } } } } % % % ",
"                                                                                          h # # # $ $ } + & & & @ % # # # # # # # # # # % # # # # # # # # # # # # # # # # # # # # # # # # # # # # # # # # # # # # # # # # # # # # # # # # # # # # # # # # <@e+e+e+e+e+e+e+e+e+e+e+e+e+e+e+e+e+e+e+e+e+e+e+e+e+e+e+e+e+e+e+e+e+e+e+a@                                                                                                +.# + # # # # # # # # # # # # # # # # # # # # # # # # # # # # # # # # # # # # # # # # # # # # # # # # .@e+e+e+e+e+e+e+e+e+e+e+e+e+e+e+e+e+e+e+e+e+e+e+e+e+e+e+e+e+e+e+e+e+e+e+e+e+e+e+e+e+e+e+e+e+e+e+e+e+e+}@                                                                                                                                                                  8 # $ % % @ 8 @ # # % # # # # # # # q+e+e+e+e+e+e+e+e+e+e+e+e+e+e+e+e+e+e+e+e+e+e+e+e+e+e+e+e+e+e+e+e+e+e+e+F+                                                      f.] # # % @ # # % # # # # # # # # # # # # # # # # # # # # # # # # # # ] * @ # # $ }.# # % 2                                                                                                       z.d.V & # # # # @ % % + $ * +.3 } } } } } } } } % % % ",
"                                                                                    r.^ @ @ 3 b 2 + # % +.# # # # # % % % # # # # # # % % # # # # # # # # # # # # # # # # # # # # # # # # # # # # # # # # # # # # # # # # # # # # # # # # # # # # # # # # {@e+e+e+e+e+e+e+e+e+e+e+e+e+e+e+e+e+e+e+e+e+e+e+e+e+e+e+e+e+e+e+e+e+e+e+1@^.                                                                                              R # # # # # # # # # # # # # # # # # # # # # # # # # # # # # # # # # # # # # # # # # # # # # # # # # ]@1@e+e+e+e+e+e+e+e+e+e+e+e+e+e+e+e+e+e+e+e+e+e+e+e+e+e+e+e+e+e+e+e+e+e+e+e+e+e+e+e+e+e+e+e+e+e+e+e+e+e+2@                                                                                                                                                                      f 9.5 ' ~ ~ , , ' # # # # # # b@4@e+e+e+e+e+e+e+e+e+e+e+e+e+e+e+e+e+e+e+e+e+e+e+e+e+e+e+e+e+e+e+e+e+e+e+c@*                                                         S.9 , ' , , ' # # # # # # # # # # # # # # # # # # # # # # # # % # + @ } # % $ # $ * +.@ # (.                                                                                                              N.P t _ , , , , , , 4 4 4 4 4 4 4 4 4 4 ! ",
"                                                                                V & ] & # & % # % * 3 $ # + % # # # # % # # # # % % % % % # # # # # # # # # # # # # # # # # # # # # # # # # # # # # # # # # # # # # # # # # # # # # # # # # # # # # # # # # =@e+e+e+e+e+e+e+e+e+e+e+e+e+e+e+e+e+e+e+e+e+e+e+e+e+e+e+e+e+e+e+e+e+e+e+d@                                                                                              G 8 # # # # # # # # # # # # # # # # # # # # # # # # # # # # # # # # # # # # # # # # # # # # # # # # f+e+e+e+e+e+e+e+e+e+e+e+e+e+e+e+e+e+e+e+e+e+e+e+e+e+e+e+e+e+e+e+e+e+e+e+e+e+e+e+e+e+e+e+e+e+e+e+e+e+e+e+e+e@                                                                                                                                                                      e S , ! 5 { , ' # # # # # # f@e+e+e+e+e+e+e+e+e+e+e+e+e+e+e+e+e+e+e+e+e+e+e+e+e+e+e+e+e+e+e+e+e+e+e+u+% % ^                                                         l s 5 ~ ! ! # # # # # # # # # # # # # # # # # # # # # # # # # & $ # # & $ % % @ $ % % * ^ # r.                                                                                                                      L y.0 _ ' ' ' ' ' ' ' ' ~ { { ",
"                                                                          b 8 % @ ] $ @ } + + + + + + + + # # # # # # # # # # # # # # # # # # # # # # # # # # # # # # # # # # # # # # # # # # # # # # # # # # # # # # # # # # # # # # # # # # # # # # # # # 9@e+e+e+e+e+e+e+e+e+e+e+e+e+e+e+e+e+e+e+e+e+e+e+e+e+e+e+e+e+e+e+e+e+e+e+_@                                                                                                ] # # # % % % % % # # # # # # # # # # # # # # # # # # # # # # # # # # # # # # # # # # # # # # # # W+e+e+e+e+e+e+e+e+e+e+e+e+e+e+e+e+e+e+e+e+e+e+e+e+e+e+e+e+e+e+e+e+e+e+e+e+e+e+e+e+e+e+e+e+e+e+e+e+e+e+e+e+g@                                                                                                                                                                          |.~ r 4 , , # + @ # # % l+e+e+e+e+e+e+e+e+e+e+e+e+e+e+e+e+e+e+e+e+e+e+e+e+e+e+e+e+e+e+e+e+e+e+e+p+@ + ] ( 1.                                                        S 4 f 4 # @ } # # } } # % % # # # # # % # # # # # # # # } } } } } } } } & & & & & & & & % } (.                                                                                                                                  L e J _ , , , ",
"                                                                    ++9., h @ # % @ + # # % % % % % % % % # # # # # # # # # # # # # # # # # # # # # # # # # # # # # # # # # # # # # # # # # # # # # # # # # # # # # # # # # # # # # # # # # # # # # # # # # <@e+e+e+e+e+e+e+e+e+e+e+e+e+e+e+e+e+e+e+e+e+e+e+e+e+e+e+e+e+e+e+e+e+e+e+[@                                                                                                * } # % % % % % % % # # # # # # # # # # # # # # # # # # # # # # # # # # # # # # # # # # # # # # # [@e+e+e+e+e+e+e+e+e+e+e+e+e+e+e+e+e+e+e+e+e+e+e+e+e+e+e+e+e+e+e+e+e+e+e+e+e+e+e+e+e+e+e+e+e+e+e+e+e+e+e+e+j+                                                                                                                                                                              , , S f # # % # # # L+e+e+e+e+e+e+e+e+e+e+e+e+e+e+e+e+e+e+e+e+e+e+e+e+e+e+e+e+e+e+e+e+e+e+e+#@@ % # % ] n                                                         7., ! + % + @ # # # * } % % # # # # % # # # # # # # # % % % % % % % % } } } } } } } } % # # 2 f.                                                                                                                                            ",
"                                                                (.@ # # } @ % # # % # # # % % % % % % % % # # # # # # # # # # # # # # # # # # # # # # # # # # # # # # # # # # # # # # # # # # # # # # # # # # # # # # # # # # # # # # # # # # # # # # # # # (@e+e+e+e+e+e+e+e+e+e+e+e+e+e+e+e+e+e+e+e+e+e+e+e+e+e+e+e+e+e+e+e+e+e+e+h@3                                                                                               c % % % % + + % % % # # # # # # # # # # # # # # # # # # # # # # # # # # # # # # # # # # # # # # # h@e+e+e+e+e+e+e+e+e+e+e+e+e+e+e+e+e+e+e+e+e+e+e+e+e+e+e+e+e+e+e+e+e+e+e+e+e+e+e+e+e+e+e+e+e+e+e+e+e+e+e+e+d+                                                                                                                                                                                '+, , 7 # # ^ . $@w+e+e+e+e+e+e+e+e+e+e+e+e+e+e+e+e+e+e+e+e+e+e+e+e+e+e+e+e+e+e+e+e+e+e+e+/@@ + # # # ' 9.                                                          , h 8 & $ * 3 ] % @ @ + % # # # % # # # # # # # # # # # # # # # # % % % % % % % % ] 8 $ # # *                                                                                                                                           ",
"                                                          a b # # % * ^ } % % % % # # # % # # # # # # # # # # # # # # # # # # # # # # # # # # # # # # # # # # # # # # # # # # # # # # # # # # # # # # # # # # # # # # # # # # # # # # # # # # # # # # # # # # i@e+e+e+e+e+e+e+e+e+e+e+e+e+e+e+e+e+e+e+e+e+e+e+e+e+e+e+e+e+e+e+e+e+e+e+j@f.                                                                                              # + + + } + + % % # # # # # # # # # # # # # # # # # # # # # # # # # # # # # # # # # # # # # # T+e+e+e+e+e+e+e+e+e+e+e+e+e+e+e+e+e+e+e+e+e+e+e+e+e+e+e+e+e+e+e+e+e+e+e+e+e+e+e+e+e+e+e+e+e+e+e+e+e+e+e+e+e+e+k@                                                                                                                                                                                  F , } * + # l@e+e+e+e+e+e+e+e+e+e+e+e+e+e+e+e+e+e+e+e+e+e+e+e+e+e+e+e+e+e+e+e+e+e+e+u+$@# % % } $ 9., r                                                           E ^ ] $ % # # } ] & @ % # # # # # # # # # # # # # # # # # # # # # # # # # # # # # % * 3 $ # # $ 1.                                                                                                                                    ",
"                                                    u.^ % # # & h h $ # # # % } % # # % % # # # # # # # # # # # # # # # # # # # # # # # # # # # # # # # # # # # # # # # # # # # # # # # # # # # # # # # # # # # # # # # # # # # # # # # # # # # # # # # # # # 9@e+e+e+e+e+e+e+e+e+e+e+e+e+e+e+e+e+e+e+e+e+e+e+e+e+e+e+e+e+e+e+e+e+e+e+,@@                                                                                               @ } } @ } } + % % # # # # # # # # # # # # # # # # # # # # # # # # # # # # # # # # # # # # # # ,@e+e+e+e+e+e+e+e+e+e+e+e+e+e+e+e+e+e+e+e+e+e+e+e+e+e+e+e+e+e+e+e+e+e+e+e+e+e+e+e+e+e+e+e+e+e+e+e+e+e+e+e+e+e+m@                                                                                                                                                                                    e.V # # @ G+e+e+e+e+e+e+e+e+e+e+e+e+e+e+e+e+e+e+e+e+e+e+e+e+e+e+e+e+e+e+e+e+e+e+e+p+# # # # # # m S 9 , N.                                                        <.} # & % % ^ ] $ @ + % # # # # # # # # # # # # # # # # # # # # # # # # # # # # # # @ 8 ] ] ] } @ r.                                                                                                                                ",
"                                              = V % # # @ # @ $ @ # # ] 3 # % % # # # % # # # # # # # # # # # # # # # # # # # # # # # # # # # # # # # # # # # # # # # # # # # # # # # # # # # # # # # # # # # # # # # # # # # # # # # # # # # # # # # # # # # <@e+e+e+e+e+e+e+e+e+e+e+e+e+e+e+e+e+e+e+e+e+e+e+e+e+e+e+e+e+e+e+e+e+e+e+a@% m.                                                                                            1.@ @ @ @ @ + % % # # # # # # # # # # # # # # # # # # # # # # # # # # # # # # # # # # # # # # a@e+e+e+e+e+e+e+e+e+e+e+e+e+e+e+e+e+e+e+e+e+e+e+e+e+e+e+e+e+e+e+e+e+e+e+e+e+e+e+e+e+e+e+e+e+e+e+e+e+e+e+e+e+e+9@                                                                                                                                                                                        ( & ] +@e+e+e+e+e+e+e+e+e+e+e+e+e+e+e+e+e+e+e+e+e+e+e+e+e+e+e+e+e+e+e+e+e+e+e+#@# % % # # # { ' ~ r { 8.                                                          * } }.+.# ] $ @ % % # # # # # # # # # # # % % % % % % % % # # # # # # # # +.$ % % % % @ 8 # ] @ # t.                                                                                                                            ",
"                                          ..@ # # @ @ ] +.& @ @ @ & @ } % + } % # # % % # % % % % % % % % # # # # # # # # # # # # # # # # # # # # # # # # # # # # # # # # # # # # # # # # # # # # # # # # # # # # # # # # # # # # # # # # # # # # # # # # # # (@e+e+e+e+e+e+e+e+e+e+e+e+e+e+e+e+e+e+e+e+e+e+e+e+e+e+e+e+e+e+e+e+e+e+e+h@] ,                                                                                               @ @ @ @ @ } + % # # # # # # # # # # # # # # # # # # # # # # # # # # # # # # # # # # # # # # h@e+e+e+e+e+e+e+e+e+e+e+e+e+e+e+e+e+e+e+e+e+e+e+e+e+e+e+e+e+e+e+e+e+e+e+e+e+e+e+e+e+e+e+e+e+e+e+e+e+e+e+e+e+e+=@                                                                                                                                                                                            n@w+e+e+e+e+e+e+e+e+e+e+e+e+e+e+e+e+e+e+e+e+e+e+e+e+e+e+e+e+e+e+e+e+e+e+e+o@# @ @ + % } , r m ~ , ' y.                                                          g % % + $ @ } % # # # # # # # # # # # # % % % % % % % % # # # # # # # # # # + $ $ } } $ V + } 3 8 # R                                                                                                                         ",
"                                    c.> , @ } % # % @ + # % } @ @ + % + } & & + # # } } # % % % % % % % % # # # # # # # # # # # # # # # # # # # # # # # # # # # # # # # # # # # # # # # # # # # # # # # # # # # # # # # # # # # # # # # # # # # # # # # # # # # i@e+e+e+e+e+e+e+e+e+e+e+e+e+e+e+e+e+e+e+e+e+e+e+e+e+e+e+e+e+e+e+e+e+e+e+T+E S                                                                                             & & & @ @ } + % # # # # # # # # # # # # # # # # # # # # # # # # # # # # # # # # # # # # # h+e+e+e+e+e+e+e+e+e+e+e+e+e+e+e+e+e+e+e+e+e+e+e+e+e+e+e+e+e+e+e+e+e+e+e+e+e+e+e+e+e+e+e+e+e+e+e+e+e+e+e+e+e+e+e+e+p@                                                                                                                                                                                          f+e+e+e+e+e+e+e+e+e+e+e+e+e+e+e+e+e+e+e+e+e+e+e+e+e+e+e+e+e+e+e+e+e+e+e+Q+]@# # # # # + ~ 9.~ , E M , s                                                           *.+ +.& @ + % # # # % # # # # # # # # # # # # # # # # # # # # # # # # 8 } # % % % } $ % } $ $ # # # ] h                                                                                                                     ",
"                              2.# , % ! # % % % % % % % % + + + + + + + + # # # # # # # # # # # # # # # # # # # # # # # # # # # # # # # # # # # # # # # # # # # # # # # # # # # # # # # # # # # # # # # # # # # # # # # # # # # # # # # # # # # # # # # # # # # 9@e+e+e+e+e+e+e+e+e+e+e+e+e+e+e+e+e+e+e+e+e+e+e+e+e+e+e+e+e+e+e+e+e+e+e+_@h # &.                                                                                          ;+} # % 3 8 # + # # # # # # # # # # # # # # # # # # # # # # # # # # # # # # # # # # # # # _@e+e+e+e+e+e+e+e+e+e+e+e+e+e+e+e+e+e+e+e+e+e+e+e+e+e+e+e+e+e+e+e+e+e+e+e+e+e+e+e+e+e+e+e+e+e+e+e+e+e+e+e+e+e+e+e+q@                                                                                                                                                                                          k+e+e+e+e+e+e+e+e+e+e+e+e+e+e+e+e+e+e+e+e+e+e+e+e+e+e+e+e+e+e+e+e+e+e+e+K+# # # # # # # @ & & & & $ ^ h # f.                                                          # 3 +.@ # + # # + % + + % # # # # # # # # # # # # # # # # # # # # + + + + + + + + @ @ } } @ @ & & * # # U.                                                                                                              ",
"                      G ] @ # # # % @ % # % % % % % % % % % % % % % % % % # # # # # # # # # # # # # # # # # # # # # # # # # # # # # # # # # # # # # # # # # # # # # # # # # # # # # # # # # # # # # # # # # # # # # # # # # # # # # # # # # # # # # # # # # # # <@e+e+e+e+e+e+e+e+e+e+e+e+e+e+e+e+e+e+e+e+e+e+e+e+e+e+e+e+e+e+e+e+e+e+e+a@& # +.                                                                                            8 & } & $ # ] # # # # # # # # # # # # # # # # # # # # # # # # # # # # # # # # # # # # # r+e+e+e+e+e+e+e+e+e+e+e+e+e+e+e+e+e+e+e+e+e+e+e+e+e+e+e+e+e+e+e+e+e+e+e+e+e+e+e+e+e+e+e+e+e+e+e+e+e+e+e+e+e+e+e+e+r@                                                                                                                                                                                          p+e+e+e+e+e+e+e+e+e+e+e+e+e+e+e+e+e+e+e+e+e+e+e+e+e+e+e+e+e+e+e+e+e+e+e+k+# # # # # # # # # # # # % } & * # g                                                           ] # ^ . # $ V # + + + % # # # # # # # # # # # # # # # # # # # # % % % % % % % % % # # # # % % + # @ 8 @ @ r.                                                                                                          ",
"                d.* + % % + @ & & @ + % # % % % % % % % % # # # # # # # # # # # # # # # # # # # # # # # # # # # # # # # # # # # # # # # # # # # # # # # # # # # # # # # # # # # # # # # # # # # # # # # # # # # # # # # # # # # # # # # # # # # # # # # # # # # (@e+e+e+e+e+e+e+e+e+e+e+e+e+e+e+e+e+e+e+e+e+e+e+e+e+e+e+e+e+e+e+e+e+e+e+x+% @ # r.                                                                                          ( $ & # % $ + # # # # # # # # # # # # # # # # # # # # # # # # # # # # # # # # # # # # # x+e+e+e+e+e+e+e+e+e+e+e+e+e+e+e+e+e+e+e+e+e+e+e+e+e+e+e+e+K+e+e+e+e+e+e+e+e+e+e+e+e+e+e+e+e+e+e+e+e+e+e+e+e+e+e+e+=@                                                                                                                                                                                        3.u+e+e+e+e+e+e+e+e+e+e+e+e+e+e+e+e+e+e+e+e+e+e+e+e+e+e+e+e+e+e+e+e+e+e+e+s@# # # # # # # # # # # # # } @ # +.] }.                                                          <.# # ] # # 2 } } % % # # # # # # # # # # # # # # # # # # # # # # # # # # # # # # # # # # # % # # # % % % & *                                                                                                       ",
"          . * & ^ * $ + } @ @ } % # # + & # # # # # # # # # # # # # # # # # # # # # # # # # # # # # # # # # # # # # # # # # # # # # # # # # # # # # # # # # # # # # # # # # # # # # # # # # # # # # # # # # # # # # # # # # # # # # # # # # # # # # # # # # # # # i@e+e+e+e+e+e+e+e+e+e+e+e+e+e+e+e+e+e+e+e+e+e+e+e+e+e+e+e+e+e+e+e+e+e+e+h+8 * +                                                                                             # ^ % % $ # # # # # # # # # # # # # # # # # # # # # # # # # # # # # # # # # # # # # 5@e+e+e+e+e+e+e+e+e+e+e+e+e+e+e+e+e+e+e+e+e+e+e+e+e+e+e+e+t@o+e+e+e+e+e+e+e+e+e+e+e+e+e+e+e+e+e+e+e+e+e+e+e+e+e+e+e+e+u@                                                                                                                                                                                      T+e+e+e+e+e+e+e+e+e+e+e+e+e+e+e+e+e+e+e+e+e+e+e+e+e+e+e+e+e+e+e+e+e+e+e+Q+]@# # # # # # # % % + % % + @ ] } . h # ^                                                             h @ $ % @ & @ % % # % # # # # # # # # # # # # # # # # # # # # # # # # # # # # # # # % % % } } @ $ & + # # % ] c                                                                                                 ",
"  ;+t.* @ ] # # @ ] @ @ * # # % } + % # # # # # # # # # # # # # # # # # # # # # # # # # # # # # # # # # # # # # # # # # # # # # # # # # # # # # # # # # # # # # # # # # # # # # # # # # # # # # # # # # # # # # # # # # # # # # # # # # # # # # # # # # # # # # # r@e+e+e+e+e+e+e+e+e+e+e+e+e+e+e+e+e+e+e+e+e+e+e+e+e+e+e+e+e+e+e+e+e+e+e+_@+ * @ @                                                                                           # * ] & $ # # # # # # # # # # # # # # # # # # # # # # # # # # # # # # # # # # # # # H+e+e+e+e+e+e+e+e+e+e+e+e+e+e+e+e+e+e+e+e+e+e+e+e+e+e+e+e+v@w@e+e+e+e+e+e+e+e+e+e+e+e+e+e+e+e+e+e+e+e+e+e+e+e+e+e+e+e+x@                                                                                                                                                                                      W+e+e+e+e+e+e+e+e+e+e+e+e+e+e+e+e+e+e+e+e+e+e+e+e+e+e+e+e+e+e+e+e+e+e+e+K+# # # # # # # # # # # # # # % @ @ # # h ] # f.                                                          t.# 2 & ] @ % # % % # # # # # # # # # # # # # # # # # # # # # # # # # # % % % # % % + + % @ @ # # # ] 3 # } ] & +.=                                                                                           ",
"@ # # # % * $ ] * ^ % # # ^ 8 ] ] $ } # # # # # # # # # # # # # # # # # # # # # # # # # # # # # # # # # # # # # # # # # # # # # # # # # # # # # # # # # # # # # # # # # # # # # # # # # # # # # # # # # # # # # # # # # # # # # # # # # # # # # # # # # # # # # # g@e+e+e+e+e+e+e+e+e+e+e+e+e+e+e+e+e+e+e+e+e+e+e+e+e+e+e+e+e+e+e+e+e+e+e+r+# # * # 1                                                                                         r.@ @ @ @ @ # # # # # # # # # # # # # # # # # # # # # # # # # # # # # # # # # # # # y@e+e+e+e+e+e+e+e+e+e+e+e+e+e+e+e+e+e+e+e+e+e+e+e+e+e+e+e+x@# 2@e+e+e+e+e+e+e+e+e+e+e+e+e+e+e+e+e+e+e+e+e+e+e+e+e+e+e+r@                                                                                                                                                                                      .@e+e+e+e+e+e+e+e+e+e+e+e+e+e+e+e+e+e+e+e+e+e+e+e+e+e+e+e+e+e+e+e+e+e+e+k+# # # # # # # # # # # # # # % } # # % @ & # @ R                                                           w.* # 8 @ % # % % % # # # # # # # # # # # # # # # # # # # # # # # # # # # # # # # % % @ # # # ] * } # 3 * $ % # @ h .                                                                                       ",
"@ $ $ } # } % # # # % & * % % # # # # @ ] # # # # # # # # # # # # # # # # # # # # # # # # # # # # # # # # # # # # # # # # # # # # # # # # # # # # # # # # # # # # # # # # # # # # # # # # # # # # # # # # # # # # # # # # # # # # # # # # # # # # # # # # # # # # z@e+e+e+e+e+e+e+e+e+e+e+e+e+e+e+e+e+e+e+e+e+e+e+e+e+e+e+e+e+e+e+e+e+e+e+x++ # 8 ] #                                                                                           ] % + % } # # # # # # # # # # # # # # # # # # # # # # # # # # # # # # # # # # # # R+e+e+e+e+e+e+e+e+e+e+e+e+e+e+e+e+e+e+e+e+e+e+e+e+e+e+e+e+e@# !@e+e+e+e+e+e+e+e+e+e+e+e+e+e+e+e+e+e+e+e+e+e+e+e+e+e+e+i@                                                                                                                                                                                    ^.Q+e+e+e+e+e+e+e+e+e+e+e+e+e+e+e+e+e+e+e+e+e+e+e+e+e+e+e+e+e+e+e+e+e+e+e+6@# # # # # # # # % % % % # # + @ * @ # & ] # # + 4.                                                            5 * & % # % + % # # # # # # # # # # # # # # # # # # # # # # # # # # # # # # # % % & 8 ] # # # @ ] # % ^ * & + @ ] # } d.                                                                                ",
"+ + + } @ # @ & @ % % % # @ $ ] @ # # # # # # # # # # # # # # # # # # # # # # # # # # # # # # # # # # # # # # # # # # # # # # # # # # # # # # # # # # # # # # # # # # # # # # # # # # # # # # # # # # # # # # # # # # # # # # # # # # # # # # # # # # # # # # # # # i@e+e+e+e+e+e+e+e+e+e+e+e+e+e+e+e+e+e+e+e+e+e+e+e+e+e+e+e+e+e+e+e+e+e+e+A@] # + ] p                                                                                         4.] $ @ % # # # # # # # # # # # # # # # # # # # # # # # # # # # # # # # # # # # B@e+e+e+e+e+e+e+e+e+e+e+e+e+e+e+e+e+e+e+e+e+e+e+e+e+e+e+e+C@@ # Y+e+e+e+e+e+e+e+e+e+e+e+e+e+e+e+e+e+e+e+e+e+e+e+e+e+e+e+e+D@                                                                                                                                                                                  h+e+e+e+e+e+e+e+e+e+e+e+e+e+e+e+e+e+e+e+e+e+e+e+e+e+e+e+e+e+e+e+e+e+e+e+1@]@# # # # # # # # # # # # # # % + # ] + # @ h ^ $ # ]                                                             * & % # % + % # # # # # # # # # # # # # # # # # # # # # # # # # % % # # % % % + # + } % } $ @ # ] & @ & $ $ @ @ * @ # # @ /                                                                           ",
"# # # # # # # # # # # # # # # # # # # # # # # # # # # # # # # # # # # # # # # # # # # # # # # # # # # # # # # # # # # # # # # # # # # # # # # # # # # # # # # # # # # # # # # # # # # # # # # # # # # # # # # # # # # # # # # # # # # # # # # # # # # # # # # # # # r@e+e+e+e+e+e+e+e+e+e+e+e+e+e+e+e+e+e+e+e+e+e+e+e+e+e+e+e+e+e+e+e+e+e+e+H+# # * % m                                                                                           # # @ + % % # # # # # # # # # # # # # # # # # # # # # # # # # # # # # # # # # E@e+e+e+e+e+e+e+e+e+e+e+e+e+e+e+e+e+e+e+e+e+e+e+e+e+e+e+e+r@# % F@e+e+e+e+e+e+e+e+e+e+e+e+e+e+e+e+e+e+e+e+e+e+e+e+e+e+e+e+G@                                                                                                                                                                                  _@e+e+e+e+e+e+e+e+e+e+e+e+e+e+e+e+e+e+e+e+e+e+e+e+e+e+e+e+e+e+e+e+e+e+e+.@# # # # # # # # # # # # # # # # # % # # # # % % + & # $                                                               # # ] # # ^ ^ % # # } @ } + # # # # # # # # # # # # # # # # # # # # # # # # # # # # # # # # # # # # # # # # # # # % % } @ @ Z                                                                     ",
"# # # # # # # # # # # # # # # # # # # # # # # # # # # # # # # # # # # # # # # # # # # # # # # # # # # # # # # # # # # # # # # # # # # # # # # # # # # # # # # # # # # # # # # # # # # # # # # # # # # # # # # # # # # # # # # # # # # # # # # # # # # # # # # # # # g@e+e+e+e+e+e+e+e+e+e+e+e+e+e+e+e+e+e+e+e+e+e+e+e+e+e+e+e+e+e+e+e+e+e+e+y@# # ] # , v                                                                                         }.% } % % % % # # # % % # # # # # # # # # # # # # # # # # # # # # # # # # # # H@e+e+e+e+e+e+e+e+e+e+e+e+e+e+e+e+e+e+e+e+e+e+e+e+e+e+e+e+g@# } 1.x+e+e+e+e+e+e+e+e+e+e+e+e+e+e+e+e+e+e+e+e+e+e+e+e+e+e+e+I@                                                                                                                                                                                  [@e+e+e+e+e+e+e+e+e+e+e+e+e+e+e+e+e+e+e+e+e+e+e+e+e+e+e+e+e+e+e+e+e+e+e+F+# # # # # # # # # # # # # # # # # % # # # # % % + @ * % $                                                               4.# ^ ^ # # & * $ # # % $ # # # # # # # # # # # # # # # # # # # # # # # # # # # # # # # # # # # # # # # # # # # # % + @ @ , , A.U                                                               ",
"# # # # # # # # # # # # # # # # # # # # # # # # # # # # # # # # # # # # # # # # # # # # # # # # # # # # # # # # # # # # # # # # # # # # # # # # # # # # # # # # # # # # # # # # # # # # # # # # # # # # # # # # # # # # # # # # # # # # # # # # # # # # # # # # # # z@e+e+e+e+e+e+e+e+e+e+e+e+e+e+e+e+e+e+e+e+e+e+e+e+e+e+e+e+e+e+e+e+e+e+e+R+# # & % , f L.                                                                                      = % # + % % % # # % % % # # # # # # # # # # # # # # # # # # # # # # # # # # # %@e+e+e+e+e+e+e+e+e+e+e+e+e+e+e+e+e+e+e+e+e+e+e+e+e+e+e+e+{@# & l.r+e+e+e+e+e+e+e+e+e+e+e+e+e+e+e+e+e+e+e+e+e+e+e+e+e+e+e+i@                                                                                                                                                                                ^.1@e+e+e+e+e+e+e+e+e+e+e+e+e+e+e+e+e+e+e+e+e+e+e+e+e+e+e+e+e+e+e+e+e+e+e+f+# # # # # # # # # # # # # # # # # % # # # # % % + @ * + # % =                                                             1 # # ] ] # # ] ] # # 8 % % % % % % % % # # # # # # # # # # # # # # # # # # # # # # # # # # # # # # # # # # # # % + } @ . * # # # +.1 F.                                                      ",
"# # # # # # # # # # # # # # # # # # # # # # # # # # # # # # # # # # # # # # # # # # # # # # # # # # # # # # # # # # # # # # # # # # # # # # # # # # # # # # # # # # # # # # # # # # # # # # # # # # # # # # # # # # # # # # # # # # # # # # # # # # # # # # # # # # # i@e+e+e+e+e+e+e+e+e+e+e+e+e+e+e+e+e+e+e+e+e+e+e+e+e+e+e+e+e+e+e+e+e+e+e+5@# # $ p _ 9                                                                                         * # ] # # # # # # % % # # # # # # # # # # # # # # # # # # # # # # # # # # J@e+e+e+e+e+e+e+e+e+e+e+e+e+e+e+e+e+e+e+e+e+e+e+e+e+e+e+e+d+@ # ] V H+e+e+e+e+e+e+e+e+e+e+e+e+e+e+e+e+e+e+e+e+e+e+e+e+e+e+e+e+K@                                                                                                                                                                              5@e+e+e+e+e+e+e+e+e+e+e+e+e+e+e+e+e+e+e+e+e+e+e+e+e+e+e+e+e+e+e+e+e+e+e+1@]@# # # # # # # # # # # # # # # # # % # # # # % % + + # @ ^ # # S.                                                            ^.@ % }.@ # + $ } % % # # # # # # # # # # # # # # # # # # # # # # # # # # # # # # # # # # # # # # # # # # # # % % } } # # # % } & $ ] } b w.                                                ",
"# # # # # # # # # # # # # # # # # # # # # # # # # # # # # # # # # # # # # # # # # # # # # # # # # # # # # # # # # # # # # # # # # # # # # # # # # # # # # # # # # # # # # # # # # # # # # # # # # # # # # # # # # # # # # # # # # # # # # # # # # # # # # # # # # # # r@e+e+e+e+e+e+e+e+e+e+e+e+e+e+e+e+e+e+e+e+e+e+e+e+e+e+e+e+e+e+e+e+e+e+e+L@# # % s ~ , _.                                                                                      ^.# ] # # # # # # # # # # # # # # # # # # # # # # # # # # # # # # # # # # M@e+e+e+e+e+e+e+e+e+e+e+e+e+e+e+e+e+e+e+e+e+e+e+e+e+e+e+e+}@@ # $ ] 5@e+e+e+e+e+e+e+e+e+e+e+e+e+e+e+e+e+e+e+e+e+e+e+e+e+e+e+e+N@                                                                                                                                                                              m+e+e+e+e+e+e+e+e+e+e+e+e+e+e+e+e+e+e+e+e+e+e+e+e+e+e+e+e+e+e+e+e+e+e+e+.@# # # # # # # # # # # # # # # # # # % # # # # % % + # + % } @ # { 0                                                               ] % 2 3 # # @ ] # # # # # # # # # # # # # # # # # # # # # # # # # # # # # # # # # # # # # # # # # # # # # # % + + @ @ & ] ] @ # # ] @ % # $ l.                                          ",
"# # # # # # # # # # # # # # # # # # # # # # # # # # # # # # # # # # # # # # # # # # # # # # # # # # # # # # # # # # # # # # # # # # # # # # # # # # # # # # # # # # # # # # # # # # # # # # # # # # # # # # # # # # # # # # # # # # # # # # # # # # # # # # # # # # # g@e+e+e+e+e+e+e+e+e+e+e+e+e+e+e+e+e+e+e+e+e+e+e+e+e+e+e+e+e+e+e+e+e+e+e+y@@ # + r ~ _ M                                                                                         ^ # % % # # # # # # # # # # # # # # # # # # # # # # # # # # # # # # # # M+e+e+e+e+e+e+e+e+e+e+e+e+e+e+e+e+e+e+e+e+e+e+e+e+e+e+e+e+Y+% % @ + ^.Q+e+e+e+e+e+e+e+e+e+e+e+e+e+e+e+e+e+e+e+e+e+e+e+e+e+e+e+I@                                                                                                                                                                              a@e+e+e+e+e+e+e+e+e+e+e+e+e+e+e+e+e+e+e+e+e+e+e+e+e+e+e+e+e+e+e+e+e+e+e+W+# # # # # # # # # # # # # # # # # # % # # # # % % + @ ] % # ] * ' , 2.                                                              R $ # # @ } % } # # # # # # # # # # # # # # # # # # # # # # # # # # # # # # # # # # # # # # # # # # # # # % % % % % % } & $ $ & % @ $ @ % # + $ s H                                   ",
"# # # # # # # # # # # # # # # # # # # # # # # # # # # # # # # # # # # # # # # # # # # # # # # # # # # # # # # # # # # # # # # # # # # # # # # # # # # # # # # # # # # # # # # # # # # # # # # # # # # # # # # # # # # # # # # # # # # # # # # # # # # # # # # # # # # z@e+e+e+e+e+e+e+e+e+e+e+e+e+e+e+e+e+e+e+e+e+e+e+e+e+e+e+e+e+e+e+e+e+e+e+R+@ $ $ M m p M O.                                                                                      I # @ @ + % % # # # # # # # # # # # # # # # # # # # # # # # # # # # # # 2@e+e+e+e+e+e+e+e+e+e+e+e+e+e+e+e+e+e+e+e+e+e+e+e+e+e+e+e+O@# @ % #   .@e+e+e+e+e+e+e+e+e+e+e+e+e+e+e+e+e+e+e+e+e+e+e+e+e+e+e+C@                                                                                                                                                                              1@e+e+e+e+e+e+e+e+e+e+e+e+e+e+e+e+e+e+e+e+e+e+e+e+e+e+e+e+e+e+e+e+e+e+e+j@# # # # # # # # # # # # # # # # # # % # # # # % % + @ $ @ @ $ # , T , r                                                               f.% @ 3 @ # & % % % % % % % % # # # # # # # # # # # # # # # # # # # # # # # # # # # # # # # # # # # # # # % % # # + @ & $ $ ] # % + + % % } @ , , , 9 9.Q Z                         ",
"# # # # # # # # # # # # # # # # # # # # # # # # # # # # # # # # # # # # # # # # # # # # # # # # # # # # # # # # # # # # # # # # # # # # # # # # # # # # # # # # # # # # # # # # # # # # # # # # # # # # # # # # # # # # # # # # # # # # # # # # # # # # # # # # # # # # C@e+e+e+e+e+e+e+e+e+e+e+e+e+e+e+e+e+e+e+e+e+e+e+e+e+e+e+e+e+e+e+e+e+e+e+B@@ % , M , ' ,                                                                                         * ] $ @ } + % % % # # # # # # # # # # # # # # # # # # # # # # # # # F@e+e+e+e+e+e+e+e+e+e+e+e+e+e+e+e+e+e+e+e+e+e+e+e+e+e+e+e+%@# # $ # #   F+e+e+e+e+e+e+e+e+e+e+e+e+e+e+e+e+e+e+e+e+e+e+e+e+e+e+e+e+P@                                                                                                                                                                          d@e+e+e+e+e+e+e+e+e+e+e+e+e+e+e+e+e+e+e+e+e+e+e+e+e+e+e+e+e+e+e+e+e+e+e+h@# # # # # # # # # # # # # # # # # # # % # # # # % % + # } % # % + , ! ..! ~                                                                 8 , ] m # % % % % % % % % # # # # # # # # # # # # # # # # # # # # # # # # # # # # # # # # # # # # # # % % + } + % # # % } # % % % % % % # ~ { ! , , , 4 5 ! S e 6.              ",
"# # # # # # # # # # # # # # # # # # # # # # # # # # # # # # # # # # # # # # # # # # # # # # # # # # # # # # # # # # # # # # # # # # # # # # # # # # # # # # # # # # # # # # # # # # # # # # # # # # # # # # # # # # # # # # # # # # # # # # # # # # # # # # # # # # # # r@e+e+e+e+e+e+e+e+e+e+e+e+e+e+e+e+e+e+e+e+e+e+e+e+e+e+e+e+e+e+e+e+e+e+e+L@# # # # ] # * +.                                                                                      y., _ + # @ + # % # # # # # # # # # # # # # # # # # # # # # # # # # Y+e+e+e+e+e+e+e+e+e+e+e+e+e+e+e+e+e+e+e+e+e+e+e+e+e+e+e+e+H@# @ # +.%   *@e+e+e+e+e+e+e+e+e+e+e+e+e+e+e+e+e+e+e+e+e+e+e+e+e+e+e+e+Q@                                                                                                                                                                          H+e+e+e+e+e+e+e+e+e+e+e+e+e+e+e+e+e+e+e+e+e+e+e+e+e+e+e+e+e+e+e+e+e+e+e+[@@ # # # # # # # # # # # # # # # # # # # # # # # # # # % % # # # % + } $ +.% #                                                                 K , , ! ] + } + # & ] # # # # # # # # # # # # # # # # # # # # # # # # # # # # # # # # # # # # # # # # # # # # # # # # # # # # # # # # # # # # # # # # # # # # # # $ V R       ",
"# # # # # # # # # # # # # # # # # # # # # # # # # # # # # # # # # # # # # # # # # # # # # # # # # # # # # # # # # # # # # # # # # # # # # # # # # # # # # # # # # # # # # # # # # # # # # # # # # # # # # # # # # # # # # # # # # # # # # # # # # # # # # # # # # # # # m@e+e+e+e+e+e+e+e+e+e+e+e+e+e+e+e+e+e+e+e+e+e+e+e+e+e+e+e+e+e+e+e+e+e+e+H@# # # # # @ # @ *.                                                                                      f , } % % } # % # # # # # # # # # # # # # # # # # # # # # # # # # }@e+e+e+e+e+e+e+e+e+e+e+e+e+e+e+e+e+e+e+e+e+e+e+e+e+e+e+e+L@# + # ^ # z.(.w+e+e+e+e+e+e+e+e+e+e+e+e+e+e+e+e+e+e+e+e+e+e+e+e+e+e+e+v@                                                                                                                                                                          r+e+e+e+e+e+e+e+e+e+e+e+e+e+e+e+e+e+e+e+e+e+e+e+e+e+e+e+e+e+e+e+e+e+e+e+,@# # + # # # # # # # # # # # # # # # # # # # # # # # # # # # # % @ $ ] + $ ] & h                                                                 #+X 4 _ } 8 * % # } ^ # # # # # # # # # # # # # # # # # # # # # # # # # # # # # # # # # # # # # # # # # # # # # # # # # # # # # # # # # # # # # # # # % @ ] ] } % + @ } @ & ",
"# # # # # # # # # # # # # # # # # # # # # # # # # # # # # # # # # # # # # # # # # # # # # # # # # # # # # # # # # # # # # # # # # # # # # # # # # # # # # # # # # # # # # # # # # # # # # # # # # # # # # # # # # # # # # # # # # # # # # # # # # # # # # # # # # # # # R@e+e+e+e+e+e+e+e+e+e+e+e+e+e+e+e+e+e+e+e+e+e+e+e+e+e+e+e+e+e+e+e+e+e+e+%@# # # # # +.# # #                                                                                       v., } & # @ # # # # # # # # # # # # # # # # # # # # # # # # # # # d+e+e+e+e+e+e+e+e+e+e+e+e+e+e+e+e+e+e+e+e+e+e+e+e+e+e+e+e+A@# # % @ # (   L+e+e+e+e+e+e+e+e+e+e+e+e+e+e+e+e+e+e+e+e+e+e+e+e+e+e+e+S@                                                                                                                                                                          h@e+e+e+e+e+e+e+e+e+e+e+e+e+e+e+e+e+e+e+e+e+e+e+e+e+e+e+e+e+e+e+e+e+e+e+T+# # & # # # # # # # # # # # # # # # # # # # # # # # # # # # # % @ $ ] $ # $ h # #                                                                   5 { % @ @ @ * ] # % % % % % % % % # # # # # # # # # # # # # # # # # # # # # # # # # # # # # # # # # # # # # # # # # # # # # # # # # # # # # # # # # % $ ] @ % # # } @ @ ",
"# # # # # # # # # # # # # # # # # # # # # # # # # # # # # # # # # # # # # # # # # # # # # # # # # # # # # # # # # # # # # # # # # # # # # # # # # # # # # # # # # # # # # # # # # # # # # # # # # # # # # # # # # # # # # # # # # # # # # # # # # # # # # # # # # # # # # C@e+e+e+e+e+e+e+e+e+e+e+e+e+e+e+e+e+e+e+e+e+e+e+e+e+e+e+e+e+e+e+e+e+e+e+T@# # # % % # + @ V                                                                                       p # ] # @ # # # # # # # # # # # # # # # # # # # # # # # # # # t+e+e+e+e+e+e+e+e+e+e+e+e+e+e+e+e+e+e+e+e+e+e+e+e+e+e+e+e+x+# # # @ % % @   X+e+e+e+e+e+e+e+e+e+e+e+e+e+e+e+e+e+e+e+e+e+e+e+e+e+e+e+e+U@                                                                                                                                                                      V@e+e+e+e+e+e+e+e+e+e+e+e+e+e+e+e+e+e+e+e+e+e+e+e+e+e+e+e+e+e+e+e+e+e+e+h@# % + # # # # # # # # # # # # # # # # # # # # # # # # # % % # # # % + } $ + + ] $ @ +.R                                                                 0 ] ^ +.@ # + @ # # # # # # # # # # # # # # # # # # # # # # # # # # # # # # # # # # # # # # # # # # # # # # # # # # # # # # # # # # # # # # # # # # % % % % @ & # # } ",
"# # # # # # # # # # # # # # # # # # # # # # # # # # # # # # # # # # # # # # # # # # # # # # # # # # # # # # # # # # # # # # # # # # # # # # # # # # # # # # # # # # # # # # # # # # # # # # # # # # # # # # # # # # # # # # # # # # # # # # # # # # # # # # # # # # # # # r@e+e+e+e+e+e+e+e+e+e+e+e+e+e+e+e+e+e+e+e+e+e+e+e+e+e+e+e+e+e+e+e+e+e+e+E@# # # @ # % ] 3 #                                                                                       l % @ } } # % # # # # # # # # # # # # # # # # # # # # # # # # o+e+e+e+e+e+e+e+e+e+e+e+e+e+e+e+e+e+e+e+e+e+e+e+e+e+e+e+e+r+# # # 8 # } #   W@e+e+e+e+e+e+e+e+e+e+e+e+e+e+e+e+e+e+e+e+e+e+e+e+e+e+e+e+X@                                                                                                                                                                      E@e+e+e+e+e+e+e+e+e+e+e+e+e+e+e+e+e+e+e+e+e+e+e+e+e+e+e+e+e+e+e+e+e+e+e+a@# % @ # # # # # # # # # # # # # # # # # # # # # # # # # % % # # # % + } # & & # # * * % ^.                                                                f.@ ] h % % * # # # # # # # # # # # # # # # # # # # # # # # # # # # # # # # # # # # # # # # # # # # # # # # # # # # # # # # # # # # # # # # # @ @ + % # # % + h ^ & ",
"# # # # # # # # # # # # # # # # # # # # # # # # # # # # # # # # # # # # # # # # # # # # # # # # # # # # # # # # # # # # # # # # # # # # # # # # # # # # # # # # # # # # # # # # # # # # # # # # # # # # # # # # # # # # # # # # # # # # # # # # # # # # # # # # # # # # # m@e+e+e+e+e+e+e+e+e+e+e+e+e+e+e+e+e+e+e+e+e+e+e+e+e+e+e+e+e+e+e+e+e+e+e+M+# # # # & # & # # 2                                                                                       . # @ % % % # # # # # # # # # # # # # # # # # # # # # # # # j+e+e+e+e+e+e+e+e+e+e+e+e+e+e+e+e+e+e+e+e+e+e+e+e+e+e+e+e+_@# # # h # @ #   3 ^@e+e+e+e+e+e+e+e+e+e+e+e+e+e+e+e+e+e+e+e+e+e+e+e+e+e+e+Y@                                                                                                                                                                      y@e+e+e+e+e+e+e+e+e+e+e+e+e+e+e+e+e+e+e+e+e+e+e+e+e+e+e+e+e+e+e+e+e+e+e+_@# # & # # # # # # # # # # # # # # # # # # # # # # # # # # # # # % @ $ ] # @ & % % $ ^ 8 & 7                                                                   h % * h # # # # # # # # # # # # # # # # # # # # # # # # # # # # # # # # # # # # # # # # # # # # # # # # # # # # # # # # # # # # # # # # # % + } @ } + # # @ @ + ",
"# # # # # # # # # # # # # # # # # # # # # # # # # # # # # # # # # # # # # # # # # # # # # # # # # # # # # # # # # # # # # # # # # # # # # # # # # # # # # # # # # # # # # # # # # # # # # # # # # # # # # # # # # # # # # # # # # # # # # # # # # # # # # # # # # # # # # R@e+e+e+e+e+e+e+e+e+e+e+e+e+e+e+e+e+e+e+e+e+e+e+e+e+e+e+e+e+e+e+e+e+e+e+%@# # # # $ % # # ] @ <.                                                                                      } @ % & # # # # # # # # # # # # # # # # # # # # # # # # # =@e+e+e+e+e+e+e+e+e+e+e+e+e+e+e+e+e+e+e+e+e+e+e+e+e+e+e+e+T+# # # h # & # I   Z@e+e+e+e+e+e+e+e+e+e+e+e+e+e+e+e+e+e+e+e+e+e+e+e+e+e+e+S@                                                                                    q 2.5 4 ' 9 0 q                                                                   x+e+e+e+e+e+e+e+e+e+e+e+e+e+e+e+e+e+e+e+e+e+e+e+e+e+e+e+e+e+e+e+e+e+e+e+D+# # & } # # # # # # # # # # # # # # # # # # # # # # # # # # # # % @ $ ] @ # % ] ] } # + * #  .                                                                  4.} * ] + + + + + + + + # # # # # # # # # # # # # # # # # # # # # # # # # # # # # # # # # # # # # # # # # # # # # # # # # # # # # # # # # # # } @ @ } % # # } ",
"# # # # # # # # # # # # # # # # # # # # # # # # # # # # # # # # # # # # # # # # # # # # # # # # # # # # # # # # # # # # # # # # # # # # # # # # # # # # # # # # # # # # # # # # # # # # # # # # # # # # # # # # # # # # # # # # # # # # # # # # # # # # # # # # # # # # # # C@e+e+e+e+e+e+e+e+e+e+e+e+e+e+e+e+e+e+e+e+e+e+e+e+e+e+e+e+e+e+e+e+e+e+e+J@# # # # $ # ] @ h %                                                                                       * & % 8 # # # # # # # # # # # # # # # # # # # # # # # # {@e+e+e+e+e+e+e+e+e+e+e+e+e+e+e+e+e+e+e+e+e+e+e+e+e+e+e+e+1@# # # # * # @ @ b   )@e+e+e+e+e+e+e+e+e+e+e+e+e+e+e+e+e+e+e+e+e+e+e+e+e+e+e+e+U@                                                                          k._ , ! 4 ! ' ! 4 { 4 ! , , s :.S.                                                      F@e+e+e+e+e+e+e+e+e+e+e+e+e+e+e+e+e+e+e+e+e+e+e+e+e+e+e+e+e+e+e+e+e+e+e+h@* 8 % @ % # # # # # # # # # # # # # # # # # # # # # # # # % % # # # % + } % # # + % # # $ # b % V                                                                   c % # @ @ @ @ @ @ @ @ # # # # # # # # # # # # # # # # # # # # # # # # # # # # # # # # # # # # # # # # # # # # # # # # # # # # # # # # + % # # # % % % % # # ",
"% % # # # % % % % % % % % % % % % % % % % % % % % % % % % # # % + % % } @ # # # # # # # # + % % # # # # # # # # # # # % % # # # # % % % + } + % % + + # # + + % # # # # # % % % # # % % % # # # # # # # # # # # # # # # # # # # # # # # # # # # # # # # # # # # # # # # # # `@e+e+e+e+e+e+e+e+e+e+e+e+e+e+e+e+e+e+e+e+e+e+e+e+e+e+e+e+e+e+e+e+e+e+e+M@# # # # % % } & ] ] j.                                                                                      $ # } @ # # # # # # # # # # # # # # # # # # # # # # # <@e+e+e+e+e+e+e+e+e+e+e+e+e+e+e+e+e+e+e+e+e+e+e+e+e+e+e+e+.@# # # # ] % # ] 8    #e+e+e+e+e+e+e+e+e+e+e+e+e+e+e+e+e+e+e+e+e+e+e+e+e+e+e+e+.#                                                                      8.f , 4 M ~ ! ~ 4 ! ! ' ' ! ! 4 r ~ , , s q                                                 M@e+e+e+e+e+e+e+e+e+e+e+e+e+e+e+e+e+e+e+e+e+e+e+e+e+e+e+e+e+e+e+e+e+e+e+r+} # } 8 @ # # # # # # # # # # # # # # # # # # # # # # # # # # # # # # # # # # % % + + } @ # # } # .                                                                     # h # # * ^ @ @ + % % % # # % % % # # # # # # # # # # # # # # # # # # # # # # # # # # # # # # # # # # # # # # # # # # # # # # # # # # # # # # # # # # # ",
"% % # # # % % % % % % % % % % % % % % % % % % % % % % % % $ & @ % # # # # + + % % % % % % # # # % @ & $ $ # # # # # # # # } + % # # # # # # # # # # # # # # # # # # # % % % % # # # # % % # # # # # # # # # # # # # # # # # # # # # # # # # # # # # # # # # # # # # # # # # q@e+e+e+e+e+e+e+e+e+e+e+e+e+e+e+e+e+e+e+e+e+e+e+e+e+e+e+e+e+e+e+e+e+e+e+M+# # # # % % @ & ] 8 ,.                                                                                      b # * # # # # # # # # # # # # # # # # # # # # # # # # 9@e+e+e+e+e+e+e+e+e+e+e+e+e+e+e+e+e+e+e+e+e+e+e+e+e+e+e+e+k+# # # # & } # $ @   + +#e+e+e+e+e+e+e+e+e+e+e+e+e+e+e+e+e+e+e+e+e+e+e+e+e+e+e+@#                                                                    s A.5 , ~ f { ! 9 4 ! ! ' ' ! ! 4 s _ f ~ , , 4 s L                                           M+e+e+e+e+e+e+e+e+e+e+e+e+e+e+e+e+e+e+e+e+e+e+e+e+e+e+e+e+e+e+e+e+e+e+e+M@& ^ * # ] % % % % % % % % # # # # # # # # # # # # # # # # # # # # # # # # # # % % % + } } * % } 8 + (                                                                     } + ^ * % # @ ] % % # # # # % % # # # # # # # # # # # # # # # # # # # # # # # # # # # # # # # # # # # # # # # # # # # # # # # # # # # # # # # # # # # ",
"# # # # # # # # # # # # # # # # # # # # # # # # # # # # # # # # # % @ & & # # # # # # # # % # # # # # # # % % % # # # # # # # # % } @ & & @ & @ } % % % % @ @ } + % # # # # # # # # # # # # # # # # # # # # # # # # # # # # # # # # # # # # # # # # # # # # # # # # # # # # e@e+e+e+e+e+e+e+e+e+e+e+e+e+e+e+e+e+e+e+e+e+e+e+e+e+e+e+e+e+e+e+e+e+e+e+2@# # # # % + @ $ ] ^ ,.,                                                                                       % @ # % % # # # # % % # # # # # # # # # # # # # # # i@e+e+e+e+e+e+e+e+e+e+e+e+e+e+e+e+e+e+e+e+e+e+e+e+e+e+e+e+s@# # # % % & # & #     s+e+e+e+e+e+e+e+e+e+e+e+e+e+e+e+e+e+e+e+e+e+e+e+e+e+e+e+t@                                                                  t , * @ % @ & + % & % % % % % % % % 8 @ } & $ } % % h * ;+                                      R+e+e+e+e+e+e+e+e+e+e+e+e+e+e+e+e+e+e+e+e+e+e+e+e+e+e+e+e+e+e+e+e+e+e+e+##  @ # * % # # # # # # # # # # # # # # # # # # # # # # # # # # # # # # # # # # % % % + + + % ^ } } @ # u                                                                     1.# # ] 8 @ # # # # # # # # # # # # # # # # # # # # # # # # # # # # # # # # # # # # # # # # # # # # # # # # # # # # # # # # # # # # # # # # # # # # ",
"# # # # # # # # # # # # # # # # # # # # # # # # # # # # # % # # # # # # # % % % + + } } @ + } } } } @ $ ] % % % % % % % # + + % % # # # # # # # # # # # # # # # # % % % % # # # # # # # # # # # # # # # # # # # # # # # # # # # # # # # # # # # # # # # # # # # # # # # # # # C@e+e+e+e+e+e+e+e+e+e+e+e+e+e+e+e+e+e+e+e+e+e+e+e+e+e+e+e+e+e+e+e+e+e+e+V@# # # % % @ $ ] ^ ,.' 8+                                                                                    1 # ] % % # # # # % % # # # # # # # # # # # # # # z@e+e+e+e+e+e+e+e+e+e+e+e+e+e+e+e+e+e+e+e+e+e+e+e+e+e+e+e+u+]@# # # + # ] # & # r.  $#e+e+e+e+e+e+e+e+e+e+e+e+e+e+e+e+e+e+e+e+e+e+e+e+e+e+e+e+%#                                                              , 4 x.& } } & @ % % & % % % # # % % % h @ # % @ & ] ^ # } % b                                   P+e+e+e+e+e+e+e+e+e+e+e+e+e+e+e+e+e+e+e+e+e+e+e+e+e+e+e+e+e+e+e+e+e+e+e+x+    a # V & # # # # # # # # # # # # # # # # # # # # # # # # # # # # # # # # # # # % % % % + # ^ # # V 2 5 2.                                                                    I @ % * * # # # # # # # # # # # # # # # # # # # # # # # # # # # # # # # # # # # # # # # # # # # # # # # # # # # # # # # # # # # # # # # # # # # # ",
"% % % # # # # # # # # # # # # # # # # # # # # # # # # # # } } } @ @ @ + # # # # # # # # # # # # # # # # # # # # % % # # # % % % % % % % % # # # # % @ $ ] @ @ @ } % # # # # # % % % % # # # # # # # # # # % # # # # # # # # # # # # # # # # # # # # # # # # # # # # # # # # # `@e+e+e+e+e+e+e+e+e+e+e+e+e+e+e+e+e+e+e+e+e+e+e+e+e+e+e+e+e+e+e+e+e+e+e+&## # # # % } @ $ ] ' ].,                                                                                       @ @ # # # # # # # # # # # # # # # # # # # # # # g@e+e+e+e+e+e+e+e+e+e+e+e+e+e+e+e+e+e+e+e+e+e+e+e+e+e+e+e+`+# # # # + # ] # @ # ^   *#e+e+e+e+e+e+e+e+e+e+e+e+e+e+e+e+e+e+e+e+e+e+e+e+e+e+e+e+.#                                                            N., J { + + } @ } % % @ % % # # # # % % $ @ @ & @ # # # # 2 ^ # # *.                              Y+e+e+e+e+e+e+e+e+e+e+e+e+e+e+e+e+e+e+e+e+e+e+e+e+e+e+e+e+e+e+e+e+e+e+e+y@      ;+# +.# # # # # # # # # # # # # # # # # # # # # # # # # # # # # # # # # # # % % % % % + # # @ * ^ ~ ! ).                                                                      ] # ^ $ # # % % % % # # # # # # # # # # # # # # # # # # # # # # # # # # # # # # # # # # # # # # # # # # # # # # # # # # # # # # # # # # # # # ",
"+ + % % % % % % % % % % % % % % % % % % % % % % % % % % % # # # % # # # # # # % + } @ & $ # % @ @ } + @ $ 8 ^ * +.+.+.h * & & @ } % # # # + % # # # # # # # # # # # # # # # # % + + % # # % % % % % % % % % % % % # # # # # # # # # # # # # # # # # # # # # # # # # # # # # # q@e+e+e+e+e+e+e+e+e+e+e+e+e+e+e+e+e+e+e+e+e+e+e+e+e+e+e+e+e+e+e+e+e+e+e+!@# # # # % % } @ @ , a., #+                                                                                    <.# # # % % % % # # # # # # # # # # # # # # # # r@e+e+e+e+e+e+e+e+e+e+e+e+e+e+e+e+e+e+e+e+e+e+e+e+e+e+e+e+=## # # # % # $ % % } %   -#;#e+e+e+e+e+e+e+e+e+e+e+e+e+e+e+e+e+e+e+e+e+e+e+e+e+e+e+@#                                                            , ! t , % + + + % % % + % % # # # # % % % % + & @ + & * }.# # @ $ # .                             !@e+e+e+e+e+e+e+e+e+e+e+e+e+e+e+e+e+e+e+e+e+e+e+e+e+e+e+e+e+e+e+e+e+e+e+M@        3 # % % % % % % % % # # # # # # # # # # # # # # # # # # # # # # # # # # # # # % % % } # @ 8 # @ ..9 , ).                                                                      l.} # % % } @ @ } % % # # # # # # # # # # # # # # # # # # # # # # # # # # # # # # # # # # # # # # # # # # # # # # # # # # # # # # # # # # # ",
"} } } + % % % % % % % % % % % % % % % % % % % % % % % % % + @ $ } # # % $ ^ h V ( (.3.u.;+                                                    <.u.3.r.V ] } + % % % } $ ] # % + @ @ + % # + + + + + + + + % % % % % # # # # # # # # # # # # # # # # # # # # # # # # # # # # # e@e+e+e+e+e+e+e+e+e+e+e+e+e+e+e+e+e+e+e+e+e+e+e+e+e+e+e+e+e+e+e+e+e+e+e+2@# % # # # # % % + , , %.X                                                                                       * # % } @ @ } % # # # # # # # # # # # # # # # C@e+e+e+e+e+e+e+e+e+e+e+e+e+e+e+e+e+e+e+e+e+e+e+e+e+e+e+e+W@# # # # # + } } # & # =   >#e+e+e+e+e+e+e+e+e+e+e+e+e+e+e+e+e+e+e+e+e+e+e+e+e+e+e+,#                                                            , , ! t } + % # # % % # % # # # # # # % & % # # # # # % # @ & % + % # %                           %@e+e+e+e+e+e+e+e+e+e+e+e+e+e+e+e+e+e+e+e+e+e+e+e+e+e+e+e+e+e+e+e+e+e+e+F@          ] @ @ @ @ @ @ @ @ # # # # # # # # # # # # # # # # # # # # # # # # # # # # # # # # # # @ + # * E , S ,  +                                                                      w.8 + @ @ $ $ @ @ + # # # # # # # # # # # # # # # # # # # # # # # # # # # # # # # # # # # # # # # # # # # # # # # # # # # # # # # # # # # ",
"@ @ @ } + + + + + + + + + + + + + + + + + + + 4 + 4 + 4 + p 4._.3.l                                                                                             o Q }.5 % % % } @ @ } % % } } } } } } } } % % % % % # # # # # # # # # # # # # # # # # # # # # # # # # # # # # # C@e+e+e+e+e+e+e+e+e+e+e+e+e+e+e+e+e+e+e+e+e+e+e+e+e+e+e+e+e+e+e+e+e+e+e+F@% # # # # # # # ! , ) , =+                                                                                    /.% } & ] ] & } % # # # # # # # # # # # # # e@e+e+e+e+e+e+e+e+e+e+e+e+e+e+e+e+e+e+e+e+e+e+e+e+e+e+e+e+w+v+# # # # # & % } # ] # t.  '#e+e+e+e+e+e+e+e+e+e+e+e+e+e+e+e+e+e+e+e+e+e+e+e+e+e+e+e+)#                                                        2.' J , , @ } # # # % % # % # # # # # # % # # # } @ % # # # } # # % + } h ,                       (@e+e+e+e+e+e+e+e+e+e+e+e+e+e+e+e+e+e+e+e+e+e+e+e+e+e+e+e+e+e+e+e+e+e+e+x+            o $ $ $ $ $ $ $ $ # # # # # # # # # # # # # # # # # # # # # # # # # # # # # # # # & # # + $ # , f , T , h.                                                                        @ @ $ ] ] $ @ @ # # # # # # # # # # # # # # # # # # # # # # # # # # # # # # # # # # # # # # # # # # # # # # # # # # # # # # # # # # # ",
"+ # # % % ~ ! , ' { 9 5 9 M r M 9 ! , , , , 5 T.[.!#                                                                                                                      L.W.9.4 , ! ~ 9 { ~ { ! ~ _ s r , , , , { ~ ' , ' , , , , , , ' # # # # # # # # # # # # # # # # # # # `@e+e+e+e+e+e+e+e+e+e+e+e+e+e+e+e+e+e+e+e+e+e+e+e+e+e+e+e+e+e+e+e+e+e+e+Y+# # # # # # # # # } f @ !                                                                                       ] 8 # h + ] # % # # # # # # # # # # # # # q@e+e+e+e+e+e+e+e+e+e+e+e+e+e+e+e+e+e+e+e+e+e+e+e+e+e+e+e+L+# # # # # # # # % % % % %   ~#e+e+e+e+e+e+e+e+e+e+e+e+e+e+e+e+e+e+e+e+e+e+e+e+e+e+e+e+{#                                                        & } h # @ + % # # # # # # # # # # # # # # # # # # # # # # % % # # # % @ ] 2 # ;+                  o+e+e+e+e+e+e+e+e+e+e+e+e+e+e+e+e+e+e+e+e+e+e+e+e+e+e+e+e+e+e+e+e+e+e+e+M+              (.# }.% # V # + # # # # # # # # # # # # # # # # # # # # # # # # # # # # # # # # # # % % + + } @ $ # # # k.                                                                        . # @ +.& + + % % # # # & @ # # # # % % % # # # # # # # # # # # # # # # # # # # # # # # # # # # # # # # # # # # # # # # # # # # # # ",
"] ] @ # # , 4 5 9 ' , , , , , ' M P `.                                                                                                                                              5.p , , , f p 5 , , , ! 9 9 , , , , 4 ' , , , , , , ' # # # # # # # # # # # # # # # # # # # x@e+e+e+e+e+e+e+e+e+e+e+e+e+e+e+e+e+e+e+e+e+e+e+e+e+e+e+e+e+e+e+e+e+e+e+}@# # # # # # # # # + # % + R                                                                                       # % @ + # ] # # # # # # # # # # # # # # I@e+e+e+e+e+e+e+e+e+e+e+e+e+e+e+e+e+e+e+e+e+e+e+e+e+e+e+e+l+# # # # # # % % % % % % %   )#e+e+e+e+e+e+e+e+e+e+e+e+e+e+e+e+e+e+e+e+e+e+e+e+e+e+e+e+]#                                                        + & * % & + % # # # # # # # # # # # # # # # # # # # # # # # % # # # % @ ] # 7 & /                 }@e+e+e+e+e+e+e+e+e+e+e+e+e+e+e+e+e+e+e+e+e+e+e+e+e+e+e+e+e+e+e+e+e+e+e+&#                V # +.+ @ +.] # # # # # # # # # # # # # # # # # # # # # # # # # # # # # # # # # # % % % + } } % & $ # @                                                                           7 % }.$ # # + % # # # # # # # # # % % % # # # # # # # # # # # # # # # # # # # # # # # # # # # # # # # # # # # # # # # # # # # # # ",
"# # % @ ] , { 9 ~ M :.S.                                                                                                                                                                  k.E , , s m M _ , , , ' ! 4 4 4 ' , , , , , , ' # # # # # # # # # # # # # # # # # # # k@e+e+e+e+e+e+e+e+e+e+e+e+e+e+e+e+e+e+e+e+e+e+e+e+e+e+e+e+e+e+e+e+e+e+e+d+# # # # # # # # # ] # $ 8 # 6.                                                                                    . # $ # # * # # # # # # # # # # # # # # S@e+e+e+e+e+e+e+e+e+e+e+e+e+e+e+e+e+e+e+e+e+e+e+e+e+e+e+e+g+# # # # # % % % % % + + + 7   S@e+e+e+e+e+e+e+e+e+e+e+e+e+e+e+e+e+e+e+e+e+e+e+e+e+e+e+,#                                                        # ] $ & } + % # # # # # # # # # # # # # # # # # # # # # # # # # # # % @ $ $ ^ # #                 2@e+e+e+e+e+e+e+e+e+e+e+e+e+e+e+e+e+e+e+e+e+e+e+e+e+e+e+e+e+e+e+e+e+e+e+t+                  # @ * % * $ # # # # # # # # # # # # # # # # # # # # # # # # # # # # # # # # # # % % % + + + # $ % # + %                                                                           1.# * ^ # # # + 8 ] # % 8 # # % % % % # # # # # # # # # # # # # # # # # # # # # # # # # # # # # # # # # # # # # # # # # # # # # ",
"# # & 3 b S.                                                                                                                                                                                    &._ , , S 9.m { , , , , ! ' ' , , , , ' ' % % # # # # # # # # # # # # # # # # # # S@e+e+e+e+e+e+e+e+e+e+e+e+e+e+e+e+e+e+e+e+e+e+e+e+e+e+e+e+e+e+e+e+e+e+e+w@# # # # # # # % ] # * ^ # f                                                                                       % 8 # & } # # # # # # # # # # # # # k@e+e+e+e+e+e+e+e+e+e+e+e+e+e+e+e+e+e+e+e+e+e+e+e+e+e+e+e+4@3@# # # # # % % % % + + + + @   v@e+e+e+e+e+e+e+e+e+e+e+e+e+e+e+e+e+e+e+e+e+e+e+e+e+e+e+e+^#                                                      # ] % $ # + % # # # # # # # # # # # # # # # # # # # # # # # # # # # # } & 3 # }.( %             R@e+e+e+e+e+e+e+e+e+e+e+e+e+e+e+e+e+e+e+e+e+e+e+e+e+e+e+e+e+e+e+e+e+e+e+R+                    /.# * * # + # # # # # # # # # # # # # # # # # # # # # # # # # # # # # # # # # # # % % % % + # @ # # 2 & 2                                                                             ^ 3 # # # # % + % # % % % % % % % # # # # # # # # # # # # # # # # # # # # # # # # # # # # # # # # # # # # # # # # # # # # # ",
"                                                                                                                                                                                                      y., , , ~ _ 9 , , 4 ! ! ' ' ' ' ! ! % % % # # # # # # # # # # # # # # # # # I@e+e+e+e+e+e+e+e+e+e+e+e+e+e+e+e+e+e+e+e+e+e+e+e+e+e+e+e+e+e+e+e+e+e+e+o+# # # # # # # % # % ] % ] , &.                                                                                    1 # @ } # # % % % % # # # # # # # # G@e+e+e+e+e+e+e+e+e+e+e+e+e+e+e+e+e+e+e+e+e+e+e+e+e+e+e+e+|@# # # # # # % % % % % + + + #   N@e+e+e+e+e+e+e+e+e+e+e+e+e+e+e+e+e+e+e+e+e+e+e+e+e+e+e+e+/#                                                      # ] % $ # + % # # # # # # # # # # # # # # # # # # # # # # # # % # # # + @ # 8 * 3 ] %           g@e+e+e+e+e+e+e+e+e+e+e+e+e+e+e+e+e+e+e+e+e+e+e+e+e+e+e+e+e+e+e+e+e+e+e+M+                      4.} }.# @ # # # # # # # # # # # # # # # # # # # # # # # # # # # # # # # # # # # % % % % % % } } + } & ] 8                                                                             % @ & ] & # # # # # % % % % % % # # # # # # # # # # # # # # # # # # # # # # # # # # # # # # # # # # # # # # # # # # # # # ",
"                                                                                                                                                                                                          L 0 , , , { ~ 9 { { 4 ! ! 4 { { + + % # # # # # # # # # # # # # # # # # x@e+e+e+e+e+e+e+e+e+e+e+e+e+e+e+e+e+e+e+e+e+e+e+e+e+e+e+e+e+e+e+e+e+e+e+j+# # # # # # # } # @ @ # }.~ ,                                                                                       + * # @ + } + + % % % # # # # # # v@e+e+e+e+e+e+e+e+e+e+e+e+e+e+e+e+e+e+e+e+e+e+e+e+e+e+e+e+)@# # # # # # # # # % % % % % # ( D@e+e+e+e+e+e+e+e+e+e+e+e+e+e+e+e+e+e+e+e+e+e+e+e+e+e+e+e+(#                                                      + & @ & + + % # # # # # # # # # # # # # # # # # # # # # # # # % # # # % } # 2 # # 3 # 2         j+e+e+e+e+e+e+e+e+e+e+e+e+e+e+e+e+e+e+e+e+e+e+e+e+e+e+e+e+e+e+e+e+e+e+e+Y+                        8 & * & # # # # # # # # # # # # # # # # # # # # # # # # # # # # # # # # # # # # # % % % @ # } * % % ] % ^                                                                             1.# % ] ^ ] & & $ + + + + % % # # # # # # # # # # # # # # # # # # # # # # # # # # # # # # # # # # # # # # # # # # # # # ",
"                                                                                                                                                                                                                0 ' , ' r 9 ~ ~ { { ~ ~ 9 } + % % # # # # # # # # # # # # # # # # k@e+e+e+e+e+e+e+e+e+e+e+e+e+e+e+e+e+e+e+e+e+e+e+e+e+e+e+e+e+e+e+e+e+e+e+d+# # # # # # # & # $ % % h .., U                                                                                       ^ # ] % @ @ @ } + % % % # # # # t@e+e+e+e+e+e+e+e+e+e+e+e+e+e+e+e+e+e+e+e+e+e+e+e+e+e+e+e+i+# # # # # # # # # # # # % % } %   =@e+e+e+e+e+e+e+e+e+e+e+e+e+e+e+e+e+e+e+e+e+e+e+e+e+e+e+_#                                                      8 } 8 % @ + % # # # # # # # # # # # # # # # # # # # # # # # # % # # # % % & # # # # % +./       d+e+e+e+e+e+e+e+e+e+e+e+e+e+e+e+e+e+e+e+e+e+e+e+e+e+e+e+e+e+e+e+e+e+e+e+P+                          ~ 9.! # # # # # # # # # # # # # # # # # # # # # # # # # # # # # # # # # # # # # # # # } # # h 8 } @ } # I                                                                             U .., 9 E 5 , ! + + + + % % # # # # # # # # # # # # # # # # # # # # # # # # # # # # # # # # # # # # # # # # # # # # # ",
"                                                                                                                                                                                                                    |.' 9 5 5 9 ~ ~ 9 5 5 } + % % # # # # # # # # # # # # # # # # # S@e+e+e+e+e+e+e+e+e+e+e+e+e+e+e+e+e+e+e+e+e+e+e+e+e+e+e+e+e+e+e+e+e+e+e+P+# # # # # # } # @ # @ # ..f ,                                                                                       + 3 @ # & @ @ @ } + % % # # # :#e+e+e+e+e+e+e+e+e+e+e+e+e+e+e+e+e+e+e+e+e+e+e+e+e+e+e+e+z+<## # # # # # # # # # # # # # +.# *.9@e+e+e+e+e+e+e+e+e+e+e+e+e+e+e+e+e+e+e+e+e+e+e+e+e+e+e+e+y+                                                    +.# ^ # } + % # # # # # # # # # # # # # # # # # # # # # # # # % % # # # % % # @ ] # # $ #     p@e+e+e+e+e+e+e+e+e+e+e+e+e+e+e+e+e+e+e+e+e+e+e+e+e+e+e+e+e+e+e+e+e+e+e+R+                            A.E , # # # # # # # # # # # # # # # # # # # # # # # # # # # # # # # # # # # # # # # # # % # % + # % 3 * # a                                                                               5 , E f , 9 } } } + % % # # # # # # # # # # # # # # # # # # # # # # # # # # # # # # # # # # # # # # # # # # # # # ",
"                                                                                                                                                                                                                        s { , 9 M ! 4 r 5 ^ $ # # # @ } # # # # # # # # # # # # # # I@e+e+e+e+e+e+e+e+e+e+e+e+e+e+e+e+e+e+e+e+e+e+e+e+e+e+e+e+e+e+e+e+e+e+e+ @# # # # # # # # # % } & r _ ' t                                                                                       % % ^ % # ] # } % ] # # # # Q@e+e+e+e+e+e+e+e+e+e+e+e+e+e+e+e+e+e+e+e+e+e+e+e+e+e+e+e+@@# # # # # # # # # # # # # # # @ V + g@e+e+e+e+e+e+e+e+e+e+e+e+e+e+e+e+e+e+e+e+e+e+e+e+e+e+e+e+[#                                                    z.% $ % & % % % % % % % % # # # # # # # # # # # # # # # # # # # # # # # # % # # # # % + @ R   m@e+e+e+e+e+e+e+e+e+e+e+e+e+e+e+e+e+e+e+e+e+e+e+e+e+e+e+e+e+e+e+e+e+e+e+!@                              , S + # # $ % # % # # # # # # # # # # # # # # # # # # # # # # # # # # # # # # # # # # # # % + } @ @ ^ ] # F.                                                                              P m s ! 5 @ # @ $ % % % # % % % % % % % % # # # # # # # # # # # # # # # # # # # # # # # # # # # # # # # # # # # ",
"                                                                                                                                                                                                                          L.T , S s , , ! $ } + } % # # % # # # # # # # # # # # # # x@e+e+e+e+e+e+e+e+e+e+e+e+e+e+e+e+e+e+e+e+e+e+e+e+e+e+e+e+e+e+e+e+e+e+e+j+# # # # # # # # # % } & M r m ,                                                                                       / # @ % # 8 * & # } + # # # Y@e+e+e+e+e+e+e+e+e+e+e+e+e+e+e+e+e+e+e+e+e+e+e+e+e+e+e+e+}## # # # # # # # # # # # # # # % } + 7@e+e+e+e+e+e+e+e+e+e+e+e+e+e+e+e+e+e+e+e+e+e+e+e+e+e+e+e+'#                                                      + % @ ] # # # # # # # # # # # # # # # # # # # # # # # # # # # # # # # # % # # # # % + @ @   9@e+e+e+e+e+e+e+e+e+e+e+e+e+e+e+e+e+e+e+e+e+e+e+e+e+e+e+e+e+e+e+e+e+e+e+o+                              v 4 % # # # % # % # # # # # # # # # # # # # # # # # # # # # # # # # # # # # # # # # # # % % } @ @ @ # % * $                                                                                 2., n , * # % * @ # # @ # # # # # # # # # # # # # # # # # # # # # # # # # # # # # # # # # # # # # # # # # # # ",
"                                                                                                                                                                                                                              F 4 , m S ' @ # # % % # # @ # # # # # # # # # # # # # k@e+e+e+e+e+e+e+e+e+e+e+e+e+e+e+e+e+e+e+e+e+e+e+e+e+e+e+e+e+e+e+e+e+e+e+=@# # # # # # # # # % + @ f M _ , ,                                                                                       } # 8 # % 2 } # # @ # # # ,#e+e+e+e+e+e+e+e+e+e+e+e+e+e+e+e+e+e+e+e+e+e+e+e+e+e+e+e+|## # # # # # # # # # # # # # # } % % 4.%@e+e+e+e+e+e+e+e+e+e+e+e+e+e+e+e+e+e+e+e+e+e+e+e+e+e+e+>#                                                      h # ^ } # # # # # # # # # # # # # # # # # # # # # # # # # # # # # # # # % # # # # % + @ # 1 =@e+e+e+e+e+e+e+e+e+e+e+e+e+e+e+e+e+e+e+e+e+e+e+e+e+e+e+e+e+e+e+e+e+e+e+;@                                ' % } # # % @ # % # # # # # # # # # # # # # # # # # # # # # # # # # # # # # # # # % % % + } @ @ @ # 3 # % .                                                                                   , _ 4.} # & % # % + # # # # # # # # # # # # # # # # # # # # # # # # # # # # # # # # # # # # # # # # # # # ",
"                                                                                                                                                                                                                                  p , r T 8 % # # % % # # # # # # # # # # # # # # # # S@e+e+e+e+e+e+e+e+e+e+e+e+e+e+e+e+e+e+e+e+e+e+e+e+e+e+e+e+e+e+e+e+e+e+e+{@# # # # # # # # % % } 9 5 , m , >+                                                                                    u.# V + # * # @ # # # # D@;#e+e+e+e+e+e+e+e+e+e+e+e+e+e+e+e+e+e+e+e+e+e+e+e+e+e+e+z+1## # # # # # # # # # # # # # # & * # $ M+e+e+e+e+e+e+e+e+e+e+e+e+e+e+e+e+e+e+e+e+e+e+e+e+e+e+e+;#2#                                                    w.% ] # % % % % % % % % # # # # # # # # # # # # # # # # # # # # # # # # % # # # # % + @ @ ;@e+e+e+e+e+e+e+e+e+e+e+e+e+e+e+e+e+e+e+e+e+e+e+e+e+e+e+e+e+e+e+e+e+e+e+%@                                  H ' @ @ # @ $ # % # # # # # # # # # # # # # # # # # # # # # # # # # # # # # # # # # # % % + + } } } $ # b @ 3                                                                                   E { + ] ] % + @ # % % % # # # # # # # # # # # # # # # # # # # # # # # # # # # # # # # # # # # # # # # # ",
"                                                                                                                                                                                                                                    v.4 , + $ ] @ + } % # # # # # # # # # # # # # # # I@e+e+e+e+e+e+e+e+e+e+e+e+e+e+e+e+e+e+e+e+e+e+e+e+e+e+e+e+e+e+e+e+e+e+e+<@# # # # # # # # # % + { ~ ' , K ,                                                                                       h ^ @ # +.% * + # # # X@e+e+e+e+e+e+e+e+e+e+e+e+e+e+e+e+e+e+e+e+e+e+e+e+e+e+e+e+s+# # # # # # # # # # # # # # # # + ] % @ H+e+e+e+e+e+e+e+e+e+e+e+e+e+e+e+e+e+e+e+e+e+e+e+e+e+e+e+e+3#                                                      V # + } } } } } } } } # # # # # # # # # # # # # # # # # # # # # # # # % # # # # % + @ *  @e+e+e+e+e+e+e+e+e+e+e+e+e+e+e+e+e+e+e+e+e+e+e+e+e+e+e+e+e+e+e+e+e+e+e+!@                                    4 # ] + @ $ # + # # # # # # # # # # # # # # # # # # # # # # # # # # # # # # # # # # # # # % % % ^ # * h # # 5.                                                                                  A.@ @ 8 @ % + # + + + % % % % % # # # # # # # # # # # # # # # # # # # # # # # # # # # # # # # # # # # ",
"                                                                                                                                                                                                                                        9 # % ] ] @ % } $ # # # # # # # # # # # # # # x@e+e+e+e+e+e+e+e+e+e+e+e+e+e+e+e+e+e+e+e+e+e+e+e+e+e+e+e+e+e+e+e+e+e+e+9@# # # # # # # # # # % ! 4 m , Z.C.^+                                                                                      # % ] 3 % + % # # # @#e+e+e+e+e+e+e+e+e+e+e+e+e+e+e+e+e+e+e+e+e+e+e+e+e+e+e+e+4## # # # # # # # # # # # # # # # + # * % 5#e+e+e+e+e+e+e+e+e+e+e+e+e+e+e+e+e+e+e+e+e+e+e+e+e+e+e+e+6#                                                        # } @ @ @ @ @ @ @ @ # # # # # # # # # # # # # # # # # # # # # # # # % # # # # % + @ } j+e+e+e+e+e+e+e+e+e+e+e+e+e+e+e+e+e+e+e+e+e+e+e+e+e+e+e+e+e+e+e+e+e+e+e+o+                                    :.# & @ # & # } # # # # # # # # # # # # # # # # # # # # # # # # # # # # # # # # # # # # # # # # # # ] # } $ '                                                                                       % # + % % + @ } } + % % % % # # # # # # # # # # # # # # # # # # # # # # # # # # # # # # # # # # # ",
"                                                                                                                                                                                                                                          I 3 # @ 8 + + * # # # # # # # # # # # # # # k@e+e+e+e+e+e+e+e+e+e+e+e+e+e+e+e+e+e+e+e+e+e+e+e+e+e+e+e+e+e+e+e+e+e+e+i@# # # # # # # # # # # ' ! 9 , a.q.,                                                                                       4.+ @ & @ # # # # # _#e+e+e+e+e+e+e+e+e+e+e+e+e+e+e+e+e+e+e+e+e+e+e+e+e+e+e+e+7## # # # # # # # # # # # # # # # @ % $ @ & h@e+e+e+e+e+e+e+e+e+e+e+e+e+e+e+e+e+e+e+e+e+e+e+e+e+e+e+>#                                                         .# @ @ @ @ @ @ @ @ # # # # # # # # # # # # # # # # # # # # # # # # % # # # # % + @ # =@e+e+e+e+e+e+e+e+e+e+e+e+e+e+e+e+e+e+e+e+e+e+e+e+e+e+e+e+e+e+e+e+e+e+e+(@                                      # @ @ # $ # % # # # # # # # # # # # # # # # # # # # # # # # # # # # # # # # # # # # # # # # # # b # # ^ % T 5                                                                                       ( % # @ % } } + + % % # # # # # # # # # # # # # # # # # # # # # # # # # # # # # # # # # # # # # ",
"                                                                                                                                                                                                                                            6 , } A.$ # % # # # # # # # # # # # # # # # S@e+e+e+e+e+e+e+e+e+e+e+e+e+e+e+e+e+e+e+e+e+e+e+e+e+e+e+e+e+e+e+e+e+e+e+(@# # # # % # # # # # , ' , 0 , , C.Z.                                                                                      3 # # +.# @ % # K@;#e+e+e+e+e+e+e+e+e+e+e+e+e+e+e+e+e+e+e+e+e+e+e+e+e+e+e++#8## # # # # # # # # # # # # # # # } $ # ] @ .@e+e+e+e+e+e+e+e+e+e+e+e+e+e+e+e+e+e+e+e+e+e+e+e+e+e+e+;#9#                                                        # @ @ @ @ @ @ @ @ # # # # # # # # # # # # # # # # # # # # # # # # % # # # # % + @ {@e+e+e+e+e+e+e+e+e+e+e+e+e+e+e+e+e+e+e+e+e+e+e+e+e+e+e+e+e+e+e+e+e+e+e+2@                                        * ] $ # $ % # # # # # # # # # # # # # # # # # # # # # # # # # # # # # # # # # # # # # # # # % + } % + @ + ' ! n                                                                                       8 # ] ] + + % % % # # # # # # # # # # # # # # # # # # # # # # # # # # # # # # # # # # # # # # ",
"                                                                                                                                                                                                                                                S , f f M m , % @ # # # # # # # # # # # I@e+e+e+e+e+e+e+e+e+e+e+e+e+e+e+e+e+e+e+e+e+e+e+e+e+e+e+e+e+e+e+e+e+e+e+g@# # # # # # # # # # # # # } # ^ 9 r `                                                                                     |.+ # ] % # & % .#e+e+e+e+e+e+e+e+e+e+e+e+e+e+e+e+e+e+e+e+e+e+e+e+e+e+e+e+0## # # # # # # # # # # # # # # # # } & * # ] k+e+e+e+e+e+e+e+e+e+e+e+e+e+e+e+e+e+e+e+e+e+e+e+e+e+e+e+e+a#                                                          % @ & @ & 8 @ # % % % % % % % % # # # # # # # # # # % % % # # # , ~ { , , ' ~ 4 g@e+e+e+e+e+e+e+e+e+e+e+e+e+e+e+e+e+e+e+e+e+e+e+e+e+e+e+e+e+e+e+e+e+e+e+}@                                        1.# + @ @ } # # # # # # # # # # # # # # # # # # # # # # # # # # # # # # # # # # # # # # # # # # % % + } } @ @ @ 1.                                                                                      e , 5 ..5 { 5 { , , { # # # # # # # # # # # # # # # # # # # # # # # # # # # # # # # # # # # ",
"                                                                                                                                                                                                                                                  b#a.9 p , 4 @ # # $ 8 # # # # # # # # x@e+e+e+e+e+e+e+e+e+e+e+e+e+e+e+e+e+e+e+e+e+e+e+e+e+e+e+e+e+e+e+e+e+e+e+r@# # # # # # # # # # # # % % # ^ } + t.                                                                                      2 h # * # # # ]#e+e+e+e+e+e+e+e+e+e+e+e+e+e+e+e+e+e+e+e+e+e+e+e+e+e+e+e+'## # # # # # # # # # # # # # # # # } + ] # } /@e+e+e+e+e+e+e+e+e+e+e+e+e+e+e+e+e+e+e+e+e+e+e+e+e+e+e+e+6#                                                          R.3 # } ] + $ 4.# # # # # # # # # # # # # # # # # # # % % # # # , , , ' ! 4 4 { 9@e+e+e+e+e+e+e+e+e+e+e+e+e+e+e+e+e+e+e+e+e+e+e+e+e+e+e+e+e+e+e+e+e+e+e+ @                                          # @ @ @ % # # # # # # # # # # # # # # # # # # # # # # # # # # # # # # # # # # # # # # # # # % + @ $ ] $ & @ @ 8                                                                                           , , J { , E ~ , M # # # # # # # # # # # # # # # # # # # # # # # # # # # # # # # # # # # ",
"                                                                                                                                                                                                                                                    7+~ 5 r , # } # # + # # # # # # # # p@e+e+e+e+e+e+e+e+e+e+e+e+e+e+e+e+e+e+e+e+e+e+e+e+e+e+e+e+e+e+e+e+e+e+e+i@# # # # # # # # # # # # # # % * } % } B.                                                                                    F.% % ^ # % % >#e+e+e+e+e+e+e+e+e+e+e+e+e+e+e+e+e+e+e+e+e+e+e+e+e+e+e+e+{## # # # # # # # # # # # # # # # # $ + 8 # } c#u+e+e+e+e+e+e+e+e+e+e+e+e+e+e+e+e+e+e+e+e+e+e+e+e+e+e+e+0#                                                            f.# + V % # ] # # # # # # # # # # # # # # # # # # # # % % % % ~ , , 4 { ' , 4 i@e+e+e+e+e+e+e+e+e+e+e+e+e+e+e+e+e+e+e+e+e+e+e+e+e+e+e+e+e+e+e+e+e+e+e+7@                                          * @ } + # # # # # # # # # # # # # # # # # # # # # # # # # # # # # # # # # # # # # # # # # # # + & ] 8 ] @ } 8 # b                                                                                           p , ~ m , , ! ! % % % # # # # # # # # # # # # # # # # # # # # # # # # # # # # # # # # ",
"                                                                                                                                                                                                                                                      L , 0 , # * & # # ] # # # # # # # # t@e+e+e+e+e+e+e+e+e+e+e+e+e+e+e+e+e+e+e+e+e+e+e+e+e+e+e+e+e+e+e+e+e+e+e+z@# # # # # # # # # # # # # } 8 @ & } &                                                                                       # h # # h d#;#e+e+e+e+e+e+e+e+e+e+e+e+e+e+e+e+e+e+e+e+e+e+e+e+e+e+e+;#e## # # # # # # # # # # # # # # # # @ % ] # } ^ +@e+e+e+e+e+e+e+e+e+e+e+e+e+e+e+e+e+e+e+e+e+e+e+e+e+e+e+;#-#                                                            ^.@ % $ @ # } } } } + + + + # # # # # # # # % # # # # % % % _ f ! , , ~ f f#e+e+e+e+e+e+e+e+e+e+e+e+e+e+e+e+e+e+e+e+e+e+e+e+e+e+e+e+e+e+e+e+e+e+e+2@                                            ( # % + % # # # # # # # # # # # # # # # # # # # # # # # # # # # # # # # # # # # # # # # # # # # % } @ } % % $ $ #                                                                                             A.{ 9., , p , % % % % % # # # # # # # # # # # # # # # # # # # # # # # # # # # # # # ",
"                                                                                                                                                                                                                                                        5.9 ! } + # $ 8 # # # # # # # # # v@e+e+e+e+e+e+e+e+e+e+e+e+e+e+e+e+e+e+e+e+e+e+e+e+e+e+e+e+e+e+e+e+e+e+e+m@# # # # # # # # # # # # # @ @ } & h # I                                                                                       ] # $ h ~#e+e+e+e+e+e+e+e+e+e+e+e+e+e+e+e+e+e+e+e+e+e+e+e+e+e+e+e+_## # # # # # # # # # # # # # # # # # # # } # # & G+e+e+e+e+e+e+e+e+e+e+e+e+e+e+e+e+e+e+e+e+e+e+e+e+e+e+e+e+a#                                                              F.# + V h @ @ @ @ } } } + # # # # # # # # % % # # # % + } , 5 ~ , , s ..q@e+e+e+e+e+e+e+e+e+e+e+e+e+e+e+e+e+e+e+e+e+e+e+e+e+e+e+e+e+e+e+e+e+e+e+}@                                            o # % % % # # # # # # # # # # # # # # # # # # # # # # # # # # # # # # # # # # # # # # # # # # # # # # # % % # ] @ ]                                                                                             N.f s r , 4 + % % % % # # # # # # # # # # # # # # # # # # # # # # # # # # # # # # ",
"                                                                                                                                                                                                                                                          y.f # @ $ $ $ % # # # # # # # # G@e+e+e+e+e+e+e+e+e+e+e+e+e+e+e+e+e+e+e+e+e+e+e+e+e+e+e+e+e+e+e+e+e+e+e+r@# # # # # # # # # # # % % } % } # 2 @ &                                                                                       +.# ^ # 6#e+e+e+e+e+e+e+e+e+e+e+e+e+e+e+e+e+e+e+e+e+e+e+e+e+e+e+e+@## # # # # # # # # # # # # # # # # # # % % # # # f@e+e+e+e+e+e+e+e+e+e+e+e+e+e+e+e+e+e+e+e+e+e+e+e+e+e+e+e+g#                                                                  * # % @ @ @ } + + % % # # # # # # # # % % # # # % } @ , f _ ! ' r _ `@e+e+e+e+e+e+e+e+e+e+e+e+e+e+e+e+e+e+e+e+e+e+e+e+e+e+e+e+e+e+e+e+e+e+e+<@                                              } + % + # # # # # # # # # # # # # # # # # # # # # # # # # # # # # # # # # # # # # # # # # + % # # # # % + # # * ^ c                                                                                               9 , { f + + + % % % # # # # # # # # # # # # # # # # # # # # # # # # # # # # # ",
"                                                                                                                                                                                                                                                            6.$ 8 * % % ] # # # # # # # # p@e+e+e+e+e+e+e+e+e+e+e+e+e+e+e+e+e+e+e+e+e+e+e+e+e+e+e+e+e+e+e+e+e+e+e+C@# # # # # # # # # # # # } % % 8 # h $ + /                                                                                       ^ + } 0#e+e+e+e+e+e+e+e+e+e+e+e+e+e+e+e+e+e+e+e+e+e+e+e+e+e+e+e+Q@# # # # # # # # # # # # # # # # # # % & # # } # b@4@e+e+e+e+e+e+e+e+e+e+e+e+e+e+e+e+e+e+e+e+e+e+e+e+e+e+e+h#                                                                    n 5 5 9 9 ~ { 4 4 ! # # # # # # # # % % # # # % @ @ f 9 f r 9 ! M S@e+e+e+e+e+e+e+e+e+e+e+e+e+e+e+e+e+e+e+e+e+e+e+e+e+e+e+e+e+e+e+e+e+e+e+R@                                              & % # } # # # # # # # # # # # # # # # # # # # # # # # # # # # # # # # # # # # # # # # # # % % # # # # % % # @ ] * #                                                                                               6.s m 9 } } + % % % # # # # # # # # # # # # # # # # # # # # # # # # # # # # # ",
"c t.4.. . 9...E s r 5 ~ 4 , , , , , , , , # # + } } + % # # # # % + } @ @ { f p J v N.e.                                                                                                                                                                      U.% # 8 * # # # # # # # # # # t@e+e+e+e+e+e+e+e+e+e+e+e+e+e+e+e+e+e+e+e+e+e+e+e+e+e+e+e+e+e+e+e+e+e+e+R@# # # # # # # # # # # } # + V # 8 ] ] #                                                                                       ( # <#;#e+e+e+e+e+e+e+e+e+e+e+e+e+e+e+e+e+e+e+e+e+e+e+e+e+e+e+e+:## # # # # # # # # # # # # # # # # # # @ # % ] # # |@e+e+e+e+e+e+e+e+e+e+e+e+e+e+e+e+e+e+e+e+e+e+e+e+e+e+e+;#i#                                                                    L.r M M f 5 9 ~ ~ # # # # # # # # % % # # # % @ & s , , r M ! j#e+e+e+e+e+e+e+e+e+e+e+e+e+e+e+e+e+e+e+e+e+e+e+e+e+e+e+e+e+e+e+e+e+e+e+d+                                                & # # @ # # # # # # # # # # # # # # # # # # # # # # # # # # # # # # # # # # # # # # # # # # # # # # # # # # }.# # ] b                                                                                                 , ~ @ } + + % % # # # # # # # # # # # # # # # # # # # # # # # # # # # # # ",
"% % % % % , , , , , , , , 4 4 4 4 4 4 4 4 # # # # # # # # # # # # # # # # , , , , , , , , , 4 9 r A.g.                                                                                                                                                          U.% h # $ # @ } # # } % % # v@e+e+e+e+e+e+e+e+e+e+e+e+e+e+e+e+e+e+e+e+e+e+e+e+e+e+e+e+e+e+e+e+e+e+e+q@# # # # # # # # # # # # @ $ ] & @ + & ] &                                                                                       # 3#e+e+e+e+e+e+e+e+e+e+e+e+e+e+e+e+e+e+e+e+e+e+e+e+e+e+e+e+t@# # # # # # # # # # # # # # # # # # # # % % % # # % :@e+e+e+e+e+e+e+e+e+e+e+e+e+e+e+e+e+e+e+e+e+e+e+e+e+e+e+e+*#                                                                        M.9 , , 9 5 5 ] # % % # # % + % % # # # # % # , 5 E 9 , t k#e+e+e+e+e+e+e+e+e+e+e+e+e+e+e+e+e+e+e+e+e+e+e+e+e+e+e+e+e+e+e+e+e+e+e+j+                                                ( # @ # # # # # # # # # # # # # # # # # # # # # # # # # # # # # # # # # # # # # # # # # # # # # # # # # # @ # ] @ ] *                                                                                                   5 # V * # & + # # # # # % % % # # # # # # # # # # # # # # # # # # # # # ",
"% % % % % ~ ~ ~ ~ ~ ~ ~ ~ ! ! ! ! ! ! ! % # # # # # # # # # # # # # # # # 4 4 4 4 4 4 4 4 { ~ 4 , , , ' 5 , m _.                                                                                                                                                  b # h # # + # # @ % # # # G@e+e+e+e+e+e+e+e+e+e+e+e+e+e+e+e+e+e+e+e+e+e+e+e+e+e+e+e+e+e+e+e+e+e+e+I@# # # # # # # # # # # # + @ & @ } + & # &                                                                                         6#e+e+e+e+e+e+e+e+e+e+e+e+e+e+e+e+e+e+e+e+e+e+e+e+e+e+e+e+I@# # # # # # # # # # # # # # # # # # # # % % % # # % >@e+e+e+e+e+e+e+e+e+e+e+e+e+e+e+e+e+e+e+e+e+e+e+e+e+e+e+e+4#                                                                            L.t , , , # # # ] & } % # # % @ $ ] $ & @ x.S , , P   @#e+e+e+e+e+e+e+e+e+e+e+e+e+e+e+e+e+e+e+e+e+e+e+e+e+e+e+e+e+e+e+e+e+e+e+g@                                                c # @ # # # # # # # # # # # # # # # # # # # # # # # # # # # # # # # # # # # # # # # # # # # # # # # # # # } # ] + @ + U.                                                                                                  V # % ] # % 8 # # # # % % % # # # # # # # # # # # # # # # # # # # # # ",
"C C C C C % % % % % % % % % % % % % % % % # k k k k k k k k k k k k k k k } } } } } } } } # # % + + % % # & @ % # # 8 g 1.                                                                                                                                          R # 2 & # # % $ @ # % # p@e+e+e+e+e+e+e+e+e+e+e+e+e+e+e+e+e+e+e+e+e+e+e+e+e+e+e+e+e+e+e+e+e+e+e+S@# # # # # # # # # # # # % % + + + + # # % *                                                                                       h#e+e+e+e+e+e+e+e+e+e+e+e+e+e+e+e+e+e+e+e+e+e+e+e+e+e+e+e+x@# # # # # # # # # # # # # # # # # # # # % % % # # % &@z+e+e+e+e+e+e+e+e+e+e+e+e+e+e+e+e+e+e+e+e+e+e+e+e+e+e+e+h#                                                                                  [ E 3 # # # # # % # + # % } # # # # , , S       t@e+e+e+e+e+e+e+e+e+e+e+e+e+e+e+e+e+e+e+e+e+e+e+e+e+e+e+e+e+e+e+e+e+e+e+e@                                                z.# } @ # # # # # # # # # # # # # # # # # # # # # # # # # # # # # # # # # # # # # # # # # # # # # # # # # % # ] % @ # h                                                                                                     R # $ @ # % + % % % % # # # # # # # # # # # # # # # # # # # # # # # ",
"k k k k k # # # # # # # # # # # # # # # # k k k k k k k k k k k k k k k k % % % % % % % % @ % # # # % % # # # + + # # # # # & r.                                                                                                                                      . h $ @ @ @ % } $ @ # # t@e+e+e+e+e+e+e+e+e+e+e+e+e+e+e+e+e+e+e+e+e+e+e+e+e+e+e+e+e+e+e+e+e+e+e+e@# # # # # # # # # # # # # # % % % # @ # } f.                                                                                  n@+#e+e+e+e+e+e+e+e+e+e+e+e+e+e+e+e+e+e+e+e+e+e+e+e+e+e+e+e+R@# # # # # # # # # # # # # # # # # # # # % % % # # % } N+e+e+e+e+e+e+e+e+e+e+e+e+e+e+e+e+e+e+e+e+e+e+e+e+e+e+e++#i#                                                                                      a R 3 + % @ } @ # # % % # h (.W.        %#e+e+e+e+e+e+e+e+e+e+e+e+e+e+e+e+e+e+e+e+e+e+e+e+e+e+e+e+e+e+e+e+e+e+e+d+                                                    # % $ # # # # # # # # # # # # # # # # # # # # # # # # # # # # # # # # # # # # # # # # # # # # # # # # # # # $ + ] + % ;+                                                                                                    (.# ] & # ^ + % % % # # # # # # # # # # # # # # # # # # # # # # # ",
"k k k k k % % % % % % % % # # # # # # # # k k k k k k k k k k k k k k k k # # # # # # # # @ # # # # # # # % } @ + # # + @ +.8 @ % + V o                                                                                                                                 # # @ +.] # % $ # # # v@e+e+e+e+e+e+e+e+e+e+e+e+e+e+e+e+e+e+e+e+e+e+e+e+e+e+e+e+e+e+e+e+e+e+e+x@# # # # # # # # # # # # # # # % % @ ] % ] $                                                                                   V+e+e+e+e+e+e+e+e+e+e+e+e+e+e+e+e+e+e+e+e+e+e+e+e+e+e+e+e+i@# # # # # # # # # # # # # # # # # # # # # % % % # # % } $#e+e+e+e+e+e+e+e+e+e+e+e+e+e+e+e+e+e+e+e+e+e+e+e+e+e+e+e+E+                                                                                                  /.<.u.^.                    .#e+e+e+e+e+e+e+e+e+e+e+e+e+e+e+e+e+e+e+e+e+e+e+e+e+e+e+e+e+e+e+e+e+e+e+9@                                                    # % & # # # # # # # # # # # # # # # # # # # # # # # # # # # # # # # # # # # # # # # # # # # # # # # # # # + & } ^ ] # }.                                                                                                      l.% ^ ^ 8 @ } % % # # # # # # # # # # # # # # # # # # # # # # # ",
"k k k k k % % % % % % % % # # # # # # # # k k k k k k k k k k k k k k k k # # # # # # # # # # # % & ] @ + # # # # # # @ ] # # + h * % # ] s ++                                                                                                                            % # & ] # @ ^ # # # N@e+e+e+e+e+e+e+e+e+e+e+e+e+e+e+e+e+e+e+e+e+e+e+e+e+e+e+e+e+e+e+e+e+e+e+I@# # # # # # # # # # # # # # # # # @ # 8 + % 1.                                                                                n+e+e+e+e+e+e+e+e+e+e+e+e+e+e+e+e+e+e+e+e+e+e+e+e+e+e+e+e+9@# # # # # # # # # # # # # # # # # # # # # % % % # # % } a#e+e+e+e+e+e+e+e+e+e+e+e+e+e+e+e+e+e+e+e+e+e+e+e+e+e+e+e+$#                                                                                                                              ]#e+e+e+e+e+e+e+e+e+e+e+e+e+e+e+e+e+e+e+e+e+e+e+e+e+e+e+e+e+e+e+e+e+e+e+m@                                                  F.% % + # # # # # # # # # # # # # # # # # # # # # # # # # # # # # # # # # # # # # # # # # # # # # # # # # # @ } + $ @ # +                                                                                                         1.# ] 8 & @ + % # # # # # # # # # # # # # # # # # # # # # # # ",
"A A A A k # # # # # # # # % % % % % % % % k A A A A A A A A A A A A A A k % % % % % % % % % % % % # # # # # % % % # # # # 3 & % $ 3 3 & # 9 , , J                                                                                                                         /.8 # $ @ ] h % # # :#e+e+e+e+e+e+e+e+e+e+e+e+e+e+e+e+e+e+e+e+e+e+e+e+e+e+e+e+e+e+e+e+e+e+e+S@# # # # # # # # # # # # # # # # # # # * # 8 ^                                                                                 s+e+e+e+e+e+e+e+e+e+e+e+e+e+e+e+e+e+e+e+e+e+e+e+e+e+e+e+e+<@# # # # # # # # # # # # # # # # # # # # # % % % # # % } 1#+#e+e+e+e+e+e+e+e+e+e+e+e+e+e+e+e+e+e+e+e+e+e+e+e+e+e+e+l#                                                                                                                              ,#e+e+e+e+e+e+e+e+e+e+e+e+e+e+e+e+e+e+e+e+e+e+e+e+e+e+e+e+e+e+e+e+e+e+e+k@                                                  u.@ @ # # # # # # # # # # # # # # # # # # # # # # # # # # # # # # # # # # # # # # # # # # # # # # # # # # # } % + @ % + # 6+                                                                                                        3.] ] ] & } % # # # # # # # # # # # # # # # # # # # # # # # ",
"A k A k k # # # # # # # # % % % % % % % % k A k A k A k A k A k A k A k k # # # # # # # # # # # # # % } @ # # # # # % + @ @ 8 $ # # & 8 & f { 5 M ! M M.                                                                                                                    R., & 9 + $ # # # # t@e+e+e+e+e+e+e+e+e+e+e+e+e+e+e+e+e+e+e+e+e+e+e+e+e+e+e+e+e+e+e+e+e+e+e+p@# # # # # # # # # # % % % # # # # @ ] @ ] + ~                                                                             m#+#e+e+e+e+e+e+e+e+e+e+e+e+e+e+e+e+e+e+e+e+e+e+e+e+e+e+e+e+t+# # # # # # # # # # # # # # # # # # # # # % % % # # % } @ 0#e+e+e+e+e+e+e+e+e+e+e+e+e+e+e+e+e+e+e+e+e+e+e+e+e+e+e++#n#                                                                                                                          ^#e+e+e+e+e+e+e+e+e+e+e+e+e+e+e+e+e+e+e+e+e+e+e+e+e+e+e+e+e+e+e+e+e+e+e+=@                                                    / ] ] # % # # # # # # # # # # # # # # # # # # # # # # # # # # # # # # # # # # # # # # # # # # # # # # # # # % % @ } % $ } 9.                                                                                                          c % ] & } % # # # # # # # # # # # # # # # # # # # # # # # ",
"k # k # # # # # # # # # # # # # # # # # # # k # k # k # k # k # k # k # # # # # # # # # # # # # # # # # # # # # # # # # # # } ] ^ ^ ] } # % % % % + } @ &  .                                                                                                                  b+, ,.M ! 4 , ' % v@e+e+e+e+e+e+e+e+e+e+e+e+e+e+e+e+e+e+e+e+e+e+e+e+e+e+e+e+e+e+e+e+e+e+e+G@# # # # # # # # # # # # # # # # @ } + ] ] % 2 o                                                                           >@e+e+e+e+e+e+e+e+e+e+e+e+e+e+e+e+e+e+e+e+e+e+e+e+e+e+e+e+d+# # # # # # # # # # # # # # # # # # # # # # # # # # % @ $ % '#e+e+e+e+e+e+e+e+e+e+e+e+e+e+e+e+e+e+e+e+e+e+e+e+e+e+e+e+V+                                                                                                                          ~#e+e+e+e+e+e+e+e+e+e+e+e+e+e+e+e+e+e+e+e+e+e+e+e+e+e+e+e+e+e+e+e+e+e+e+9@                                                    l.$ # ] # # # # # # # # # # # # # # # # # # # # # # # # # # # # # # # # # # # # # # # # # # # # # # # # # % + } } } } + % ! &.                                                                                                          t ! { @ % # # % # # # # # # # # # # # # # # # # # # # # ",
"# # # # # # # # # # # # # # # # # # # # # # # # # # # # # # # # # # # # # # # # # # # # # # # # # # # # # # # # # # # # # + } @ & & @ } + % % % % % + } @ % + g                                                                                                                 '.b.D., r , ' % N@e+e+e+e+e+e+e+e+e+e+e+e+e+e+e+e+e+e+e+e+e+e+e+e+e+e+e+e+e+e+e+e+e+e+e+v@# # # # # # # # # # # # # # # # # % % $ 8 # } b                                                                           Z+e+e+e+e+e+e+e+e+e+e+e+e+e+e+e+e+e+e+e+e+e+e+e+e+e+e+e+e+}@# # # # # # # # # # # # # # # # # # # # # # # # # # % } @ % .#e+e+e+e+e+e+e+e+e+e+e+e+e+e+e+e+e+e+e+e+e+e+e+e+e+e+e+e+n+                                                                                                                          (#e+e+e+e+e+e+e+e+e+e+e+e+e+e+e+e+e+e+e+e+e+e+e+e+e+e+e+e+e+e+e+e+e+e+e+q@                                                    8 # + @ % # # # # # # # # # # # # # # # # # # # # # # # # # # # # # # # # # # # # # # # # # # # # # # # # % % + + + + % % , 5.                                                                                                            |.m } } % # # % # # # # # # # # # # # # # # # # # # # ",
"# # # # # # # # # # # # # # # # # # # # # # # # # # # # # # # # # # # # # # # # # # # # # # # # # # # # # # # # # # # # # @ } + % % + } @ % % % # # % % % % # % ] r.                                                                                                            '+, : 5 5 ' ' % :#e+e+e+e+e+e+e+e+e+e+e+e+e+e+e+e+e+e+e+e+e+e+e+e+e+e+e+e+e+e+e+e+e+e+e+t@# # # # # # # # # # # # # # # # # # # % $ % # % G                                                                         N+e+e+e+e+e+e+e+e+e+e+e+e+e+e+e+e+e+e+e+e+e+e+e+e+e+e+e+e+&## # # # # # # # # # # # # # # # # # # # # % # # # # % % } # K@;#e+e+e+e+e+e+e+e+e+e+e+e+e+e+e+e+e+e+e+e+e+e+e+e+e+e+e+s+                                                                                                                          _#e+e+e+e+e+e+e+e+e+e+e+e+e+e+e+e+e+e+e+e+e+e+e+e+e+e+e+e+e+e+e+e+e+e+e+:#                                                    # # 3 # + # # # # # # # # # # # # # # # # # # # # # # # # # # # # # # # # # # # # # # # # # # # # # # # # # % % % % % % # , E                                                                                                               x.# 8 # % * # } + % % # # # # # # # # # # # # # # # ",
"# # # # # # # # # # # # # # # # # # # # # # # # # # # # # # # # # # # # # # # # # # # # # # # # # # # # # # # # # # # # # + % % # # % % + % % # # # # # # & & @ # # % z.                                                                                                          m., T ' ' ' % + t@e+e+e+e+e+e+e+e+e+e+e+e+e+e+e+e+e+e+e+e+e+e+e+e+e+e+e+e+e+e+e+e+e+e+e+:## # # # # # # # # # # # # # # # } # # % } % } h                                                                       + z+e+e+e+e+e+e+e+e+e+e+e+e+e+e+e+e+e+e+e+e+e+e+e+e+e+e+e+e+O@# # # # # # # # # # # # # # # # # # # # # % % # # # # # % # # ,#e+e+e+e+e+e+e+e+e+e+e+e+e+e+e+e+e+e+e+e+e+e+e+e+e+e+e++#n@                                                                                                                      y+;#e+e+e+e+e+e+e+e+e+e+e+e+e+e+e+e+e+e+e+e+e+e+e+e+e+e+e+e+e+e+e+e+e+e+=@                                                      # % V # # # # # # # # # # # # # # # # # # # # # # # # # # # # # # # # # # # # # # # # # # # # # # # # # # # # # % % # # # ' ,                                                                                                                 ^ # & 8 ] @ & @ + % # # # # # # # # # # # # # # # ",
"# # # # # # # # # # # # # # # # # # # # # # # # # # # # # # # # # # # # # # # # # # # # # # # # # # # # # # # # # # # # # # # # # # # # # % # # # # # # # + # # } ^ $ % # X.                                                                                                        ].4 4 ' ! + + v@e+e+e+e+e+e+e+e+e+e+e+e+e+e+e+e+e+e+e+e+e+e+e+e+e+e+e+e+e+e+e+e+e+e+e+N@# # # # # # # # # # # # # # # # & % # # % + $ } r.                                                                    o#e+e+e+e+e+e+e+e+e+e+e+e+e+e+e+e+e+e+e+e+e+e+e+e+e+e+e+e+%@# # # # # # # # # # # # # # # # # # # # # # % % # # # # # # # # v@e+e+e+e+e+e+e+e+e+e+e+e+e+e+e+e+e+e+e+e+e+e+e+e+e+e+e+e+p#                                                                                                                      [#e+e+e+e+e+e+e+e+e+e+e+e+e+e+e+e+e+e+e+e+e+e+e+e+e+e+e+e+e+e+e+e+e+e+e+r@                                                    r.# ] ] # % # # # # # # # # # # # # # # # # # # # # # # # # # # # # # # # # # # # # # # # # # # # # # # # # # # # # # # # # f , `                                                                                                                 } & & # +.$ @ } % # # # # # # # # # # # # # # # ",
"# # # # # # # # # # # # # # # # # # # # # # # # # # # # # # # # # # # # # # # # # # # # # # # # # # # # # # # # # # # # # # # # % % # # # # # # # # # % % # @ $ @ % % 8 }., ,+                                                                                                        , 9 ! ! + + N@e+e+e+e+e+e+e+e+e+e+e+e+e+e+e+e+e+e+e+e+e+e+e+e+e+e+e+e+e+e+e+e+e+e+e+Y@# # # # # # # # # # # # # # # # @ @ # % # # % # *                                                                     )@e+e+e+e+e+e+e+e+e+e+e+e+e+e+e+e+e+e+e+e+e+e+e+e+e+e+e+e+H@# # # # # # # # # # # # # # # # # # # # # # # # # # # # # # # # x@e+e+e+e+e+e+e+e+e+e+e+e+e+e+e+e+e+e+e+e+e+e+e+e+e+e+e+e+}#                                                                                                                      '#e+e+e+e+e+e+e+e+e+e+e+e+e+e+e+e+e+e+e+e+e+e+e+e+e+e+e+e+e+e+e+e+e+e+e+x@                                                    + # } # % % # # # # # # # # # # # # # # # # # # # # # # # # # # # # # # # # # # # # # # # # # # # # # # # # # # # % % # # # M , H                                                                                                                   # # 2 # $ @ + # # # # % # # # # # # # # # # # ",
"# # # # # # # # # # # # # # # # # # # # # # # # # # # # # # # # # # # # # # # # # # # # # # # # # # # # # # # # # # # # # # # # % % # # # # # # # # % % + # % @ % % @ & % p , , &.                                                                                                    [.9 ! 4 + } u@e+e+e+e+e+e+e+e+e+e+e+e+e+e+e+e+e+e+e+e+e+e+e+e+e+e+e+e+e+e+e+e+e+e+e+,## # # # # # # # # # # # # # # # } } + @ # # # # h g                                                                   @@e+e+e+e+e+e+e+e+e+e+e+e+e+e+e+e+e+e+e+e+e+e+e+e+e+e+e+e+H+# # # # # # # # # # # # # # # # # # # # # # # # # # # # # # # # e@e+e+e+e+e+e+e+e+e+e+e+e+e+e+e+e+e+e+e+e+e+e+e+e+e+e+e+e+s+                                                                                                                      >#e+e+e+e+e+e+e+e+e+e+e+e+e+e+e+e+e+e+e+e+e+e+e+e+e+e+e+e+e+e+e+e+e+e+e+u@                                                    } } # % # # # # # # # # # # # # # # # # # # # # # # # # # # # # # # # # # # # # # # # # # # # # # # # # # # # # % % % % # # ~ 4 E                                                                                                                   = 8 b # & @ % # # # # % # # # # # # # # # # # ",
"# # # # # # # # # # # # # # # # # # # # # # # # # # # # # # # # # # # # # # # # # # # # # # # # # # # # # # # # # # # # # % % # # # # % % # # # # % % } @ # $ & # # * h @ ' S m , p                                                                                                     f ! 4 + } } ,#e+e+e+e+e+e+e+e+e+e+e+e+e+e+e+e+e+e+e+e+e+e+e+e+e+e+e+e+e+e+e+e+e+e+e+u@# # # # # # # # # # # # # # % % # # @ # # $ @ ] +                                                                 & z+e+e+e+e+e+e+e+e+e+e+e+e+e+e+e+e+e+e+e+e+e+e+e+e+e+e+e+e+5@# # # # # # # # # # # # # # # # # # # # # # # # # # # # # # % % # i@e+e+e+e+e+e+e+e+e+e+e+e+e+e+e+e+e+e+e+e+e+e+e+e+e+e+e++#m#                                                                                                                  9#;#e+e+e+e+e+e+e+e+e+e+e+e+e+e+e+e+e+e+e+e+e+e+e+e+e+e+e+e+e+e+e+e+e+e+i@                                                    r.@ } # h # } # # # # # # # # # # # # # # # # # # # # # # # # # # # # # # # # # # # # # # # # # # # # # # # # # % % % % % % # , { 9                                                                                                                     u.# . @ } % # # # % % # # # # # # # # # # # ",
"# # # # # # # # # # # # # # # # # # # # # # # # # # # # # # # # # # # # # # # # # # # # # # # # # # # # # # # # # # # # # # # # # # # # # # # # # # # # # } + % # % + @ & 5 S { , 9 ~ S.                                                                                                  s , ] 8 # Y@e+e+e+e+e+e+e+e+e+e+e+e+e+e+e+e+e+e+e+e+e+e+e+e+e+e+e+e+e+e+e+e+e+e+e+Q@# # # # # # # # # # # # # # # # # # # # # # # 8 % 3                                                               g+e+e+e+e+e+e+e+e+e+e+e+e+e+e+e+e+e+e+e+e+e+e+e+e+e+e+e+e+x+# # # # # # # # # # # # # # # # # # # # # # # # # # # # # # # # # # 9@e+e+e+e+e+e+e+e+e+e+e+e+e+e+e+e+e+e+e+e+e+e+e+e+e+e+e+e+i+                                                                                                                  a#e+e+e+e+e+e+e+e+e+e+e+e+e+e+e+e+e+e+e+e+e+e+e+e+e+e+e+e+e+e+e+e+e+e+e+r@                                                    + + ^ # ] # # # # # # # # # # # # # # # # # # # # # # # # # # # # # # # # # # # # # # # # # # # # # # # # # # # # # # # # # # , ! '                                                                                                                       7 @ + + + % # # @ # + % % # # # # % # # # ",
"# # # # # # # # # # # # # # # # # # # # # # # # # # # # # # # # # # # # # # # # # # # # # # # # # # # # # # # # # # # # # # # # # # # # # # # # # # # # # + % % # # % } @ , 9 , { T ' , Q                                                                                                 A., 8 @ & k#e+e+e+e+e+e+e+e+e+e+e+e+e+e+e+e+e+e+e+e+e+e+e+e+e+e+e+e+e+e+e+e+e+e+e+Y@# # # # # # # # # # # # # # # # # # # # # # $ % @ $                                                               :@e+e+e+e+e+e+e+e+e+e+e+e+e+e+e+e+e+e+e+e+e+e+e+e+e+e+e+e+r+# # # # # # # # # # # # # # # # # # # # # # # # # # # # # # # # # #  @e+e+e+e+e+e+e+e+e+e+e+e+e+e+e+e+e+e+e+e+e+e+e+e+e+e+e+e+Z+                                                                                                                  6#e+e+e+e+e+e+e+e+e+e+e+e+e+e+e+e+e+e+e+e+e+e+e+e+e+e+e+e+e+e+e+e+e+e+e+G@                                                  e.# @ @ # * % # # # # # # # # # # # # # # # # # # # # # # # # # # # # # # # # # # # # # # # # # # # # # # # # # # # # # # # # # , { ,                                                                                                                         # 3 } # # + % # % + % % # # # # % # # # ",
"# # # # # # # # # # # # # # # # # # # # # # # # # # # # # # # # # # # # # # # # # # # # # # # # # # # # # # # # # # # # # # # # # # # # # # # # # # # # # % % # # # % + } # } # # * + # # V                                                                                                 s % + } e#e+e+e+e+e+e+e+e+e+e+e+e+e+e+e+e+e+e+e+e+e+e+e+e+e+e+e+e+e+e+e+e+e+e+e+,## # # # # # # # # # # # # # # # # # # # # # $ # & % ]                                                             Z@e+e+e+e+e+e+e+e+e+e+e+e+e+e+e+e+e+e+e+e+e+e+e+e+e+e+e+e+,@# # # # # # # # # # # # # # # # # # # # # # # # # # # # # # # % # # t+e+e+e+e+e+e+e+e+e+e+e+e+e+e+e+e+e+e+e+e+e+e+e+e+e+e+e+e+N+                                                                                                                  0#e+e+e+e+e+e+e+e+e+e+e+e+e+e+e+e+e+e+e+e+e+e+e+e+e+e+e+e+e+e+e+e+e+e+e+D@                                                  S # * % # +.% # # # # # # # # # # # # # # # # # # # # # # # # # # # # # # # # # # # # # # # # # # # # # # # # # # # # # # # # # ' 9 ,                                                                                                                           +.# + % & 8 # * + % % # # # # % # # # ",
"# # # # # # # # # # # # # # # # # # # # # # # # # # # # # # # # # # # # # # # # # # # # # # # # # # # # # # # # # # # # # # # # # # # # # # # # # # # # # % # # # # # % % # & % # @ @ @ * # }                                                                                               L # * # # ,#e+e+e+e+e+e+e+e+e+e+e+e+e+e+e+e+e+e+e+e+e+e+e+e+e+e+e+e+e+e+e+e+e+e+e+D@# # # # # # # # # # # # # # # # # # # # # # ] % @ ] 1                                                         ^ ^@e+e+e+e+e+e+e+e+e+e+e+e+e+e+e+e+e+e+e+e+e+e+e+e+e+e+e+e+j@# # # # # # # # # # # # # # # # # # # # # # # # # # # # # # # % % # # 2@e+e+e+e+e+e+e+e+e+e+e+e+e+e+e+e+e+e+e+e+e+e+e+e+e+e+e+z++                                                                                                               -#;#e+e+e+e+e+e+e+e+e+e+e+e+e+e+e+e+e+e+e+e+e+e+e+e+e+e+e+e+e+e+e+e+e+e+i@                                                  Q , } +.% + * # % # # # # # # # # # # # # # # # # # # # # # # # # # # # # # # # # # # # # # # # # # # # # # # # # # # # # # # # # ' 5 ,                                                                                                                           d.# ] ] % * @ ] + % % # # # # % # # # ",
"# # # # # # # # # # # # # # # # # # # # # # # # # # # # # # # # # # # # # # # # # # # # # # # # # # # # # # # # # # # # # # # # # # # # # # # # # # # # # # # # # # # # # # } & + @ & @ @ ] # % I                                                                                             7 ^ & # @#e+e+e+e+e+e+e+e+e+e+e+e+e+e+e+e+e+e+e+e+e+e+e+e+e+e+e+e+e+e+e+e+e+e+e+X@# # # # # # # # # # # # # # # # # # # # # # * # 8 h #                                                         C+e+e+e+e+e+e+e+e+e+e+e+e+e+e+e+e+e+e+e+e+e+e+e+e+e+e+e+e+1@]@# # # # # # # # # # # # # # # # # # # # # # # # # # # # # # # % % # # M+e+e+e+e+e+e+e+e+e+e+e+e+e+e+e+e+e+e+e+e+e+e+e+e+e+e+e+e+o#                                                                                                              *#e+e+e+e+e+e+e+e+e+e+e+e+e+e+e+e+e+e+e+e+e+e+e+e+e+e+e+e+e+e+e+e+e+e+e+I@                                                $+{ 9 ] $ % $ ] # @ # # # # # # # # # # # # # # # # # # # # # # # # # # # # # # # # # # # # # # # # # # # # # # # # # # # # # # # # ! f ,                                                                                                                             +.# 3 % } } # + % % # # # # % # # # ",
"# # # # # # # # # # # # # # # # # # # # # # # # # # # # # # # # # # # # # # # # # # # # # # # # # # # # # # # # # # # # # # # # # # # # # # # # # # # # # % % # # # # # # # # # # % ] $ # @ * # # d.                                                                                            # ] & Q@e+e+e+e+e+e+e+e+e+e+e+e+e+e+e+e+e+e+e+e+e+e+e+e+e+e+e+e+e+e+e+e+e+e+e+@## # # # # # # # # # # # # # # # # # # # # % @ # ] # # r.                                                      0@e+e+e+e+e+e+e+e+e+e+e+e+e+e+e+e+e+e+e+e+e+e+e+e+e+e+e+e+.@# # # # # # # # # # # # # # # # # # # # # # # # # # # # # # # # # # # # E@e+e+e+e+e+e+e+e+e+e+e+e+e+e+e+e+e+e+e+e+e+e+e+e+e+e+e+e+Z+                                                                                                              4#e+e+e+e+e+e+e+e+e+e+e+e+e+e+e+e+e+e+e+e+e+e+e+e+e+e+e+e+e+e+e+e+e+e+e+N@                                                ) ! M @ # # $ } # @ # # # # # # # # # # # # # # # # # # # # # # # # # # # # # # # # # # # # # # # # # # # # # # # # # # # # # # # # ! 5 ,                                                                                                                               # 8 * # @ @ + % % # # # # % # # # ",
"# # # # # # # # # # # # # # # # # # # # # # # # # # # # # # # # # # # # # # # # # # # # # # # # # # # # # # # # # # # # # # # # # # # # # # # # # # # # # % % % % % # # # & # # # # ] * $ # $ $ % + (                                                                                           d.% * u@e+e+e+e+e+e+e+e+e+e+e+e+e+e+e+e+e+e+e+e+e+e+e+e+e+e+e+e+e+e+e+e+e+e+e+_## # # # # # # # # # # # # # # # # # # # # } @ @ + % 8 #                                                       |@e+e+e+e+e+e+e+e+e+e+e+e+e+e+e+e+e+e+e+e+e+e+e+e+e+e+e+e+k+# # # # # # # # # # # # # # # # # # # # # # # # # # # # # # # # # # # # A@e+e+e+e+e+e+e+e+e+e+e+e+e+e+e+e+e+e+e+e+e+e+e+e+e+e+e+e+@@                                                                                                              h#e+e+e+e+e+e+e+e+e+e+e+e+e+e+e+e+e+e+e+e+e+e+e+e+e+e+e+e+e+e+e+e+e+e+e+K@                                              ^+%.' { + # % } + } # # # # # # # # # # # # # # # # # # # # # # # # # # # # # # # # # # # # # # # # # # # # # # # # # # # # # # # # # 4 9 '                                                                                                                               l.# 3 + $ 8 + % % # # # # % # # # ",
"# # # # # # k # k # k # k # k # k # k # # # # # # # # # # # # # # # # # # # # # # # # # # # # # # # # # # # # # # # # # # # # # # # # # # # # # # # # # # % % % % % % # # # # @ $ # # @ + @ % # * +.# r.                                                                                          ~ * , ,#e+e+e+e+e+e+e+e+e+e+e+e+e+e+e+e+e+e+e+e+e+e+e+e+e+e+e+e+e+e+e+e+e+e+;#K@# # # # # # # # # # # # # # # # # # # # # ^ * # . @ ] 3                                                   3 ^@e+e+e+e+e+e+e+e+e+e+e+e+e+e+e+e+e+e+e+e+e+e+e+e+e+e+e+e+o@# # # # # # # # # # # # # # # # # # # # # # # # # # # # # # # # # # # # # x+e+e+e+e+e+e+e+e+e+e+e+e+e+e+e+e+e+e+e+e+e+e+e+e+e+e+e+z++                                                                                                           n#+#e+e+e+e+e+e+e+e+e+e+e+e+e+e+e+e+e+e+e+e+e+e+e+e+e+e+e+e+e+e+e+e+e+e+i@                                              q#, a., # @ @ @ % } $ # # # # # # # # # # # # # # # # # # # # # # # # # # # # # # # # # # # # # # # # # # # # # # # # # # # # # # # # # 4 ~ 4                                                                                                                                 # ^ + + # + % % # # # # % # # # ",
"# % % # # k A k A k A k A k A k A k A k k # # # # # # # # # # # # # # # # # # # # # # # # # # # # # # # # # # # # # # # # # # # # # # # # # # # # # # # # # # # # # # # # # # # # # # # # % # # @ $ ] ^ 3                                                                                           , D.r#e+e+e+e+e+e+e+e+e+e+e+e+e+e+e+e+e+e+e+e+e+e+e+e+e+e+e+e+e+e+e+e+e+e+e+k## # # # # # # # # # # # # # # # # # # # @ @ @ @ @ @ @ @ /.                                                U+e+e+e+e+e+e+e+e+e+e+e+e+e+e+e+e+e+e+e+e+e+e+e+e+e+e+e+e+u+$@# # # # # # # # # # # # # # # # # # # # # # # # # # # # # # # # # # # # # a@e+e+e+e+e+e+e+e+e+e+e+e+e+e+e+e+e+e+e+e+e+e+e+e+e+e+e+e+ #                                                                                                          E+e+e+e+e+e+e+e+e+e+e+e+e+e+e+e+e+e+e+e+e+e+e+e+e+e+e+e+e+e+e+e+e+e+e+e+I@                                              , % T + % % % % % % % % # # # # # # # # # # # # # # # # # # # # # # # # # # # # # # # # # # # # # # # # # # # # # # # # # # # # # # # # M , P.                                                                                                                                c # +.@ @ + % # # # % % # # # # ",
"} + % # # k A A A A A A A A A A A A A A k # # # # # # # # # # # # # # # # # # # # # # # # # # # # # # # # # # # # # # # # # # # # # # # # # # # # # # # # # # # # # # # # # # # # # # # # # # # % } @ $ * (.                                                                                        d , s#e+e+e+e+e+e+e+e+e+e+e+e+e+e+e+e+e+e+e+e+e+e+e+e+e+e+e+e+e+e+e+e+e+e+e+]## # # # # # # # # # # # # # # # # # # # % % % % % % % % .                                                 l+e+e+e+e+e+e+e+e+e+e+e+e+e+e+e+e+e+e+e+e+e+e+e+e+e+e+e+e+`+# # # # # # # # # # # # # # # # # # # # # # # # # # # # # # # # # # # # # # W+e+e+e+e+e+e+e+e+e+e+e+e+e+e+e+e+e+e+e+e+e+e+e+e+e+e+e+e+)@                                                                                                          $#e+e+e+e+e+e+e+e+e+e+e+e+e+e+e+e+e+e+e+e+e+e+e+e+e+e+e+e+e+e+e+e+e+e+e+N@                                            @ ] % # 3 % % % % % % % % # # # # # # # # # # # # # # # # # # # # # # # # # # # # # # # # # # # # # # # # # # # # # # # # # # # # # # # # ' , D                                                                                                                                   h @ ] } & } % # # % # # # # # ",
"% % % % % k k k k k k k k k k k k k k k k # # # # # # # # # # # # # # # # # # # # # # # # # # # # # # # # # # # # # # # # # # # # # # # # # # # # # # # # # # # # # # # # # # # # # # # # % # # } & & ] * # 1                                                                                       n., e#;#e+e+e+e+e+e+e+e+e+e+e+e+e+e+e+e+e+e+e+e+e+e+e+e+e+e+e+e+e+e+e+e+e+e+_## # # # # # # # # # # # # # # # # # # # # # # # # # # # # ^.                                              q+e+e+e+e+e+e+e+e+e+e+e+e+e+e+e+e+e+e+e+e+e+e+e+e+e+e+e+e+=## # # # # # # # # # # # # # # # # # # # # # # # # # # # # # # # # # # # # # f+e+e+e+e+e+e+e+e+e+e+e+e+e+e+e+e+e+e+e+e+e+e+e+e+e+e+e+e+@@                                                                                                          l#e+e+e+e+e+e+e+e+e+e+e+e+e+e+e+e+e+e+e+e+e+e+e+e+e+e+e+e+e+e+e+e+e+e+e+P@                                          # # 8 $ } % % % % % % % % % # # # # # # # # # # # # # # # # # # # # # # # # # # # # # # # # # # # # # # # # # # # # # # # # # # # # # # # # , ' t#                                                                                                                                  a # ^ # ] @ + % % % # # # # # ",
"# % % % % k k k k k k k k k k k k k k k k # # # # # # # # # # # # # # # # # # # # # # # # # # # # # # # # # # # # # # # # # # # # # # # # # # # # # # # # # # # # # # # # # # # # # # # # % # % @ $ $ ] * 3 # z.                                                                                      q., ,#e+e+e+e+e+e+e+e+e+e+e+e+e+e+e+e+e+e+e+e+e+e+e+e+e+e+e+e+e+e+e+e+e+e+;#e## # # # # # # # # # # # # # # # # # # # # # # # # # # % 3                                             . ^@e+e+e+e+e+e+e+e+e+e+e+e+e+e+e+e+e+e+e+e+e+e+e+e+e+e+e+e+U+# # # # # # # # # # # # # # # # # # # # # # # # # # # # # # # # # # # # # # ]@1@e+e+e+e+e+e+e+e+e+e+e+e+e+e+e+e+e+e+e+e+e+e+e+e+e+e+e+z+&                                                                                                       n@+#e+e+e+e+e+e+e+e+e+e+e+e+e+e+e+e+e+e+e+e+e+e+e+e+e+e+e+e+e+e+e+e+e+e+C@                                          + # V $ 8 2 # # # # # # # # # # # # # # # # # # # # # # # # # # # # # # # # # # # # # # # # # # # # # # # # # # # # # # # # # # # # # # # # # a.:                                                                                                                                       % * # $ @ % # # % # # # # # ",
"% % # # # k k k k k k k k k k k k k k k k # # # # # # # # # # # # # # # # # # # # # # # # # # # # # # # # # # # # # # # # # # # # # # # # # # # # # # # # # # # # # # # # # # # # # # # # # # # + @ + } $ @ * # F.                                                                                      , @#e+e+e+e+e+e+e+e+e+e+e+e+e+e+e+e+e+e+e+e+e+e+e+e+e+e+e+e+e+e+e+e+e+e+e+{## # # # # # # # # # # # # # # # # # # % % % % % % % % 8 % 1                                           -@e+e+e+e+e+e+e+e+e+e+e+e+e+e+e+e+e+e+e+e+e+e+e+e+e+e+e+e+w+v+# # # # # # # # # # # # # # # # # # # # # # # # # # # # # # # # # # # # # # # p+e+e+e+e+e+e+e+e+e+e+e+e+e+e+e+e+e+e+e+e+e+e+e+e+e+e+e+e+g+                                                                                                      p#e+e+e+e+e+e+e+e+e+e+e+e+e+e+e+e+e+e+e+e+e+e+e+e+e+e+e+e+e+e+e+e+e+e+e+v@                                      f.# h h @ @ } % @ # # # # # # # # # # # # # # # # # # # # # # # # # # # # # # # # # # # # # # # # # # # # # # # # # # # # # # # # # # # # # # # # '.Y                                                                                                                                       b ] ] } % # # # % % # # # # ",
"# # # # % # k k k k k k k k k k k k k k k # # # # # # # # # # # # # # # # # # # # # # # # # # # # # # # # # # # # # # # # # # # # # # # # # # # # # # # # # # # # # # # # # # # # # # # # # # # @ @ } } & + ^ % @                                                                                       2.s#e+e+e+e+e+e+e+e+e+e+e+e+e+e+e+e+e+e+e+e+e+e+e+e+e+e+e+e+e+e+e+e+e+e+e+(## # # # # # # # # # # # # # # # # # # # # # # # # # # 8 # &                                           G+e+e+e+e+e+e+e+e+e+e+e+e+e+e+e+e+e+e+e+e+e+e+e+e+e+e+e+e+L+# # # # # # # # # # # # # # # # # # # # # # # # # # # # # # # # # # # # # # # # '@e+e+e+e+e+e+e+e+e+e+e+e+e+e+e+e+e+e+e+e+e+e+e+e+e+e+e+e+:@                                                                                                      n+e+e+e+e+e+e+e+e+e+e+e+e+e+e+e+e+e+e+e+e+e+e+e+e+e+e+e+e+e+e+e+e+e+e+e+Q@                                    o % ] ] & + # % @ @ # # # # # # # # # # # # # # # # # # # # # # # # # # # # # # # # # # # # # # # # # # # # # # # # # # # # # # # # # # # # # # # # , b#                                                                                                                                      o # * + # # # # % % # # # # ",
"' , ' ! + # # # # # # # # # # # # # # # # # # # # # # # # # # # # # # # # # # # # # # # # # # # # # # # # # # # # # # # # # # # # # # # # # # # # # # # # # # # # # # # # # # # # # # # # + % + & ] @ @ $ * # +.+ #                                                                                       u#;#e+e+e+e+e+e+e+e+e+e+e+e+e+e+e+e+e+e+e+e+e+e+e+e+e+e+e+e+e+e+e+e+e+e+>## # # # # # # # # # # # # # # # # # # # # # # # # # # & # @ l.                                        L+e+e+e+e+e+e+e+e+e+e+e+e+e+e+e+e+e+e+e+e+e+e+e+e+e+e+e+e+l+# # # # # # # # # # # # # # # # # # # # # # # # # # # # # # # # # # # # # # # # W@e+e+e+e+e+e+e+e+e+e+e+e+e+e+e+e+e+e+e+e+e+e+e+e+e+e+e+e+~@                                                                                                      s+e+e+e+e+e+e+e+e+e+e+e+e+e+e+e+e+e+e+e+e+e+e+e+e+e+e+e+e+e+e+e+e+e+e+e+v#                                  t.# 3 * # % * % } * # # # # # # # # # # # # # # # # # # # # # # # # # # # # # # # # # # # # # # # # # # # # # # # # # # # # # # # # # # # # # # # # # ,                                                                                                                                           # ] @ + # # # % # # # # # ",
"s 5 ! , , # # # # # # # # # # # # # # # # # # # # # # # # # # # # # # # # # # # # # # # # # # # # # # # # # # # # # # # # # # # # # # # # # # # # # # # # # # # # # # # # # # # # # # # # # # # } @ % % } % % + # # c                                                                                     m ,#e+e+e+e+e+e+e+e+e+e+e+e+e+e+e+e+e+e+e+e+e+e+e+e+e+e+e+e+e+e+e+e+e+e+;#v## # # # # # # # # # # # # # # # # # % % % % % % % % } $ @ #                                       ( 4@e+e+e+e+e+e+e+e+e+e+e+e+e+e+e+e+e+e+e+e+e+e+e+e+e+e+e+e+g+# # # # # # # # # # # # # # # # # # # # # # # # # # # # # # # # # # # # # # # # v+w+e+e+e+e+e+e+e+e+e+e+e+e+e+e+e+e+e+e+e+e+e+e+e+e+e+e+e+z+^                                                                                                   m#+#e+e+e+e+e+e+e+e+e+e+e+e+e+e+e+e+e+e+e+e+e+e+e+e+e+e+e+e+e+e+e+e+e+e+S@                                  ] % $ % # 3 & # * % # ] # # # # # # # # # # # # # # # # # # # # # # # # # # # # # # # # # # # # # # # # # # # # # # # # # # # # # # # # # # # # # # # # P.                                                                                                                                          ^ ] ] @ % # # % # # # # # ",
"          u.c V ] @ } + % # # % + + % % % ^ + # # } ] @ % + @ @ + # # # # % % % % % % % % # # # # # # # # # # # # # # # # # # # # # # # # # # # # # # # # # # # # # # # # # # # # # # # # # # # # # # # # # $ % $ +.# L                                                                                     @#e+e+e+e+e+e+e+e+e+e+e+e+e+e+e+e+e+e+e+e+e+e+e+e+e+e+e+e+e+e+e+e+e+e+e+{## # # # # # # # # # # # # # # # # # # # # # # # # # # V # & &                                     /@e+e+e+e+e+e+e+e+e+e+e+e+e+e+e+e+e+e+e+e+e+e+e+e+e+e+e+e+^@w#7 # @ @ + % # # % % # # # # # # # # # # # # # # # # # # # # # # # # # # # # # # # L+e+e+e+e+e+e+e+e+e+e+e+e+e+e+e+e+e+e+e+e+e+e+e+e+e+e+e+e+f@                                                                                                  i+e+e+e+e+e+e+e+e+e+e+e+e+e+e+e+e+e+e+e+e+e+e+e+e+e+e+e+e+e+e+e+e+e+e+e+v@                              c % + @ + + # # # # # # # # # # # # # # # # # # # # # # # # # # # # # # # # # # # # # # # # # # # # # # # # # # # # # # # # % % % % % % % % # ] # 8 V $ % %                                                                                                                                             b # } % # # % % % # # # # ",
"                      /.1.7 +.+ # # + @ } # % ] ] % # @ * + # # # % @ + # # # # # # # # # # # # # # # # # # # # # # # # # # # # # # # # # # # # # # # # # # # # # # # # # # # # # # # # # # # # # # # # # # } # % 3 + A.                                                                                    {#e+e+e+e+e+e+e+e+e+e+e+e+e+e+e+e+e+e+e+e+e+e+e+e+e+e+e+e+e+e+e+e+e+e+e+(## # # # # # # # # # # # # # # # # # # # # # # # # # $ # # ] & U.                                  =#e+e+e+e+e+e+e+e+e+e+e+e+e+e+e+e+e+e+e+e+e+e+e+e+e+e+e+e+|@# ] h @ } % # # # # % # # # # # # # # # # # # # # # # # # # # # # # # # # # # # # # x#e+e+e+e+e+e+e+e+e+e+e+e+e+e+e+e+e+e+e+e+e+e+e+e+e+e+e+e+0@                                                                                                  Z+e+e+e+e+e+e+e+e+e+e+e+e+e+e+e+e+e+e+e+e+e+e+e+e+e+e+e+e+e+e+e+e+e+e+e+X@                          w.t.@ @ & # # # # # # # # # # # # # # # # # # # # # # # # # # # # # # # # # # # # # # # # # # # # # # # # # # # # # # # # # # # # # # # # # # # + # ] # # h ] 2                                                                                                                                             R % } % # # % % % # # # # ",
"                                ` Q J ~ , @ @ @ & $ @ # # $ * h $ # # # @ # # # # # # # # # # # # # # # # # # # # # # # # # # # # # # # # # # # # # # # # # # # # # # # # # # # # # # # # # # # # # # # # % + # } +.] 4 p                                                                                   y+;#e+e+e+e+e+e+e+e+e+e+e+e+e+e+e+e+e+e+e+e+e+e+e+e+e+e+e+e+e+e+e+e+e+e+0## # # # # # # # # # # # # # # # # # # # # # # # # # * # & @ @ #                                   +@e+e+e+e+e+e+e+e+e+e+e+e+e+e+e+e+e+e+e+e+e+e+e+e+e+e+e+e+0@# # V } + % # # # # # # # # # # # # # # # # # # # # # # # # # # # # # # # # # # # #  #e+e+e+e+e+e+e+e+e+e+e+e+e+e+e+e+e+e+e+e+e+e+e+e+e+e+e+e+Z@                                                                                                  N+e+e+e+e+e+e+e+e+e+e+e+e+e+e+e+e+e+e+e+e+e+e+e+e+e+e+e+e+e+e+e+e+e+e+e+U@                        7.@ % @ h * + + ^ # # # # # # # # # # # # # # # # # # # # # # # # # # # # # # # # # # # # # # # # # # # # # # # # # # # # # # # # # # # # # # # # % # ] # & h @                                                                                                                                               c + } % # # % % % # # # # ",
"                                          R h # # ] +.* @ $ + # # } @ % # % % % % % % % % # # # # # # # # # # # # # # # # # # # # # # # # # # # # # # # # # # # # # # # # # # # # # # # # # # # # # # # # # # @ $ } } 9 { h.                                                                                  _#e+e+e+e+e+e+e+e+e+e+e+e+e+e+e+e+e+e+e+e+e+e+e+e+e+e+e+e+e+e+e+e+e+e+;#v## # # # # # # # # # # # # # # # # # # # # # # # # & @ * # @ @ |.                              (.w+e+e+e+e+e+e+e+e+e+e+e+e+e+e+e+e+e+e+e+e+e+e+e+e+e+e+e+e+i+7 # $ + % # # # # # # # # # # # # # # # # # # # # # # # # # # # # # # # # # # # # # 3@^@e+e+e+e+e+e+e+e+e+e+e+e+e+e+e+e+e+e+e+e+e+e+e+e+e+e+e+z+y#&.                                                                                            + z+e+e+e+e+e+e+e+e+e+e+e+e+e+e+e+e+e+e+e+e+e+e+e+e+e+e+e+e+e+e+e+e+e+e+S@                      q M , }.8 } } + # % $ # # # # # # # # # # # # # # # # # # # # # # # # # # # # # # # # # # # # # # # # # # # # # # # # # # # # # # # # % % % % % % % % # } + # ( @ 2                                                                                                                                               c % } % # # % % % # # # # ",
"                                                3.h } } & @ ] 8 $ % # # % # # # # # # # # # # # # # # # # # # # # # # # # # # # # # # # # # # # # # # # # # # # # # # # # # # # # # # # # # # # # # # # # # # % $ # # 9 _ ,                                                                                   '#e+e+e+e+e+e+e+e+e+e+e+e+e+e+e+e+e+e+e+e+e+e+e+e+e+e+e+e+e+e+e+e+e+e+e+~## # # # # # # # # # # # # # # # # # # # # # # # # % * $ # $ ( ,                               s@e+e+e+e+e+e+e+e+e+e+e+e+e+e+e+e+e+e+e+e+e+e+e+e+e+e+e+e+^@<#h * % % % # # # # # % # # # # # # # # # # # # # # # # # # # # # # # # # # # # # # # # ~@e+e+e+e+e+e+e+e+e+e+e+e+e+e+e+e+e+e+e+e+e+e+e+e+e+e+e+e+>@, ~ >+                                                                                         #e+e+e+e+e+e+e+e+e+e+e+e+e+e+e+e+e+e+e+e+e+e+e+e+e+e+e+e+e+e+e+e+e+e+e+Y@                  Q , 4 m 5 + % % + @ @ } } # # # # # # # # # # # # # # # # # # # # # # # # # # # # # # # # # # # # # # # # # # # # # # # # # # # # # # # # # # # # # # # # # @ # & ^ ]                                                                                                                                                 R + } % # # % % % # # # # ",
"                                                      I + * ] % # # # # } # # # # # # # # # # # # # # # # # # # # # # # # # # # # # # # # # # # # # # # # # # # # # # # # # # # # # # # # # # # # # # # # @ # # $ } # 4 { f :.                                                                                [#e+e+e+e+e+e+e+e+e+e+e+e+e+e+e+e+e+e+e+e+e+e+e+e+e+e+e+e+e+e+e+e+e+e+e+6## # # # # # # # # # # # # # # # # # # # # # # # # % % # ] 8 $ _ p                             #@e+e+e+e+e+e+e+e+e+e+e+e+e+e+e+e+e+e+e+e+e+e+e+e+e+e+e+e+~@o # * } % % # # # # % % # # # # # # # # # # # # # # # # # # # # # # # # # # # # # # # # Z+e+e+e+e+e+e+e+e+e+e+e+e+e+e+e+e+e+e+e+e+e+e+e+e+e+e+e+e+)@{ 4 , Y z#                                                                                    )@e+e+e+e+e+e+e+e+e+e+e+e+e+e+e+e+e+e+e+e+e+e+e+e+e+e+e+e+e+e+e+e+e+e+e+k#              _., , ..p ! , # @ * 8 @ } & ] # # # # # # # # # # # # # # # # # # # # # # # # # # # # # # # # # # # # # # # # # # # # # # # # # # # # # # # # # # # # # # # # % # @ ] # F.                                                                                                                                                V @ } % # # % % % # # # # ",
"                                                            1.# # & V ] # % % % % % % % % # # # # # # # # # # # # # # # # # # # # # # # # # # # # # # # # # # # # # # # # # # # # # # # # # # # # # # # # @ % # } $ @ ! , 9., A#                                                                              y+;#e+e+e+e+e+e+e+e+e+e+e+e+e+e+e+e+e+e+e+e+e+e+e+e+e+e+e+e+e+e+e+e+e+e+0## # # # # # # # # # # # # # # # # # # # # # # # # @ # # ^ $ # .., ++                          `+e+e+e+e+e+e+e+e+e+e+e+e+e+e+e+e+e+e+e+e+e+e+e+e+e+e+e+e+)@  g % $ + % % # # % % + # # # # # # # # # # # # # # # # # # # # # # # # # # # # # # # # E+e+e+e+e+e+e+e+e+e+e+e+e+e+e+e+e+e+e+e+e+e+e+e+e+e+e+e+e+~@{ f %.'., , &+6.                                                                              @@e+e+e+e+e+e+e+e+e+e+e+e+e+e+e+e+e+e+e+e+e+e+e+e+e+e+e+e+e+e+e+e+e+e+e+U@        ++T ' ~ r _ f 5 m ..# $ ] # # # # # # # # # # # # # # # # # # # # # # # # # # # # # # # # # # # # # # # # # # # # # # # # # # # # # # # # # # # # # % % % % % % % % & # 8 $ r.                                                                                                                                                  & } } % # # % % % # # # # ",
"                                                                  E # , $ @ @ @ @ @ @ @ @ # # # # # # # # # # # # # # # # # # # # # # # # # # # # # # # # # # # # # # # # # # # # # # # # # # # # # # # # # + % # # % ' 4 4 , f                                                                                 _#e+e+e+e+e+e+e+e+e+e+e+e+e+e+e+e+e+e+e+e+e+e+e+e+e+e+e+e+e+e+e+e+e+e++#U@# # # # # # # # # # # # # # # # # # # # # # # # @ # & } % # , 8.{                         (.w+e+e+e+e+e+e+e+e+e+e+e+e+e+e+e+e+e+e+e+e+e+e+e+e+e+e+e+e+ #    # ^ + + % # % % + } # # # # # # # # # # # # # # # # # # # # # # # # # # # # # # # # 1#z+e+e+e+e+e+e+e+e+e+e+e+e+e+e+e+e+e+e+e+e+e+e+e+e+e+e+e+^@B#, , ! X 4 , , D.S.                                                                        & z+e+e+e+e+e+e+e+e+e+e+e+e+e+e+e+e+e+e+e+e+e+e+e+e+e+e+e+e+e+e+e+e+e+e+t@      ).{ , ! { , , { ~ ' , , # % # # } ^ & # # # # # # # # # # # # # # # # # # # # # # # # # # # # # # # # # # # # # # # # # # # # # # # # # # # # # # # # # @ @ @ @ @ @ @ @ $ & 8 &                                                                                                                                                     # % } % # # % % % # # # # ",
"                                                                      b+, % # + ] } @ @ # # # } @ # } @ # # # # # # # # # # # # # # # # # # # # # # # # # # # # # # # # # # # # # # # # # # # # # # # # # # # # # # # # # # 3 # l.                                                                              '#e+e+e+e+e+e+e+e+e+e+e+e+e+e+e+e+e+e+e+e+e+e+e+e+e+e+e+e+e+e+e+e+e+e+e+[## # # # # # # # # # # # # # # # # # # # # # # # % % % # # # # % ^ U.                      *@e+e+e+e+e+e+e+e+e+e+e+e+e+e+e+e+e+e+e+e+e+e+e+e+e+e+e+e+z++       , 5 , @ * $ @ @ # @ % # # # % % % # # # # # # # # # # # # # # # # # # # # # # # # # l#e+e+e+e+e+e+e+e+e+e+e+e+e+e+e+e+e+e+e+e+e+e+e+e+e+e+e+e+i+# # % { & M $ 5 @ 9 ] e                                                                   g+e+e+e+e+e+e+e+e+e+e+e+e+e+e+e+e+e+e+e+e+e+e+e+e+e+e+e+e+e+e+e+e+e+e+e+@#c * + + @ & & % % # # # % % % # # # # # # # # # # # # # # # # # # # # # # # # # # # # # # # # # # # # # # # # # # # # # # # # # # # # # # # # # # # # # % % % { , 5 m , S 2., s E ~                                                                                                                                                     c @ + # # # # # # % % # # # ",
"                                                                          H # # h ] # # ^ $ # + + # # + & # # # # # # # # # # # # # # # # # # # # # # # # # # # # # # # # # # # # # # # # # # # # # # # # # # # # # # # # # % # *                                                                               [#e+e+e+e+e+e+e+e+e+e+e+e+e+e+e+e+e+e+e+e+e+e+e+e+e+e+e+e+e+e+e+e+e+e+e+6## # # # # # # # # # # # # # # # # # # # # # # # # % % # # # + @ + b                       k+e+e+e+e+e+e+e+e+e+e+e+e+e+e+e+e+e+e+e+e+e+e+e+e+e+e+e+e+s+        u , f & % $ ] @ @ } % # # # % % # # # # # # # # # # # # # # # # # # # # # # # # # # g#e+e+e+e+e+e+e+e+e+e+e+e+e+e+e+e+e+e+e+e+e+e+e+e+e+e+e+e+)@# # % % + @ @ @ & } } } } 8 c                                                             0@e+e+e+e+e+e+e+e+e+e+e+e+e+e+e+e+e+e+e+e+e+e+e+e+e+e+e+e+e+e+e+e+e+e+e+N@@ % + } + % + % % % # # # % % # # # # # # # # # # # # # # # # # # # # # # # # # # # # # # # # # # # # # # # # # # # # # # # # # # # # # # # # # # % % % % % % , f 4 f J , , S r !                                                                                                                                                       $ $ } % % # # # # % % # # # ",
"                                                                              . # # 3 3 % @ # # & % # # % # # # # # # # # # # # # # # # # # # # # # # # # # # # # # # # # # # # # # # # # # # # # # # # # # # # # # # # # % # } @ b                                                                             2#;#e+e+e+e+e+e+e+e+e+e+e+e+e+e+e+e+e+e+e+e+e+e+e+e+e+e+e+e+e+e+e+e+e+e+h## # # # # # # # # # # # # # # # # # # # # # # # # # % % # % @ $ + # r.                    p+e+e+e+e+e+e+e+e+e+e+e+e+e+e+e+e+e+e+e+e+e+e+e+e+e+e+e+e+n+          0 ' # & @ } $ } } % # # # # # # # # # # # # # # # # # # # # # # # # # # # # # # # [#e+e+e+e+e+e+e+e+e+e+e+e+e+e+e+e+e+e+e+e+e+e+e+e+e+e+e+e+Z@# % % # # % + @ & % } & @ # # + 3 P l                                                     Z@e+e+e+e+e+e+e+e+e+e+e+e+e+e+e+e+e+e+e+e+e+e+e+e+e+e+e+e+e+e+e+e+e+e+e+k@# } ] @ # # % } + % % # # # # # # # # # # # # # # # # # # # # # # # # # # # # # # # # # # # # # # # # # # # # # # # # # # # # # # # # # # # # % % % % % % % % , 4 { ! ~ r f 4 ,                                                                                                                                                         % } # } + % % # # # % # # # ",
"                                                                                  * # $ & 8 # # } @ @ % # # # # # # # # # # # # # # # # # # # # # # # # # # # # # # # # # # # # # # # # # # # # # # # # # # # # # # # # # % # $ 8 #                                                                               >#e+e+e+e+e+e+e+e+e+e+e+e+e+e+e+e+e+e+e+e+e+e+e+e+e+e+e+e+e+e+e+e+e+e++#8## # # # # # # # # # # # # # # # # # # # # # # # % % # # % } & * # @                   3.u+e+e+e+e+e+e+e+e+e+e+e+e+e+e+e+e+e+e+e+e+e+e+e+e+e+e+e+e+V+            S # V } # h % } % # # # # # # # # # # # # # # # # # # # # # # # # # # # # # # # U@;#e+e+e+e+e+e+e+e+e+e+e+e+e+e+e+e+e+e+e+e+e+e+e+e+e+e+e+^@3@% % % % % } @ @ * @ % ] h 8 % # 4 , , ! 0 M.                                          3 ^@e+e+e+e+e+e+e+e+e+e+e+e+e+e+e+e+e+e+e+e+e+e+e+e+e+e+e+e+e+e+e+e+e+e+t@@ & ] ] } # % $ } } % % # # # # # # # # # # # # # # # # # # # # # # # # # # # # # # # # # # # # # # # # # # # # # # # # # # # # # # # # # # # # % % % % # # # # ' , , ~ 5 E S , e.                                                                                                                                                      R @ # @ @ @ + % % # # # # # # ",
"                                                                                    1 + # ^ } % # # % & # # # # # # # # # # # # # # # # # # # # # # # # # # # # # # # # # # # # # # # # # # # # # # # # # # # # # # # # # # # # 8 # (.                                                                            '#e+e+e+e+e+e+e+e+e+e+e+e+e+e+e+e+e+e+e+e+e+e+e+e+e+e+e+e+e+e+e+e+e+e+e+3## # # # # # # # # # # # # # # # # # # # # # # % % % # # # % + 8 # $ (.                B+e+e+e+e+e+e+e+e+e+e+e+e+e+e+e+e+e+e+e+e+e+e+e+e+e+e+e+e++#n#              * @ @ @ 8 ] } % # # # # # # # # # # # # # # # # # # # # # # # # # # # # # # # # >#e+e+e+e+e+e+e+e+e+e+e+e+e+e+e+e+e+e+e+e+e+e+e+e+e+e+e+e+o## % + @ @ @ } + @ } } @ % # % ] 4 ~ f 5 { , , , ~ 9.y.`                               C+e+e+e+e+e+e+e+e+e+e+e+e+e+e+e+e+e+e+e+e+e+e+e+e+e+e+e+e+e+e+e+e+e+e+e+v@& + % % % % @ * } } % % # # # # # # # # # # # # # # # # # # # # # # # # # # # # # # # # # # # # # # # # # # # # # # # # # # # # # # # # # # # # # # # # # # # # , 5 , 5 |., ,                                                                                                                                                         ;+} % $ . @ @ + % % # # # # # # ",
"                                                                                        b # # % % # # @ @ % % % % % % % % # # # # # # # # # # # # # # # # # # # # # # # # # # # # # # # # # # # # # # # # # # # # # # # # # } # & * #                                                                             3#e+e+e+e+e+e+e+e+e+e+e+e+e+e+e+e+e+e+e+e+e+e+e+e+e+e+e+e+e+e+e+e+e+e+e+g## # # # # # # # # # # # # # # # # # # # # # # % % % # # # # % # * } ]                 F+e+e+e+e+e+e+e+e+e+e+e+e+e+e+e+e+e+e+e+e+e+e+e+e+e+e+e+e+h#                  # } 8 # * @ % # # # % % % # # # # # # # # # # # # # # # # # # # # # # # # # # ]#e+e+e+e+e+e+e+e+e+e+e+e+e+e+e+e+e+e+e+e+e+e+e+e+e+e+e+e+:@# % } & & @ + % # % $ ^ $ % % & ~ ! , , , f E A.~ { ! , , , ~ _ O.&+b#C#X.            x#e+e+e+e+e+e+e+e+e+e+e+e+e+e+e+e+e+e+e+e+e+e+e+e+e+e+e+e+e+e+e+e+e+e+e+N@@ % # % } % % @ } + % % # # # # # # # # # # # # # # # # # # # # # # # # # # # # # # # # # # # # # # # # # # # # # # # # # # # # # # # # # # # # # # # # # % % % , M r , , {                                                                                                                                                           & # $ 3 % } + % % # # # % # # # ",
"                                                                                          l E , r r { ~ f % % % % % % % % # # # # # # # # # # # # # # # # # # # # # # # # # # # # # # # # # # # # # # # # # # # # # # # # @ % % & ] # =                                                                           2#;#e+e+e+e+e+e+e+e+e+e+e+e+e+e+e+e+e+e+e+e+e+e+e+e+e+e+e+e+e+e+e+e+e+e+l## # # # # # # # # # # # # # # # # # # # # # # % % % # # # % } # h % @ V               K+e+e+e+e+e+e+e+e+e+e+e+e+e+e+e+e+e+e+e+e+e+e+e+e+e+e+e+e+g#                  ^.& } } @ @ } % # % % % % # # # # # # # # # # # # # # # # # # # # # # # # # # Q@e+e+e+e+e+e+e+e+e+e+e+e+e+e+e+e+e+e+e+e+e+e+e+e+e+e+e+e+|@# % % + } + + % 8 # # # # % } & # % @ ] ] @ # # # % + } } % # # 5 5 ~ { ! , , , , , , ~@e+e+e+e+e+e+e+e+e+e+e+e+e+e+e+e+e+e+e+e+e+e+e+e+e+e+e+e+e+e+e+e+e+e+e+D#& } } @ @ # # # % % % # # # % % # # # # # # # # # # # # # # # # # # # # # # # # # # # # # # # # # # # # # # # # # # # # # # # # # # # # # # # # # # # % + } @ @ 4 ! ..5 5                                                                                                                                                           $ # % ] * # % % # # # # % % # # # ",
"                                                                                              ~ 5 E f 5 S % % % % % % % % # # # # # # # # # # # # # # # # # # # # # # # # # # # # # # # # # # # # # # # # # # # # # # # # % # ] @ # @ &                                                                             >#e+e+e+e+e+e+e+e+e+e+e+e+e+e+e+e+e+e+e+e+e+e+e+e+e+e+e+e+e+e+e+e+e+e++#E## # # # # # # # # # # # # # # # # # # # # # # % % % # % @ $ % ] @ % $             ^.Q+e+e+e+e+e+e+e+e+e+e+e+e+e+e+e+e+e+e+e+e+e+e+e+e+e+e+e+e+a#                    3 # t.% & } % % % + + + # # # # # # # # # # # # # # # # # # # # # # # # # # :#e+e+e+e+e+e+e+e+e+e+e+e+e+e+e+e+e+e+e+e+e+e+e+e+e+e+e+e+4@F#% # # # % % + # # % @ @ # # # # # # # % % % % # # # # + } } + ' , , ' ' 4 { ~ 5 9 G#^@e+e+e+e+e+e+e+e+e+e+e+e+e+e+e+e+e+e+e+e+e+e+e+e+e+e+e+e+e+e+e+e+e+e+t@# # # % % # # % ] % % # # # % % % # # # # # # # # # # # # # # # # # # # # # # # # # # # # # # # # # # # # # # # # # # # # # # # # # # # # # # # # # % % + @ & $ $ M 9 { 7.                                                                                                                                                          R # & # # # ] # # # # # # % % # # # ",
"                                                                                                x.4 ~ ~ s @ @ # # $ } # ] # # # # # # # # # # # # # # # # # # # # # # # # # # # # # # # # # # # # # # # # # # # # # # # # # % # % $ % * ;+                                                                          '#e+e+e+e+e+e+e+e+e+e+e+e+e+e+e+e+e+e+e+e+e+e+e+e+e+e+e+e+e+e+e+e+e+e+e+7## # # # # # # # # # # # # # # # # # # # # # # # # # # # % % & * # ] # &           5#e+e+e+e+e+e+e+e+e+e+e+e+e+e+e+e+e+e+e+e+e+e+e+e+e+e+e+e+;#2#                      ( * ^ # 3 ] # # + # @ % % % # # % % % # # # # # # # # # # # # # # # # # # # t@e+e+e+e+e+e+e+e+e+e+e+e+e+e+e+e+e+e+e+e+e+e+e+e+e+e+e+e+ ## # # # # # # # # # # # # # # # # # # # # # # # # # # # # # # , , , , , , , , , , H#e+e+e+e+e+e+e+e+e+e+e+e+e+e+e+e+e+e+e+e+e+e+e+e+e+e+e+e+e+e+e+e+e+e+e+v@# # # # # # # # # # # # # # # # # # # # # # # # # # # # # # # # # # # # # # # # # # # # # # # # # # # # # # # # # # # # % % % % % # % % # # + + # % # # & $ + } 8 5 ' u                                                                                                                                                           t 8 % # # + % # # # # # # # # # # # # ",
"                                                                                                  7.M J , # ^ * + # % # % # # # # # # # # # # # # # # # # # # # # # # # # # # # # # # # # # # # # # # # # # # # # # # # # + + # % @ % @ b                                                                           3#e+e+e+e+e+e+e+e+e+e+e+e+e+e+e+e+e+e+e+e+e+e+e+e+e+e+e+e+e+e+e+e+e+e+e+4## # # # # # # # # # # # # # # # # # # # # # # # # # # # % % @ } # @ ] # <.        ,@e+e+e+e+e+e+e+e+e+e+e+e+e+e+e+e+e+e+e+e+e+e+e+e+e+e+e+e+>#                          ] # 7 # % V } % 8 # % % # # # # % % # # # # # # # # # # # # # # # # # # # I@e+e+e+e+e+e+e+e+e+e+e+e+e+e+e+e+e+e+e+e+e+e+e+e+e+e+e+e+0@# # # # # # # # # # # # # # # # # # # # # # # # # # # # # # # , , , , , , , , , , :@e+e+e+e+e+e+e+e+e+e+e+e+e+e+e+e+e+e+e+e+e+e+e+e+e+e+e+e+e+e+e+e+e+e+e+N@# # # # # # # # # # # # # # # # # # # # # # # # # # # # # # # # # # # # # # # # # # # # # # # # # # # # # # # # # # # # # % % % % # % % # # + + # # 8 ] # # * * % r                                                                                                                                                             |.r & + % # # % % # # # # # # # # # # # ",
"                                                                                                    [+, p * % % $ % # # @ # # # # # # # # # # # # # # # # # # # # # # # # # # # # # # # # # # # # # # # # # # # # # # # # @ # % } % + } #                                                                           2#;#e+e+e+e+e+e+e+e+e+e+e+e+e+e+e+e+e+e+e+e+e+e+e+e+e+e+e+e+e+e+e+e+e+e+l## # # # # # # # # # # # # # # # # # # # # # # # # # # # % % # + & # * % #         [@e+e+e+e+e+e+e+e+e+e+e+e+e+e+e+e+e+e+e+e+e+e+e+e+e+e+e+e+(#                            3 & ] % # + $ } % % % # # # # % % # # # # # # # # # # # # # # # # # # # m@e+e+e+e+e+e+e+e+e+e+e+e+e+e+e+e+e+e+e+e+e+e+e+e+e+e+e+e+|@# # # # # # # # # # # # # # # k k k k k k k k k k k k k k k k # # # # # # # # # # |@e+e+e+e+e+e+e+e+e+e+e+e+e+e+e+e+e+e+e+e+e+e+e+e+e+e+e+e+e+e+e+e+e+e+e+:## # # # # # # # # # # # # # # # # # # # # # # # # # # # # # # # # # # # # # # # # # # # # # # # # # # # # # # # # # # # # # # # # # % % # # % % # % # # $ 8 & ] V                                                                                                                                                             E., ' + @ + # # # % # # # # # # # # # # # ",
"                                                                                                        ..r # # ] % # @ + # # # # # # # # # # # # # # # # # # # # # # # # # # # # # # # # # # # # # # # # # # # # # # # # % # + @ # & 8 # D                                                                           >#e+e+e+e+e+e+e+e+e+e+e+e+e+e+e+e+e+e+e+e+e+e+e+e+e+e+e+e+e+e+e+e+e+e++#I## # # # # # # # # # # # # # # # # # # # # # # # # # # % % # * +.# $ & # (     ^.1@e+e+e+e+e+e+e+e+e+e+e+e+e+e+e+e+e+e+e+e+e+e+e+e+e+e+e+e+~#                              + 2 % # $ @ # ] % % # # # # % % # # # # # # # # # # # # # # # # # # # (@e+e+e+e+e+e+e+e+e+e+e+e+e+e+e+e+e+e+e+e+e+e+e+e+e+e+e+e+4@b@# # # # # # # # # # # # # # k k k k k k k k k k k k k k k k # # # # # # # # # 3@4@e+e+e+e+e+e+e+e+e+e+e+e+e+e+e+e+e+e+e+e+e+e+e+e+e+e+e+e+e+e+e+e+e+e+,## # # # # # # # # # # # # # # # # # # # # # # # # # # # # # # # # # # # # # # # # # # # # # # # # # # # # # # # # # # # # # # # # # # % % # # # # # # # 8 * # #                                                                                                                                                               j., t { } + % # # # # # # # # # # # # # # # ",
"                                                                                                          9 # $ $ # $ 8 # # # # # # # # # # # # # # # # # # # # # # # # # # # # # # # # # # # # # # # # # # # # # # # # # # # @ @ # $ +.# b.                                                                          6#e+e+e+e+e+e+e+e+e+e+e+e+e+e+e+e+e+e+e+e+e+e+e+e+e+e+e+e+e+e+e+e+e+e+e+a## # # # # # # # # # # # # # # # # # # # # # # # # # # % % % ] @ ] % % * #     5@e+e+e+e+e+e+e+e+e+e+e+e+e+e+e+e+e+e+e+e+e+e+e+e+e+e+e+e+e+%#                                }.# 3 ^ # + % % % % # # % % % # # # # # # # # # # # # # # # # # # # # =@e+e+e+e+e+e+e+e+e+e+e+e+e+e+e+e+e+e+e+e+e+e+e+e+e+e+e+e+g+# # # # # # # # # # # # # # k k k k k k k k k k k k k k k k # # # # # # # # # 8@e+e+e+e+e+e+e+e+e+e+e+e+e+e+e+e+e+e+e+e+e+e+e+e+e+e+e+e+e+e+e+e+e+e+e+Y@# # # # # # # # # # # # # # # # # # # # # # # # # # # # # # # # # # # # # # # # # # # # # # # # # # # # # # # # # # # # # # # # # # # # # # # # # # $ } # # (                                                                                                                                                               ,.%.G., m @ # # % % % # # # # # # # # # # # # ",
"                                                                                                            l.# # 8 $ + % # # # # # # # # # # # # # # # # # # # # # # # # # # # # # # # # # # # # # # # # # # # # # # # # # % & + # } 8 @ :                                                                           7#e+e+e+e+e+e+e+e+e+e+e+e+e+e+e+e+e+e+e+e+e+e+e+e+e+e+e+e+e+e+e+e+e+e+e+$## # # # # # # # # # # # # # # # # # # # # # # # # # # % % 8 # # }.} # 3 # ,   _@e+e+e+e+e+e+e+e+e+e+e+e+e+e+e+e+e+e+e+e+e+e+e+e+e+e+e+e+t@                                    2 # % ] $ % } + % % % % + } # # # # # # # # # # # # # # # # # # # # j+e+e+e+e+e+e+e+e+e+e+e+e+e+e+e+e+e+e+e+e+e+e+e+e+e+e+e+e+x## # # # # # # # # # # # # # k k k k k k k k k k k k k k k k # # # # # # # # # 0@e+e+e+e+e+e+e+e+e+e+e+e+e+e+e+e+e+e+e+e+e+e+e+e+e+e+e+e+e+e+e+e+e+e+e+Q@# # # # # # # # # # # # # # # # # # # # # # # # # # # # # # # # # # # # # # # # # # # # # # # # # # # # # # # # # # # # # % % % % % % # # + + % % } # # } f.                                                                                                                                                            [+b., < D., S & # # % } % # # # # # # # # # # # # ",
"                                                                                                              +.# * $ # 8 # # # # # # # # # # # # # # # # # # # # # # # # # # # # # # # # # # # # # # # # # # # # # # # # # @ % # % % # @ ) D                                                                         9#;#e+e+e+e+e+e+e+e+e+e+e+e+e+e+e+e+e+e+e+e+e+e+e+e+e+e+e+e+e+e+e+e+e+e+s+# # # # # # # # # # # # # # # # # # # # # # # # # # # % % $ # # ] + # } @ ,   a@e+e+e+e+e+e+e+e+e+e+e+e+e+e+e+e+e+e+e+e+e+e+e+e+e+e+e+e+@#                                      3 } * @ ] @ @ } + + } @ @ # # # # # # # # # # # # # # # # # # # # Y+e+e+e+e+e+e+e+e+e+e+e+e+e+e+e+e+e+e+e+e+e+e+e+e+e+e+e+e+q+# # # # # # # # # # # # # # k A A A A A A A A A A A A A A k # # # # # # # # # q+e+e+e+e+e+e+e+e+e+e+e+e+e+e+e+e+e+e+e+e+e+e+e+e+e+e+e+e+e+e+e+e+e+e+e+u@# # # # # # # # # # # # # # # # # # # # # # # # # # # # # # # # # # # # # # # # # # # # # # # # # # # # # # # # # # # # % % + } @ @ } % % & $ @ @ ] } ;+                                                                                                                                                              b#, > d , , s 9 + # # % % # # # # # # # # # # # # # ",
"                                                                                                                * , * ^ # # # # # # # # # # # # # # # # # # # # # # # # # # # # # # # # # # # # # # # # # # # # # # # # # # + # # & % # } , ~                                                                           >#e+e+e+e+e+e+e+e+e+e+e+e+e+e+e+e+e+e+e+e+e+e+e+e+e+e+e+e+e+e+e+e+e+e+z+1## # # # # # # # # # # # # # # # # # # # # # # # # # % % # # ] # # ] # ] p J#1@e+e+e+e+e+e+e+e+e+e+e+e+e+e+e+e+e+e+e+e+e+e+e+e+e+e+e+e+X@                                        v # 8 * @ @ @ } } @ @ @ # # # # # # # # # # # # # # # # # # # # O@e+e+e+e+e+e+e+e+e+e+e+e+e+e+e+e+e+e+e+e+e+e+e+e+e+e+e+e+4@b@# # # # # # # # # # # # # k A k A k A k A k A k A k A k k # # # # # # # # b@4@e+e+e+e+e+e+e+e+e+e+e+e+e+e+e+e+e+e+e+e+e+e+e+e+e+e+e+e+e+e+e+e+e+e+,## # # # # # # # # # # # # # # # # # # # # # # # # # # # # # # # # # # # # # # # # # # # # # # # # # # # # # # # # # # # # % % } @ & & & + { ] _ $ r h                                                                                                                                                               l , r m.~ , ' ,., # # % + % # # # # # # # # # # # # # # ",
"                                                                                                                  Y r , , { ' # # # $ 8 # # # # # # # # # # # # # # # # # # # # # # # # # # # # # # # # # # # # # # # # # # # # # # # # # % %                                                                           6#e+e+e+e+e+e+e+e+e+e+e+e+e+e+e+e+e+e+e+e+e+e+e+e+e+e+e+e+e+e+e+e+e+e+e+*## # # # # # # # # # # # # # # # # # # # # # # # # # # # % % % # # # @ $ & f+e+e+e+e+e+e+e+e+e+e+e+e+e+e+e+e+e+e+e+e+e+e+e+e+e+e+e+e+e+P@                                          )., 9.{ 9 @ @ } } # # # # # # # # # # # # # # # # # # # # # # # %@e+e+e+e+e+e+e+e+e+e+e+e+e+e+e+e+e+e+e+e+e+e+e+e+e+e+e+e+f@# # # # # # # # # # # # # # k # k # k # k # k # k # k # # # # # # # # # # f@e+e+e+e+e+e+e+e+e+e+e+e+e+e+e+e+e+e+e+e+e+e+e+e+e+e+e+e+e+e+e+e+e+e+e+Y@# # # # # # # # # # # # # # # # # # # # # # # # # # # # # # # # # # # # # # # # # # # # # # # # # # # # # } + # # # # + % # # @ ] } # , ' Y r , f                                                                                                                                                                 2.+ f @ 4 # , # , # # # # # # # # # # # # # # # # # # # # ",
"                                                                                                                    , _ { , ! @ } # # # # # # # # # # # # # # # # # # # # # # # # # # # # # # # # # # # # # # # # # # # # # # # # # # # # # @ 1.                                                                        7#e+e+e+e+e+e+e+e+e+e+e+e+e+e+e+e+e+e+e+e+e+e+e+e+e+e+e+e+e+e+e+e+e+e+e+$## # # # # # # # # # # # # # # # # # # # # # # # # # # # % % % # # % @ ] * W+e+e+e+e+e+e+e+e+e+e+e+e+e+e+e+e+e+e+e+e+e+e+e+e+e+e+e+e+C@                                                , 9._ # # # ] 8 @ % % % # # % % % # # # # # # # # # # # # # y@e+e+e+e+e+e+e+e+e+e+e+e+e+e+e+e+e+e+e+e+e+e+e+e+e+e+e+e+l+# # # # # # # # # # # # # # # # # # # # # # # # # # # # # # # # # # # # # l+e+e+e+e+e+e+e+e+e+e+e+e+e+e+e+e+e+e+e+e+e+e+e+e+e+e+e+e+e+e+e+e+e+e+e+X@# # # # # # # # # # # # # # # # # # # # # # # # # # # # # # # # # # # # # # # # # # # # # # # # # # # & # # # # + } + # # % # # # @ 3 b., , ].                                                                                                                                                                I $ } h ] & } % # # # # # # # # # # # # # # # # # # # # # # # ",
"# * <.                                                                                                              [ r ' , ! % % + # # $ # # # # # # # # # # # # # # # # # # # # # # # # # # # # # # # # # # # # # # # # # # # # # # # # # ] ]                                                                         9#;#e+e+e+e+e+e+e+e+e+e+e+e+e+e+e+e+e+e+e+e+e+e+e+e+e+e+e+e+e+e+e+e+e+e+N+# # # # # # # # # # # # # # # # # # # # # # # # # # # # # # # # # % @ ] @ [@e+e+e+e+e+e+e+e+e+e+e+e+e+e+e+e+e+e+e+e+e+e+e+e+e+e+e+e+I@                                                  , M * @ % @ } # % % % % % % % % # # # # # # # # # # # # # H+e+e+e+e+e+e+e+e+e+e+e+e+e+e+e+e+e+e+e+e+e+e+e+e+e+e+e+e+L+# # # # # # # # # # # # # # # # # # # # # # # # # # # # # # # # # # # # # L+e+e+e+e+e+e+e+e+e+e+e+e+e+e+e+e+e+e+e+e+e+e+e+e+e+e+e+e+e+e+e+e+e+e+;#D@# # # # # # # # # # # # # # # # # # # # # # # # # # # # # # # # # # # # # # # # # # # # # # # # # # # % # # # % % # # & # # @ $ & ] h X ].                                                                                                                                                                B.$ % ] & # $ & } % # # # % # # # # # # # # # # # # # # # # # # # ",
"* @ # & b                                                                                                             8., 5 f # # } @ # + # # # # # # # # # # # # # # # # # # # # # # # # # # # # # # # # # # # # # # # # # # # # # # # # # ] #                                                                           >#e+e+e+e+e+e+e+e+e+e+e+e+e+e+e+e+e+e+e+e+e+e+e+e+e+e+e+e+e+e+e+e+e+e+z+1## # # # # # # # # # # # # # # # # # # # # # # # # # # # # # # # % @ $ % h@e+e+e+e+e+e+e+e+e+e+e+e+e+e+e+e+e+e+e+e+e+e+e+e+e+e+e+e+G@                                                    A.# V ( # # * # # # # # # # # # # # # # # # # # # # # # h+e+e+e+e+e+e+e+e+e+e+e+e+e+e+e+e+e+e+e+e+e+e+e+e+e+e+e+e+w+v+# # # # # # # # # # # # # # # # # # # # # # # # # # # # # # # # # # # v+w+e+e+e+e+e+e+e+e+e+e+e+e+e+e+e+e+e+e+e+e+e+e+e+e+e+e+e+e+e+e+e+e+e+e+,## # # # # # # # # # # # # # # # # # # # # # # # # # # # # # # # # # # # # # # # # # # # # # # # # # # # # # & & % # # % } # # % 8 8 ^ 2                                                                                                                                                                 = }.# # ^ 8 $ 8 @ @ + % # # # # # # # # # # # # # # # # # # # # # # # ",
"# # # # @ # 3                                                                                                           T ~ r } # # @ # # # # # # # # # # # # # # # # # # # # # # # # # # # # # # # # # # # # # # # # # # # # # # # # # # # } #                                                                           6#e+e+e+e+e+e+e+e+e+e+e+e+e+e+e+e+e+e+e+e+e+e+e+e+e+e+e+e+e+e+e+e+e+e+e+|## # # # # # # # # # # # # # # # # # # # # # # # # # # # # # # # % } & h+e+e+e+e+e+e+e+e+e+e+e+e+e+e+e+e+e+e+e+e+e+e+e+e+e+e+e+e+e+:#                                                      r.# # 8 ^ ] # # % % % % # # # # # # # # # # # # # # # # h@e+e+e+e+e+e+e+e+e+e+e+e+e+e+e+e+e+e+e+e+e+e+e+e+e+e+e+e+C+# # # # # # # # # # # # # # # # # # # # # # # # # # # # # # # # # # # l@e+e+e+e+e+e+e+e+e+e+e+e+e+e+e+e+e+e+e+e+e+e+e+e+e+e+e+e+e+e+e+e+e+e+e+@## # # # # # # # # # # # # # # # # # # # # # # # # # # # # # # # # # # # # # # # # # # # % % % % % % % % % % % # # % $ * # @ * } # 4.                                                                                                                                                                z.# # # # 8 & # # * % % % # # # # # # # # # # # # # # # # # # # # # # # # ",
"@ % # # % # % # + /.                                                                                                      , , ] ] # } ] % # # # # # # # # # # # # # # # # # # # # # # # # # # # # # # # # # # # # # # # # # # # # # # # # % # # r.                                                                        a#e+e+e+e+e+e+e+e+e+e+e+e+e+e+e+e+e+e+e+e+e+e+e+e+e+e+e+e+e+e+e+e+e+e+e+n+# # # # # # # # # # # # # # # # # # # # # # # # # # # # # # # # # % } _@e+e+e+e+e+e+e+e+e+e+e+e+e+e+e+e+e+e+e+e+e+e+e+e+e+e+e+e+=@                                                            # + 8 # + } @ @ @ @ } + # # # # # # # # # # # # # # .@e+e+e+e+e+e+e+e+e+e+e+e+e+e+e+e+e+e+e+e+e+e+e+e+e+e+e+e+G+# # # # # # # # # # # # # # # # # # # # # # # # # # # # # # # # # # # G+e+e+e+e+e+e+e+e+e+e+e+e+e+e+e+e+e+e+e+e+e+e+e+e+e+e+e+e+e+e+e+e+e+e+e+k## # # # # # # # # # # # # # # # # # # # # # # # # # # # # # # # # # # # # # # # # # # # + + + + + + + + @ # # % $ $ # # ^ # + U.                                                                                                                                                                c @ # % @ @ # # % 8 + # # # # # # # # # # # # # # # # # # # # # # # # # # # # ",
"# } ^ @ # @ @ 8 8 # @                                                                                                     u , % 3 % } 3 @ # # # # # # # # # # # # # # # # # # # # # # # # # # # # # # # # # # # # # # # # # # # # # # # # + # % *                                                                         9#;#e+e+e+e+e+e+e+e+e+e+e+e+e+e+e+e+e+e+e+e+e+e+e+e+e+e+e+e+e+e+e+e+e+e+N+# # # # # # # # # # # # # # # # # # # # # # # # # # # # # % % # # # % a@e+e+e+e+e+e+e+e+e+e+e+e+e+e+e+e+e+e+e+e+e+e+e+e+e+e+e+e+9@                                                              ( # 3 } @ & $ $ & @ } # # # # # # # # # # # # # # k+e+e+e+e+e+e+e+e+e+e+e+e+e+e+e+e+e+e+e+e+e+e+e+e+e+e+e+e+L+# # # # # # # # # # # # # # # # # # # # # # # # # # # # # # # # # # # +@e+e+e+e+e+e+e+e+e+e+e+e+e+e+e+e+e+e+e+e+e+e+e+e+e+e+e+e+e+e+e+e+e+e+;#K@# # # # # # # # # # # # # # # # # # # # # # # # # # # # # # # # # # # # # # # # # # # # @ @ @ @ @ @ @ @ ~ ~ 9 f r M 5 ~ 4 ++                                                                                                                                                                (.@ % @ + # # & ] # # % } # # # # # # # # # # # # # # # # # # # # # # # # # # # # ",
"# # % } # +.% # % @ % % $                                                                                                   A.# 3 + % 8 # # # # # # # # # # # # # # # # # # # # # # # # # # # # # # # # # # # # # # # # # # # # # # # # # % # % +                                                                           0#e+e+e+e+e+e+e+e+e+e+e+e+e+e+e+e+e+e+e+e+e+e+e+e+e+e+e+e+e+e+e+e+e+e+z+S+# # # # # # # # # # # # # # # # # # # # # # # # # # # % % % # # # # h@e+e+e+e+e+e+e+e+e+e+e+e+e+e+e+e+e+e+e+e+e+e+e+e+e+e+e+e+g@                                                                  # + } @ $ $ @ } + # # # # # # # # # # # # # # s@e+e+e+e+e+e+e+e+e+e+e+e+e+e+e+e+e+e+e+e+e+e+e+e+e+e+e+e+w+v+# # # # # # # # # # # # # # # # # # # # # # # # # # # # # # # # # v+w+e+e+e+e+e+e+e+e+e+e+e+e+e+e+e+e+e+e+e+e+e+e+e+e+e+e+e+e+e+e+e+e+e+e+_## # # # # # # # # # # # # # # # # # # # # # # # # # # # # # # # # # # # # # # # # # # # # @ @ @ @ @ @ @ @ r S p 4 , m R.                                                                                                                                                                  }.@ # } & % # + ] # # % + # # % # # % % % % % % # # # # # # # # # # # # # # # # # # # ",
"% + + } @ % % + } @ & ] ] # (                                                                                                 # * # @ $ # # # # # # # # # # # # # # # # # # # # # # # # # # # # # # # # # # # # # # # # # # # # # # # # # # } % }                                                                           6#e+e+e+e+e+e+e+e+e+e+e+e+e+e+e+e+e+e+e+e+e+e+e+e+e+e+e+e+e+e+e+e+e+e+e+V+# # # # # # # # # # # # # # # # # # # # # # # # # # # # # # # # # h+e+e+e+e+e+e+e+e+e+e+e+e+e+e+e+e+e+e+e+e+e+e+e+e+e+e+e+e+e+7@                                                                    b 8 + & ] % # # @ % # # # % % # # # # # # # ]@u+e+e+e+e+e+e+e+e+e+e+e+e+e+e+e+e+e+e+e+e+e+e+e+e+e+e+e+e+U+# # # # # # # # # # # # # # # # # # # # # # # # # # # # # # # # # W@e+e+e+e+e+e+e+e+e+e+e+e+e+e+e+e+e+e+e+e+e+e+e+e+e+e+e+e+e+e+e+e+e+e+e+]## # # # # # # # # # # # # # # # # # # # # # # # % % # # # # # % % % # % % ] % # # # # % ] + $ & # # % ] h _ ' , A.                                                                                                                                                                  I * + ] $ $ & @ @ } } % % % % % # # # # # # # # # # # # # # # # # # # # # # # # # # # # # # ",
"% % + } } % % + } @ @ & $ V ] 2                                                                                               R ] & & $ # # # # # # # # # # # # # # # # # # # # # # # # # # # # # # # # # # # # # # # # # # # # # # # # # # & % @ a                                                                         a#e+e+e+e+e+e+e+e+e+e+e+e+e+e+e+e+e+e+e+e+e+e+e+e+e+e+e+e+e+e+e+e+e+e+e+}## # # # # # # # # # # # # # # # # # # # # # # # # # # # # # # # # _@e+e+e+e+e+e+e+e+e+e+e+e+e+e+e+e+e+e+e+e+e+e+e+e+e+e+e+e+%@                                                                          $ # 3 2 @ # # # $ $ % # # # # # # # # # # `+e+e+e+e+e+e+e+e+e+e+e+e+e+e+e+e+e+e+e+e+e+e+e+e+e+e+e+e+X+# # # # # # # # # # # # # # # # # # # # # # # # # # # # # # # # # X+e+e+e+e+e+e+e+e+e+e+e+e+e+e+e+e+e+e+e+e+e+e+e+e+e+e+e+e+e+e+e+e+e+e+e+.## # # # # # # # # # # # # # # # # # # # # # # # # # # # # @ + # # # # # % # # # @ @ # # # @ # # & +.] # # _ &.                                                                                                                                                                  4.@ % % % & & @ @ @ } + + % % % % % # # # # # # # # # # # # # # # # # # # # # # # # # # # # # # ",
"% % + + + + + + } } } @ @ $ & # # 1                                                                                             % ] + % # # # # # # # # # # # # # # # # # # # # # # # # # # # # # # # # # # # # # # # # # # # # # # # # # # $ + & V                                                                         -#;#e+e+e+e+e+e+e+e+e+e+e+e+e+e+e+e+e+e+e+e+e+e+e+e+e+e+e+e+e+e+e+e+e+e+@@# # # # # # # # # # # # # # # # # # # # # # # # # # # # # # # # # r+e+e+e+e+e+e+e+e+e+e+e+e+e+e+e+e+e+e+e+e+e+e+e+e+e+e+e+e+!@                                                                            w.# # + @ & # # # + ] @ # # # # # # # # X+e+e+e+e+e+e+e+e+e+e+e+e+e+e+e+e+e+e+e+e+e+e+e+e+e+e+e+e++@# # # # # # # # # # # # # # # # # # # # # # # # # # # # # # # # # `+e+e+e+e+e+e+e+e+e+e+e+e+e+e+e+e+e+e+e+e+e+e+e+e+e+e+e+e+e+e+e+e+e+e+;#K@# # # # # # # # # # # # # # # # # # # # # % % % # # # # # # # # + @ @ } % } # # # % % % @ ] # # # # 8 =                                                                                                                                                                   d.2 # # % @ $ & @ @ } } + % % % % % % % % # # # # # # # # # # # # # # # # # # # # # # # # # # # # # # ",
"% % % % + + + + + + % % % # $ }.8 # *                                                                                           * # % # # # # # # # # # # # # # # # # # # # # # # # # # # # # # # # # # # # # # # # # # # # # # # # # # # % @ % ] %                                                                           0#e+e+e+e+e+e+e+e+e+e+e+e+e+e+e+e+e+e+e+e+e+e+e+e+e+e+e+e+e+e+e+e+e+e+z+<## # # # # # # # # # # # # # # # # # # # # # # # # # # # # # # # x+e+e+e+e+e+e+e+e+e+e+e+e+e+e+e+e+e+e+e+e+e+e+e+e+e+e+e+e+Y+                                                                                u.% # # } 8 $ # # # } % % % % % % % C+e+e+e+e+e+e+e+e+e+e+e+e+e+e+e+e+e+e+e+e+e+e+e+e+e+e+e+e+w+$@# # # # # # # # # # # # # # # # # # # # # # # # # # # # # # # $@u+e+e+e+e+e+e+e+e+e+e+e+e+e+e+e+e+e+e+e+e+e+e+e+e+e+e+e+e+e+e+e+e+e+e+_## # # # # # # # # # # # # # # # # # # # % % + % % # # # # # # # % % % # # # % # # # # # % } # } 7                                                                                                                                                                     o 4.] # # 8 3 * @ @ ] + + % % % % # # % % % % % # # # # # # # # # # # # # # # # # # # # # # # # # # # # # # ",
"% % % % % % % % % % % % % ] # # 8 & # 3 ^.                                                                                        # @ # + # # # # # # # # # # # # # # # # # # # # # # # # # # # # # # # # # # # # # # # # # # # # # # # # % % # ] #                                                                           6#e+e+e+e+e+e+e+e+e+e+e+e+e+e+e+e+e+e+e+e+e+e+e+e+e+e+e+e+e+e+e+e+e+e+e+p## # # # # # # # # # # # # # # # # # # # # # # # # # # # # # # 5@e+e+e+e+e+e+e+e+e+e+e+e+e+e+e+e+e+e+e+e+e+e+e+e+e+e+e+e+e+t+                                                                                    3.% # % $ $ } } $ + + + + + + + i#4@e+e+e+e+e+e+e+e+e+e+e+e+e+e+e+e+e+e+e+e+e+e+e+e+e+e+e+e+W@# # # # # # # # # # # # # # # # # # # # # # # # # # # # # # # c@e+e+e+e+e+e+e+e+e+e+e+e+e+e+e+e+e+e+e+e+e+e+e+e+e+e+e+e+e+e+e+e+e+e+e+(## # # # # # # # # # # # # # % % % % % + + + } + % % # # % % @ + # # % } & $ # # % # % @ $ 8                                                                                                                                                                       4.@ # # # +.@ # # % # # # % % % # # # # # % % % % % # # # # # # # # # # # # # # # # # # # # # # # # # # # # # # ",
"# # % % % % % # # # # # # } # # % ^ 8 } # l                                                                                       4.+ # # # # # # # # # # # # # # # # # # # # # # # # # # # # # # # # # # # # # # # # # # # # # # # # # # % # % & %                                                                           a#e+e+e+e+e+e+e+e+e+e+e+e+e+e+e+e+e+e+e+e+e+e+e+e+e+e+e+e+e+e+e+e+e+e+e+Z+# # # # # # # # # # # # # # # # # # # # # # # # # # # # # # # H+e+e+e+e+e+e+e+e+e+e+e+e+e+e+e+e+e+e+e+e+e+e+e+e+e+e+e+e+x+                                                                                            @ # # $ @ # @ @ @ @ @ @ @ @ |@e+e+e+e+e+e+e+e+e+e+e+e+e+e+e+e+e+e+e+e+e+e+e+e+e+e+e+e+X+# # # # # # # # # # # # # # # # # # # # # # # # # # # # # # # '@e+e+e+e+e+e+e+e+e+e+e+e+e+e+e+e+e+e+e+e+e+e+e+e+e+e+e+e+e+e+e+e+e+e+e+{## # # # # # # # # # # # # # % % % + } } @ @ @ } % % % + } @ # # + } % # # # * ] % + (                                                                                                                                                                       r.8 # & +.] # # # # # # & @ # # # # # # # # # # % % % % % # # # # # # # # # # # # # # # # # # # # # # # # # # # # # # ",
"# # # # # # # # # # # # # # % $ } % @ 8 * , `.                                                                                      # # # # # # # # # # # # # # # # # # # # # # # # # # # # # # # # # # # # # # # # # # # # # # # # # # # % # $ % }                                                                           -#;#e+e+e+e+e+e+e+e+e+e+e+e+e+e+e+e+e+e+e+e+e+e+e+e+e+e+e+e+e+e+e+e+e+e+~@# # # # # # # # # # # # # # # # # # # # # # # # # # # # # # # y@e+e+e+e+e+e+e+e+e+e+e+e+e+e+e+e+e+e+e+e+e+e+e+e+e+e+e+e+y@                                                                                                ( # # + @ @ @ @ @ @ @ @ 0@e+e+e+e+e+e+e+e+e+e+e+e+e+e+e+e+e+e+e+e+e+e+e+e+e+e+e+e+`+# # # # # # # # # # # # # # # # # # # # # # # # # # # # # # # p+e+e+e+e+e+e+e+e+e+e+e+e+e+e+e+e+e+e+e+e+e+e+e+e+e+e+e+e+e+e+e+e+e+e+;#e## # # # # # # # # # # # # # % % % + + } @ @ @ } + + + @ $ ] # % @ + # # + $ # U.                                                                                                                                                                      1 @ # @ } % # # # # & @ @ } } # # # @ # # # # # # # # % % % % % # # # # # # # # # # # # # # # # # # # # # # # # # # # # # # ",
"# # # # # # # # # # # # # @ # # % @ & ] * 9., e                                                                                     % 9 % # # # # # # # # # # # # # # # # # # # # # # # # # # # # # # # # # # # # # # # # # # # # # # # # % % * # @                                                                             0#e+e+e+e+e+e+e+e+e+e+e+e+e+e+e+e+e+e+e+e+e+e+e+e+e+e+e+e+e+e+e+e+e+e+z+<## # # # # # # # # # # # # # # # # # # # # # # # # # # # # # R+e+e+e+e+e+e+e+e+e+e+e+e+e+e+e+e+e+e+e+e+e+e+e+e+e+e+e+e+L@                                                                                                    7.* } } } } } } } } i+e+e+e+e+e+e+e+e+e+e+e+e+e+e+e+e+e+e+e+e+e+e+e+e+e+e+e+e+u+$@# # # # # # # # # # # # # # # # # # # # # # # # # # # # # ]@Q+e+e+e+e+e+e+e+e+e+e+e+e+e+e+e+e+e+e+e+e+e+e+e+e+e+e+e+e+e+e+e+e+e+e+>## # # # # # # # # # # # # # # # # % % + + } @ @ @ } + } & ] ^ % % + $ 7 /.                                                                                                                                                                        *.$ # + @ @ @ ] $ % } 8 $ # # # # % + # # # # # # # # # # # % % % % % # # # # # # # # # # # # # # # # # # # # # # # # # # # # # # ",
"# # # # # # # # # # # # # % # # + $ ] @ % ! A., 2.                                                                                  x.' ! # # # % % % % # # # # # # # # # # # # # # # # # # # # # # # # # # # # # # # # # # # # # # # # # % # ] ] @ l.                                                                          g#e+e+e+e+e+e+e+e+e+e+e+e+e+e+e+e+e+e+e+e+e+e+e+e+e+e+e+e+e+e+e+e+e+e+e+>@# # # # # # # # # # # # # # # # # # # # # # # # # # # # # B@e+e+e+e+e+e+e+e+e+e+e+e+e+e+e+e+e+e+e+e+e+e+e+e+e+e+e+e+e+T@                                                                                                        a 7 } # } @ ] +.<#z+e+e+e+e+e+e+e+e+e+e+e+e+e+e+e+e+e+e+e+e+e+e+e+e+e+e+e+e+-@# # # # # # # # # # # # # # # # # % % % % % % % % # # # # o@e+e+e+e+e+e+e+e+e+e+e+e+e+e+e+e+e+e+e+e+e+e+e+e+e+e+e+e+e+e+e+e+e+e+e+'#+ # # # # # % # # + % # # % @ + % % @ $ ] & } _ _ 5 ' , , 5 S 5.++                                                                                                                                                                            ^ @ # # + & $ & & @ @ @ } + % % # # # # # # # # # # # # # # # # # # # # # # # # # # # # # # # # # # # # # # # # # # # # # # # # # # # ",
"# # # # # # # # # # # # # # # # + ] 8 $ } ~ p S 9 k.                                                                                  , 4 , # # % % % % # # # # # # # # # # # # # # # # # # # # # # # # # # # # # # # # # # # # # # # # # } # ] $ } (                                                                           a#e+e+e+e+e+e+e+e+e+e+e+e+e+e+e+e+e+e+e+e+e+e+e+e+e+e+e+e+e+e+e+e+e+e+e+)@# # # # # # # # # # # # # # # # # # # # # # # # # # # # # E@e+e+e+e+e+e+e+e+e+e+e+e+e+e+e+e+e+e+e+e+e+e+e+e+e+e+e+e+1@^.                                                                                                              o 7 & # # ^ N+e+e+e+e+e+e+e+e+e+e+e+e+e+e+e+e+e+e+e+e+e+e+e+e+e+e+e+e+'@% % % % % % % % % # # # # # # # # % % % % % % % % # # # # k+e+e+e+e+e+e+e+e+e+e+e+e+e+e+e+e+e+e+e+e+e+e+e+e+e+e+e+e+e+e+e+e+e+e+e+{## @ 8 ] @ # # ] & % # # # % } # + & & } + @ ] , ' r 2.`.                                                                                                                                                                              ;+V # # $ & @ + % + @ ] @ @ @ } + % % % # # # # # # # # # # # # # # # # # # # # # # # # # # # # # # # # # # # # # # # # # # # # # # # # # # # ",
"# # # # # # # # # # # # # # # # + ] 8 ] @ T , M 9 , ++                                                                                : 9 ! % % # # # # # # # # # # # # # # # # # # # # # # # # # # # # # # # # # # # # # # # # # # # # # @ # & @ % V                                                                           -#;#e+e+e+e+e+e+e+e+e+e+e+e+e+e+e+e+e+e+e+e+e+e+e+e+e+e+e+e+e+e+e+e+e+e+~@# # # # # # # # # # # # # # # # # # # # # # # # # # # # # H@e+e+e+e+e+e+e+e+e+e+e+e+e+e+e+e+e+e+e+e+e+e+e+e+e+e+e+e+[@                                                                                                                        1 # n+e+e+e+e+e+e+e+e+e+e+e+e+e+e+e+e+e+e+e+e+e+e+e+e+e+e+e+e+`+% # # # # # # # # # # # # # # # # % % % % % % % % # # # # K+e+e+e+e+e+e+e+e+e+e+e+e+e+e+e+e+e+e+e+e+e+e+e+e+e+e+e+e+e+e+e+e+e+e+;#8#} # # # # # } # # # # + @ } % # % @ % % 8 t.1.                                                                                                                                                                                F.d.* # # + * V % @ $ @ % # } ] @ @ } } + % % % # # # # # # # # # # # # # # # # # # # # # # # # # # # # # # # # # # # # # # # # # # # # # # # # # # # ",
"# # # # # # # # # # # # # # # # % @ $ @ } r , , M f !                                                                                 Z.~ ~ + % # # # # # # # # # # # # # # # # # # # # # # # # # # # # # # # # # # # # # # # # # # # # # } # } % # *                                                                             0#e+e+e+e+e+e+e+e+e+e+e+e+e+e+e+e+e+e+e+e+e+e+e+e+e+e+e+e+e+e+e+e+e+e+^@&@# # # # # # # # # # # # # # # # # # # # # # # # # # # # %@e+e+e+e+e+e+e+e+e+e+e+e+e+e+e+e+e+e+e+e+e+e+e+e+e+e+e+e+_@                                                                                                                            i+e+e+e+e+e+e+e+e+e+e+e+e+e+e+e+e+e+e+e+e+e+e+e+e+e+e+e+e+u+$@# # # # # # # # % % % % % % % % % % % % % % % % % % % c#1@e+e+e+e+e+e+e+e+e+e+e+e+e+e+e+e+e+e+e+e+e+e+e+e+e+e+e+e+e+e+e+e+e+e+0## # } @ @ } } @ * 8 $ @ + % # # ^ t.B.                                                                                                                                                                                       .^ & } % % + } # # # % } } % # % + } } + + % % % % # # # # # # # # # # # # # # # # # # # # # # # # # # # # # # # # # # # # # # # # # # # # # # # # # # # ",
"# # # # # # # # # # # # # % # # % % % % # , s , , ..' |.                                                                                , 9 } % # # # # # # # # # # # # # # # # # # # # # # # # # # # # # # # # # # # # # # # # # # # # # % # % # # $                                                                             g#e+e+e+e+e+e+e+e+e+e+e+e+e+e+e+e+e+e+e+e+e+e+e+e+e+e+e+e+e+e+e+e+e+e+e+i+# # # # # # # # # # # # # # # # # # # # # # # # # # # J@e+e+e+e+e+e+e+e+e+e+e+e+e+e+e+e+e+e+e+e+e+e+e+e+e+e+e+e+e+h+                                                                                                                            m#+#e+e+e+e+e+e+e+e+e+e+e+e+e+e+e+e+e+e+e+e+e+e+e+e+e+e+e+e+/@% % % % % % % % + + + + + + + + % % % % % % % % + + + *@e+e+e+e+e+e+e+e+e+e+e+e+e+e+e+e+e+e+e+e+e+e+e+e+e+e+e+e+e+e+e+e+e+e+e+'## % % % # # % + # # $ 7 a                                                                                                                                                                                           = V % # # % # # # + @ @ % # # # # # % % # # % % % % % % % % # # # # # # # # # # # # # # # # # # # # # # # # # # # # # # # # # # # # # # # # # # # # # # # # # # # ",
"# # # # # # # # # # # # # % % # # # # # # , ' , 4 f ! 9 n                                                                               , ~ } + % # # # # # # # # # # # # # # # # # # # # # # # # # # # # # # # # # # # # # # # # # # # # # # % # % +                                                                             a#e+e+e+e+e+e+e+e+e+e+e+e+e+e+e+e+e+e+e+e+e+e+e+e+e+e+e+e+e+e+e+e+e+e+e+)@# # # # # # # # # # # # # # # # # # # # # # # # # # # M@e+e+e+e+e+e+e+e+e+e+e+e+e+e+e+e+e+e+e+e+e+e+e+e+e+e+e+e+Q+3.                                                                                                                              l#e+e+e+e+e+e+e+e+e+e+e+e+e+e+e+e+e+e+e+e+e+e+e+e+e+e+e+e+'@} } } } } } } } + + + + + + + + % % % % % % % % + + + F+e+e+e+e+e+e+e+e+e+e+e+e+e+e+e+e+e+e+e+e+e+e+e+e+e+e+e+e+e+e+e+e+e+e+e+[#% % % @ 3 r.B.                                                                                                                                                                                              <.V + # # # } $ ] & @ + # # # # # # % # # # % % # # % % % % % % % % # # # # # # # # # # # # # # # # # # # # # # # # # # # # # # # # # # # # # # # # # # # # # # # # # # # ",
"# # # # # # # # # # # # # % % % # # # # # f , , p f , ! 9                                                                               t 4 + + + % % # # # # # # # # # # # # # # # # # # # # # # # # # # # # # # # # # # # # # # # # # # # % + % } #                                                                             -#;#e+e+e+e+e+e+e+e+e+e+e+e+e+e+e+e+e+e+e+e+e+e+e+e+e+e+e+e+e+e+e+e+e+e+Z@# # # # # # # # # # # # # # # # # # # # # # # # # # # M+e+e+e+e+e+e+e+e+e+e+e+e+e+e+e+e+e+e+e+e+e+e+e+e+e+e+e+e+p+                                                                                                                                4#e+e+e+e+e+e+e+e+e+e+e+e+e+e+e+e+e+e+e+e+e+e+e+e+e+e+e+e+p+4 4 4 4 4 4 4 4 ! ! ! ! ! ! ! ! ' ' ' ' ' ' ' ' ! ! ! .@e+e+e+e+e+e+e+e+e+e+e+e+e+e+e+e+e+e+e+e+e+e+e+e+e+e+e+e+e+e+e+e+e+e+;#K#                                                                                                                                                                                                      l.^ + + @ } } @ & $ @ % # # # # # % + % % # # # # # # # # # # # # # # # # # # # # # # # # # # # # # # # # # # # # # # # # # # # # # # # # # # # # # # # # # # # # # # # # # # # ",
"# # # # # # # # # # # # # # % % % # # % } , 5 5 ~ s m 5 m ,                                                                             h.' % + } } % % # # # # # # # # # # # # # # # # # # # # # # # # # # # # # # # # # # # # # # # # # % } @ + @ #                                                                               0#e+e+e+e+e+e+e+e+e+e+e+e+e+e+e+e+e+e+e+e+e+e+e+e+e+e+e+e+e+e+e+e+e+e+^@3@# # # # # # # # # # # # # # # # # # # # # # # # # # 2@e+e+e+e+e+e+e+e+e+e+e+e+e+e+e+e+e+e+e+e+e+e+e+e+e+e+e+e+k+                                                                                                                                a#e+e+e+e+e+e+e+e+e+e+e+e+e+e+e+e+e+e+e+e+e+e+e+e+e+e+e+e+u+J#, , , , , , , , , , , , , , , ' ' ' ' ' ' ' ' , , , 1@e+e+e+e+e+e+e+e+e+e+e+e+e+e+e+e+e+e+e+e+e+e+e+e+e+e+e+e+e+e+e+e+e+e+h#                                                                                                                                                                                                a +.} # % + # # @ @ + # # # % & 8 % # # # # # # # # % } % # # % @ # # # # # # # # # # # # # # # # # # # # # # # # # # # # # # # # # # # # # # # # # # # # # # # # # # # # # # # # # # # ",
"# # # # # # # # # # # # # # # # # # # # # , , ' ! 4 4 { ~ { _.                                                                            , ] % # & + # # # # # # # # # # # # # # # # # # # # # # # # # # # # # # # # # # # # # # # # # # # @ # # & #                                                                               4#e+e+e+e+e+e+e+e+e+e+e+e+e+e+e+e+e+e+e+e+e+e+e+e+e+e+e+e+e+e+e+e+e+e+e+o## # # # # # # # # # # # # # # # # # # # # # # # # F@e+e+e+e+e+e+e+e+e+e+e+e+e+e+e+e+e+e+e+e+e+e+e+e+e+e+e+e+e+*@                                                                                                                                9#;#e+e+e+e+e+e+e+e+e+e+e+e+e+e+e+e+e+e+e+e+e+e+e+e+e+e+e+e+h+    l k.h.[.).x.8.J E m r M M M M f 5 9 9 ~ { r M B+e+e+e+e+e+e+e+e+e+e+e+e+e+e+e+e+e+e+e+e+e+e+e+e+e+e+e+e+e+e+e+e+e+e+e+4#                                                                                                                                                                                        U.2 } # # + + } @ @ & & $ } } } } } } } } # # # # # # # # # # # # # # # # # # # # # # # # # # # # # # # # # # # # # # # # # # # # # # # # # # # # # # # # # # # # # # # # # # # # # # # # # # # ",
"# # # # # # # # # # # # # # # # # # # # # , , ' ' ! 4 { { 5 T                                                                             , & % % @ % # # # # # # # # # # # # # # # # # # # # # # # # # # # # # # # # # # # # # # # # # # # @ % # $ #                                                                               *#e+e+e+e+e+e+e+e+e+e+e+e+e+e+e+e+e+e+e+e+e+e+e+e+e+e+e+e+e+e+e+e+e+e+e+:@# # # # # # # # # # # # # # # # # # # # # # # # # Y+e+e+e+e+e+e+e+e+e+e+e+e+e+e+e+e+e+e+e+e+e+e+e+e+e+e+e+e+w+(.                                                                                                                                  _#e+e+e+e+e+e+e+e+e+e+e+e+e+e+e+e+e+e+e+e+e+e+e+e+e+e+e+e+,@                                                  H+e+e+e+e+e+e+e+e+e+e+e+e+e+e+e+e+e+e+e+e+e+e+e+e+e+e+e+e+e+e+e+e+e+e+e+|#                                                                                                                                                                                S.3 ] # # # + @ @ % % % + + } @ @ + + + + + + + + # # # # # # # # # # # # # # # # # # # # # # # # # # # # # # # # # # # # # # # # # # # # # # # # # # # # # # # # # # # # # # # # # # # # # # # # # # # ",
"# # # # # # # # # # # # # # # # # # # # # , , ' ' ! 4 4 4 r 9 x.                                                                          4 % + + } % # % # # # # # # # # # # # # # # # # # # # # # # # # # # # # # # # # # # # # # # # # % + + @ ] #                                                                               i#;#e+e+e+e+e+e+e+e+e+e+e+e+e+e+e+e+e+e+e+e+e+e+e+e+e+e+e+e+e+e+e+e+e+e+|@# # # # # # # # # # # # # # # # # # # # # # # # # }@e+e+e+e+e+e+e+e+e+e+e+e+e+e+e+e+e+e+e+e+e+e+e+e+e+e+e+e++@                                                                                                                                    ]#e+e+e+e+e+e+e+e+e+e+e+e+e+e+e+e+e+e+e+e+e+e+e+e+e+e+e+e+[@                                                  r+e+e+e+e+e+e+e+e+e+e+e+e+e+e+e+e+e+e+e+e+e+e+e+e+e+e+e+e+e+e+e+e+e+e++#i#                                                                                                                                                                        r.] % } ] @ } } @ ] $ } # # # # # % % % % % % % % % % % % # # # # # # # # # # # # # # # # # # # # # # # # # # # # # # # # # # # # # # # # # # # # # # # # # # # # # # # # # # # # # # # # # # # # # # # # # # # ",
"# # # # # # # # # # # # # # # # # # # # # , , , ' ' ! ! 4 ~ 9 5                                                                           m # } @ % + # % # # # # # # # # # # # # # # # # # # # # # # # # # # # # # # # # # # # # # # # # % # } $ $ #                                                                                 0#e+e+e+e+e+e+e+e+e+e+e+e+e+e+e+e+e+e+e+e+e+e+e+e+e+e+e+e+e+e+e+e+e+e+4@3@# # # # # # # # # # # # # # # # # # # # # # # # d+e+e+e+e+e+e+e+e+e+e+e+e+e+e+e+e+e+e+e+e+e+e+e+e+e+e+e+e+=#                                                                                                                                    .#e+e+e+e+e+e+e+e+e+e+e+e+e+e+e+e+e+e+e+e+e+e+e+e+e+e+e+e+1@^.                                                h@e+e+e+e+e+e+e+e+e+e+e+e+e+e+e+e+e+e+e+e+e+e+e+e+e+e+e+e+e+e+e+e+e+e+l#                                                                                                                                                                f.1 & } % % + % # # } % # # # # # # # # # # # # % % # # # # # # # # # # # # # # # # # # # # # # # # # # # # # # # # # # # # # # # # # # # # # # # # # # # # # # # # # # # # # # # # # # # # # # # # # # # # # # # # # # # ",
"# # # # # # # # # # # # # # # # # # # # # , , , ' ' ' ' ! , ! 9 2.                                                                        2.# @ @ # @ # + # # # # # # # # # # # # # # # # # # # # # # # # # # # # # # # # # # # # # # # # % # } & } +                                                                                 6#e+e+e+e+e+e+e+e+e+e+e+e+e+e+e+e+e+e+e+e+e+e+e+e+e+e+e+e+e+e+e+e+e+e+e+ ## # # # # # # # # # # # # # # # # # # # # # # t+e+e+e+e+e+e+e+e+e+e+e+e+e+e+e+e+e+e+e+e+e+e+e+e+e+e+e+e+e+c@                                                                                                                                    L#e+e+e+e+e+e+e+e+e+e+e+e+e+e+e+e+e+e+e+e+e+e+e+e+e+e+e+e+e+D+                                              V@e+e+e+e+e+e+e+e+e+e+e+e+e+e+e+e+e+e+e+e+e+e+e+e+e+e+e+e+e+e+e+e+e+e+e+$#                                                                                                                                                        G ( h $ + # $ @ % % % } @ @ % # # # % @ ] ^ # # # # # % % % # # # # # # # # # # # # # # # # # # # # # # # # # # # # # # # # # # # # # # # # # # # # # # # # # # # # # # # # # # # # # # # # # # # # # # # # # # # # # # # # # # # ",
"# # # # # # # # # # # # # # # # # # # # # , , , , , ' ' ' ! , 9 ,                                                                         N.# @ @ # & # % # # # # # # # # # # # # # # # # # # # # # # # # # # # # # # # # # # # # # # # # % # @ } % 8                                                                                 3#e+e+e+e+e+e+e+e+e+e+e+e+e+e+e+e+e+e+e+e+e+e+e+e+e+e+e+e+e+e+e+e+e+e+e+0@# # # # # # # # # # # # # # # # # # # # # # # o+e+e+e+e+e+e+e+e+e+e+e+e+e+e+e+e+e+e+e+e+e+e+e+e+e+e+e+e+^@.                                                                                                                                       S@e+e+e+e+e+e+e+e+e+e+e+e+e+e+e+e+e+e+e+e+e+e+e+e+e+e+e+e+_@                                              E@e+e+e+e+e+e+e+e+e+e+e+e+e+e+e+e+e+e+e+e+e+e+e+e+e+e+e+e+e+e+e+e+e+e+e+E+                                                                                                                                                b#r 9 @ @ @ & } # # ] ] & @ % # # # % # # # # # # # # # # % % % % % # # # # # # # # # # # # # # # # # # # # # # # # # # # # # # # # # # # # # # # # # # # # # # # # # # # # # # # # # # # # # # # # # # # # # # # # # # # # # # # # # # # ",
"# # # # # # # # # # # # # # # # # # # # # , , , , , , , , ~ , ~ 9 e                                                                       ++# @ } # ] # # # # # # # # # # # # # # # # # # # # # # # # # # # # # # # # # # # # # # # # # # % # & % # }.                                                                                M#;#e+e+e+e+e+e+e+e+e+e+e+e+e+e+e+e+e+e+e+e+e+e+e+e+e+e+e+e+e+e+e+e+e+e+|@# # # # # # # # # # # # # # # # # # # # # # # j+e+e+e+e+e+e+e+e+e+e+e+e+e+e+e+e+e+e+e+e+e+e+e+e+e+e+e+e+Z@                                                                                                                                        I@e+e+e+e+e+e+e+e+e+e+e+e+e+e+e+e+e+e+e+e+e+e+e+e+e+e+e+e+[@                                              y@e+e+e+e+e+e+e+e+e+e+e+e+e+e+e+e+e+e+e+e+e+e+e+e+e+e+e+e+e+e+e+e+e+e++#n#                                                                                                                                    i..+q.,.) : X ' ' # # % } $ 8 * @ + # # # % $ * % + @ @ } + % % # # # # # # # # # # # # # # # # # # # # # # # # # # # # # # # # # # # # # # # # # # # # # # # # # # # # # # # # # # # # # # # # # # # # # # # # # # # # # # # # # # # # # # # # # # # ",
"# # # # # # # # # # # # # # # # # # # # # , , , , , , , , , , ! t ,                                                                         # @ + # 8 # # # # # # # # # # # # # # # # # # # # # # # # # # # # # # # # # # # # # # # # # # % % M # , 2.                                                                                ,+0#e+e+e+e+e+e+e+e+e+e+e+e+e+e+e+e+e+e+e+e+e+e+e+e+e+e+e+e+e+e+e+e+e+e+4@b@# # # # # # # # # # # # # # # # # # # # # # =@e+e+e+e+e+e+e+e+e+e+e+e+e+e+e+e+e+e+e+e+e+e+e+e+e+e+e+e+)@3                                                                                                                                       G@e+e+e+e+e+e+e+e+e+e+e+e+e+e+e+e+e+e+e+e+e+e+e+e+e+e+e+e+1@^.                                            x+e+e+e+e+e+e+e+e+e+e+e+e+e+e+e+e+e+e+e+e+e+e+e+e+e+e+e+e+e+e+e+e+e+e+l#                                                                                                                              V.:.%.{ b.4 X ! : { b.~ & & @ } % % % } % + } } % # # # % % # # # # # % # # # # # # # # # # # # # # # # # # # # # # # # # # # # # # # # # # # # # # # # # # # # # # # # # # # # # # # # # # # # # # # # # # # # # # # # # # # # # # # # # # # # # # # # # # # ",
"# # # # # # # # # # # # # # # # # # # # # # # # # # # # # % @ % } +.                                                                        # & # # @ # # # # # # # # # # # # # # # # # # # # # # # # # # # # # # # # # # # # # # # # # # , 5 b., > P.                                                                                G.'#e+e+e+e+e+e+e+e+e+e+e+e+e+e+e+e+e+e+e+e+e+e+e+e+e+e+e+e+e+e+e+e+e+e+e+g+# # # # # # # # # # # # # # # # # # # # # {@e+e+e+e+e+e+e+e+e+e+e+e+e+e+e+e+e+e+e+e+e+e+e+e+e+e+e+e+e+i+} # u.                                                                                                                                  u@e+e+e+e+e+e+e+e+e+e+e+e+e+e+e+e+e+e+e+e+e+e+e+e+e+e+e+e+e+B@                                          F@e+e+e+e+e+e+e+e+e+e+e+e+e+e+e+e+e+e+e+e+e+e+e+e+e+e+e+e+e+e+e+e+e+e+e+n+                                                                                                                  e.d._ $ { % ' + 9 $ 4 + 4 + 4 + 4 + + + + + + + + + @ } + % # # # # # # # # # # # # # # # # # # # # # # # # # # # # # # # # # # # # # # # # # # # # # # # # # # # # # # # # # # # # # # # # # # # # # # # # # # # # # # # # # # # # # # # # # # # # # # # # # # # # # # # ",
"# # # # # # # # # # # # # # # # # # # # # # # # # # # # # # & $ @ # b                                                                       # & # # @ # % # # # # # # # # # # # # # # # # # # # # # # # # # # # # # # # # # # # # # # # # , : b.X %.V.                                                                                G.~#e+e+e+e+e+e+e+e+e+e+e+e+e+e+e+e+e+e+e+e+e+e+e+e+e+e+e+e+e+e+e+e+e+e+e+x## # # # # # # # # # # # # # # # # # # # # <@e+e+e+e+e+e+e+e+e+e+e+e+e+e+e+e+e+e+e+e+e+e+e+e+e+e+e+e+z+9#h @ # b                                                                                                                                   d+e+e+e+e+e+e+e+e+e+e+e+e+e+e+e+e+e+e+e+e+e+e+e+e+e+e+e+e+m+                                          M@e+e+e+e+e+e+e+e+e+e+e+e+e+e+e+e+e+e+e+e+e+e+e+e+e+e+e+e+e+e+e+e+e+e+e+V+                                                                                                        a t.^ + # # # & @ + # # % + @ % % % % % % % % % % % % % % % % } + + % # # # # # # # # # # # # # # # # # # # # # # # # # # # # # # # # # # # # # # # # # # # # # # # # # # # # # # # # # # # # # # # # # # # # # # # # # # # # # # # # # # # # # # # # # # # # # # # # # # # # # # # ",
"# # # # # # # # # # # # # # # # # # # # # # # # # # # # # # } } $ % %                                                                       # $ # # @ # % # # # # # # # # # # # # # # # # # # # # # # # # # # # # # # # # # # # # # # # # ' , '.b.Y                                                                                   O.N#+#e+e+e+e+e+e+e+e+e+e+e+e+e+e+e+e+e+e+e+e+e+e+e+e+e+e+e+e+e+e+e+e+e+e+q+# # # # # # # # # # # # # # # # # # # # # 9@e+e+e+e+e+e+e+e+e+e+e+e+e+e+e+e+e+e+e+e+e+e+e+e+e+e+e+e+@@% # % + # ]                                                                                                                                 j+e+e+e+e+e+e+e+e+e+e+e+e+e+e+e+e+e+e+e+e+e+e+e+e+e+e+e+e+a@                                          M+e+e+e+e+e+e+e+e+e+e+e+e+e+e+e+e+e+e+e+e+e+e+e+e+e+e+e+e+e+e+e+e+e+e++#n@                                                                                              c 3 } # ] } # # # @ $ ] % % % # # # # % % % % % % % % % % % % % % % % % % % % % # # # # # # # # # # # # # # # # # # # # # # # # # # # # # # # # # # # # # # # # # # # # # # # # # # # # # # # # # # # # # # # # # # # # # # # # # # # # # # # # # # # # # # # # # # # # # # # # # # # # # # # ",
"# # # # # # # # # # # # # # # # # # # # # # # # # # # # # @ % # @ * #                                                                       % & # % } # % # # # # # # # # # # # # # # # # # # # # # # # # # # # # # # # # # # # # # # # # X , ,.b.X                                                                                   %., 0#e+e+e+e+e+e+e+e+e+e+e+e+e+e+e+e+e+e+e+e+e+e+e+e+e+e+e+e+e+e+e+e+e+e+4@b@# # # # # # # # # # # # # # # # # # # # i@e+e+e+e+e+e+e+e+e+e+e+e+e+e+e+e+e+e+e+e+e+e+e+e+e+e+e+e+n+# % # # * @ # c                                                                                                                              @e+e+e+e+e+e+e+e+e+e+e+e+e+e+e+e+e+e+e+e+e+e+e+e+e+e+e+e+1@^.                                        R+e+e+e+e+e+e+e+e+e+e+e+e+e+e+e+e+e+e+e+e+e+e+e+e+e+e+e+e+e+e+e+e+e+e+s+                                                                                    d.V } # # # # # @ & # # # + @ % # # # # # # # # # # # # # # # # # # # # # # # # # # # # # # # # # # # # # # # # # # # # # # # # # # # # # # # # # # # # # # # # # # # # # # # # # # # # # # # # # # # # # # # # # # # # # # # # # # # # # # # # # # # # # # # # # # # # # # # # # # # # # # # # # # # # # ",
"# # # # # # # # # # # # # # # # # # # # # # # # # # # # # * + # % ^ # d.                                                                    + @ # % } # % # # # # # # # # # # # # # # # # # # # # # # # # # # # # # # # # # # # # # # # # ' , %.: ,                                                                                   > , 6#e+e+e+e+e+e+e+e+e+e+e+e+e+e+e+e+e+e+e+e+e+e+e+e+e+e+e+e+e+e+e+e+e+e+e+f@# # # # # # # # # # # # # # # # # # # z@e+e+e+e+e+e+e+e+e+e+e+e+e+e+e+e+e+e+e+e+e+e+e+e+e+e+e+e+e+*## + # # # + $ & + a                                                                                                                         ;@e+e+e+e+e+e+e+e+e+e+e+e+e+e+e+e+e+e+e+e+e+e+e+e+e+e+e+e+e+d@                                      P+e+e+e+e+e+e+e+e+e+e+e+e+e+e+e+e+e+e+e+e+e+e+e+e+e+e+e+e+e+e+e+e+e+e+e+n+                                                                        R . ] @ @ @ % # + @ ] * * $ # # } % # # # # # # # # # % % % # # # # # # # # # # # # # # # # # # # # # # # # # % # # # # # # # # # # # # # # # # # # # # # # # # # # # # # # # # # # # # # # # # # # # # # # # # # # # # # # # # # # # # # # # # # # # # # # # # # # # # # # # # # # # # # # # # # # # # # # # # # # # ",
"# # # # # # # # # # # # # # # # # # # # # # # # # # # # # % % # } @ # h                                                                     % @ % + } # % # # # # # # # # # # # # # # # # # # # # # # # # # # # # # # # # # # # # # # # # ' , Y X ,                                                                                   b.' O#e+e+e+e+e+e+e+e+e+e+e+e+e+e+e+e+e+e+e+e+e+e+e+e+e+e+e+e+e+e+e+e+e+e+e+l+# # # # # # # # # # # # # # # # # # # g@e+e+e+e+e+e+e+e+e+e+e+e+e+e+e+e+e+e+e+e+e+e+e+e+e+e+e+e++#I## # & 8 # # @ ] @ # 3                                                                                                                         R+e+e+e+e+e+e+e+e+e+e+e+e+e+e+e+e+e+e+e+e+e+e+e+e+e+e+e+e+H+                                      Y+e+e+e+e+e+e+e+e+e+e+e+e+e+e+e+e+e+e+e+e+e+e+e+e+e+e+e+e+e+e+e+e+e+e+e+p#                                                          F. .+.+ # # # ] + # # % $ ^ ^ $ + # # # # % } # # # # # # # # # # # % % % % % # # # # # # # # # # # # # # # # # # # # # # # # # # # # # # # # # # # # # # # # # # # # # # # # # # # # # # # # # # # # # # # # # # # # # # # # # # # # # # # # # # # # # # # # # # # # # # # # # # # # # # # # # # # # # # # # # # # # # # # # # # # ",
"# # # # # # # # # # # # # # # # # # # # # # # # # # # # # # # @ } % @ @                                                                     # + % } } # # # # # # # # # # # # # # # # # # # # # # # # # # # # # # # # # # # # # # # # # # X X a.b.O.                                                                                  , ~ N#+#e+e+e+e+e+e+e+e+e+e+e+e+e+e+e+e+e+e+e+e+e+e+e+e+e+e+e+e+e+e+e+e+e+e+L+# # # # # # # # # # # # # # # # # # # r@e+e+e+e+e+e+e+e+e+e+e+e+e+e+e+e+e+e+e+e+e+e+e+e+e+e+e+e+l#% % $ # # + * ^ & } V @ # }.                                                                                                                    y@e+e+e+e+e+e+e+e+e+e+e+e+e+e+e+e+e+e+e+e+e+e+e+e+e+e+e+e+r+                                      !@e+e+e+e+e+e+e+e+e+e+e+e+e+e+e+e+e+e+e+e+e+e+e+e+e+e+e+e+e+e+e+e+e+e++#n@                                            U.g 2 ^ & @ # # # % } @ } % * ] @ } + + % # % % } & ] $ } % # % @ @ @ % # # # # # # # % % % % % % % % % % % % % % % % % % % # # # # # # # # # # # # # # # # # # # # # # # # # # # # # # # # # # # # # # # # # # # # # # # # # # # # # # # # # # # # # # # # # # # # # # # # # # # # # # # # # # # # # # # # # # # # # # # # # # # # # # # # # # # ",
"# # # # # # # # # # # # # # # # # # # # # # # # # # # # # % % @ # # ^ #                                                                     # % % @ } # # # # # # # # # # # # # # # # # # # # # # # # # # # # # # # # # # # # # # # # # # : : : '.c+                                                                                  , ~ ! 0#e+e+e+e+e+e+e+e+e+e+e+e+e+e+e+e+e+e+e+e+e+e+e+e+e+e+e+e+e+e+e+e+e+e+w+v+# # # # # # # # # # # # # # # # # # C@e+e+e+e+e+e+e+e+e+e+e+e+e+e+e+e+e+e+e+e+e+e+e+e+e+e+e+e+g#% % % % # % } @ & @ # % & @ # ] <.                                                                                                              E@e+e+e+e+e+e+e+e+e+e+e+e+e+e+e+e+e+e+e+e+e+e+e+e+e+e+e+e+h@                                      %@e+e+e+e+e+e+e+e+e+e+e+e+e+e+e+e+e+e+e+e+e+e+e+e+e+e+e+e+e+e+e+e+e+e+s+                              I r.( }.$ # % # # # + & ] ] ] & } + } } } + # # } $ ] ] & @ % % % % } } + % % % # # # # # % # # # # # # % % % % % % % % % % % % % % % % % % # # # # # # # # # # # # # # # # # # # # # # # # # # # # # # # # # # # # # # # # # # # # # # # # # # # # # # # # # # # # # # # # # # # # # # # # # # # # # # # # # # # # # # # # # # # # # # # # # # # # # # # # # # # ",
"# # # # # # # # # # # # # # # # # # # # # # # # # # # # # % + # + 8 # + 1                                                                   # ] % # $ # # # # # # # # # # # # # # # # # # # # # # # # # # # # # # # # # # # # # # # # # # ) , D.,                                                                                   D b.{ { 6#e+e+e+e+e+e+e+e+e+e+e+e+e+e+e+e+e+e+e+e+e+e+e+e+e+e+e+e+e+e+e+e+e+e+e+C+# # # # # # # # # # # # # # # # # e@e+e+e+e+e+e+e+e+e+e+e+e+e+e+e+e+e+e+e+e+e+e+e+e+e+e+e+e+e+[## # # # # # # # # # % % % % % % % % c                                                                                                           T@e+e+e+e+e+e+e+e+e+e+e+e+e+e+e+e+e+e+e+e+e+e+e+e+e+e+e+e+e+T@                                  (@e+e+e+e+e+e+e+e+e+e+e+e+e+e+e+e+e+e+e+e+e+e+e+e+e+e+e+e+e+e+e+e+e+e+e+}#            e.h.).J s M f % % % % % % % % @ @ @ @ @ @ @ @ # # # # # # # # @ @ @ @ @ @ @ @ # # # # # # # # # # # # # # # # # # # # # # # # # # # # # # # # # # # # # # # # # # # # # # # # # # # # # # # # # # # # # # # # # # # # # # # # # # # # # # # # # # # # # # # # # # # # # # # # # # # # # # # # # # # # # # # # # # # # # # # # # # # # # # # # # # # # # # # # # # # # # # # # # # # ",
"# # # # # # # # # # # # # # # # # # # # # # # # # # # # # # } # + $ # } l.                                                                  # ] # # & # # # # # # # # # # # # # # # # # # # # # # # # # # # # # # # # # # # # # # # # # # ) , < X                                                                                   &+, ' 4 /#e+e+e+e+e+e+e+e+e+e+e+e+e+e+e+e+e+e+e+e+e+e+e+e+e+e+e+e+e+e+e+e+e+e+e+G+# # # # # # # # # # # # # # # # # q@e+e+e+e+e+e+e+e+e+e+e+e+e+e+e+e+e+e+e+e+e+e+e+e+e+e+e+e+;#U@# # # # # # # # # # % % % % % % % % # # ^ c                                                                                                       1@e+e+e+e+e+e+e+e+e+e+e+e+e+e+e+e+e+e+e+e+e+e+e+e+e+e+e+e+L@                                  o+e+e+e+e+e+e+e+e+e+e+e+e+e+e+e+e+e+e+e+e+e+e+e+e+e+e+e+e+e+e+e+e+e+e+e+p#8.t s 4 , 5 ~ ! , , , , , % % % % % % % % % % % % % % % % # # # # # # # # % % % % % % % % # # # # # # # # # # # # # # # # # # # # # # # # # # # # # # # # # # # # # # # # # # # # # # # # # # # # # # # # # # # # # # # # # # # # # # # # # # # # # # # # # # # # # # # # # # # # # # # # # # # # # # # # # # # # # # # # # # # # # # # # # # # # # # # # # # # # # # # # # # # # # # # # # # # ",
"# # # # # # # # # # # # # # # # # # # # # # # # # # # # # # } + % @ % } V                                                                   # ] # # @ # # # # # # # # # # # # # # # # # # # # # # # # # # # # # # # # # # # # # # # # # # , ' b.,.                                                                                  '., ! ' L#+#e+e+e+e+e+e+e+e+e+e+e+e+e+e+e+e+e+e+e+e+e+e+e+e+e+e+e+e+e+e+e+e+e+e+L+# # # # # # # # # # # # # # # # # I@e+e+e+e+e+e+e+e+e+e+e+e+e+e+e+e+e+e+e+e+e+e+e+e+e+e+e+e+0## # # # # # # # # # # # # # # # # # # % # # # ] 7 1.=                                                                                               [@e+e+e+e+e+e+e+e+e+e+e+e+e+e+e+e+e+e+e+e+e+e+e+e+e+e+e+e+r+                                  }@e+e+e+e+e+e+e+e+e+e+e+e+e+e+e+e+e+e+e+e+e+e+e+e+e+e+e+e+e+e+e+e+e+e++#I## # % % # # # # % % + % % % % % % % % % % # # # # # # # # # # # # # # # # # # # # # # # # # # # # # # # # # # # # # # # # # # # # # # # # # # # # # # # # # # # # # # # # # # # # # # # # # # # # # # # # # # # # # # # # # # # # # # # # # # # # # # # # # # # # # # # # # # # # # # # # # # # # # # # # # # # # # # # # # # # # # # # # # # # # # # # # # # # # # # # # # # # # # # # # # # # ",
"# # # # # # # # # # # # # # # # # # # # # # # # # # # # # # } @ % % + @ ]                                                                   # $ # # + % # # # # # # # # # # # # # # # # # # # # # # # # # # # # # # # # # # # # # # # # # , b., ,+                                                                                  , , 9 , # h#e+e+e+e+e+e+e+e+e+e+e+e+e+e+e+e+e+e+e+e+e+e+e+e+e+e+e+e+e+e+e+e+e+e+w+v+# # # # # # # # # # # # # # # # S@e+e+e+e+e+e+e+e+e+e+e+e+e+e+e+e+e+e+e+e+e+e+e+e+e+e+e+e+(## # # # # # # # # # # # # # # # # # # } @ & @ % # # # # 3 U.                                                                                        W+e+e+e+e+e+e+e+e+e+e+e+e+e+e+e+e+e+e+e+e+e+e+e+e+e+e+e+e+h@                                  2@e+e+e+e+e+e+e+e+e+e+e+e+e+e+e+e+e+e+e+e+e+e+e+e+e+e+e+e+e+e+e+e+e+e+s+# # # % % % + } } } + % # # # # # # # # # # # # # # # # # # # # # # # # # # % % % % % % % % # # # # # # # # # # # # # # # # # # # # # # # # # # # # # # # # # # # # # # # # # # # # # # # # # # # # # # # # # # # # # # # # # # # # # # # # # # # # # # # # # # # # # # # # # # # # # # # # # # # # # # # # # # # # # # # # # # # # # # # # # # # # # # # # # # # # # # # # # # # # # # # # # # # ",
"# # # # # # # # # # # # # # # # # # # # # # # # # # # # # # % & } # } @ %                                                                 &.# & # % # % # # # # # # # # # # # # # # # # # # # # # # # # # # # # # # # # # # # # # # # # # , Y , X.                                                                                  , , ~ , # 6#e+e+e+e+e+e+e+e+e+e+e+e+e+e+e+e+e+e+e+e+e+e+e+e+e+e+e+e+e+e+e+e+e+e+e+U+# # # # # # # # # # # # # # # k@e+e+e+e+e+e+e+e+e+e+e+e+e+e+e+e+e+e+e+e+e+e+e+e+e+e+e+e+e+{## # # # # # # # # # # # # # # # # # # # # # # % $ 3 b @ @ % # # @ 4.c                                                                               T+e+e+e+e+e+e+e+e+e+e+e+e+e+e+e+e+e+e+e+e+e+e+e+e+e+e+e+e+e+V@                              R@e+e+e+e+e+e+e+e+e+e+e+e+e+e+e+e+e+e+e+e+e+e+e+e+e+e+e+e+e+e+e+e+e+e+e+$#} + + % % # # # # # # # # # # # # # # # # # % % % % % % % % # # # # # # # # % % % % % % % % # # # # # # # # # # # # # # # # # # # # # # # # # # # # # # # # # # # # # # # # # # # # # # # # # # # # # # # # # # # # # # # # # # # # # # # # # # # # # # # # # # # # # # # # # # # # # # # # # # # # # # # # # # # # # # # # # # # # # # # # # # # # # # # # # # # # # # # # # # # # # # # # # # # ",
"# # # # # # # # # # # # # # # # # # # # # # # # # # # # # # # @ & % } & #                                                                 5.# @ # + # % # # # # # # # # # # # # # # # # # # # # # # # # # # # # # # # # # # # # # # # # # , ,.X                                                                                    +, , , , # [#e+e+e+e+e+e+e+e+e+e+e+e+e+e+e+e+e+e+e+e+e+e+e+e+e+e+e+e+e+e+e+e+e+e+e+X+# # # # # # # # # # # # # # # x@e+e+e+e+e+e+e+e+e+e+e+e+e+e+e+e+e+e+e+e+e+e+e+e+e+e+e+e+;#K@# # # # # # # # # # # # # # # # # # # + & 8 8 @ # # # % } & & } + } @ ^ @ # # } 7 z.                                                                3.u+e+e+e+e+e+e+e+e+e+e+e+e+e+e+e+e+e+e+e+e+e+e+e+e+e+e+e+e+E@  6.w.B.*.c ( 3 ] @ # # # % % &#e+e+e+e+e+e+e+e+e+e+e+e+e+e+e+e+e+e+e+e+e+e+e+e+e+e+e+e+e+e+e+e+e+e+e+*## # # # # # % % # # # % + @ # # # # # # # # # # # # # # # # # # # # # # # # # # # # # # # # # # # # # # # # # # # # # # # # # # # # # # # # # # # # # # # # # # # # # # # # # # # # # # # # # # # # # # # # # # # # # # # # # # # # # # # # # # # # # # # # # # # # # # # # # # # # # # # # # # # # # # # # # # # # # # # # # # # # # # # # # # # # # # # # # # # # # # # # # # # # # # # # # # # ",
"# # # # # # # # # # # # # # # # # # # # # # # # # # # # # } # % ] % } $ #                                                                 2.# @ # } # + # # # # # # # # # # # # # # # # # # # # # # # # # # # # # # # # # # # # # # # # # , b.>                                                                                   D., ' , , # 8#+#e+e+e+e+e+e+e+e+e+e+e+e+e+e+e+e+e+e+e+e+e+e+e+e+e+e+e+e+e+e+e+e+e+e++@# # # # # # # # # # # # # # # v@e+e+e+e+e+e+e+e+e+e+e+e+e+e+e+e+e+e+e+e+e+e+e+e+e+e+e+e+,## # # # # # # # # # # # # # # # # # # # # # % + + } & $ $ + # # # # } ] # # @ ^ * ] @ % , , ! 9 s A.v _.F h.Z                                           `+e+e+e+e+e+e+e+e+e+e+e+e+e+e+e+e+e+e+e+e+e+e+e+e+e+e+e+e+a@9 5 # # # # % @ & $ $ & @ @ + !@e+e+e+e+e+e+e+e+e+e+e+e+e+e+e+e+e+e+e+e+e+e+e+e+e+e+e+e+e+e+e+e+e+e+z+^#} @ } + + + # # # # # # # # # # # # # # # # # # # # # # # # # # # # # # # # # # # # # # # # # # # # # # # # # # # # # # # # # # # # # # # # # # # # # # # # # # # # # # # # # # # # # # # # # # # # # # # # # # # # # # # # # # # # # # # # # # # # # # # # # # # # # # # # # # # # # # # # # # # # # # # # # # # # # # # # # # # # # # # # # # # # # # # # # # # # # # # # # # # # # # # # # # # ",
"# # # # # # # # # # # # # # # # # # # # # # # # # # # # # $ # # ^ + + $ #                                                                 }.# @ # @ # + % # # # # # # # # # # # # # # # # # # # # # # # # # # # # # # # # # # # # # # # # { '.].                                                                                  , ' b.! # # # h#e+e+e+e+e+e+e+e+e+e+e+e+e+e+e+e+e+e+e+e+e+e+e+e+e+e+e+e+e+e+e+e+e+e+w+$@# # # # # # # # # # # # # # t@e+e+e+e+e+e+e+e+e+e+e+e+e+e+e+e+e+e+e+e+e+e+e+e+e+e+e+e+Y@# # # # # # # # # # # # # # # # # # # # # + & $ $ @ @ @ + + } & ] @ # # * ] + # # % } @ ! 4 { { { ! , , { { ~ ~ 4 , , , , , ' ! ! ! ' ' , , , ' ' ! ! ! l+e+e+e+e+e+e+e+e+e+e+e+e+e+e+e+e+e+e+e+e+e+e+e+e+e+e+e+e+h@' , @ } + % # # # # # # # # % d+e+e+e+e+e+e+e+e+e+e+e+e+e+e+e+e+e+e+e+e+e+e+e+e+e+e+e+e+e+e+e+e+e+e+s+@ @ + # # # # # # # % + + + % # # # # # # # # % % % % % % % % # # # # # # # # # # # # # # # # # # # # # # # # # # # # # # # # # # # # # # # # # # # # # # # # # # # # # # # # # # # # # # # # # # # # # # # # # # # # # # # # # # # # # # # # # # # # # # # # # # # # # # # # # # # # # # # # # # # # # # # # # # # # # # # # # # # # # # # # # # # # # # # # # # # # # # # # # # # # # # # # # # # ",
"# # # # # # # # # # # # # # # # # # # # # # # # # # # # # % % % % % + + +                                                                 % @ @ % # + % # # # # # # # # # # # # # # # # # # # # # # # # # # # # # # # # # % % % % % % + + T ,                                                                                   /.{ @ , @ # # # 6#e+e+e+e+e+e+e+e+e+e+e+e+e+e+e+e+e+e+e+e+e+e+e+e+e+e+e+e+e+e+e+e+e+e+e+W@# # # # # # # # # # # # # :#e+e+e+e+e+e+e+e+e+e+e+e+e+e+e+e+e+e+e+e+e+e+e+e+e+e+e+e+e+Q@# # # # # # # # # # # # # # # # # # # # % % % % % % % % # # # # # # # # # # # # # # # # % % % % % % % % + + + + + + + + % % % % % % % % % % % % % % % % g+e+e+e+e+e+e+e+e+e+e+e+e+e+e+e+e+e+e+e+e+e+e+e+e+e+e+e+e+e+h+# # # # # # # # # # # # # w@e+e+e+e+e+e+e+e+e+e+e+e+e+e+e+e+e+e+e+e+e+e+e+e+e+e+e+e+e+e+e+e+e+e+e+$## # # # # # # # # # # # # # # # # # # # # # # # # # # # # # # # # # # # # # # # # # # # # # # # # # # # # # # # # # # # # # # # # # # # # # # # # # # # # # # # # # # # # # # # # # # # # # # # # # # # # # # # # # # # # # # # # # # # # # # # # # # # # # # # # # # # # # # # # # # # # # # # # # # # # # # # # # # # # # # # # # # # # # # # # # # # # # # # # # # # # # # # # # # # # # # # # # ",
"# # # # # # # # # # # # # # # # # # # # # # # # # # # # # # % % % % % % +                                                                 % @ @ % # + % # # # # # # # # # # # # # # # # # # # # # # # # # # # # # # # # # % % % % % + + + 5 M                                                                                   l.# } # + # # # [#e+e+e+e+e+e+e+e+e+e+e+e+e+e+e+e+e+e+e+e+e+e+e+e+e+e+e+e+e+e+e+e+e+e+e+X+# # # # # # # # # # # # # Q@e+e+e+e+e+e+e+e+e+e+e+e+e+e+e+e+e+e+e+e+e+e+e+e+e+e+e+e+e+p@# # # # # # # # # # # # # # # # # # # # % % % % % % % % # # # # # # # # # # # # # # # # # # # # # # # # % % % % % % % % % % % % % % % % % % % % % % % % F#^@e+e+e+e+e+e+e+e+e+e+e+e+e+e+e+e+e+e+e+e+e+e+e+e+e+e+e+e+_@# # # # # # # # # # # # # o+e+e+e+e+e+e+e+e+e+e+e+e+e+e+e+e+e+e+e+e+e+e+e+e+e+e+e+e+e+e+e+e+e+e+e+|## # # # # # # # # # # # # # # # # # # # # # # # # # # # # # # # # # # # # # # # # # # # # # # # # # # # # # # # # # # # # # # # # # # # # # # # # # # # # # # # # # # # # # # # # # # # # # # # # # # # # # # # # # # # # # # # # # # # # # # # # # # # # # # # # # # # # # # # # # # # # # # # # # # # # # # # # # # # # # # # # # # # # # # # # # # # # # # # # # # # # # # # # # # # # # # # # # ",
"# # # # # # # # # # # # # # # # # # # # # # # # # # # # # # # # # % % % %                                                                 % @ @ % % % % # # # # # # # # # # # # # # # # # # # # # # # # # # # # # # # # # % % % % + + + } , y.                                                                                  8 # $ @ # # # # 8#+#e+e+e+e+e+e+e+e+e+e+e+e+e+e+e+e+e+e+e+e+e+e+e+e+e+e+e+e+e+e+e+e+e+e++@# # # # # # # # # # # # # Y@e+e+e+e+e+e+e+e+e+e+e+e+e+e+e+e+e+e+e+e+e+e+e+e+e+e+e+e+S@# # # # # # # # # # # # # # # # # # # # # % % % % % % % % # # # # # # # # # # # # # # # # # # # # # # # # # # # # # # # # % % % % % % % % % % % % % % % % # Z@e+e+e+e+e+e+e+e+e+e+e+e+e+e+e+e+e+e+e+e+e+e+e+e+e+e+e+e+r+# # # # # # # # # # # # # }@e+e+e+e+e+e+e+e+e+e+e+e+e+e+e+e+e+e+e+e+e+e+e+e+e+e+e+e+e+e+e+e+e+e+z+1## # # # # # # # # # # # # # # # # # # # # # # # # # # # # # # # # # # # # # # # # # # # # # # # # # # # # # # # # # # # # # # # # # # # # # # # # # # # # # # # # # # # # # # # # # # # # # # # # # # # # # # # # # # # # # # # # # # # # # # # # # # # # # # # # # # # # # # # # # # # # # # # # # # # # # # # # # # # # # # # # # # # # # # # # # # # # # # # # # # # # # # # # # # # # # # # # # ",
"# # # # # # # # # # # # # # # # # # # # # # # # # # # # # # # # # # # % %                                                               1 + } } + % % # # # # # # # # # # # # # # # # # # # # # # # # # # # # # # # # # # % % % % + } } @ ,                                                                                   = } 8 & + # # # # # h#e+e+e+e+e+e+e+e+e+e+e+e+e+e+e+e+e+e+e+e+e+e+e+e+e+e+e+e+e+e+e+e+e+e+w+$@# # # # # # # # # # # # ,#e+e+e+e+e+e+e+e+e+e+e+e+e+e+e+e+e+e+e+e+e+e+e+e+e+e+e+e+I@# # # # # # # # # # # # # # # # # # # # # # # # # # # # # # # # # # # # # # # # # # # # # # # # # # # # # # # # # # # # # # # # # # # # # # # # # # # # # # Z+e+e+e+e+e+e+e+e+e+e+e+e+e+e+e+e+e+e+e+e+e+e+e+e+e+e+e+e+x+# # # # # # # # # # # # # d+e+e+e+e+e+e+e+e+e+e+e+e+e+e+e+e+e+e+e+e+e+e+e+e+e+e+e+e+e+e+e+e+e+e+N+# # # # # # # # # # # # # # # # # # # # # # # # # # # # # # # # # # # # # # # # # # # # # # # # # # # # # # # # # # # # # # # # # # # # # # # # # # # # # # # # # # # # # # # # # # # # # # # # # # # # # # # # # # # # # # # # # # # # # # # # # # # # # # # # # # # # # # # # # # # # # # # # # # # # # # # # # # # # # # # # # # # # # # # # # # # # # # # # # # # # # # # # # # # # # # # # # # # ",
"# # # # # # # # # # # # # # # # # # # # # # # # # # # # # # # # # # # % %                                                               3 } + + } + % # # # # # # # # # # # # # # # # # # # # # # # # # # # # # # # # # # % % % + } @ @ @ s                                                                                   3 % * # # # # # # # 6#e+e+e+e+e+e+e+e+e+e+e+e+e+e+e+e+e+e+e+e+e+e+e+e+e+e+e+e+e+e+e+e+e+e+e+-@# # # # # # # # # # # D@;#e+e+e+e+e+e+e+e+e+e+e+e+e+e+e+e+e+e+e+e+e+e+e+e+e+e+e+e+q@# # # # # # # # # # # # # # # # # # # # # # # # # # # # # # # # # # # # # # # # # # # # # # # # # # # # # % % % % % % % % # # # # # # # # # # # # # # # # # V+e+e+e+e+e+e+e+e+e+e+e+e+e+e+e+e+e+e+e+e+e+e+e+e+e+e+e+e+e+D+# # # # # # # # # # # t+e+e+e+e+e+e+e+e+e+e+e+e+e+e+e+e+e+e+e+e+e+e+e+e+e+e+e+e+e+e+e+e+e+e+e+n+# # # # # # # # # # # # # # # # # # # # # # # # # # # # # # # # # # # # # # # # # # # # # # # # # # # # # # # # # # # # # # # # # # # # # # # # # # # # # # # # # # # # # # # # # # # # # # # # # # # # # # # # # # # # # # # # # # # # # # # # # # # # # # # # # # # # # # # # # # # # # # # # # # # # # # # # # # # # # # # # # # # # # # # # # # # # # # # # # # # # # # # # # # # # # # # # # # # ",
"# # # # # # # # # # # # # # # # # # # # # # # # # # # # # # # # # % % % %                                                               @ @ % % @ } # # # # # # # # # # # # # # # # # # # # # # # # # # # # # # # # # # # % % % + } @ @ @ u                                                                                   + % ] # # @ # # # # 3#e+e+e+e+e+e+e+e+e+e+e+e+e+e+e+e+e+e+e+e+e+e+e+e+e+e+e+e+e+e+e+e+e+e+e+=## # # # # # # # # # # X@e+e+e+e+e+e+e+e+e+e+e+e+e+e+e+e+e+e+e+e+e+e+e+e+e+e+e+e+e+z@# # # # # # # # # # # # # # # # # # # # # # # # # # # # # # # # # # # # # # # # # # # # # # # # # # # # # % % % % % % % % % % % % % % % % % % % % % % % % % y+z+e+e+e+e+e+e+e+e+e+e+e+e+e+e+e+e+e+e+e+e+e+e+e+e+e+e+e+e+m+# # # # # # # # # # #  @e+e+e+e+e+e+e+e+e+e+e+e+e+e+e+e+e+e+e+e+e+e+e+e+e+e+e+e+e+e+e+e+e+e+e+E+# # # # # # # # # # # # # # # # # # # # # # # # # # # # # # # # # # # # # # # # # # # # # # # # # # # # # # # # # # # # # # # # # # # # # # # # # # # # # # # # # # # # # # # # # # # # # # # # # # # # # # # # # # # # # # # # # # # # # # # # # # # # # # # # # # # # # # # # # # # # # # # # # # # # # # # # # # # # # # # # # # # # # # # # # # # # # # # # # # # # # # # # # # # # # # # # # # # ",
"# # # # # # # # # # # # # # # # # # # # # # # # # # # # # # % % % % % % +                                                               # @ % % @ } # # % # # # # # # # # # # # # # # # # # # # # # # # # # # # # # # # # % % % + @ @ & &                                                                                   v.@ $ @ % + & # # # # E#+#e+e+e+e+e+e+e+e+e+e+e+e+e+e+e+e+e+e+e+e+e+e+e+e+e+e+e+e+e+e+e+e+e+e+`+# # # # # # # # # # # @#e+e+e+e+e+e+e+e+e+e+e+e+e+e+e+e+e+e+e+e+e+e+e+e+e+e+e+e+i@# # # # # # # # # # # # # # # # # # # # # # # # # # # # # # # # # # # # # # # # # # # # # # # # # # # # # # % % % % % % % % % % % % % % % % % % % % % % % % % % s+e+e+e+e+e+e+e+e+e+e+e+e+e+e+e+e+e+e+e+e+e+e+e+e+e+e+e+e+y@# # # # # # # # # # # j+e+e+e+e+e+e+e+e+e+e+e+e+e+e+e+e+e+e+e+e+e+e+e+e+e+e+e+e+e+e+e+e+e+e+z+S+# # # # # # # # # # # # # # # # # # # # # # # # # # # # # # # # # # # # # # # # # # # # # # # # # # # # # # # # # # # # # # # # # # # # # # # # # # # # # # # # # # # # # # # # # # # # # # # # # # # # # # # # # # # # # # # # # # # # # # # # # # # # # # # # # # # # # # # # # # # # # # # # # # # # # # # # # # # # # # # # # # # # # # # # # # # # # # # # # # # # # # # # # # # # # # # # # # # ",
"# # # # # # # # # # # # # # # # # # # # # # # # # # # # # % % % % % + + +                                                             z.# @ % % @ @ # # % # # # # # # # # # # # # # # # # # # # # # # # # # # # # # # # # % % % + @ @ & $                                                                                   , ] ] % ] + # # # # # # h#e+e+e+e+e+e+e+e+e+e+e+e+e+e+e+e+e+e+e+e+e+e+e+e+e+e+e+e+e+e+e+e+e+e+u+$@# # # # # # # # # # _#e+e+e+e+e+e+e+e+e+e+e+e+e+e+e+e+e+e+e+e+e+e+e+e+e+e+e+e+9@# # # # # # # # # # # # # # # # # # # # # # # # # # # # # # # # # # # # # # # # # # # # # # % % % % % % % % % % % % % % % % % % % % % % % % % % % % % % % % # # 4#e+e+e+e+e+e+e+e+e+e+e+e+e+e+e+e+e+e+e+e+e+e+e+e+e+e+e+e+R+# # # # # # # # # # # =@e+e+e+e+e+e+e+e+e+e+e+e+e+e+e+e+e+e+e+e+e+e+e+e+e+e+e+e+e+e+e+e+e+e+N+# # # # # # # # # # # # # # # # # # # # # # # # # # # # # # # # # # # # # # # # # # # # # # # # # # # # # # # # # # # # # # # # # # # # # # # # # # # # # # # # # # # # # # # # # # # # # # # # # # # # # # # # # # # # # # # # # # # # # # # # # # # # # # # # # # # # # # # # # # # # # # # # # # # # # # # # # # # # # # # # # # # # # # # # # # # # # # # # # # # # # # # # # # # # # # # # # # # # ",
"# # # # # # # # # # # # # # # # # # # # # # # # # # # # # # 8 # @ % $ % @                                                             V % # # # # # # # # # # # # # # # # # # # # # # # # # # # # # # # # % % % # # # # # % # +.8 # * } 1                                                                                 L p # ] * # # } # # # # # g#e+e+e+e+e+e+e+e+e+e+e+e+e+e+e+e+e+e+e+e+e+e+e+e+e+e+e+e+e+e+e+e+e+e+e+c@# # # # # # # # # K@;#e+e+e+e+e+e+e+e+e+e+e+e+e+e+e+e+e+e+e+e+e+e+e+e+e+e+e+e+ @# # # # # # # # # # # # # # # # # # # # # # # # # # # # # # # # # # # # # # # # # # # # # # # # # # # # # # # # # # # # # # # # # # # # # # # # # # # # # # # # 3#e+e+e+e+e+e+e+e+e+e+e+e+e+e+e+e+e+e+e+e+e+e+e+e+e+e+e+e+e+5@# # # # # # # # # {@e+e+e+e+e+e+e+e+e+e+e+e+e+e+e+e+e+e+e+e+e+e+e+e+e+e+e+e+e+e+e+e+e+e+e+}## % % % % % % % % % % % % % % % % # # # # # # # # % % # # # # # % # # # # # % % + # # # + @ @ # # # # # # # % % % # # # % + + } } % % % % % % % % # % % % % % # # # % + + % # % % # # # # # % + @ # # # # # # % % % } @ % # # # % % % % % % % % % + % % % + + % % # % % % % } & ] + % % + @ } # # $ } # # # % + + # # # # # # # # # # # # # # # # # # # # # # # # # # # # # % % % # # # # # # # # # # # ",
"# # # # # # # # # # # # # # # # # # # # # # # # # # # # # # 8 # + # & # ^                                                             ^ # # # # # # # # # # # # # # # # # # # # # # # # # # # # # # # # # % % % % % # # # # # @ ] # h #                                                                                   2._ % @ @ # # % # # # # # 3#e+e+e+e+e+e+e+e+e+e+e+e+e+e+e+e+e+e+e+e+e+e+e+e+e+e+e+e+e+e+e+e+e+e+e+'@# # # # # # # # # .#e+e+e+e+e+e+e+e+e+e+e+e+e+e+e+e+e+e+e+e+e+e+e+e+e+e+e+e+e+t+# # # # # # # # # # # # # # # # # # # # # # # # # # # # # # # # # # # # # # # # # # # # # # # # # # # # # # # # # # # # # # # # # # # # # # # # # # # # # # # # 8#;#e+e+e+e+e+e+e+e+e+e+e+e+e+e+e+e+e+e+e+e+e+e+e+e+e+e+e+e+H+# # # # # # # # # <@e+e+e+e+e+e+e+e+e+e+e+e+e+e+e+e+e+e+e+e+e+e+e+e+e+e+e+e+e+e+e+e+e+e+e+V+% % % % % % % % % % % % % % % % % # # # # # # # # % % # # # # # # & @ } % # # # # ^ $ } % } & $ & @ @ + % % % + } ] ] & } # # # # # # # # # # # # % % % + + + + % # % } } + + } @ @ @ @ } + + + + } } } } + + % % % + } } + + } @ @ @ @ } } + + + # # # # % % % # @ } % # # # # # + % # # # % } @ # # # # % % # # # # # # # # # # # # # # # # # # # # # # # # # # # # # # # % % % # # # # # # # # # # # ",
"# # # # # # # # # # # # # # # # # # # # # # # # # # # # # # ] # % # @ # 4.                                                            @ # # # # # # # # # # # # # # # # # # # # # # # # # # # # # # # # # % % % % % % # # % # # ] & ] @                                                                                   , 5 $ # # % + # # # # # # E#+#e+e+e+e+e+e+e+e+e+e+e+e+e+e+e+e+e+e+e+e+e+e+e+e+e+e+e+e+e+e+e+e+e+e+p+# # # # # # # # # ]#e+e+e+e+e+e+e+e+e+e+e+e+e+e+e+e+e+e+e+e+e+e+e+e+e+e+e+e+d+# # # # # # # # # # # # # # # # # # # # # # # # # # # # # # # # # # # # # # # # # # # # # # # # # # # # # # # # # # # # # # # # # # # # # # # # # # # # # # # # # # >#e+e+e+e+e+e+e+e+e+e+e+e+e+e+e+e+e+e+e+e+e+e+e+e+e+e+e+e+y@# # # # # # # # # 9@e+e+e+e+e+e+e+e+e+e+e+e+e+e+e+e+e+e+e+e+e+e+e+e+e+e+e+e+e+e+e+e+e+e+z+y+% % % % % % % % % % % % % % % % % # # # # # # # # # # # # # # # # # # # # % + } @ + # # # # % % + & @ % # # # # % # # % } & ] ] 8 % % } @ ] 8 * * ] ] ] ] $ @ @ } & $ ] $ @ + + + + } } } } + + % # # # % % % % # } } } @ @ @ + % # % % + } @ @ @ 3 h ^ 8 ] $ @ + & } % % @ $ & @ } } + % # # # % @ & $ @ % # # # # # # # # # # # # # # # # # # # # # # # # # # # # # # # # # % % # # # # # # # # # # # ",
"# # # # # # # # # # # # # # # # # # # # # # # # # # # # # # @ # + + @ # 1                                                           *.% # # # # # # # # # # # # # # # # # # # # # # # # # # # # # # # # # % % % # # # # # % + # $ $ % f.                                                                                7., 9 $ # # % } # # # # # # # h#e+e+e+e+e+e+e+e+e+e+e+e+e+e+e+e+e+e+e+e+e+e+e+e+e+e+e+e+e+e+e+e+e+e+u+$@# # # # # # # # >#e+e+e+e+e+e+e+e+e+e+e+e+e+e+e+e+e+e+e+e+e+e+e+e+e+e+e+e+!@# # # # # # # # # # # # # # # # # # # # # # # # # # # # # # # # # # # # # # # # # # # # # # # # # # # # # # # # # # # # # # # # # # # # # # # # # # # # # # # # # # ]#e+e+e+e+e+e+e+e+e+e+e+e+e+e+e+e+e+e+e+e+e+e+e+e+e+e+e+e+R+# # # # # # # # # i@e+e+e+e+e+e+e+e+e+e+e+e+e+e+e+e+e+e+e+e+e+e+e+e+e+e+e+e+e+e+e+e+e+e+@@# # # # # # # # # # # # # # # # # # # # # # # # # # # # % % + + % % @ } } + % % # # # % } & $ & } % # # # # % @ ] ^ & @ @ @ + % # # @ @ + % # # # # # # # # % } @ @ # # # % % % % + + @ $ ^ * h h h . b ( R r.(.(.(.}.3 +.+.3 h ] } @ @ @ + % % # # # # # # + @ @ @ @ % # # % + # # # } $ ] & } + + # # # # # # % @ # # # # # # # # # # # # # # # # # # # # # # # # # # # # # # # # # # # # # # # # # # # ",
"# # # # # # # # # # # # # # # # # # # # # # # # # # # # # # % # @ & @ #                                                             +.# # # # # # # # # # # # # # # # # # # # # # # # # # # # # # # # # # # # # # # # # # % @ % @ % $                                                                                   4 5 9 } + % # # # # # # # # # g#e+e+e+e+e+e+e+e+e+e+e+e+e+e+e+e+e+e+e+e+e+e+e+e+e+e+e+e+e+e+e+e+e+e+e+o@# # # # # # # v#;#e+e+e+e+e+e+e+e+e+e+e+e+e+e+e+e+e+e+e+e+e+e+e+e+e+e+e+e+M@# # # # # # # # # # # # # # # # # # # # # # # # # # # # # # # # # # # # # # # # # # # # # # # # # # # # # # # # # # # # # # # # # # # # # # # # # # # # # # # # # # k#e+e+e+e+e+e+e+e+e+e+e+e+e+e+e+e+e+e+e+e+e+e+e+e+e+e+e+e+e+B@# # # # # # # z@e+e+e+e+e+e+e+e+e+e+e+e+e+e+e+e+e+e+e+e+e+e+e+e+e+e+e+e+e+e+e+e+e+e+e+Z+# # # # # # # # # # # # # # # # # # # # # # # # # # # # % % % % % % # # # # # # # # # % } @ @ + % # h ^ $ + # # # # # # % % % % % % # # % @ ] h 3 }.c 1 I =                                                                                               /.*.l.V * } # # # @ & } # % % + + % # # # $ $ @ + % # # % # # # # # # # # # # # # # # # # # # # # # # # # # # # # # # # # # # # # # # # # # # # ",
"# # # # # # # # # # # # # # # # # # # # # # # # # # # # # # # % @ $ @ #                                                             } % # # # # # # # # # # # # # # # # # # # # # # # # # # # # # # # # # # # # # # # % % # + + + # B.                                                                                A.9 E ~ # @ @ # # # # # # # # # 3#e+e+e+e+e+e+e+e+e+e+e+e+e+e+e+e+e+e+e+e+e+e+e+e+e+e+e+e+e+e+e+e+e+e+e+#@# # # # # # # {#e+e+e+e+e+e+e+e+e+e+e+e+e+e+e+e+e+e+e+e+e+e+e+e+e+e+e+e+e+J@# # # # # # # # # # # # # # # # # # # # # # # # # # # # # # # # # # # # # # # # # # # # # # # # # # # # # # # # # # # # # # # # # # # # # # # # # # # # # # # # # # D@e+e+e+e+e+e+e+e+e+e+e+e+e+e+e+e+e+e+e+e+e+e+e+e+e+e+e+e+e+L@# # # # # # # m@e+e+e+e+e+e+e+e+e+e+e+e+e+e+e+e+e+e+e+e+e+e+e+e+e+e+e+e+e+e+e+e+e+e+e+p## # % % % % % % % % % % % % % % % % # # # # # # # # % % # # # # # # } } } @ @ @ @ @ % % % # # + $ 8 # # # + @ ] ^ * g r.3.B.                                                                                                                                                    a d.+.8 @ + } & ] ] # # # % % % # # % % % % % % % % # # # # # # # # # # # # # # # # % % # # # # # # # # # # # # # # # # # ",
"# # # # # # # # # # # # # # # # # # # # # # # # # # # # # # % + } @ } &                                                           = } @ + # # # # # # # # # # # # # # # # # # # # # # # # # # # # # # # # % % % % % + + + % % % @ 8                                                                                   { f f ! # + + # # # # # # # # # E#+#e+e+e+e+e+e+e+e+e+e+e+e+e+e+e+e+e+e+e+e+e+e+e+e+e+e+e+e+e+e+e+e+e+e+p+# # # # # # # (#e+e+e+e+e+e+e+e+e+e+e+e+e+e+e+e+e+e+e+e+e+e+e+e+e+e+e+e+%@# # # # # # # # # # # # # # # # # # # # # # # # # # # # # # # # # # # # # # # # # # # # # # # # # # # # # # # # # # # # # # # # # # # # # # # # # # # # # # # # # # # # t@e+e+e+e+e+e+e+e+e+e+e+e+e+e+e+e+e+e+e+e+e+e+e+e+e+e+e+e+H@# # # # # # # r@e+e+e+e+e+e+e+e+e+e+e+e+e+e+e+e+e+e+e+e+e+e+e+e+e+e+e+e+e+e+e+e+e+e+z+2#% % % % % % % % % % % % % % % % % % # # # # # # # # + % # # # % @ & # # # # # # # # * 3 . ( l.1 G o                                                                                                                                                                                           a b ] * & # # } & @ % % % % % % % % % # # # # # # # # # # # # # # # # % % % # # # # # # # # # # # # # # # # ",
"# # # # # # # # # # # # # # # # # # # # # # # # # # # # # % % + % % % *                                                           V % @ % # # # # # # # # # # # # # # # # # # # # # # # # # # # # # # # # + + + } @ @ @ @ @ + % ] 8.                                                                                r f , , , + # # # # # # # # # # # # l#e+e+e+e+e+e+e+e+e+e+e+e+e+e+e+e+e+e+e+e+e+e+e+e+e+e+e+e+e+e+e+e+e+e+Q+]@# # # # # # 0#e+e+e+e+e+e+e+e+e+e+e+e+e+e+e+e+e+e+e+e+e+e+e+e+e+e+e+e+y@# # # # # # # # # # # # # # # # # # # # # # # # # # # # # # # # # # # # # # # # # # # # # # # # # # # # # # # # # # # # # # # # # # # # # # # # # # # # # # # # # # # # I@e+e+e+e+e+e+e+e+e+e+e+e+e+e+e+e+e+e+e+e+e+e+e+e+e+e+e+e+%@# # # # # # # C@e+e+e+e+e+e+e+e+e+e+e+e+e+e+e+e+e+e+e+e+e+e+e+e+e+e+e+e+e+e+e+e+e+e+~@} } } % % % % % % % % % % % % % % % % # # # # # # # # % # # # } ] +.}.l.d.L                                                                                                                                                                                                                                 *.v 3 5 # ' % ' % ' % ' % # # # # # # # # # # # # # # # # % % % # # # # # # # # # # # # # # # # ",
"# # # # # # # # # # # # # # # # # # # # # k k k k k k # # + # ' ' ' M p                                                           +.% # % # # # # # # # # # # # # # # # # # # # # # # # # # # # # # # # # # # # # # } 5 r 5 , , r                                                                                 Q ^ # % # # # # # # # # # # # # # # # g#e+e+e+e+e+e+e+e+e+e+e+e+e+e+e+e+e+e+e+e+e+e+e+e+e+e+e+e+e+e+e+e+e+e+e+s@# # # # # U@;#e+e+e+e+e+e+e+e+e+e+e+e+e+e+e+e+e+e+e+e+e+e+e+e+e+e+e+e+H+# # # # # # # # # # # # # # # # # # # # # # # # # # # # # # # # # # # # # # # # # # # # # # # # # # # # # # # # # # # # # # # # # # # # # # # # # # # # # # # # # # # # q@e+e+e+e+e+e+e+e+e+e+e+e+e+e+e+e+e+e+e+e+e+e+e+e+e+e+e+e+e+T@# # # # # e@e+e+e+e+e+e+e+e+e+e+e+e+e+e+e+e+e+e+e+e+e+e+e+e+e+e+e+e+e+e+e+e+e+e+e+Z+% @ $ 9 4 , 4 f r ~ , ' ' ' , , ' 4 ~ , ' 5 5 5 p P [.L 6.                                                                                                                                                                                                                                                            | e C.' , ! ) 4 % $ @ # # $ ] } % + & ] ] & + # % % + % # # # # # # # # # # # # # # # ",
"# # # # # # # # # # # # # # # # # # # # k k A k k k k # # % # ! ! ~ ! Q.                                                        F.% % # # # # # # # # # # # # # # # # # # # # # # # # # # # # # # # # # # # # % % + } { ~ ' ..,  +                                                                                b $ # + # # # # # # # # # # # # # # # 7#e+e+e+e+e+e+e+e+e+e+e+e+e+e+e+e+e+e+e+e+e+e+e+e+e+e+e+e+e+e+e+e+e+e+e+k+# # # # # /#e+e+e+e+e+e+e+e+e+e+e+e+e+e+e+e+e+e+e+e+e+e+e+e+e+e+e+e+e+D+# # # # # # # # # # # # # # # # # # # # # # # # # # # # # # # # # # # # # # # # # # # # # # # # # # # # # # # # # # # # # # # # # # # # # # # # # # # # # # # # # # # # z@e+e+e+e+e+e+e+e+e+e+e+e+e+e+e+e+e+e+e+e+e+e+e+e+e+e+e+e+e+E@# # # # # x@e+e+e+e+e+e+e+e+e+e+e+e+e+e+e+e+e+e+e+e+e+e+e+e+e+e+e+e+e+e+e+e+e+e+e+i+@ } + , , , , , , ~ M , f E A.8.c.F S.                                                                                                                                                                                                                                                                                        A#D d ' ! % + $ ] @ # # ^ @ # # # # @ ] + % # # # % % % % % % % % % % % # # # ",
"# # # # # # # # # # # # # # # # # # # # k k A k k k k # # # # 4 ! M ,                                                           h # $ % % # # # # # # # # # # # # # # # # # # # # # # # # # # # # # # # # # % + @ @ } ! ' 4 ..'                                                                                 r.& % # % # # # # # # # # # # # # # # # E#+#e+e+e+e+e+e+e+e+e+e+e+e+e+e+e+e+e+e+e+e+e+e+e+e+e+e+e+e+e+e+e+e+e+e+K+# # # # # 6#e+e+e+e+e+e+e+e+e+e+e+e+e+e+e+e+e+e+e+e+e+e+e+e+e+e+e+e+h@# # # # # # # # # # # # # # # # # # # # # # # # # # # # # # # # # # # # # # # # # # # # # # # # # # # # # # # # # # # # # # # # # # # # # # # # # # # # # # # # # # # # # # i@e+e+e+e+e+e+e+e+e+e+e+e+e+e+e+e+e+e+e+e+e+e+e+e+e+e+e+e+M+# # # # # I@e+e+e+e+e+e+e+e+e+e+e+e+e+e+e+e+e+e+e+e+e+e+e+e+e+e+e+e+e+e+e+e+e+e+z+<## % @ ~ p :.n ).F `.                                                                                                                                                                                                                                                                                                                  Z R 8 @ } % $ V ] ] & & & @ + # & + # # # + % % % % % % % % % % # # # ",
"# # # # # # # # # # # # # # # # # # # # k k A k k k k # # # % ! , M ,                                                           # @ ] @ # # # # # # # # # # # # # # # # # # # # # # # # # # # # # # # # # # # % } @ @ { 4 m , #+                                                                                ] # # @ # # # # # # # # # # # # # # # # # l#e+e+e+e+e+e+e+e+e+e+e+e+e+e+e+e+e+e+e+e+e+e+e+e+e+e+e+e+e+e+e+e+e+e+1@]@# # # # h#e+e+e+e+e+e+e+e+e+e+e+e+e+e+e+e+e+e+e+e+e+e+e+e+e+e+e+e+a@# # # # # # # # # # # # # # # # # # # # # # # # # # # # # # # # # # # # # # # # # # # # # # # # # # # # # # # # # # # # # # # # # # # # # # # # # # # # # # # # # # # # # # j+e+e+e+e+e+e+e+e+e+e+e+e+e+e+e+e+e+e+e+e+e+e+e+e+e+e+e+e+%@# # # # # S@e+e+e+e+e+e+e+e+e+e+e+e+e+e+e+e+e+e+e+e+e+e+e+e+e+e+e+e+e+e+e+e+e+e+Z@b / w.                                                                                                                                                                                                                                                                                                                                          a . @ % ^ ] } + } } % # @ } % % # # # # # # # # # # # # # # # ",
"# # # # # # # # # # # # # # # # # # # # k k A k k k k # # # % ' , 9 ,                                                         z.} + # % # # # # # # # # # # # # # # # # # # # # # # # # # # # # # # # # # # # % % } @ 5 f 5 4                                                                                 * 8 @ @ @ # # # # # # # # # # # # # # # # # g#e+e+e+e+e+e+e+e+e+e+e+e+e+e+e+e+e+e+e+e+e+e+e+e+e+e+e+e+e+e+e+e+e+e+e+6@# # # E#+#e+e+e+e+e+e+e+e+e+e+e+e+e+e+e+e+e+e+e+e+e+e+e+e+e+e+e+e+W+# # # # # # # # # # # # # # # # # # # # # # # # # # # # # # # # # # # # # # # # # # # # # # # # # # # # # # # # # # # # # # # # # # # # # # # # # # # # # # # # # # # # # # o+e+e+e+e+e+e+e+e+e+e+e+e+e+e+e+e+e+e+e+e+e+e+e+e+e+e+e+e+e+J@# # % D#e+e+e+e+e+e+e+e+e+e+e+e+e+e+e+e+e+e+e+e+e+e+e+e+e+e+e+e+e+e+e+e+e+e+e+x#                                                                                                                                                                                                                                                                                                                                                      1.8 @ % % @ $ & @ # % @ } # # # # # # # # # # # # # # # ",
"# # # # # # # # # # # # # # # # # # # # k k A k k k k # # # % ! , { :.                                                        8 ^ # # % % # # # # # # # # # # # # # # # # # # # # # # # # # # # # # # # # # # # % } @ f r , U                                                                               a + % +.] # + # # # # # # # # # # # # # # # # 7#e+e+e+e+e+e+e+e+e+e+e+e+e+e+e+e+e+e+e+e+e+e+e+e+e+e+e+e+e+e+e+e+e+e+e+F+# # # 3#e+e+e+e+e+e+e+e+e+e+e+e+e+e+e+e+e+e+e+e+e+e+e+e+e+e+e+e+e+f+# # # # # # # # # # # # # # # # # # # # # # # # # # # # # # # # # # # # # # # # # # # # # # # # # # # # # # # # # # # # # # # # # # # # # # # # # # # # # # # # # # # # # # F@e+e+e+e+e+e+e+e+e+e+e+e+e+e+e+e+e+e+e+e+e+e+e+e+e+e+e+e+e+M@% % % G@e+e+e+e+e+e+e+e+e+e+e+e+e+e+e+e+e+e+e+e+e+e+e+e+e+e+e+e+e+e+e+e+e+e+e+l@                                                                                                                                                                                                                                                                                                                                                              V # # + ] # # + + % % % } # # # # # # # # # # # ",
"# # # # # # # # # # # # # # # # # # # # k k A k k k k # # % # ~ ' { M.                                                        # ^ # % } } # # # # # # # # # # # # # # # # # # # # # # # # # # # # # # # # # # + @ @ & 9 9 :.                                                                                # * # h } # % # # # # # # # # # # # # # # # # E#+#e+e+e+e+e+e+e+e+e+e+e+e+e+e+e+e+e+e+e+e+e+e+e+e+e+e+e+e+e+e+e+e+e+e+.@# # # g#e+e+e+e+e+e+e+e+e+e+e+e+e+e+e+e+e+e+e+e+e+e+e+e+e+e+e+e+1@]@# # # # # # # # # # # # # # # # # # # # # # # # # # # # # # # # # # # # # # # # # # # # # # # # # # # # # # # # # # # # # # # # # # # # # # # # # # # # # # # # # # # # # # # %@e+e+e+e+e+e+e+e+e+e+e+e+e+e+e+e+e+e+e+e+e+e+e+e+e+e+e+e+!@+ } } Y@e+e+e+e+e+e+e+e+e+e+e+e+e+e+e+e+e+e+e+e+e+e+e+e+e+e+e+e+e+e+e+e+e+e+^@3                                                                                                                                                                                                                                                                                                                                                                     E , ^ @ # # + @ @ % % % % % % % % % # # # ",
"# # # # # # # # # # # # # # # # # # # # k k A k k k k # # } # 5 { 9                                                         v.# @ % ^ % # # # # # # # # # # # # # # # # # # # # # # # # # # # # # # # # # # % @ $ ] & 4 '                                                                                 r.# * @ @ # @ # # # # # # # # # # # # # # # # # # l#e+e+e+e+e+e+e+e+e+e+e+e+e+e+e+e+e+e+e+e+e+e+e+e+e+e+e+e+e+e+e+e+e+e+1@]@# # l#e+e+e+e+e+e+e+e+e+e+e+e+e+e+e+e+e+e+e+e+e+e+e+e+e+e+e+e+K+# # # # # # # # # # # # # # # # # # # # # # # # # # # # # # # # # # # # # # # # # # # # # # # # # # # # # # # # # # # # # # # # # # # # # # # # # # # # # # # # # # # # # # # # H@e+e+e+e+e+e+e+e+e+e+e+e+e+e+e+e+e+e+e+e+e+e+e+e+e+e+e+e+2@@ @ @ t@e+e+e+e+e+e+e+e+e+e+e+e+e+e+e+e+e+e+e+e+e+e+e+e+e+e+e+e+e+e+e+e+e+e+|@                                                                                                                                                                                                                                                                                                                                                                          t.h # # + $ } # } } } } } } } } # # # ",
"# # # # # # # # # # # # # # # # # # # # k k A k k k k # # # # 9 ' 5                                                         s # +.@ @ # @ # # # # # # # # # # # # # # # # # # # # # # # # # # # # # # # # # ^ # } @ * ' t                                                                               e.} @ @ } + % # # # # # # # # # # # # # # # # # # # 4#e+e+e+e+e+e+e+e+e+e+e+e+e+e+e+e+e+e+e+e+e+e+e+e+e+e+e+e+e+e+e+e+e+e+e+f+# I#+#e+e+e+e+e+e+e+e+e+e+e+e+e+e+e+e+e+e+e+e+e+e+e+e+e+e+e+e+k+# # # # # # # # # # # # # # # # # # # # # # # # # # # # # # # # # # # # # # # # # # # # # # # # # # # # # # # # # # # # # # # # # # # # # # # # # # % % % # # # # # # # # # # # H+e+e+e+e+e+e+e+e+e+e+e+e+e+e+e+e+e+e+e+e+e+e+e+e+e+e+e+e+e+w@@ P#e+e+e+e+e+e+e+e+e+e+e+e+e+e+e+e+e+e+e+e+e+e+e+e+e+e+e+e+e+e+e+e+e+e+e+l+                                                                                                                                                                                                                                                                                                                                                                                ( # + ] $ & ] @ # # # @ + $ + # ",
"# # # # # # # # # # # # # # # # # # # # k k A k k k k # # # % ~ { |.                                                        4 # $ % ] # % # # # # # # # # # # # # # # # # # # # # # # # # # # # # # # # # $ # # * # * '                                                                                 E ^ ^ 8 ] @ + # # # # # # # # # # # # # # # # # # # 7#e+e+e+e+e+e+e+e+e+e+e+e+e+e+e+e+e+e+e+e+e+e+e+e+e+e+e+e+e+e+e+e+e+e+e+W+# 7#e+e+e+e+e+e+e+e+e+e+e+e+e+e+e+e+e+e+e+e+e+e+e+e+e+e+e+e+e+/@# # # # # # # # # # # # # # # # # # # # # # # # # # # # # # # # # # # # # # # # # # # # # # # # # # # # # # # # # # # # # # # # # # # # # # # # # # % % % % # # # # # # # # # # D+e+e+e+e+e+e+e+e+e+e+e+e+e+e+e+e+e+e+e+e+e+e+e+e+e+e+e+e+e+&#] .#e+e+e+e+e+e+e+e+e+e+e+e+e+e+e+e+e+e+e+e+e+e+e+e+e+e+e+e+e+e+e+e+e+e+e+U+                                                                                                                                                                                                                                                                                                                                                                                    /.b @ % & ] ] @ @ @ + # } ] ",
"# # # # # # # # # # # # # # # # # # # # k k A k k k C % % # @ 9 4 Z                                                       n , ] % # * # # # # # # # # # # # # # # # # # # # # # # # # # # # # # # # # # # ] # # 3 } # q                                                                               ..~ 8 ] ] & } # # # # # # # # # # # # # # # # # # # # I#+#e+e+e+e+e+e+e+e+e+e+e+e+e+e+e+e+e+e+e+e+e+e+e+e+e+e+e+e+e+e+e+e+e+e+.@# $#e+e+e+e+e+e+e+e+e+e+e+e+e+e+e+e+e+e+e+e+e+e+e+e+e+e+e+e+u+$@# # # # # # # # # # # # # # # # # # # # # # # # # # # # # # # # # # # # # # # # # # # # # # # # # # # # # # # # # # # # # # # # # # # # # # # # # # % % % % # # # # # # # # # # # h@e+e+e+e+e+e+e+e+e+e+e+e+e+e+e+e+e+e+e+e+e+e+e+e+e+e+e+e+j+  (#e+e+e+e+e+e+e+e+e+e+e+e+e+e+e+e+e+e+e+e+e+e+e+e+e+e+e+e+e+e+e+e+e+e+^@3                                                                                                                                                                                                                                                                                                                                                                                           l.+.# # & ] + # % # # ",
"# # # # # # # # # # # # # # # # # # # # k k A k C C C % % + % M ,                                                         , 4 h # % ^ # # # # # # # # # # # # # # # # # # # # # # # # # # # # # # # # # # # # # * * #                                                                               L , E @ @ @ } + % # # # # # # # # # # # # # # # # # # # # l#e+e+e+e+e+e+e+e+e+e+e+e+e+e+e+e+e+e+e+e+e+e+e+e+e+e+e+e+e+e+e+e+e+e+h@# s+e+e+e+e+e+e+e+e+e+e+e+e+e+e+e+e+e+e+e+e+e+e+e+e+e+e+e+e+`+# # # # # # # # # # # # # # # # # # # # # # # # # # # # # # # # # # # # # # # # # # # # # # # # # # # # # # # # # # # # # # # # # # # # # # # # # % % # # # # # # # # # # # # # # # [@e+e+e+e+e+e+e+e+e+e+e+e+e+e+e+e+e+e+e+e+e+e+e+e+e+e+e+e+d+  _#e+e+e+e+e+e+e+e+e+e+e+e+e+e+e+e+e+e+e+e+e+e+e+e+e+e+e+e+e+e+e+e+e+e+q+                                                                                                                                                                                                                                                                                                                                                                                                  V % # & 3 ] % # ",
"# # # # # # # # # # # # # # # # # # # # k k A k C C $.% + @ # s 5                                                       u , ~ $ # @ @ # + # # # # # # # # # # # # # # # # # # # # # # # # # # # # % % % % # $ # & & w.                                                                              , S { & & & & @ @ + % # # # # # # # # # # # # # # # # # # 4#e+e+e+e+e+e+e+e+e+e+e+e+e+e+e+e+e+e+e+e+e+e+e+e+e+e+e+e+e+e+e+e+e+e+e+W@z+e+e+e+e+e+e+e+e+e+e+e+e+e+e+e+e+e+e+e+e+e+e+e+e+e+e+e+e+X+# # # # # # # # # # # # # # # # # # # # # # # # # # # # # # # # # # # # # # # # # # # # # # # # # # # # # # # # # # # # # # # # # # # # # # # # % % % # # # # # # # # % % % % % % % W+e+e+e+e+e+e+e+e+e+e+e+e+e+e+e+e+e+e+e+e+e+e+e+e+e+e+e+e+e+h+;#e+e+e+e+e+e+e+e+e+e+e+e+e+e+e+e+e+e+e+e+e+e+e+e+e+e+e+e+e+e+e+e+e+e+l+                                                                                                                                                                                                                                                                                                                                                                                                      r.@ # # @ * ",
"# # # # # # # # # # # # # # # # # # # # k k A C C $.x + + @ # s [.                                                      M ! , # # @ # # @ # # # # # # # # # # # # # # # # # # # # # # # # # # % % % + + } @ } % # *                                                                               { 4 r , @ @ @ } + % # # # # # # # # # # # # # # # # # # # # 7#e+e+e+e+e+e+e+e+e+e+e+e+e+e+e+e+e+e+e+e+e+e+e+e+e+e+e+e+e+e+e+e+e+e+e+K+e+e+e+e+e+e+e+e+e+e+e+e+e+e+e+e+e+e+e+e+e+e+e+e+e+e+e+e+e+l@# # # # # # # # # # # # # # # # # # # # # # # # # # # # # # # # # # # # # # # # # # # # # # # # # # # # # # # # # # # # # # # # # # # # # # # # % + + % % % % % % % % + + + + + + + *@e+e+e+e+e+e+e+e+e+e+e+e+e+e+e+e+e+e+e+e+e+e+e+e+e+e+e+e+e+[@e+e+e+e+e+e+e+e+e+e+e+e+e+e+e+e+e+e+e+e+e+e+e+e+e+e+e+e+e+e+e+e+e+e+e+W@                                                                                                                                                                                                                                                                                                                                                                                                          R + % % ",
"# # # # # # # # # # # # # # # # # # # # k k A C C $.x } } } % f                                                         , 4 , # % % # # % # # # # # # # # # # # # # # # # # # # # # # # # % % % + } @ @ @ @ + @ }                                                                               n , 9., ~ # # # # # # # # # # # # # # # # # # # # # # # # # # I#+#e+e+e+e+e+e+e+e+e+e+e+e+e+e+e+e+e+e+e+e+e+e+e+e+e+e+e+e+e+e+e+e+e+e+e+e+e+e+e+e+e+e+e+e+e+e+e+e+e+e+e+e+e+e+e+e+e+e+e+e+e+e+e+w+v+# # # # # # # # # # # # # # # # # # # # # # # # # # # # # # # # # # # # # # # # # # # # # # # # # # # # # # # # # # # # # # # # # # # # # # # % % + } } } @ @ @ @ @ & @ @ @ @ @ @ @ % Q+e+e+e+e+e+e+e+e+e+e+e+e+e+e+e+e+e+e+e+e+e+e+e+e+e+e+e+e+e+e+e+e+e+e+e+e+e+e+e+e+e+e+e+e+e+e+e+e+e+e+e+e+e+e+e+e+e+e+e+e+e+e+e+^@.                                                                                                                                                                                                                                                                                                                                                                                                               w.+.",
"# # # # # # # # # # # # # # # # # # # # # k k C $.x x } @ % $ {                                                       T , 4 ' # @ # # + # # # # # # # # # # # # # # # # # # # # # # # # # % % + } @ @ @ & % * s 3                                                                             N.! 9 f .., # # # % % + + + # # # # # # # # # # # # # # # # # # # l#e+e+e+e+e+e+e+e+e+e+e+e+e+e+e+e+e+e+e+e+e+e+e+e+e+e+e+e+e+e+e+e+e+e+e+e+e+e+e+e+e+e+e+e+e+e+e+e+e+e+e+e+e+e+e+e+e+e+e+e+e+e+e+q+# # # # # # # # # # # # # # # # # # # # # # # # # # # # # # # # # # # # # # # # # # # # # # # # # # # # # # # # # # # # # # # # # # # # # # # # % % + } & & $ $ ] ] ] ] @ @ 9 @ 9 @ 9 @ `+e+e+e+e+e+e+e+e+e+e+e+e+e+e+e+e+e+e+e+e+e+e+e+e+e+e+e+e+e+e+e+e+e+e+e+e+e+e+e+e+e+e+e+e+e+e+e+e+e+e+e+e+e+e+e+e+e+e+e+e+e+e+e+q+                                                                                                                                L.!#l '+q  +n [ e [ e [ e [ e b#5.C#L q#6                                                                                                                                                                                                                                           ",
"# # # # # # # # # # # # # # # # # # # # # # # % + } + ! ! r 4 ^+                                                      # & # # # # # # # # # # # # # # # # # # # # # # # # # # # # # # # # # ] # # ] # ] } _ 4 Q#                                                                            I # * $ ] % # # # # # # # # # # # # # # # # # # # # # # # # # # # # 4#e+e+e+e+e+e+e+e+e+e+e+e+e+e+e+e+e+e+e+e+e+e+e+e+e+e+e+e+e+e+e+e+e+e+e+e+e+e+e+e+e+e+e+e+e+e+e+e+e+e+e+e+e+e+e+e+e+e+e+e+e+e+e+x## # # # # # # # # # # # # # # # # # # # # # # # # # # # # # # # # # # # # # # # # # # # # # # # # # # # % % # # # # # # % # # # # # # % # # # # # % + + ] # # } @ # + h s S C.5 , , ' f R#e+e+e+e+e+e+e+e+e+e+e+e+e+e+e+e+e+e+e+e+e+e+e+e+e+e+e+e+e+e+e+e+e+e+e+e+e+e+e+e+e+e+e+e+e+e+e+e+e+e+e+e+e+e+e+e+e+e+e+e+e+e+e+G+                                                                                  L.^.q c ).( T +.p ^ r $ f & ' % ' % ' % ' % ' % ' % ' % ' % ' % , # , # , # , # , # , # , # , # ' } 5 ] m * E b y.I 6                                                                                                                                                                                                             ",
"# # # # # # # # # # # # # # # # # # # # # # # % + } } { { ~ ,                                                       g + # # # # # # # # # # # # # # # # # # # # # # # # # # # # # # # # # # @ # ] ] # & } D.,                                                                               $ # 8 % @ % # # # # # # # # # # # # # # # # # # # # # # # # # # # # a#e+e+e+e+e+e+e+e+e+e+e+e+e+e+e+e+e+e+e+e+e+e+e+e+e+e+e+e+e+e+e+e+e+e+e+e+e+e+e+e+e+e+e+e+e+e+e+e+e+e+e+e+e+e+e+e+e+e+e+e+e+e+e+8@# # # # # # # # # # # # # # # # # # # # # # # # # # # # # # # # # # # # # # # # # # # # # # # # # # # # % # # # # # # % # # # # # # # # @ + % % } @ + % # $ 3 * ^ h ] # : ) : : ].|     *@e+e+e+e+e+e+e+e+e+e+e+e+e+e+e+e+e+e+e+e+e+e+e+e+e+e+e+e+e+e+e+e+e+e+e+e+e+e+e+e+e+e+e+e+e+e+e+e+e+e+e+e+e+e+e+e+e+e+e+e+e+e+e+-@                                                          ;+/ 7 }.8 @ @ } # # } + % % # # # # ] $ @ } % % # # % % % % % % % % % % % % % % % % # # % % % + + } % % % % % % % % % % % + + + + + & ] $ + # # @ * } ^ 4. .z.                                                                                                                                                                                            ",
"# # # # # # # # # # # # # # # # # # # # # # % % % } @ 5 f 4 M                                                       # ] # # # # # # # # # # # # # # # # # # # # # # # # # # # # # # # # # % # # ^ @ # ^ $ X ^+                                                                            @ # ^ ^ } 8 + # # # # # # # # # # # # # # # # # # # # # # # # # # # # I#z+e+e+e+e+e+e+e+e+e+e+e+e+e+e+e+e+e+e+e+e+e+e+e+e+e+e+e+e+e+e+e+e+e+e+e+e+e+e+e+e+e+e+e+e+e+e+e+e+e+e+e+e+e+e+e+e+e+e+e+e+e+^@3@# # # # # # # # # # # # # # # # # # # # # # # # # # # # # # # # # # # # # # # # # # # # # # # # # # # # % # # # # # % % # # # # # # # # # # # % } } # # % ] & # # # ] ] , =+            (.w+e+e+e+e+e+e+e+e+e+e+e+e+e+e+e+e+e+e+e+e+e+e+e+e+e+e+e+e+e+e+e+e+e+e+e+e+e+e+e+e+e+e+e+e+e+e+e+e+e+e+e+e+e+e+e+e+e+e+e+e+e+4@.                                         ;+r.4.& @ % % % % # # # % + % % % } & # # # # # # # # $ @ @ + % % # # + + + + + + + + % % % % % % % % # # % % } @ & $ + + + + + + + + @ } } + % # # # % % # # # # # # & @ # # # # # # ] 3 g u.                                                                                                                                                                              ",
"# # # # # # # # # # # # # # # # # # # # # % % % % + @ M _ 4 W.                                                    7 # @ & # # # # # # # # # # # # # # # # # # # # # # # # # # # # # # # # % # # % # & +.@ %.                                                                            3 # ] ^ @ 8 2 @ # # # # # # # # # # # # # # # # # # # # # # # # # # # # # s+e+e+e+e+e+e+e+e+e+e+e+e+e+e+e+e+e+e+e+e+e+e+e+e+e+e+e+e+e+e+e+e+e+e+e+e+e+e+e+e+e+e+e+e+e+e+e+e+e+e+e+e+e+e+e+e+e+e+e+e+e+Z@# # # # # # # # # # # # # # # # # # # # # # # # # # # # # # # # # # # # # # # # # # # # # # # # # # # # # # # # # # # % % # # # % % # # # @ % # # # # } ] h @ % @ $ 3 /                     L+e+e+e+e+e+e+e+e+e+e+e+e+e+e+e+e+e+e+e+e+e+e+e+e+e+e+e+e+e+e+e+e+e+e+e+e+e+e+e+e+e+e+e+e+e+e+e+e+e+e+e+e+e+e+e+e+e+e+e+e+e+L+                        /.(.* # # # # # } $ & } ^ ] $ & & @ + % # } @ @ % # # + $ $ & @ @ } } + $ & @ @ } + + + % % % % % % % % % % % % % % % % # # % % } @ & & + + + + + + + + + + + + } } } } 8 ] & @ @ } + % # % @ ] ^ ] @ % # # # # # # @ 8 n `.                                                                                                                                                                  ",
"# # # # # # # # # # # # # # # # # # # # # % % % % + @ M _ ,                                                       # & # @ # # # # # # # # # # # # # # # # # # # # # # # # # # # # # # # # % # # # # 8 & #                                                                             7 } + ] # # ] * @ # # # # # # # # # # # # # # # # # # # # # # # # # # # # # $#e+e+e+e+e+e+e+e+e+e+e+e+e+e+e+e+e+e+e+e+e+e+e+e+e+e+e+e+e+e+e+e+e+e+e+e+e+e+e+e+e+e+e+e+e+e+e+e+e+e+e+e+e+e+e+e+e+e+e+e+e+)@# # # # # # # # # # # # # # # # # # # # # # # # # # # # # # # # # # # # # # # # # # # # # # # # # # # # # # # # # # # % % # % % + + % % # # + ^ ^ @ # # # # # V /.                          G+e+e+e+e+e+e+e+e+e+e+e+e+e+e+e+e+e+e+e+e+e+e+e+e+e+e+e+e+e+e+e+e+e+e+e+e+e+e+e+e+e+e+e+e+e+e+e+e+e+e+e+e+e+e+e+e+e+e+e+e+e+X+          6.Q.t { + % % + % % # 8 @ + } $ ] @ % # # # # % + + % # # % + + + % % # # # # # # # # + + % % # # # # # # # # # # # # % % % % % % % % # # % % % % % % % % % % % % % % # % % % + } @ @ + % # # # # # # ] @ # # # # # # # % $ ^ ^ ] } % S 5 , , ~ 7.                                                                                                                                                          ",
"# # # # # # # # # # # # # # # # # # # # # # % % % } @ 5 f f                                                     t.# $ # # # # # # # # # # # # # # # # # # # # # # # # # # # # # # # # # # % } @ # @ $ % 4.                                                                          R 8 % # @ # # } # # % # # # # # # # # # # # # # # # # # # # # # # # # # # # # a#e+e+e+e+e+e+e+e+e+e+e+e+e+e+e+e+e+e+e+e+e+e+e+e+e+e+e+e+e+e+e+e+e+e+e+e+e+e+e+e+e+e+e+e+e+e+e+e+e+e+e+e+e+e+e+e+e+e+e+e+e+>@# # # # # # # # # # # # # # # # # # # # # # # # # # # # # # # # # # # # # # # # # # # # # # # # # # # # # # # # # # % % + % + } @ @ } + % # # # # # + h b                                   U+e+e+e+e+e+e+e+e+e+e+e+e+e+e+e+e+e+e+e+e+e+e+e+e+e+e+e+e+e+e+e+e+e+e+e+e+e+e+e+e+e+e+e+e+e+e+e+e+e+e+e+e+e+e+e+e+e+e+e+e+e+c@Q#,., , : ) , , % % % % % % + + # # # # % % % # * 8 $ @ @ + # # % # # % } @ % # # % % % % % % % % % # # # # # # # # # # # # # # % % % % % % % % % % # # # # # # # # # # # # # # # # # # # # # # # # # % } & & @ # # # # # } $ ] ] @ # # # # # } , , 4 f 9 ' , , ! x.                                                                                                                                                  ",
"# # # # # # # # # # # # # # # # # # # # # # # % + } } { { h.                                                    & @ ] + # # # # # # # # # # # # # # # # # # # # # # # # # # # # # # # # # } } & + 8 } b                                                                           B.# 4.# # & # & % # % # # # # # # # # # # # # # # # # # # # # # # # # # # # # # 1#z+e+e+e+e+e+e+e+e+e+e+e+e+e+e+e+e+e+e+e+e+e+e+e+e+e+e+e+e+e+e+e+e+e+e+e+e+e+e+e+e+e+e+e+e+e+e+e+e+e+e+e+e+e+e+e+e+e+e+e+z+<## # # # # # # # # # # # # # # # # # # # # # # # # # # # # # # # # # # # # # # # # # # # # # # # # # # # # # # # # # % % + + } @ & & @ } + J r , ! P                                         3 ^@e+e+e+e+e+e+e+e+e+e+e+e+e+e+e+e+e+e+e+e+e+e+e+e+e+e+e+e+e+e+e+e+e+e+e+e+e+e+e+e+e+e+e+e+e+e+e+e+e+e+e+e+e+e+e+e+e+e+e+4@S#5 4 , ' ~ 5 9 { # # # # # # # % # # # # # # # # # # # # # % % % } % # # # # # # } + % % # # # # % % % # # % % % # # # # # # # # % % % % % % % % % # # # # # # # # # # # # # # # # # # # # # # # } } + % # # # # % + @ & @ # # # # # # % + + % # +.] % # # # % & ^ @ # # ] /                                                                                                                                           ",
"# # # # # # # # # # # # # # # # # # # # # # # % + } + ! !                                                     2 +.# 8 # # # # # # # # # # # # # # # # # # # # # # # # # # # # # # # # # # & % + + * + <.                                                                        I # }.% @ # % # + # # ^ # # # # # # # # # # # # # # # # # # # # # # # # # # # # # # s+e+e+e+e+e+e+e+e+e+e+e+e+e+e+e+e+e+e+e+e+e+e+e+e+e+e+e+e+e+e+e+e+e+e+e+e+e+e+e+e+e+e+e+e+e+e+e+e+e+e+e+e+e+e+e+e+e+e+e+N+# # # # # # # # # # # # # # # # # # # # # # # # # # # # # # # # # # # # # # # # # # # # # # # # # # # # # # # # # # # % % + } @ & ] ] & @ } , S `.                                              Z@e+e+e+e+e+e+e+e+e+e+e+e+e+e+e+e+e+e+e+e+e+e+e+e+e+e+e+e+e+e+e+e+e+e+e+e+e+e+e+e+e+e+e+e+e+e+e+e+e+e+e+e+e+e+e+e+e+e+e+q+{ ~ 5 5 ~ , , , , % % % % # # % % # % % % # # % % & @ % % % % # # # # % # # # % + # # # # % % % % # # # # # # # % % % % % % % % % % % % % % % % % # # # # # # # # # # # # # # # # # # # % % % % % # # # % # % + @ # # # # # # % } # # # # % % % # # # # % } } % # % $ h +.] % # # S &.                                                                                                                                  ",
"# # # # # # # # # # # # # # # # # # # # # # $ # # $ # ! 8.                                                    $ ^ @ % ] @ # # # # # # # # # # # # # # # # # # # # # # # # % # # # # % % # # 3 # % # l.                                                                          # # 8 $ * # # # # # # # # # # # # # # # # # # # # # # # # # # # # # # # # # # # # # $#e+e+e+e+e+e+e+e+e+e+e+e+e+e+e+e+e+e+e+e+e+e+e+e+e+e+e+e+e+e+e+e+e+e+e+e+e+e+e+e+e+e+e+e+e+e+e+e+e+e+e+e+e+e+e+e+e+e+e+n+# # # # # # # # # # # # # # # # # # # # # # # # # # # # # # # # # # # # # # # # # # # # # # % % % % % % # # # + } # # # + @ % * +.8 & % 8 R                                                     )@e+e+e+e+e+e+e+e+e+e+e+e+e+e+e+e+e+e+e+e+e+e+e+e+e+e+e+e+e+e+e+e+e+e+e+e+e+e+e+e+e+e+e+e+e+e+e+e+e+e+e+e+e+e+e+e+e+e+e+x#{ ~ { 4 4 ! ' , , # # # # # # # # # # # # # # # # # # # # # # # # # # # # # # # # # # # # # # # # # # # # # # # # # # # # # # # # # # # # # # # # # # # # # # # # # # # # # # # # # # # # # # # # # # # # # # # # # # # # # # # # # # # # # # # # # # # # # # # # ] $ & @ @ & $ ] { , ' ..g.                                                                                                                            ",
"# # # # # # # # # # # # # # # # # # # # # # # # @ # $ ,                                                     G # $ % # @ # # # # # # # # # # # # # # # # # # # # # # # # # % # # # # % % % ^ # * $ ]                                                                           # $ b $ # % # # # # # # # # # # # # # # # # # # # # # # # # # # # # # # # # # # # # # a#e+e+e+e+e+e+e+e+e+e+e+e+e+e+e+e+e+e+e+e+e+e+e+e+e+e+e+e+e+e+e+e+e+e+e+e+e+e+e+e+e+e+e+e+e+e+e+e+e+e+e+e+e+e+e+e+e+e+e+*## # # # # # # # # # # # # # # # # # # # # # # # # # # # # # # # # # # # # # # # # # # # # # # # # # # # # # # # + & & + # # V & # + 7 o                                                         o#e+e+e+e+e+e+e+e+e+e+e+e+e+e+e+e+e+e+e+e+e+e+e+e+e+e+e+e+e+e+e+e+e+e+e+e+e+e+e+e+e+e+e+e+e+e+e+e+e+e+e+e+e+e+e+e+e+e+e+T#4 { { 4 ! ' ' , , # # # # # # # # # # # # # # # # # # # # # # # # # # # # # # # # # # # # # # # # # # # # # # # # # # # # # # # # # # # # # # # # # # # # # # # # # # # # # # # # # # # # # # # # # # # # # # # # # # # # # # # # # # # # # # # # # # # # # # # # & @ @ @ @ @ @ & s ~ ! { 4 ~ A.F                                                                                                                       ",
"# # # # # # # # # # # # # # # # # # # # # } # # ^ # ] f                                                     3 # ] @ } ] # # # # # # # # # # # # # # # # # # # # # # # # # % # # # % % % % # # 8 }                                                                           * # * +.] $ # # # # # # # # # # # # # # # # # # # # # # # # # # # # # # # # # # # # # # 1#z+e+e+e+e+e+e+e+e+e+e+e+e+e+e+e+e+e+e+e+e+e+e+e+e+e+e+e+e+e+e+e+e+e+e+e+e+e+e+e+e+e+e+e+e+e+e+e+e+e+e+e+e+e+e+e+e+e++#I## # # # # # # # # # # # # # # # # # # # # # # # # # # # # # # # # # # # # # # # # # # # # # # # # # # # # # ] # # # + % # % # % (.                                                              m#+#e+e+e+e+e+e+e+e+e+e+e+e+e+e+e+e+e+e+e+e+e+e+e+e+e+e+e+e+e+e+e+e+e+e+e+e+e+e+e+e+e+e+e+e+e+e+e+e+e+e+e+e+e+e+e+e+e+4@i#% + + + % % % # # # # # # # # # # # # # # # # # # # # # # # # # # # # # # # # # # # # # # # # # # # # # # # # # # # # # # # # # # # # # # # # # # # # # # # # # # # # # # # # # # # # # # # # # # # # # # # # # # # # # # # # # # # # # # # # # # k k k k k k k k x %+%+-.-.%+%+x % # } 8 ] % # } & 2 ^.                                                                                                                ",
"# # # # # # # # # # # # # # # # # # # # # @ # # ^ # # S.                                                  ).# # 8 @ @ * % # # # # # # # # # # # # # # # # # # # # # # # # % # # # % + + % # V # 1.                                                                        5 @ * ] # ] +.# # # # # # # # # # # # # # # # # # # # # # # # # # # # # # # # # # # # # # # s+e+e+e+e+e+e+e+e+e+e+e+e+e+e+e+e+e+e+e+e+e+e+e+e+e+e+e+e+e+e+e+e+e+e+e+e+e+e+e+e+e+e+e+e+e+e+e+e+e+e+e+e+e+e+e+e+e+l## # # # # # # # # # # # # # # # # # # # # # # # # # # # # # # # # # # # # # # # # # # # # # # # # # % % % % + # # + $ % # # +.^.                                                                    l#e+e+e+e+e+e+e+e+e+e+e+e+e+e+e+e+e+e+e+e+e+e+e+e+e+e+e+e+e+e+e+e+e+e+e+e+e+e+e+e+e+e+e+e+e+e+e+e+e+e+e+e+e+e+e+e+e+q+# # + % % % % # # # # # # # # # # # # # # # # # # # # # # # # # # # # # # # # # # # # # # # # # # # # # # # # # # # # # # # # # # # # # # # # # # # # # # # # # # # # # # # # # # # # # # # # # # # # # # # # # # # # # # # # # # # # # # # # # # # k k k k k k k k k C $.x x $.C k % # % $ ] @ + } # % @ @ * ^.                                                                                                          ",
"# # # # # # # # # # # # # # # # # # # # # % + # + + #                                                     { # # } # # @ # # # # # # # # # # # # # # # # # # # # # # # # # % # # # % } } + V # t.                                                                        f , } # # 8 } # % # # # # # # # # # # # # # # # # # # # # # # # # # # # # # # # # # # # # # # $#e+e+e+e+e+e+e+e+e+e+e+e+e+e+e+e+e+e+e+e+e+e+e+e+e+e+e+e+e+e+e+e+e+e+e+e+e+e+e+e+e+e+e+e+e+e+e+e+e+e+e+e+e+e+e+e+e+g## # # # # # # # # # # # # # # # # # # # # # # # # # # # # # # # # # # # # # # # # # # # # # # % % + } @ @ & & + + + # # 3                                                                           $#e+e+e+e+e+e+e+e+e+e+e+e+e+e+e+e+e+e+e+e+e+e+e+e+e+e+e+e+e+e+e+e+e+e+e+e+e+e+e+e+e+e+e+e+e+e+e+e+e+e+e+e+e+e+e+e+e+l+# # % % % % % # # # # # # # # # # # # # # # # # # # # # # # # # # # # # # # # # # # # # # # # # # # # # # # # # # # # # # # # # # # # # # # # # # # # # # # # # # # # # # # # # # # # # # # # # # # # # # # # # # # # # # # # # # # # # # # # # # # k k k k k k k k k k C $.$.C k k @ # # # # # # # & # # + $ ] +.b                                                                                                       ",
"# # # # # # # # # # # # # # # # # # # # # # + % # $ V                                                   0 , # % # # # % # # # # # # # # # # # # # # # # # # # # # # # # # % # # # % } @ } @ @                                                                         Y p ' 8 # # ] % # @ # # # # # # # # # # # # # # # # # # # # # # # # # # # # # # # # # # # # # # *#e+e+e+e+e+e+e+e+e+e+e+e+e+e+e+e+e+e+e+e+e+e+e+e+e+e+e+e+e+e+e+e+e+e+e+e+e+e+e+e+e+e+e+e+e+e+e+e+e+e+e+e+e+e+e+e+e+[## # # # # # # # # # # # # # # # # # # # # # # # # # # # # # # # # # # # # # # # # # # # # # # } @ @ & $ ] 8 8 @ # # *                                                                               *#e+e+e+e+e+e+e+e+e+e+e+e+e+e+e+e+e+e+e+e+e+e+e+e+e+e+e+e+e+e+e+e+e+e+e+e+e+e+e+e+e+e+e+e+e+e+e+e+e+e+e+e+e+e+e+e+e+C+# # % % % # # # # # # # # # # # # # # # # # # # # # # # # # # # # # # # # # # # # # # # # # # # # # # # # # # # # # # # # # # # # # # # # # # # # # # # # # # # # # # # # # # # # # # # # # # # # # # # # # # # # # # # # # # # # # # # # # # # # # k k k k k k k k k k k k k k k k # # # % } @ & & % # # # # # # ] f y.                                                                                                  ",
"# # # # # # # # # # # # # # # # # # # # # # # @ # ^                                                     , ! % % % # # % # # # # # # # # # # # # # # # # # # # # # # # # # % # # # % @ @ @ %                                                                         G., P , 8 ] # # # + } # # # # # # # # # # # # # # # # # # # # # # # # # # # # # # # # # # # # # # 1#z+e+e+e+e+e+e+e+e+e+e+e+e+e+e+e+e+e+e+e+e+e+e+e+e+e+e+e+e+e+e+e+e+e+e+e+e+e+e+e+e+e+e+e+e+e+e+e+e+e+e+e+e+e+e+e+;#U@# # # # # # # # # # # # # # # # # # # # # # # # # # # # # # # # # # # # # # # # # # # # # # # @ @ & $ ] ^ * * # b                                                                                   -#;#e+e+e+e+e+e+e+e+e+e+e+e+e+e+e+e+e+e+e+e+e+e+e+e+e+e+e+e+e+e+e+e+e+e+e+e+e+e+e+e+e+e+e+e+e+e+e+e+e+e+e+e+e+e+e+w+v+# # # # # # # # # # # # # # # # # # # # # # # # # # # # # # # # # # # # # # # # # # # # # # # # # # # # # # # # # # # # # # # # # # # # # # # # # # # # # # # # # # # # # # # # # # # # # # # # # # # # # # # # # # # # # # # # # # # # # # # # # # k A A A A A A A A A A A A A A k % % + % # # # # # # & @ # # # # ' , 4 v                                                                                               ",
"# # # # # # # # # # # # # # # # # # # # # # # 8 # h                                                   b+~ # # # # % % # # # # # # # # # # # # # # # # # # # # # # # # # # % # # # + @ @ @ u.                                                                      P., Z., ] # # & # # $ # # # # # # # # # # # # # # # # # # # # # # # # # # # # # # # # # # # # # # # # s+e+e+e+e+e+e+e+e+e+e+e+e+e+e+e+e+e+e+e+e+e+e+e+e+e+e+e+e+e+e+e+e+e+e+e+e+e+e+e+e+e+e+e+e+e+e+e+e+e+e+e+e+e+e+e+0## # # # # # # # # # # # # # # # # # # # # # # # # # # # # # # # # # # # # # # # # # # # # # # # } @ @ $ ] ^ * * a                                                                                       >#e+e+e+e+e+e+e+e+e+e+e+e+e+e+e+e+e+e+e+e+e+e+e+e+e+e+e+e+e+e+e+e+e+e+e+e+e+e+e+e+e+e+e+e+e+e+e+e+e+e+e+e+e+e+e+L+# # # # # # # # # # # # # # # # # # # # # # # # # # # # # # # # # # # # # # # # # # # # # # # # # # # # # # # # # # # # # # # # # # # # # # # # # # # # # # # # # # # # # # # # # # # # # # # # # # # # # # # # # # # # # # # # # # # # # # # # # # # k A k A k A k A C A k A k A k C # # % # # # % % # % # # # $ ] + m ' , 4 , 5                                                                                           ",
"# # # # # # # # # # # # # # # # # # # % % ] # # }                                                     , 3 # # # # # # # # # # # # # # # # # # # # # # # # # # # % % % # # , , 9 , M M , v                                                                       S r m , 9 # # # # # # # # # # # # # # # # # # # # # # # # # # # # # # # # # # # # # # # # # # # # # # # $#e+e+e+e+e+e+e+e+e+e+e+e+e+e+e+e+e+e+e+e+e+e+e+e+e+e+e+e+e+e+e+e+e+e+e+e+e+e+e+e+e+e+e+e+e+e+e+e+e+e+e+e+e+e+e+(## # # # # # # # # # # # # # # # # # # # # # # # # # # # # # # # # # # # # # # # # + & # # % @ + ^ # + +.% # /                                                                                           (#e+e+e+e+e+e+e+e+e+e+e+e+e+e+e+e+e+e+e+e+e+e+e+e+e+e+e+e+e+e+e+e+e+e+e+e+e+e+e+e+e+e+e+e+e+e+e+e+e+e+e+e+e+e+e+G+# # # # # # # # # # # # # # # # # # # # # # # # # # # # # # # # # # # # # # # # # # # # # # # # # # # # # # # # # # # # # # # # # # # # # # # # # # # # # # # # # # # # # # # # # # # # # # # # # # # # # # # # # # # # # # # # # # # # # # # # # # # # k # k # k # k # k # k # k # # # # # # # # # # % % % % % % % % @ @ @ @ @ @ @ @ f.                                                                                    ",
"# # # # # # # # # # # # # # # # # # % % % # # + ^                                                   b # # # # # # # # # # # # # # # # # # # # # # # # # # # # # # % % % # , M , , p ~ p                                                                       2., 5 s _ _ # # # # # # # # # # # # # # # # # # # # # # # # # # # # # # # # # # # # # # # # # # # # # # # *#e+e+e+e+e+e+e+e+e+e+e+e+e+e+e+e+e+e+e+e+e+e+e+e+e+e+e+e+e+e+e+e+e+e+e+e+e+e+e+e+e+e+e+e+e+e+e+e+e+e+e+e+e+e+e+.## # # # # # # # # # # # # # # # # # # # # # # # # # # # # # # # # # # # # # # # % # # + } # # # # * ] # 3                                                                                               ~#e+e+e+e+e+e+e+e+e+e+e+e+e+e+e+e+e+e+e+e+e+e+e+e+e+e+e+e+e+e+e+e+e+e+e+e+e+e+e+e+e+e+e+e+e+e+e+e+e+e+e+e+e+e+e+l@# # # # # # # # # # # # # # # # # # # # # # # # # # # # # # # # # # # # # # # # # # # # # # # # # # # # # # # # # # # # # # # # # # # # # # # # # # # # # # # # # # # # # # # # # # # # # # # # # # # # # # # # # # # # # # # # # # # # # # # # # # # # # # # # # # # # # # # # # # # # # # # # # # # % % % % % % % % @ @ @ @ @ @ @ @ # h o                                                                                 ",
"# # # # # # # # # # # # # # # # # % % % % # } % ;+                                                = # +.% # # # # # # # # # # # # # # # # # # # # # # # # # # # # % % % % ' 5 ! , ~ m                                                                       |., _ 4 ' p 5 # # # # # # # # # # # # # # # # # # # # # # # # # # # # # # # # # # # # # # # # # # # # # # # 1#z+e+e+e+e+e+e+e+e+e+e+e+e+e+e+e+e+e+e+e+e+e+e+e+e+e+e+e+e+e+e+e+e+e+e+e+e+e+e+e+e+e+e+e+e+e+e+e+e+e+e+e+e+e+;#D@# # # # # # # # # # # # # # # # # # # # # # # # # # # # # # # # # # # # # # # # # # # # # # + $ 8 @ 3                                                                                                   %#e+e+e+e+e+e+e+e+e+e+e+e+e+e+e+e+e+e+e+e+e+e+e+e+e+e+e+e+e+e+e+e+e+e+e+e+e+e+e+e+e+e+e+e+e+e+e+e+e+e+e+e+e+e+w+v+# # # # # # # # # # # # # # # # # # # # # # # # # # # # # # # # # # # # # # # # # # # # # # # # # # # # # # # # # # # # # # # # # # # # # # # # # # # # # # # # # # # # # # # # # # # # # # # # # # # # # # # # # # # # # # # # # # # # # # # # # # # # # # # # # # # # # # # # # # # # # # # # # # # % % % % % % % % } } } } } } } } $ # # 3                                                                               ",
"# # # # # # # # # # # # # # # # # % % % + + + &                                                   } ^ $ 3 # # # # # # # # # # # # # # # # # # # # # # # # # # # # % % % + ~ , E m , Z                                                                     J , 9 J , , M , # # # # # # # # # # # # # # # # # # # # # # # # # # # # # # # # # # # # # # # # # # # # # # # # s+e+e+e+e+e+e+e+e+e+e+e+e+e+e+e+e+e+e+e+e+e+e+e+e+e+e+e+e+e+e+e+e+e+e+e+e+e+e+e+e+e+e+e+e+e+e+e+e+e+e+e+e+e+,## # # # # # # # # # # # # # # # # # # # # # # # # # # # # # # # # # # # # # # # # # @ @ # % 8 ] # # r.                                                                                                      S@e+e+e+e+e+e+e+e+e+e+e+e+e+e+e+e+e+e+e+e+e+e+e+e+e+e+e+e+e+e+e+e+e+e+e+e+e+e+e+e+e+e+e+e+e+e+e+e+e+e+e+e+e+L+# # # # # # # # # # # # # # # # # # # # # # # # # # # # # # # # # # # # # # # # # # # # # # # # # # # # # # # # # # # # # # # # # # # # # # # # # # # # # # # # # # # # # # # # # # # # # # # # # # # # # # # # # # # # # # # # # # # # # # # # # # # # # # # # # # # # # # # # # # # # # # # # # # # # # # # # # # # # # # # # # # # # % ] ^ # # &                                                                           ",
"# # # # # # # # # # # # # # # # % % + + } $ # u.                                                ^.# h # h # # # # # # # # # # # # # # # # # # # # # # # # # # # # % % } @ 9 ' 9 ~ ).                                                                    { f ! , , , { 4 , # # # # # # # # # # # # # # # # # # # # # # # # # # # # # # # # # # # # # # # # # # # # # # # # n+e+e+e+e+e+e+e+e+e+e+e+e+e+e+e+e+e+e+e+e+e+e+e+e+e+e+e+e+e+e+e+e+e+e+e+e+e+e+e+e+e+e+e+e+e+e+e+e+e+e+e+e+e+Y@# # # # # # # # # # # # # # # # # # # # # # # # # # # # # # # # # # # # # # # # # + @ $ & @ } @ &                                                                                                           `@e+e+e+e+e+e+e+e+e+e+e+e+e+e+e+e+e+e+e+e+e+e+e+e+e+e+e+e+e+e+e+e+e+e+e+e+e+e+e+e+e+e+e+e+e+e+e+e+e+e+e+e+e+X+# # # # # # # # # # # # # # # # # # # # # # # # # # # # # # # # # # # # # # # # # # # # # # # # # # # # # # # # # # # # # # # # # # # # # # # # # # # # # # # # # # # # # # # # # # # # # # # # # # # # # # # # # # # # # # # # # # # # # # # # # # # # # # # # # # # # # # # # # # # # # # # # # # # # # # # # # # # # # # # # # # # # # # % 8 ] % } h                                                                       ",
"# # # # # # # # # # # # # # # # % % + } } + #                                                   @ * % $ % # # # # # # # # # # # # # # # # # # # # # # # # # # # # # + @ @ ! T , _                                                                     2.' r 5 , , M , , 9 # # # # # # # # # # # # # # # # # # # # # # # # # # # # # # # # # # # # # # # # # # # # # # # # |#e+e+e+e+e+e+e+e+e+e+e+e+e+e+e+e+e+e+e+e+e+e+e+e+e+e+e+e+e+e+e+e+e+e+e+e+e+e+e+e+e+e+e+e+e+e+e+e+e+e+e+e+e+N@# # # # # # # # # # # # # # # # # # # # # # # # # # # # # # # # # # # # # # # # # # % 8 $ # # I                                                                                                       D a.X U#e+e+e+e+e+e+e+e+e+e+e+e+e+e+e+e+e+e+e+e+e+e+e+e+e+e+e+e+e+e+e+e+e+e+e+e+e+e+e+e+e+e+e+e+e+e+e+e+e+e+e+e+e+U+# # # # # # # # # # # # # # # # # # # # # # # # # # # # # # # # # # # # # # # # # # # # # # # # # # # # # # # # # # # # # # # # # # # # # # # # # # # # # # # # # # # # # # # # # # # # # # # # # # # # # # # # # # # # # # # # # # # # # # # # # # # # # # # # # # # # # # # # # # # # # # # # # # # # # # # # # # # # % % % % % % % % ^ % # % 8 * ^ ] # d.                                                                  ",
"# # # # # # # # # # # # # # # # % + } @ @ % I                                                 U.% 8 # h # # # # # # # # # # # # # # # # # # # # # # # # # % # # # # + @ & ' m _                                                                     t , x., ' , ~ M , , 9 # # # # # # # # # # # # # # # # # # # # # # # # # # # # # # # # # # # # # # # # # # # # # # # # S+z+e+e+e+e+e+e+e+e+e+e+e+e+e+e+e+e+e+e+e+e+e+e+e+e+e+e+e+e+e+e+e+e+e+e+e+e+e+e+e+e+e+e+e+e+e+e+e+e+e+e+e+e+p@# # # # # # # # # # # # # # # # # # # # # # # # # # # # # # # # # # # # # # # # # , ~ M ~ p                                                                                                       J 5 , ' p e@e+e+e+e+e+e+e+e+e+e+e+e+e+e+e+e+e+e+e+e+e+e+e+e+e+e+e+e+e+e+e+e+e+e+e+e+e+e+e+e+e+e+e+e+e+e+e+e+e+e+e+e+w+v+# # # # # # # # # # # # # # # # # # # # # # # # # # # # # # # # # # # # # # # # # # # # # # # # # # # # # # # # # # # # # # # # # # # # # # # # # # # # # # # # # # # # # # # # # # # # # # # # # # # # # # # # # # # # # # # # # # # # # # # # # # # # # # # # # # # # # # # # # # # # # # # # # # # # # # # # # # # # % % % % % % % % # + & % # # @ 8 @ # } 1                                                               ",
"# # # # # # # # # # # # # # # # % + } @ @ @                                                   ] & # ] & % # # # # # # # # # # # # # # # # # # # # # # # # % # # # # + @ $ ! , k.                                                                  S , v , 5 , , , , ' { , # # # # # # # # # # # # # # # # # # # # # # # # # # # # # # # # # # # # # # # # # # # # # # # # # N+e+e+e+e+e+e+e+e+e+e+e+e+e+e+e+e+e+e+e+e+e+e+e+e+e+e+e+e+e+e+e+e+e+e+e+e+e+e+e+e+e+e+e+e+e+e+e+e+e+e+e+S@# # # # # # # # # # # # # # # # # # # # # # # # # # # # # # # # # # # # # # # # # # f m , f                                                                                                   g.f , r T S ' , ' d+e+e+e+e+e+e+e+e+e+e+e+e+e+e+e+e+e+e+e+e+e+e+e+e+e+e+e+e+e+e+e+e+e+e+e+e+e+e+e+e+e+e+e+e+e+e+e+e+e+e+e++@# # # # # # # # # # # # # # # # # # # # # # # # # # # # # # # # # # # # # # # # # # # # # # # # # # # # # # # # # # # # # # # # # # # # # # # # # # # # # # # # # # # # # # # # # # # # # # # # # # # # # # # # # # # # # # # # # # # # # # # # # # # # # # # # # # # # # # # # # # # # # # # # # # # # # # # # # # # # # # # # # # # # # % + % # & 3 ^ # ] }.+.# $                                                             ",
"# # # # # # # # # # # # # # # & # @ # $ # (.                                                ).% $ # 8 + 8 # # # # # # # # # # # # # # # # # % % # # # # % # @ ] # # V # % 4 c.                                                                  |.5 m , 9 , , , , , , , , # # # # # # # # # # # # # # # # # # # # # # # # # # # # # # # # # # # # # # # # # # # # # # # # # n+e+e+e+e+e+e+e+e+e+e+e+e+e+e+e+e+e+e+e+e+e+e+e+e+e+e+e+e+e+e+e+e+e+e+e+e+e+e+e+e+e+e+e+e+e+e+e+e+e+e+e+I@# # # # # # # # # # # # # # # # # # # # # # # # # # # # # # # # # # # ^ # # @ } # % ~ , t                                                                                                 v 4 , , _ 4 f m _ 9 ! }@e+e+e+e+e+e+e+e+e+e+e+e+e+e+e+e+e+e+e+e+e+e+e+e+e+e+e+e+e+e+e+e+e+e+e+e+e+e+e+e+e+e+e+e+e+e+e+e+e+e+e+X+# # # # # # # % % # # # % % # # # # # # # # % % # # # # % # # # % } } % # # % % % # # # # # # # # # # # # # + + # # % % # % % # # # # # % # # # # # # # # + % % # # # # % # # # # # # # # + + % # # # # # # # # # # # % % # # # # # # # # # # # # # # # # # # # # # # # # # # # # # # # # # # # # # # # # # # # # # # # # # # # # # # # # # # % % } @ & & * # % * @ # e                                                         ",
"# # # # # # # # # # # # # @ # & % + $ ] #                                                   ! % $ + 3 & ^ # # # # # # # # # # # # # # # # # % % # # # # % @ # # +.% # }.# ..                                                                  Q ! 9 r M r , , , , , , , , # # # # # # # # # # # # # # # # # # # # # # # # # # # # # # # # # # # # # # # # # # # # # # # # # |#e+e+e+e+e+e+e+e+e+e+e+e+e+e+e+e+e+e+e+e+e+e+e+e+e+e+e+e+e+e+e+e+e+e+e+e+e+e+e+e+e+e+e+e+e+e+e+e+e+e+e+m@# # # # # # # # # # # # # # # # # # # # # # # # # # # # # # # # # # & # + h # # & } ' 2.                                                                                            k.2.{ , ' ' ~ s ! 5 _ r ~ ' V#e+e+e+e+e+e+e+e+e+e+e+e+e+e+e+e+e+e+e+e+e+e+e+e+e+e+e+e+e+e+e+e+e+e+e+e+e+e+e+e+e+e+e+e+e+e+e+e+e+e+e+W@# # # # # $ & + # # # % @ # # # # # # # # # # % % # # # # # # # # # % } @ # % + } + % + } } } } } } } } } # + } % + @ @ % @ @ @ @ @ @ @ @ $ @ } % % % + } # # % } } % % # + % % } @ @ # # # # # + } } } } % # # # # # % % # # # # # # # # # # # # # # # # # # # # # # # # # # # # # # # # # # # # # # # # # # # # # # # # # # # # # # # # # # % % + } @ @ $ @ & & # # 4 0 q                                                     ",
"# # # # # # # # # # # # # @ # % @ # ] % 4.                                                t , ] @ # ] # % # # # # # # # # # # # # # # # # # % % # # # % + # 8 % ] % # }.#                                                                   x., m { , 5 9 , , , , , , , , # # # # # # # # # # # # # # # # # # # # # # # # # # # # # # # # # # # # # # # # # # # # # # # # # S+z+e+e+e+e+e+e+e+e+e+e+e+e+e+e+e+e+e+e+e+e+e+e+e+e+e+e+e+e+e+e+e+e+e+e+e+e+e+e+e+e+e+e+e+e+e+e+e+e+e+e+(@# # # # # # # # # # # # # # # # # # # # # # # # # # # # # # # # # # @ # # ] # @ * # [.                                                                                            h } # % 8 * @ # # % @ $ & + # T@e+e+e+e+e+e+e+e+e+e+e+e+e+e+e+e+e+e+e+e+e+e+e+e+e+e+e+e+e+e+e+e+e+e+e+e+e+e+e+e+e+e+e+e+e+e+e+e+e+e+w+n@% % % % % & } # # # % + + @ } # # # # @ ] % % + % % % @ & 3 h 8 + # # # # # # % % # # # % % % % % % % % % # } } % # % % # # # # % % # # # @ % # # # % % % # % % + + % # # @ # # # # % % # @ @ @ } % # # # % % # # # # % % # # # # # # # # # # # # # # # # # # # # # # # # # # # # # # # # # # # # # # # # # # # # # # # # # # # # # # # # # # # % % % % % # @ @ # # % , , 4 ..                                                  ",
"# # # # # # # # # # # # # } # # @ % } #                                                   9 4 * % # # # # # # # # # # # # # # # # # # # # # % % % # # % } # 3 * # +.h # ^.                                                                )., { 9., , 9 , , , , , , , , , # # # # # # # # # # # # # # # # # # # # # # # # # # # # # # # # # # # # # # # # # # # # # # # # # # N+e+e+e+e+e+e+e+e+e+e+e+e+e+e+e+e+e+e+e+e+e+e+e+e+e+e+e+e+e+e+e+e+e+e+e+e+e+e+e+e+e+e+e+e+e+e+e+e+e+i@# # # # # # # # # # # # # # # # # # # # # # # # # # # # # # # # # # # # $ % @ +.+ $ I                                                                                         = +.} # ] @ @ $ @ # # # # + @ } % # # R+e+e+e+e+e+e+e+e+e+e+e+e+e+e+e+e+e+e+e+e+e+e+e+e+e+e+e+e+e+e+e+e+e+e+e+e+e+e+e+e+e+e+e+e+e+e+e+e+e+`+% % + } } } ^ ] ] ] ] @ # # # # ] 3 +.] % # 8 $ + # # # % @ # # # % @ h 7 (.d.1.z.                                                  f.I c l.7 }.^ ] ] $ + # + # # # % $ * +.# # # + @ $ & @ + % % % } & ] ] % % % # # # # % # # # # # # # # # # # # # # # # # # # # # # # # # # # # # # # # # # # # # # # # # # # # # # # # # # # # # # # # # # # # # # # # # % # # % 8 M , ~ , , V.                                              ",
"# # # # # # # # # # # # # % * # % $ # 3                                                 S 5 4 # # } % # ] # # # # # # # # # # # # # # # # # % % % # # % @ 2 @ + & . # 3                                                                 Z.5 M 4 , , f 5 , , , , , , , , , # # # # # # # # # # # # # # # # # # # # # # # # # # # # # # # # # # # # # # # # # # # # # # # # # # n+e+e+e+e+e+e+e+e+e+e+e+e+e+e+e+e+e+e+e+e+e+e+e+e+e+e+e+e+e+e+e+e+e+e+e+e+e+e+e+e+e+e+e+e+e+e+e+e+e+9@# # # # # # # # # # # # # # # # # # # # # # # # # # # # # # # # # # # # & ^ 3 $ # B.                                                                                        V # % & @ + % # # # # # @ # % % % # # # y@e+e+e+e+e+e+e+e+e+e+e+e+e+e+e+e+e+e+e+e+e+e+e+e+e+e+e+e+e+e+e+e+e+e+e+e+e+e+e+e+e+e+e+e+e+e+e+e+e+=#+ + } } @ @ # # # + $ ] & + * * ^ @ # # % @ # # @ +.( d.^.f.                                                                                                U.c 7 * } # # # % } ] ] & + # # @ @ @ $ 8 8 $ @ + + % % # # # % # # # # # # # # # # # # # # # # # # # # # # # # # # # # # # # # # # # # # # # # # # # # # # # # # # # # # # # # # # # # # # # # + # # # # # ! 4 , f b.: D                                             ",
"# # # # # # # # # # # # # # h # # @ +                                                 &., 5 , # # ] + # @ # # # # # # # # # # # # # # # # # % % % # % + @ $ @ # 3 # }                                                                 &+,.! p ' , 9 9 , 4 , , , , , , , , # # # # # # # # # # # # # # # # # # # # # # # # # # # # # # # # # # # # # # # # # # # # # # # # # # E+e+e+e+e+e+e+e+e+e+e+e+e+e+e+e+e+e+e+e+e+e+e+e+e+e+e+e+e+e+e+e+e+e+e+e+e+e+e+e+e+e+e+e+e+e+e+e+e+e+o+# # # # # # # # # # # # # # # # # # # # # # # # # # # # # # # # # # # # # ] % # f.                                                                                      ( # & 3 3 ] # @ & ] $ } # # # # # # # # # # _@e+e+e+e+e+e+e+e+e+e+e+e+e+e+e+e+e+e+e+e+e+e+e+e+e+e+e+e+e+e+e+e+e+e+e+e+e+e+e+e+e+e+e+e+e+e+e+e+e+c@+ } } } } } h 8 @ + + & ] 8 % # # # $ ( B.                                                                                                                                  2 ^ + # # # ] +.% % } $ ] $ # # } } % % # # # % # # # # # # # # # # # # # # # # # # # # # # # # # # # # # # # # # # # # # # # # # # # # # # # # # # # # # # # # # # # # # # # # # # # + % # , ! ' , a.m.,., W#                                        ",
"# # # # # # # # # # # # # # @ # # # b                                                 f ' ~ ! # % % # # # # # # # # # # # # # # # # # # # # % % % % % } @ # 3 ] # $                                                                 7+, Q#, ~ ~ 9 M , , ~ , , , , , , , , # # # # # # # # # # # # # # # # # # # # # # # # # # # # # # # # # # # # # # # # # # # # # # # # # # S+z+e+e+e+e+e+e+e+e+e+e+e+e+e+e+e+e+e+e+e+e+e+e+e+e+e+e+e+e+e+e+e+e+e+e+e+e+e+e+e+e+e+e+e+e+e+e+e+e+w@# # # # # # # # # # # # # # # # # # # # # # # # # # # # # # # # # # # # # % } B.                                                                                    }.# # % ] % # @ 8 # # + @ @ } % % % # # # # # # T+e+e+e+e+e+e+e+e+e+e+e+e+e+e+e+e+e+e+e+e+e+e+e+e+e+e+e+e+e+e+e+e+e+e+e+e+e+e+e+e+e+e+e+e+e+e+e+e+u+]@} + + + + + } + # # % $ 3 . w.                                                                                                                                                      o l.8 # @ % # # @ ] ^ ^ @ } + % % # # # # # # # # # # # # # # # # # # # # # # # # # # # # # # # # # # # # # # # # # # # # # # # # # # # # # # # # # # # # # # # % % % % # # # @ } # , 4 , 5 '.' X : X#Y#                                      ",
"# # # # # # # # # # # # # # % @ @ # ;+                                              Q , ' , { + # # # $ # # # # # # # # # # # # # # # # # # % % % % % } @ % 3 3 # 6.                                                              D ' Q#, p , , , , , ' , , , , , , , , , # # # # # # # # # # # # # # # # # # # # # # # # # # # # # # # # # # # # # # # # # # # # # # # # # # # N+e+e+e+e+e+e+e+e+e+e+e+e+e+e+e+e+e+e+e+e+e+e+e+e+e+e+e+e+e+e+e+e+e+e+e+e+e+e+e+e+e+e+e+e+e+e+e+2@# # # # # # # # # # # # # # # # # # # # # # # # # # # # # # # # # # # # % } # G                                                                                   R # + 8 } } % # @ & # 8 ] & % # # # # % # # # # % % # 1@e+e+e+e+e+e+e+e+e+e+e+e+e+e+e+e+e+e+e+e+e+e+e+e+e+e+e+e+e+e+e+e+e+e+e+e+e+e+e+e+e+e+e+e+e+e+e+p+} { + 4 % ! % 4 }.h.                                                                                                                                                                            *.A.% , # , % ~ } 4 % ' # , # # # # # # # # # # # # # # # # # # # # # # # # # # # # # # # # # # # # # # # # # # # # # # # # # # # # # # # # # # # # % % % % % % + % # # # , , ' ' , ~ O.%.X a.<                                     ",
"# # # # # # # # % # # % } } # ] # $                                                 % 2 # } % # # % % % # # # # # # # # # # # # # # # # # # * # # % # 9 , E ! p [.                                                               .r $ ! 3 ] $ } % # # % % # # # # # # # # # # # # # # # # # # # # # # # # # # # # # # # # # # # # # # # # # # # # # # # # # # # # # # # # # # # n+e+e+e+e+e+e+e+e+e+e+e+e+e+e+e+e+e+e+e+e+e+e+e+e+e+e+e+e+e+e+e+e+e+e+e+e+e+e+e+e+e+e+e+e+e+e+e+!@# # # # # # # # # # # # # # # # # # # # # # # # # # # # # $ % # @ $ , , , ! P                                                                                   # % ] # + } @ $ $ @ } + @ @ } + % # # # # # # # # # # # K+e+e+e+e+e+e+e+e+e+e+e+e+e+e+e+e+e+e+e+e+e+e+e+e+e+e+e+e+e+e+e+e+e+e+e+e+e+e+e+e+e+e+e+e+e+e+e+'@{ a.M Q#q                                                                                                                                                                                               U P.' '.{ : 4 , , , 4 % # % + # % } # @ # # # # + % # % % # # # # # # # # # # # # # # # # # # # # # # # # # # # # # # # # # # # # # # # # # # # # # # # # # # # # # # # % @ ] r f 9 { t #                                   ",
"# # # # # # # # % % % + @ # & $ # B.                                              U.# ] } } % # # % % % # # # # # # # # # # # # # # # # # # } # @ @ # M ~ , _ ,                                                               c # } ] @ @ & @ + % # # % % # # # # # # # # # # # # # # # # # # # # # # # # # # # # # # # # # # # # # # # # # # # # # # # # # # # # # # # # # # # E+e+e+e+e+e+e+e+e+e+e+e+e+e+e+e+e+e+e+e+e+e+e+e+e+e+e+e+e+e+e+e+e+e+e+e+e+e+e+e+e+e+e+e+e+e+e+e+M@# # # # # # # # # # # # # # # # # # # # # # # # # # # # + # % @ % # { _ 9 f                                                                                 ] # 8 ^ } } % % } @ @ } % % } } + % % # # # # # # # # # # # k+e+e+e+e+e+e+e+e+e+e+e+e+e+e+e+e+e+e+e+e+e+e+e+e+e+e+e+e+e+e+e+e+e+e+e+e+e+e+e+e+e+e+e+e+e+e+e+Z#'+                                                                                                                                                                                                            '+b+b., '.Y '.! { # # % # % ] ] # } ] 8 @ % # # % % # # # # # # # # # # # # # # # # # # # # # # # # # # # # # # # # # # # # # # # # # # # # # # # # # # # # # # # # + @ @ @ } % # 3 4.z.                              ",
"# # # # # # # # % + @ & & # h } #                                                 # # # & } % # # % % % # # # # # # # # # # # # # # # # # # # # ^ + # ~ 9 , 9                                                               1 # % # # } # } + % # # # % % # # # # # # # # # # # # # # # # # # # # # # # # # # # # # # # # # # # # # # # # # # # # # # # # # # # # # # # # # # # S+z+e+e+e+e+e+e+e+e+e+e+e+e+e+e+e+e+e+e+e+e+e+e+e+e+e+e+e+e+e+e+e+e+e+e+e+e+e+e+e+e+e+e+e+e+e+e+T@# # # # # # # # # # # # # # # # # # # # # # # # # # # # & # % 8 @ } _ m S                                                                               *.3 % ] ] # # @ # # % % % % # # % % % # # # # # # # # # # # # # /@e+e+e+e+e+e+e+e+e+e+e+e+e+e+e+e+e+e+e+e+e+e+e+e+e+e+e+e+e+e+e+e+e+e+e+e+e+e+e+e+e+e+e+e+e+e+Q+3.                                                                                                                                                                                                                      D ,., , S @ & ] # # # % % + } % # # @ * % % # # # # # # # # # # # # # # # # # # # # # # # # # # # # # # # # # # # # # # # # # # # # # # # # # # # # # # # # # % % % % % # } 8 # I                             ",
"# # # # # # % % # } ] ] $ % $ % r.                                              2 % } # @ } % # # % % % # # # # # # # # # # # # # # # # # @ # # $ # # 9 4 4 g.                                                             .# } 3 # # @ # % # # # # # % % # # # # # # # # # # # # # # # # # # # # # # # # # # # # # # # # # # # # # # # # # # # # # # # # # # # # # # # # # # # # N+e+e+e+e+e+e+e+e+e+e+e+e+e+e+e+e+e+e+e+e+e+e+e+e+e+e+e+e+e+e+e+e+e+e+e+e+e+e+e+e+e+e+e+e+e+R+# # # # # # # # # # # # # # # # # # # # # # # # # # # # # # + # + +.h 9 5                                                                               V # ] +.& % } + # # # # % % # # # # # # # # # # # # # # # # # # # $@u+e+e+e+e+e+e+e+e+e+e+e+e+e+e+e+e+e+e+e+e+e+e+e+e+e+e+e+e+e+e+e+e+e+e+e+e+e+e+e+e+e+e+e+e+e+.@                                                                                                                                                                                                                              h.f # @ h $ % & 8 # # % 8 h ] % # % % # # # # # # # # # # # # # # # # # # # # # # # # # # # # # # # # # # # # # # # # # # # # # # # # # # # # # # # # # # # # % % @ # +.3 # 3.                          ",
"# # # # # # % % # } 8 ^ $ ] % }                                                 # h @ + % } % # # % % % # # # # # # # # # # # # # # # # # % # % } @ ] ~ , ).                                                            *.# @ @ # # @ ] # # # # # # # % % # # # # # # # # # # # # # # # # # # # # # # # # # # # # # # # # # # # # # # # # # # # # # # # # # # # # # # # # # # # # n+e+e+e+e+e+e+e+e+e+e+e+e+e+e+e+e+e+e+e+e+e+e+e+e+e+e+e+e+e+e+e+e+e+e+e+e+e+e+e+e+e+e+e+e+e+y@# # # # # # # # # # # # # # # # # # # # # # # # # # # # # # 8 # # V + , k.                                                                            # # V } # # 8 ] # # # # # % % # # # # # # # # # # # # # # # # # # # # +@e+e+e+e+e+e+e+e+e+e+e+e+e+e+e+e+e+e+e+e+e+e+e+e+e+e+e+e+e+e+e+e+e+e+e+e+e+e+e+e+e+e+e+e+e+W+                                                                                                                                                                                                                                    b % # $ ^ @ h $ } @ @ % % @ % % # # # # # # # # # # # # # # # # # # # # # # # # # # # # # # # # # # # # # # # # # # # # # # # # # # # # # # % # # # # # % % @ # # $ h % r.                        ",
"# # # # # # % % # + ^ * @ @ + l.                                              3 }.% + & + } % # # % % % # # # # # # # # # # # # # # # # # # # @ # @ % , s                                                             1.} ] 3 # # + @ # + # # # # # # # # # # # # # # # # # # # # # # # # # # # # # # # # # # # # # # # # # # # # # # # # # # # # # # # # # # # # # # # # # # # # E+e+e+e+e+e+e+e+e+e+e+e+e+e+e+e+e+e+e+e+e+e+e+e+e+e+e+e+e+e+e+e+e+e+e+e+e+e+e+e+e+e+e+e+e+e+H+# # # # # # # # # # # # # # # # # # # # # # # # # # # # # # $ # @ h # P                                                                           l.# & ( # % * 2 ] # # + % % % # # % % % # # # # # # # # # # # # # # # # # l+e+e+e+e+e+e+e+e+e+e+e+e+e+e+e+e+e+e+e+e+e+e+e+e+e+e+e+e+e+e+e+e+e+e+e+e+e+e+e+e+e+e+e+e+e+5#                                                                                                                                                                                                                                        1.# # ] ] } % % # # @ V % % # # # # # # # # # # # # # # # # # # # # # # # # # # # # # # # # # # # # # # # # # # # # # # # # # # # # # # % % # # # # % % % # @ @ ] ] @ t.                      ",
"# # # # # # % # # % * ^ + } ^                                               z.# 4.# & + @ } % # # % % % # # # # # # # # # # # # # # # # # } } @ # } # 9                                                             B.# 3 ] 8 + % @ # # + % % % % % % # # # # # # # # # # # # # # # # # # # # # # # # # # # # # # # # # # # # # # # # # # # # # # # # # # # # # # # # # # # # # # S+z+e+e+e+e+e+e+e+e+e+e+e+e+e+e+e+e+e+e+e+e+e+e+e+e+e+e+e+e+e+e+e+e+e+e+e+e+e+e+e+e+e+e+e+e+h+# # # # # # # # # # # # # # # # # # # # # # # # # # # # # % % @ $ % 3                                                                           } # h . # @ * 8 # # @ ] @ # # # # # # # # # # # # # # # # # # # # # # # # # f@e+e+e+e+e+e+e+e+e+e+e+e+e+e+e+e+e+e+e+e+e+e+e+e+e+e+e+e+e+e+e+e+e+e+e+e+e+e+e+e+e+e+e+e+Q+3.                                                                                                                                                                                                                                              ..r { 5 9.J r , , % % # # # # # # # # # # # # # # # # # # # # # # # # # # # # # # # # # # # # # # # # # # # # # # # # # # # # # # # # # # # # # # % # 2 +.# ^ 3 # (                     ",
"# # # # # # + # # % ^ 8 % * b                                               8 ] # ^ +.# & } % # # % % % # # # # # # # # # # # # # # # # # } % % # 8 @ S.                                                          o # ^ @ * + % } # # # % % % % % % % # # # # # # # # # # # # # # # # # # # # # # # # # # # # # # # # # # # # # # # # # # # # # # # # # # # # # # # # # # # # # # # # # # # # # # # # # # # # # # # # # # # # # # # # # # # # # # # # # # # # # # # # # # # # # # # # # # # # # # # # # # # # # # # # # # # # # # # # # # # # ^ @ #                                                                           # ] . # # ^ h $ + } & @ # # # # # # # # # # % % % # # # # # # # # # # # # # # # # # # # # # # # # # # # # # , ' ' ! ! ' ' , f , ' v                                                                                                                                                                                                                                                                                           N., , { _ f { % % # # # # # # # # # # # # # # # # # # # # # # # # # # # # # # # # # # # # # # # # # # # # # # # # # # # # # # # # # # # # # # % % + # * $ # . @ t.                  ",
"# # # # # % # # } % % & h #                                               :.* } + $ ] @ # # # # # # # # # # # # # # # # # # # % # # # + @ % @ # h @ V                                                           w.# ] 4.@ # # # # # # # # # # # # # # # # # # # # # # # # # # # # # # # # # # # # # # # # # # # # # # # # # # # # # # # # # # # # # # # # # # # # # # # # # # # # # # # # # # # # # # # # # # # # # # # # # # # # # # # # # # # # # # # # # # # # # # # # # # # # # # # # # # # # # # # # # # # # # # # # # # # % + + % # # # & $ ]                                                                       _.E # # $ ] @ + @ } } } + % % % # # # # # # # # # # # # # # # # # # # # # # # # % % # # # # # # } } # # # $ @ # ' { 4 , , , , ' 5.                                                                                                                                                                                                                                                                                                    g.4 , 4 ~ } + # # # # # # # # # # # # # # # # # # # # # # # # # # # # # # # # # # # # # # # # # # # # # # # # # # # # # # # # # # # # # # % % % + } } } @ 3 # c                 ",
"# # # # # + # # @ # # h # (.                                              s @ # # % } % # # # # # # # # # # # # # # # # # # # % # # # + @ * # 7 # @                                                             # } % # h # # # # # # # # # # # # # # # # # # # # # # # # # # # # # # # # # # # # # # # # # # # # # # # # # # # # # # # # # # # # # # # # # # # # # # # # # # # # # # # # # # # # # # # # # # # # # # # # # # # # # # # # # # # # # # # # # # # # # # # # # # # # # # # # # # # # # # # # # # # # # # # # % # # % @ @ @ + @ # * %                                                                       H ..5 # % } % % % % % % % % # # # # # # # # # # # # # # # # # # # # # # # # # # # # # @ $ ] $ @ @ # # } + % + } + 9 , , ! { |.                                                                                                                                                                                                                                                                                                              5.~ , @ # # ] 3 * % # # # # # # # # # # # # # # # # # # # # # # # # # # # # # # # # # # # # # # # # # # # # # # # # # # # # # # # # # # # # % % % % % # h } <.              ",
"# # # # # + # # @ # # 3 #                                               c.~ % # # # # # # # # # # # # # # # # # # # # # # # # % # # # + @ % # b %                                                             # # + # # # # # # # # # # # # # # # # # # # # # # # # # # # # # # # # # # # # # # # # # # # # # # # # # # # # # # # # # # # # # # # # # # # # # # # # # # # # # # # # # # # # # # # # # # # # # # # # # # # # # # # # # # # # # # # # # # # # # # # # # # # # # # # # # # # # # # # # # # # # # # # # # # # % % % } & ] $ @ & ] @ (                                                                     _., ' ' % } % # # % # # # # # # # # # # # # # # # # # # # # # # # # # # # # # # # # # % @ $ @ } } @ * $ @ $ ] & } } ! , %.                                                                                                                                                                                                                                                                                                                        _.# ^ }.+ # # * V # # # # # # # # # # # # # # # # # # # # # # # # # # # # # # # # # # # # # # # # # # # # # # # # # # # # # # # # # # # # # # # # # % % ^ 1.            ",
"# # # # # % # # # } } & (                                               _ { } % # # # # % # # # # # # # # # # # # # # # # # # % # # # + @ % ] # ;+                                                          & # 3 # % h # # # # # # # # # # # # # # # # # # # # # # # # # # # # # # # # # # # # # # # # # # # # # # # # # # # # # # # # # # # # # # # # # # # # # # # # # # # # # # # # # # # # # # # # # # # # # # # # # # # # # # # # # # # # # # # # # # # # # # # # # # # # # # # # # # # # # # # # # # # # # # # # # # # % } & ] ] $ } V +                                                                     Y , E , ' @ @ % # # + # # # # # # # # # # # # # # # # # # # # # # # # # # # # # # # # + # # # % % } $ & % + $ @ # # & b+                                                                                                                                                                                                                                                                                                                                R # @ }.& } }.# # # # # # # # # # # # # # # # # # # # # # # # # # # # # # # # # # # # # # # # # # # # # # # # # # # # # # # # # # # # # # # # * # V @ %             ",
"# # # # # % # @ # ^ & #                                               d M 5 & & + # # # % # # # # # # # # # # # # # # # # # # % # # # + @ }.+.3                                                           , * $ # # # # $ # # # # # # # # # # # # # # # # # # # # # # # # # # # # # # # # # # # # # # # # # # # # # # # # # # # # # # # # # # # # # # # # # # # # # # # # # # # # # # # # # # # # # # # # # # # # # # # # # # # # # # # # # # # # # # # # # # # # # # # # # # # # # # # # # # # # # # # # # # # # # # # # # # # + @ $ & @ % 8 1.                                                                  > ,.r , 4 4 + % % % % # # # # # # # # # # # # # # # # # # # # # # # # # # # # # # # # # % # # % $ $ $ 8 $ + # # + t.                                                                                                                                                                                                                                                                                                                                          * } * 3 * # # # # # # # # # # # # # # # # # # # # # # # # # # # # # # # # # # # # # # # # # # # # # # # # # # # # # # # # # # # # # # # # # @ +.+ h ]           ",
"# # # # # % # @ # 8 } 2                                             X.) ~ 9 @ @ % # # # # # # # # # # # # # # # # # # # # # # % # # # + @ + *                                                           , r $ } % # % # # # # # # # # # # # # # # # # # # # # # # # # # # # # # # # # # # # # # # # # # # # # # # # # # # # # # # # # # # # # # # # # # # # # # # # # # # # # # # # # # # # # # # # # # # # # # # # # # # # # # # # # # # # # # # # # # # # # # # # # # # # # # # # # # # # # # # # # # # # # # # # # # # # # # % @ @ @ } # @                                                                   P., Q#m , ~ { % # # + % # # # # # # % % % # # # # # # # # # # # # # # # # # # # # # # # # + # # ] ^ @ # # # # ^ 1.                                                                                                                                                                                                                                                                                                                                                R } @ @ # # # # # # # # # # # # # # # # # # # # # # # # # # # # # # # # # # # # # # # # # # # # # # # # # # # # # # # # % % % # # # # # # $ # V % # r.        ",
"# # # # # % + # + } }                                               ,.Y 5 4 % % # # # # # # # # # # # # # # # # # # # # # # # % # # # + @ %                                                           , 5 9.# @ 3 % + @ # # # # # # # # # # # # # # # # # # # # # # # # # # # # # # # # # # # # # # # # # # # # # # # # # # # # # # # # # # # # # # # # # # # # # # # # # # # # # # # # # # # # # # # # # # # # # # # # # # # # # # # # # # # # # # # # # # # # # # # # # # # # # # # # # # # # # # # # # # # # # # # # # # # # % } @ } + # F.                                                                %., c+, ' p , 4 + # % } + # # # # # # % % % # # # # # # # # # # # # # # # # # # # # # # # # + % } ] @ # % ^ h *.                                                                                                                                                                                                                                                                                                                                                        V % # # # # # # # # # # # # # # # # # # # # # # # # # # # # # # # # # # # # # # # # # # # # # # # # # # # # # # # # % % % # # # # # & # % b # # }.3.      ",
"# # # # # # @ # +.# $                                             0.f ' p % # # # % % % # # # # # # # # # # # # # # # # # # # % # # # + @ 3.                                                        ' a.S # 2 @ # & # # * # # # # # # # # # # # # # # # # # # # # # # # # # # # # # # # # # # # # # # # # # # # # # # # # # # # # # # # # # # # # # # # # # # # # # # # # # # # # # # # # # # # # # # # # # # # # # # # # # # # # # # # # # # # # # # # # # # # # # # # # # # # # # # # # # # # # # # # # # # # # # # # # % % % + @ @ } % &                                                                 P.> A., _ S , , { & } + @ @ # # # # # # # # # # # # # # # # # # # # # # # # # # # # # # # # # # # 4 & 4 } |.a                                                                                                                                                 k.W._.).H P E ~ r f ~ ! ' ' ' ! , , , { r E A.8.c.7.F U                                                                                                                                                       u., # , # , # , # # # # # # # # # # # # # # # # # # # # # # # # # # # # # # # # # # # # # # # # # # # # # # # # # # # # # # # # # # } ] # 2 $ ] @       ",
"# % % + } @ ^ # & #                                               , $ , ] + % % # # # # % # # # # # # # # # # # # # # # # +.# @ } ] * } V                                                         r # 5 ] # # # # # # # # # # # # # # # # # # # # # # # # # # # # # # # # # # # # # # # # # # # # # # # # # # # # % + + % # # # % @ @ % # & + # # % + % # % % % % % % % # } + % % % % % # $ ] & + + @ # # # # # # # # # # # # # # # # # # # # # # # # # # # # # # # # # # # # # # # # # # # # # # # # # # # # # # # # # # # ^ # # 7 # @ # /                                                               E r 4 # , % % # # # # # # # # # # # # # # # # # # # # # # # # # ' , , ! { 9 9 ~ f _ M ! , 4 s t 9 9 ) ' %.&.                                                                                                                                  o ).( A.* 5 % , # # # # # # # # # # # # # # # # # # # # # # # # # # # # # # # # # + * P d.`.                                                                                                                                        _ ' s ) 4 : m # 8 $ # # @ + + # # # # # # # # # # # # # # # # # # # # # # # # # # # # # # # # # # # # # # # # # # # # # # # # % % % % % % % % ^     ",
"# % % + } # + 8 # h                                             u.# 8 # ] + % % # # # # % # # # # # # # # # # # # # # # # + % h # ] @ &                                                         s # $ # # # # # # # # # # # # # # # # # # # # # # # # # # # # # # # # # # # # # # # # # # % % % % % % % % % % # % % + + + 2 * @ % % + } } # # % @ ] ] $ } + % % # # # # # # # } $ ] $ & @ # # # # # # } ] # # # # # # # # # # # # # # # # # # # # # # # # # # # # # # # # # # # # # # # # # # # # # # # # # # # # # # # # # % # # 8 % @ #                                                               1 ] @ # # # % % % # # # # # # # # # # # # # # # # # # # # # # # # ' , , ! { 9 9 ~ , , { S s 4 9 ..T.'.'.|                                                                                                                         ;+d.4.^ & @ % # $ @ + % # % % + # # # # # # # # # # # # # # # # # # # # # # # # # # # # # # # # # % + % # % ^ V 4.c /.                                                                                                                              K : Q#, > , ! @ % # & @ # # # # # # # # # # # # # # # # # # # # # # # # # # # # # # # # # # # # # # # # # # # # # # # # # # % % % % % % % % # /   ",
"# % % + } # # }.#                                               # ] } % * + % % # # # # % # # # # # # # # # # # # # # # # % ] * @ # +                                                         b # # % } # # # # # # # # # # # # # # # # # # # # # # # # # # # # # # # # # # # # # # # # # % % % % % % % % % % % % % % + } # # % $ ^ 8 @ % @ } + } } + % # @ @ @ } } @ @ @ @ + # # # % & ^ } ] ] @ % # # # # # # # # # # # # # # # # # # # # # # # # # # # # # # # # # # # # # # # # # # # # # # # # # # # # # # # # # # # # # % } # & } +.                                                              # % # # # # % % % # # # # # # # # # # # # # # # # # # # # # # # # ' , , ! { 9 9 ~ 5 E 5 , ' 2.0 , , X.                                                                                                                  q t { , , & + # # # @ ] ^ } + % # # # # # # # # # # # # # # # # # # # # # # # # # # # # # # # # # # # # # @ @ @ % # # # # # # # + ] b 1.L.                                                                                                                      n., m.C.r { # # % & } # % # # # # # # # # # # # # # # # # # # # # # # # # # # # # # # # # # # # # # # # # # # # # # # # # % % % % % % % % # %   ",
"# % % + } % @ $ *                                             7 # +.# # h + % % # # # # % # # # # # # # # # # # # # # # # 8 * # * # 1                                                       t # +.+ # $ # # # # # # # # # # # # # # # # # # # # # # # # # # # # # # # # # # # # # # # # # # # # # # # # # % % % % # # % } * 8 & } + + } @ @ } % # % @ & ] # # # # # # # # # } ] * ^ $ + # % # # # @ & % # # # # # # # # # # # # # # # # # # # # # # # # # # # # # # # # # # # # # # # # # # # # # # # # # # # # # # # # # # # + & # @ #                                                               # ^ # # # # % % # # # # # # # # # # # # # # # # # # # # # # # # # # ' , , ! { 9 9 ~ 5 , , J s , { W.                                                                                                            R.9.p 9 , , , 9 S t # % } } % # # # ] ] @ + # # # # # # # # # # # # # # # # # # # # # # # # # # # # # # # # # # # # # # % @ ] ^ ^ ^ 8 8 ] } # # # # , < 0.                                                                                                                    Y O.p 9 % + @ % # } } # # # # # # # # # # # # # # # # # # # # # # # # # # # # # # # # # # # # # # # # # # # # # # # # # # # # # # # # & % & ",
"# % % + } % 8 # <.                                            % $ + # @ } + % % # # # # % # # # # # # # # # # # # # # # # * $ # # R                                                       s M # # 8 } k k # # # # # # # # # # # # # # # # # # # # # # # # # # # # # # # # # # # # # # # # # # # # # # # # # % % # # # % @ # % + @ & ] ^ * @ & & $ $ $ $ ] 3 2 V V }.h ] @ + # # # # } 8 +.* } # # # # % % # # # # # # # # # # # # # # # # # # # # # # # # # # # # # # # # # # # # # # # # # # # # # # # # # # # # # # # # # $ # + } # @                                                             # h & # # % % % # # # # # # # # # # # # # # # # # # # # # # # # # # # ' , , ! { 9 9 ~ 9 ' r t f S                                                                                                         k...' , { 5 4 ~ 5 f 5 ' , , } $ 8 ^ $ } % % % % # # # % % % # # # # # # # # # # # # # # # # # # # # # # # # # # # # # # # # % # # # # # # # + + + + @ ] * 3 Y ' , , Y c+                                                                                                                [ , ! + * ^ # # @ # # # # # # # # # # # # # # # # # # # # # # # # # # # # # # # # # # # # # # # # # # # # # # # # # # # # # # # # # ^ # ] ",
"# % % + } % ] *                                             s @ ] # ^ * # + % % # # # # % # # # # # # # # # # # # # # # # } % & #                                                       x., % @ $ } # k k # # # # # # # # # # # # # # # # # # # # # # # # # # # # # # # # # # # # # # # # # # # # # # # # # % % # # # + $ @ @ } % % @ 8 +. .G                                   1 b * @ # % } & & % # # % # # # # # # # # # # # # # # # # # # # # # # # # # # # # # # # # # # # # # # # # # # # # # # # # # # # # # # # # # & # # & # c                                                           8 $ @ } % + } + % # # # # # # # # # # # # # # # # # # # # # # # # # # # ' , , ! { 9 9 ~ s p ! ~ ++                                                                                                  7+0 _ f { ~ 5 M f 9 9 { ' ' 4 f p ..+ + % % # % @ & % % % % % % % % # # # # # # # # # # # # # # # # # # # # # # # # # # # # # # # # ] @ + % % % # # ] & } + % # # # { b.a.a.X , : %.b+6.                                                                                                          h.~ # % ] # # $ # # # # # # # # # # # # # # # # # # # # # # # # # # # # # # # # # # # # # # # # # # # # # # # # # # # # # # # # # + # h ",
"# % % + } $ %                                             U , $ # # * } # + % % # # # # % # # # # # # # # # # # # # # # # % @ +.                                                      c., V # @ j C k -.x # # # # # # # # # # # # # # # # # # # # # # # # # # # # # # # # # # # # # # # # % % % % % % % % , ! 4 ' , ' 5 s 4 5 ..e                                                     Z J ~ , , , { ! ! { # # # # # # # # # # # # # # # # # # # # # # # # # # # # # # # # # # # # # # # # # # # # # # # # # # # # # # # # # # # % + #                                                           r.+ 3 # & # % + % # # # % # # # # # # # # # # # # # # # # # # # # # # # # ' , , ! { 9 9 ~ { ' _.                                                                                              R.E 5 5 9 { _ ] $ & @ @ @ @ % } & $ @ % # # $ @ + % + @ & $ & @ @ } % # # # # # # # # # # # # # # # # # # # # # # # # # # # # # # # # # # # # # # # % + @ @ # % @ ^ +.* & % , ' ! , , ! 9 9 9 , 4 5.                                                                                                          +.# ] + # & % # # # # # # # # # # # # # # # # # # # # # # # # # # # # # # # # # # # # # # # # # # # # # # # # # # # # # # # # # ] + ",
"# % % + } +.#                                             ' M @ # ] } # * + % % # # # # % # # # # # # # # # # # # # # # # & * h                                                     h., ] # b z k #.#.k x # # # # # # # # # # # # # # # # # # # # # # # # # # # # # # # # # # # # # # # # } } } } } } } } , 4 ~ 4 ' 4 r T e.                                                                6.T , ~ M ~ , # # # # # # # # # # # # # # # # # # # # # # # # # # # # # # # # # # # # # # # # # # # # # # # # # # # # # # # # } # % ] # ]                                                           @ % # ] % # # % # # # % } # # # # # # # # # # # # # # # # # # # # # # # # ' , , ! { 9 9 ~ !                                                                                             y.S ~ ' { ! , , M # % } } + # # # % % } + % % % + # # # + @ @ % # # # % % % # # # # # # # # # # # # # # # # # # # # # # # # # # # # # # # # # # # # # + + % # # # @ % # # % } + # , ~ ~ , ' f M 4 4 ! ~ 4 , f e.                                                                                                      ] 3 ] # # # # # # # # # # # # # # # # # # # # # # # # # # # # # # # # # # # # # # # # # # # # # # # # # # # # # # # # # # # # & % ",
"# % 2 # ] % *.                                          y.5 9 + % # # # # # # # # # # # # # # # # # # # # @ % # } $ # # @ } 4.                                                    l , * # % $.$.C B A A k # # # # # # # # # # # # # # # # # # # # # # # # # # # # # # # # # # + % # # % % @ @ @ @ % % } ] _ s M ! S Z                                                                             0 , 4 9.@ # % ] + % & & + + % % # # # % # # # # # # # # # # # # # # # # # # # # # # # # # # # # # # # # # # # # # # # # @ # % + # c                                                         }.# h # # & # # # # # # # # # # # # # # # # # # # # # # # # # # ] $ # # & } ~ , , 9 f ' { 9.                                                                                        H 4 , ! , , , , , , , , # # # # # # # # # # # # # # # # # # # # # # # # # # # # # # # # # # # # # # # # # # # # # # # # # # # # # # # # # # # # # # # # # # # # # # # # # # # # # # # # , , , , , , , , ! ! 4 { { ~ 9 9 u                                                                                                     + # * $ $ + 3 @ # @ ^ % % # # # # # # # # # # # # # # # # # # # # # # # # # # # # # # # # # # # # # # # # # # # # # # # # # * + ",
"# $ + @ @ $                                             M s _ & } % # # # # # # # # # # # # # # # # # # # } % $ $ # @ * @ %                                                       ' % } # $.$.$.C B A A A # # # # # # # # # # # # # # # # # # # # # # # # % % % % % % % % + # # # # # # # @ 3 8 # + . h # , 5 e                                                                                     g.! { b @ # # # @ ] } % % # # # # # # # # # # # # # # # # # # # # # # # # # # # # # # # # # # # # # # # # # # # # # # + # + + #                                                         l + h # + * # # # # # # # # # # # # # # # # # # # # # # # # # $ # # # # } ] 8 , J M ' ~ , M.                                                                                    7.f ! 9 { ' ' , , , , , , , # # # # # # # # # # # # # # # # # # # # # # # # # # # # # # # # # # # # # # # # # # # # # # # # # # # # # # # # # # # # # # # # # # # # # # # # # # # # # # # # # , , , , , , , , ' ' ' ! 4 { { ~ ! 4 2.                                                                                                  ( # # ] @ 3 8 } ] % # % # # # # # # # # # # # # # # # # # # # # # # # # # # # # # # # # # # # # # # # # # # # # # # # # # ] & ",
"% % # 2 # u.                                          2.! m r & + % # # # # # # # # # # # # # # # # # # # % # @ @ # $ 3 # *.                                                    # # @ # >.$.$.@+B B A A A # # # # # # # # # # # # # # # # # # # # # # # # % % % % % % % % # # % @ & & ] 8 # # & V & # # R                                                                                               T # % ^ $ # & 8 # % % # # # # # # # # # # # # # # # # # # # # # # # # # # # # # # # # # # # # # # # # # # # # # # + # $ % ]                                                         , @ . # ^ 3 # # # # # # # # # # # # # # # # # # # # # # # # # } # # } $ + % + p { T M 9                                                                                    +, p @ % } } # # } # # # # # # # # # k k k k k k k k k k k k k k k # # # # # # # # # # # # # # # # # # # # # # # # # # # # # # # # # # # # # # # # # # # # # # # # # # # # # # # # # # # # # # # # # # # # # # # # # # # % % + + + { 4 , , ..                                                                                                * $ # & $ + @ ^ + # @ # # # # # # # # # # # # # # # # # # # # # # # # # # # # # # # # # # # # # # # # # # # # # # # # % @ ] ",
"# # @ ] ]                                             4 ..~ { % # # # # # # # # # # # # # # # # # # # # # + # # @ ] + $ V                                                     # } h } k $.$.$.@+B B A A A k # # # # # # # # # # # # # # # # # # # # # # # # # # # # # # # # % @ } # # # @ ^ * @ # % 1.                                                                                                    [.* @ 3 * % % } + % % % % % % % # # # # # # # # # # # # # # # # # # # # # # # # # # # # # # # # # # # # # # # # @ # * # }.                                                      A.p V & % ] % } # # # # # # # # # # # # # # # # # # # # # # # # # + @ @ @ + + ] f ~ 5 g.                                                                              D , , : s ~ $ * +.] % + ] # # # # # # # # k k k k k k k k k k k k k k k k # # # # # # # # # # # # # # # # # # # # # # # # # # # # # # # # # # # # # # # # # # # # # # # # # # # # # # # # # # # # # # # # # # # # # # # # # # # % % + + } , ~ :.0 ~ 9 g.                                                                                              ] + * @ # % ^ 8 } % # # # # # # # # # # # # # # # # # # # # # # # # # # # # # # # # # # # # # # # # # # # # # # # # } @ & ",
"# # 3 # f.                                          %.s p { 4 % # # # # # # # # # # # # # # # # # # # # # @ & # & 3 # }.                                                    3 # 3 # # }+k @+@+@+B `# $ $A k # # # # # # # # # # # # # # # # # # # # # # # # # # # # # # # + # # # # # % ^ @ % ] 1.                                                                                                            8 } $ % % ] % % # # # # % % # # # # # # # # # # # # # # # # # # # # # # # # # # # # # # # # # # # # # # # # % # 8 # /                                                       , ).* # 8 # # & # # # # # # # # # # # # # # # # # # # # # # # % # ] % # # ] ] +.9 ' L.                                                                            [ ) b.C.Y : { 9 # # # ] 8 @ # # # # # # # # # k k k k k k k k k k k k k k k k # # # # # # # # # # # # # # # # # # # # # # # # # # # # # # # # # # # # # # # # # # # # # # # # # # # # # # # # # # # # # # # # # # # # # # # # # % % % + } } @ :.9 , , ! ' 4 f 6                                                                                             3 & @ @ @ @ ] @ # # # # # # # # # # # # # # # # # # # # # # # # # # # # # # # # # # # # # # # # # # # # # # # # # @ @ % ",
"+ @ $ #                                           .$, J , M f @ % # # # # # # # # # # # # # # # # # # # # # ] % % @ %                                                     ! & * @ # % ~.k @+@+@+B `# $ $A k # # # # # # # # # # # # # # # # # # # # # # # # # # # # # # # % # # @ 8 @ # # ^ 3.                                                                                                                  3 # ^ V # # # # # # # # # # # # # # # # # # # # # # # # # # # # # # # # # # # # # # # # # # # # # # # # # # # } #                                                       E r T # * +.# ] } # # # # # # # # # # # # # # # # # # # # % % % % # $ # # @ $ # # J                                                                           6.D.a., X O.%., , S s ] @ + + % % # # # # # # # # # k k k k k k k k k k k k k k k k # # # # # # # # # # # # # # # # # # # # # # # # # # # # # # # # # # # # # # # # # # # # # # # # # # # # # # # # # # # # # # # # # # # # # # # # % % % % + } } @ ' { r s M 4 { M , E                                                                                             & # + & # # % # # # # # # # # # # # # # # # # # # # # # # # # # # # # # # # # # # # # # # # # # # # # # # # # # @ } # ",
"# $ # a                                           < Y r , M 5 } % # # # # # # # # # # # # # # # # # # # # # + @ # # u.                                                  P , @ + % ~.>.k $.@+@+@+B `# $ $A k # # # # # # # # # # # # # # # # # # # # # # # % % % % % % % % @ % } @ # # ^ R                                                                                                                         ( +.2 % % # # # # % % + # # # # # # # # # # # # # # # # # # # # # # # # # # # # # # # # # # # # # # # # # } # ]                                                     6.M J ' # * ] % ] } # # # # # # # # # # # # # # # # # # # % % % % % # @ # # h + # b                                                                         0., , ].a., , , ) ) ) ~ , # & } # # + ^ # # # # # # # # k A A A A A A A A A A A A A A k # # # # # # # # # # # # # # # # # # # # # # # # # # # # # # # # # # # # # # # # # # # # # # # # # # # # # # # # # # # # # # # # # # # # # # # # # # # % % + + + , , , , , ' ' , ' T m 9.                                                                                          4.# } + # + } % % % % % % % % # # # # # # # # # # # # # # # # # # # # # # # # # # # # # # # # # # # # # # # # % # % ",
"# $ }                                           u : r , E ! ' # # # # # % # # # # # # # # # # # # # # # # $ # r # 5                                                   z#, 3 } @ ] C k $.k $.@+$.B B A A A k # # # # # # # # # # # # # # # # # # # # # # # } } } } } } } } # @ ] + # r.                                                                                                                              } # ( @ } } } @ @ & $ # # # # # # # # # # # # # # # # # # # # # # # # # # # # # # # # # # # # # # # # + ] # 2                                                     , f , 4 * # # $ # % # # # # # # # # # # # # # # # # # # # % % % % % } 8 % } 8 % (.                                                                      E.9 ) 5 b.4 , f ,., , ~ : , % # # # % } # # # # # # # # # # k A k A k A k A k A k A k A k k # # # # # # # # # # # # # # # # # # # # # # # # # # # # # # # # # # # # # # # # # # # # # # # # # # # # # # # # # # # # # # # # # # # # # # # # # # # # # % % % , 9 ~ , , 9 ~ , , , , ' T                                                                                           , & T $ 4 % % % % % % % % % # # # # # # # # # # # # # # # # # # # # # # # # # # # # # # # # # # # # # # # # # # $ ",
"2 # u.                                          * { # $ @ + % % # # # # % # # # # # # # # # # # # % % % + ~ , 6+, X.                                                *.5 @ @ @ } + % # # # # k # k k k k k # # # # # # # # % % % % % % % % # # # # # # # # @ } 8 * & + @ } 5 M M c.                                                                                                                                    , f S ~ ' ~ 9 ! , , # # # # # # # # # # # # # # # # # # # # # # # # # # # # # # # # C k k C x -.} + @ # , v.                                                  (.# 8 % % # # # # # # # # # # # # # # # # # # # # # # ! ~ , , ' ~ ! { 5 M ! M , H                                                                     J $ ' @ 5 % ! $ , # , # , # , # # # # # # # # # # # # # # # # # # k # k # k # k # k # k # k # # # # # # # # # # # # # # # # # # # # # # # # # # # # # # # # # # # # # # # # # # # # # # # # # # # # # # # # # # # # # # # # # # # # # # # # # # # # # # # # # # # # # # # # # # # # # 8 ] # c                                                                                       H.' X , %.! * $ @ @ + # # # # # # # # # # # # # # # # # # # # # # # # # # # # # # # # # # # # # # # # # # # # # # ",
"8 8                                           1.# & # } % + % % # # # # % # # # # # # # # % % % % # # # # , j., D                                                   +.% & @ @ } + % % # # # # # # # # # # # # # # # # # # % % % % # # # # # # # # # # # # # @ # # * 3 * 4., c.                                                                                                                                          ! ~ 4 5 5 4 M _ ' # # # # # # # # # # # # # # # # # # # # # # # # # # # # # # # k C A k C x -.} + % % 4                                                     V % & % % # # # # # # # # # # # # # # # # # # # # # # , , , ' { 4 9 m , ~ 7., 2.                                                                  +$, E @ % @ & % % $ # # # # # # # # # # # # # # # # # # # # # # # # # # # # # # # # # # # # # # # # # # # # # # # # # # # # # # # # # # # # # # # # # # # # # # # # # # # # # # # # # # # # # # # # # # # # # # # # # # # # # # # # # # # # # # # # # # # # # # # # # # # # # # # # # # # ] h + } 4.                                                                                      C#D.j., p 5 + + @ @ % % + # # # # # # # # # # # # # # # # # # # # # # # # # # # # # # # # # # # # # # # # # # # ",
"% G                                           # # * ] % } + % % # # # # % # # # # # # # # % % % % # # # # , C.a.                                                  % # + @ @ @ @ } % % % # # # # # # # # # # # # # # # # # % % % # # # # # % % % % % % % % ^ % ^ $ # $ V #                                                                                                                                                 , , _ _ , 4 m , # # # # # # # # # # # # # # # # # # # # # # # # # # # # # # # k C A k C x -.} + # @ f                                                   = } } % % % # # # # # # # # # # # # # # # # # # # # # # ~ , , 5 , , 9 s m 9., Q                                                                 *+, , D.M } } $ @ # % ] # # # # # # # # # # # # # # # # # # # # # # # # # # # # # # # # # # # # # # # # # # # # # # # # # # # # # # # # # # # # # # # # # # # # # # # # # # # # # # # # # # # # # # # # # # # # # # # # # # # # # # # # # # # # # # # # # # # # # # # # # # # # # # # # @ # # # } 8 @ # ..M.                                                                                    b#: , _ { % + @ @ % # % # # # # # # # # # # # # # # # # # # # # # # # # # # # # # # # # # # # # # # # # # # # ",
"*                                           r.# $ $ & # @ + % % # # # # % # # # # # # # # # # # # # % % % a.,                                                   g h # @ @ @ @ @ } + % % % # # # # # # # # # # # # # # # # % % % # # # # # # # # # # # # # % + # * +.# c                                                                                                                                                   N._ 5 p , , { 4 # # # # # # # # # # # # # # # # # # # # # # # # # # # # # # # k C A k C x -.} + % @ m                                                   $ # $ # % % # # # # # # # # # # # # # # % % # # # # # # M , ' ' , , _ r 9.r A.                                                                d '.&+G.! { + @ ] @ % + ] # # # # # # # # # # # # # # # # # # # # # # # # # # # # # # # # # # # # # # # # # # # # # # # # # # # # # # # # # # # # # # # # # # # # # # # # # # # # # # # # # # # # # # # # # # # # # # # # # # # # # # # # # # # # # # # # # # # # # # # # # # # # # # # # } # + # # ] V @ 4 , H                                                                                     %.C.5 9 } @ $ @ # # # # # # # # # # # # # # # # # # # # # # # # # # # # # # # # # # # # # # # # # # # # # # ",
"=                                           # ] ^ # + # # + % % # # # # % # # # # # # # # # # # # # # # # ,.K                                                 b # 4.+ # ] @ } } + + % % % # # # # # # # # # # # # # # # # % % % # # # # # # # # # # # # # } % & # 3                                                                                                                                                         &.' 9 M , ! r # # # # # # # # # # # # # # # # # # # # # # # # # # # # # # # k C A k C x -.} + ] } 9.                                                  # @ ] % % % # # # # # # # # # # # # # # % % # # # # # % , , , , , f m ! , |.                                                              #+a.a.,., , S ! + & ] @ % } $ # # # # # # # # # # # # # # # # # # # # # # # # # # # # # # # # # # # # # # # # # # # # # # # # # # # # # # # # # # # # # # # # # # # # # # # # # # # # # # # # # # # # # # # # # # # # # # # # # # # # # # # # # # # # # # # # # # # # # # # # # # # # # # # # # # ] h # % 8 @ ' S M |.                                                                                    Q#! 5 @ @ $ @ # # # # # # # # # # # # # # # # # # # # # # # # # # # # # # # # # # # # # # # # # # # # # # ",
"                                          V # * } # ] & # + % % # # # # % # # # # # # # # + + + % % % # # a.                                                F @ 8 ^ * # } + + + % % % % % # # # # # # # # # # # # # # # # % % % % % % % % # # # # # # # # @ % &                                                                                                                                                               J , f f ! 5 # # # # # # # # # # # # # # # # # # # # # # # # # # # # # # # k C A k C x -.} + 8 % _.                                                3 % * } & % % # # # # # # # # # # # # # # % # # # # % % } , 9 ~ , { ~ , , ..                                                            n.G.X , , b.' ' 5 % + @ @ } + } @ # # # # # # # # # # # # # # # # # # # # # # # # # # # # # # # # # # # # # # # # # # # # # # # # # # # # # # # # # # # # # # # # # # # # # # # # # # # # # # # # # # # # # # # # # # # # # # # # # # # # # # # # # # # # # # # # # # # # # # # # # # # # # # # # # # # ] @ % } + f ' E , !                                                                                     , 5 } @ $ & % # % # # # # # # # # # # # # # # # # # # # # # # # # # # # # # # # # # # # # # # # # # # # ",
"                                          $ & 8 # # ] } % + % % # # # # % # # # # # # # # % % + @ @ & $ ]                                                 &., ] 4.} ] + # % % % % # # # # # # # # # # # # # # # # # # # # # % % % + + } } 4 4 4 4 4 4 4 4 , W.                                                                                                                                                                  r , 5 ' 4 # # # # # # # # # # # # # # # # # # # # # # # # # # # # # # # k C A k C x -.} + ] # Z                                                 # } h # * % % # # # # # # # # # # # # # # # # # # # % } @ , T ~ , s , , n                                                             v , , ~ m 4 { p r , % % % # % % % # # # # # # # # # # # # # # # # # # # # # # # # # # # # # # # # # # # # # # # # # # # # # # # # # # # # # # # # # # # # # # # # # # # # # # # # # # # # # # # # # # # # # # # # # # # # # # # # # # # # # # # # # # # # # # # # # # # # # # # # # # # # # # # # # % + # # + @ } $ , , ' , M 9.                                                                                  v._ & @ $ @ % # + # # # # # # # # # # # # # # # # # # # # # # # # # # # # # # # # # # # # # # # # # # # ",
"                                        $ # 8 @ % & # # % + % % # # # # % # # # # # # # # # # % @ 8 h 2 }.                                                , t & $ # # ] # # # # # # # # # # # # # # # # # # # # # # # # # # % % + } @ @ @ ~ ~ ~ ~ ~ ~ ~ ~                                                                                                                                                                       u , { 4 ~ # # # # # # # # # # # # # # # # # # # # # # # # # # # # # # # k C A k C x -.} + @ #                                                 c # % * # +.% % # # # # # # # # # # # # # # # # # # # % @ $ { E , , 9., M                                                             9 , s T { , , , , , 5 % # # # # % # # # # # # # # # # # # # # # # # # # # # # # # # # # # # # # # # # # # # # # # # # # # # # # # # # # # # # # # # # # # # # # # # # # # # # # # # # # # # # # # # # # # # # # # # # # # # # # # # # # # # # # # # # # # # # # # # # # # # # # # # # # # # # # # # # # ] @ # + % # # r , s J , , |.                                                                                  ..* ] ] @ # # # # # # # # # # # # # # # # # # # # # # # # # # # # # # # # # # # # # # # # # # # # # # ",
"                                      B.% } + % # # # # # # # # # # # # # # # % % % # # # @ # $ ] # $ h                                                 s { 9 & $ @ + # # # # # # # # # # # # # # # # # # # # # % % % % % # @ @ # # ] @ # _ , , s ~ , [.                                                                                                                                                                          J { , 9 # # # # # # # # # # # # # # # # # # # # # # # # # # # # # # # k k A C x %+%++ % # #                                                 ] # % } ^ # # # # # # # # # # # # # # # # # # # # # # # % + T 5 , :.' ,                                                           u 4 M S 9 ! ' , , , , , , # # # # # # # # # # # # # # # # # # # # # # # # # # # # # # # # # # # # # # # # # # # # # # # # # # # # # % % % % % % % % % % % # # # % % % % % # # # # # # # # # # # # # # # # # # # # # # # # # # # # # # # # # # # # # # # # # # # # # # # # # # # # # # # # # # # # # # # # # # # # # # # # , , ' ! { 9 M r                                                                                   @ * % # # $ # # # # # # # # # # # # # # # # # # # # # # # # # # # # # # # # # # # # # # # # # # # # ",
"                                      t.# @ } + % # # # # # # # # # # # # # # # # # # # # } # 8 # }.}                                                 :.~ ~ 9 & $ & } # # # # # # # # # # # # # # # # # # # # # # % % % % # # # ] 8 } % $ , E 9., , `                                                                                                                                                                               M S , % % % % % % % % # # # # # # # # # # # # # # # # # # # # # # # k k A C x %+%++ + % %                                                 + + + % @ } # # # # # # # # # # # # # # # # # # % # # # % + p , p s ,                                                           t M p , , _ 4 ! ' , , , , , # # # # # # # # # # # # # # # # # # # # # # # # # # # # # # # # # # # # # # # # % % % % % % % % # # # # # # % % % % % % % % % % # # # # % % % % # # # # # # # # # # # # # # # # # # # # # # # # # # # # # # # # # # # # # # # # # # # # # # # # # # # # # # # # # # # # # # # # # # # # # # # # , , ! { ~ 5 f M s                                                                                 f.# 2 # + @ # # # # # # # # # # # # # # # # # # # # # # # # # # # # # # # # # # # # # # # # # # # # ",
"                                    *.% % @ @ } % % # # # # # # # # # # # # # # # # # # # # @ ^ % * (.                                              Y., , ~ 9 & $ & } % # # # # # # # # # # # # # # # # # # # # # # # # # % # # ] $ # # ] 9 Y , d                                                                                                                                                                                   P 9., % % % % % % % % # # # # # # # # # # # # # # # # # # # # # # # k k A C $.x %++ + % ]                                               R # 8 + % # 8 # # # # # # # # # # # # # # # # # # % # # # % + 9 , S , _.                                                        7 # # h $ % & @ } + % # # # # # # # # # # # # # # # # # # # # # # # # # # # # # # # # # # # # # # # # # # # # # # # # # # # # # # # # # # # # # # # # # # # # # # # # # # # # # # # # # # # # # # # # # # # # # # # # # # # # # # # # # # # # # # # # # # # # # # # # # # # # # # # # # # # # # # # # # # # # # # # # # # # # , ' 4 ~ 5 5 5 5 , p                                                                                 ] & & # # # % % % # # # # # # # # # # # # # # # # # # # # # # # # # # # # # # # # # # # # # # # # ",
"                                    h # 8 & @ } % % # # # # # # # # # # # # # # # # # % % # ] ^ h +                                               .$, J 4 ~ 9 & & @ } % # # # # # # # # # # # # # # # # # # # # # # # # # # } @ # # @ & % : , z#                                                                                                                                                                                      ~ 5 # # # # # # # # # # # # # # # # # # # # # # # # # # # # # # # k k A C $.x x } } % 3                                               % % * # @ # ] # # # # # # # # # # # # # # # # % % % # # # % + { s ! m                                                       l # ] +.$ & h ^ # @ @ + % % # # # # # # # # # # # # # # # # # # # # # # # # # # # # # # # # # # # # # # # # # # # # # # # # # # # # # # # # # # # # # # # # # # # # # # # # # # # # # # # # # # # # # # # # # # # # # # # # # # # # # # # # # # # # # # # # # # # # # # # # # # # # # # # # # # # # # # # # # # # # # # # # # # # , ' { 5 f 5 9 ~ t , p                                                                                 # +.# # @ % % % % % # # # # # # # # # # # # # # # # # # # # # # # # # # # # # # # # # # # # # # ",
"                                  l.# # @ @ @ } % # # # # # # # # # # # # # # # # # % % % + 8 & ^ /.                                              d , 4 M { ~ @ @ @ + % % # # # # # # # # # # # # # # # # # # # # # # # # # % & } + @ @ % d                                                                                                                                                                                           7.! % % % # # # # # # # # # # # # # # # # # # # # # # # # # # # # k k A C C $.x } } # b                                             L.# $ $ # ] # } # # # # # # # # # # # # # # # # % % % # # # % @ f f '                                                       n ' ^ ] & @ % # # # @ } + % % # % % # # # # # # # # # # # # # # # # # # # # # # # # # # # # # # # # # # # # # # # # # # # # # # # # % % # # # # # # # # # # # # # # # # # # # # # # # # # # # # # # # # # # # # # # # # # # # # # # # # # # # # # # # # # # # # # # # # # # # # # # # # # # # # # # # # # # # # # # # # # # # # # # , ' { 9 5 9 { 4 9 E , :.                                                                              c + % # @ + % % % % # # # # # # # # # # # # # # # # # # # # # # # # # # # # # # # # # # # # # # ",
"                                  % # ] # } + % # # # # # # # # # # # # # # # % % + + + + + @ % V                                               < : d , , 4 4 + + + % % # # # # # # # # # # # # # # # # # # # # % % % % % @ # % ^ @ # % 2.                                                                                                                                                                                              , @ @ @ } + + % % # # # # # # # # # # # # # # # # # # # # # # # k C B k C $.x } @ # r.                                            2.# ] % # ] # # # # # # # # # # # # # # # # # # % % % # # # } $ { , u                                                     A., 9 ^ @ % # # # % & + + % % # % % % # # # # # # # # # # # # # # # # # # # # # # # # # # # # # # # # # # # # # # # # % % % % % % % % + % % % % % % % % % % % % % % % # # # % % % % % % % % % % % % % # # # # # # # # # # # # # # # # # # # # # # # # # # # # # # # # # # # # # # # # # # # # # # # # # # # # # # # # # # # # # # # # , ' 4 { { 4 ! ' , _ E , ).                                                                              # @ @ # + + + % % % # # # # # # # # # # # # # # # # # # # # # # # # # # # # # # # # # # # # # ",
"                                R # # & # % # # # # # # # # # # # # # # # # # + @ & @ } + % % +.                                              $+) : d 9 , ' ' % % % # # # # # # # # # # # # # # # # # # # # # % % + } @ @ ] % + & % 8 f.                                                                                                                                                                                                [.$ & & @ @ } + + # # # # # # # # # # # # # # # # # # # # # # # k C B k k C x } @ # 1                                             ~ @ + # # + # % # # # # # # # # # # # # # # # # # # # # # % @ ] , 8.                                                    _ 5 H , # } ] % # @ & + % # # # # % % % # # # # # # # # # # # # # # # # # # # # # # # # # # # # # # # # # # # # # # # # @ @ @ @ @ @ @ @ } } } + + + % % % % % % % % % % # # % % + } @ @ + + + + + + + + # # # # # # # # # # # # # # # # # # # # # # # # # # # # # # # # # # # # # # # # # # # # # # # # # # # # # # # # # # # # # # # # ' ' ' ' ' ' , , 4 , _ 5 , U                                                                             <.& } + } } + % % % # # # # # # # # # # # # # # # # # # # # # # # # # # # # # # # # # # # # # ",
"                                # # @ # % # # # # # # # % # # # # # # # # # # @ $ ] & @ + @ & /                                               , ~ Y , , 5 , , # # # # # # # # # # # # # # # # # # # # # # # # % % } @ & & # ] $ # ' `                                                                                                                                                                                                     & @ @ @ } + % % # # # # # # # # # # # # # # # # # # # # # # # k $.B k k C x } @ % U.                                            # ] # # @ # # @ # # # # # # # # # # # # # # # # # # # # # % & ^ ,                                                     r 4 s ' M * % # # } # # # # # # # # % % + # # # # # # # # # # # # # # # # # # # # # # # # # # # # # # # # # # # # # # # # $ $ $ $ $ $ $ $ @ @ @ @ } + + + + + + + + + + + # # % % } @ & & } } } } } } } } # # # # # # # # # # # # # # # # # # # # # # # # # # # # # # # # # # # # # # # # # # # # # # # # # # # # # # # # # # # # # # # # ! ' , , , , , , , , , r f '                                                                               8 @ 4.@ } + + % % # # # # # # # # # # # # # # # # # # # # # # # # # # # # # # # # # # # # # ",
"                              . # ] # * # # # # # # # # # # # # # # # # # , M , , 9 m ~ f ~ M                                               n , @ T } # } # # # # # # # # # # # # # # # # # # # # # % % % # $ % # ^ & , m , p ! '                                                                                                                                                                                                         c @ } # ] # ] # # # # # # # # # # # # # # # # # # # # # # # # k k A k k k C % % # F.                                          Q % % % # # % % % # # # # # # # # # # # # # # # # # $ # # ] # 2 # ).                                                  3 @ } @ ^ % & @ % # # # % % # # # # # # # # # # # # # # # # # # # # # # # # # # # # # # # # # # # # # # % @ @ % # # # % @ @ @ % # # % @ & $ + % % % % % % + + + + + + + + + } @ $ & @ + % + % # # # % } } + 8 % # # # # # % } % # # % @ } # # # # % % % # # # # # # # # # # # # # # # # # # # # # # # # # # # # # # # # # # # # # # # # # # # # # # # # # # # 8 % @ 2 # V                                                                               , M , { 8 # % @ # # # # # # # # # # # # # # # # # # # # # # # # # # # # # # # # # # # # # ",
"                              % } % # # # # # # # # # # # # # # # # # # # , ! , _ 5 , r M ,                                               E @ % $ ] + % & # # # # # # # # # # # # # # # # # # # # # # # # % # # & @ @ ~ ! J , %.                                                                                                                                                                                                            ] % ] + # } # # # # # # # # # # # # # # # # # # # # # # # # k k A k k C C % % # /.                                          S % % % # # % % % # # # # # # # # # # # # # # # # # # # # % + # +.                                                  l.# } + @ ^ @ @ @ % # # # % % # # # # # # # # # # # # # # # # # # # # # # # # # # # # # # # # & @ + % % # # # # # # @ & & } % # % @ 8 8 ] @ + + + % % # # # # # # # % % # # # % # # # # # % } 2 h ] } % % @ $ % # # } @ % # # # # } % # # # # # # # % % # # # # # # # # # # # # # # # # # # # # # # # # # # # # # # # # # # # # # # # # # # # # # # # # # # # # * # # h # # (.                                                                            9.9 f 4 & % } @ # $ # # # # # # # # # # # # # # # # # # # # # # # # # # # # # # # # # # # ",
"                            8 # ] # @ # + # # # # # # # # # # # # # # # # , ' , p 9 , s , n                                             =+, @ h ^ & & } # # # # # # # # # # # # # # # # # # # # # # # # # % # @ 8 # + 9.{ , W.                                                                                                                                                                                                              l.# h # } # # # # # # # # # # # # # # # # # # # # # # # # # k k A k k C $.% % #                                             , % % % # # % % % # # # # # # # # # # # # # # # # } # # @ # @ #                                                   4.# # 8 + % $ } @ } % # # # % % # # # # # # # # # # # # # # # # # # # # # # # # # # # # # # # # + # # # } & @ + $ } # # # # % } % + % # # # # + # % @ ^ 3 }.. 4.7 g r.c c r.g 7 V 3 * ^ ^ 8 & + # # % } } % % # # # # + + # # # # % @ @ + % + @ # # # # # # # # # # # # # # # # # # # # # # # # # # # # # # # # # # # # # # # # # # # # # # # # # # # # # # # # # ] @ % 8 ] # # 6                                                                             4 p , } % % # # & # # # # # # # # # # # # # # # # # # # # # # # # # # # # # # # # # # # ",
"                            # & } # 3 @ # # # # # # # # # # # # # # # # # , 9 9 , { s 4 4                                               M m +.* & ] * @ # # # # # # # # # # # # # # # # # # # # # # # # # # # & ^ } ^ S , Q                                                                                                                                                                                                                   # $ % @ % # # # # # # # # # # # # # # # # # # # # # # # # k k A k k C $.+ + #                                             , % % % # # % % % # # # # # # # # # # # # # # # # % # # ] # # l.                                                b & % ] * # # @ + } + % # # # % % # # # # # # # # # # # # # # # # # # # # # # # # # # # # # # # # % # # # # # # # # # % + + + + } # # 8 4.(.;+                                                    u.d.7 +.] & @ } h ] % # # # + & & # # # # + # # # # # # # # # # # # # # # # # # # # # # # # # # # # # # # # # # # # # # # # # # # # # # # # # # # # # # # # # # # @ ^ & % ] h $ 4                                                                             E r , 8 & # # # % # # # # # # # # # # # # # # # # # # # # # # # # # # # # # # # # # # # ",
"                          }.@ } # # @ % # # # # # # # # # # # # # # # # # , 9 S , 5 m , `                                             , _ m } # # @ $ + # # # # # # # # # # # # # # # # # % % # # # # # # & @ % 8 }.@ f y.                                                                                                                                                                                                                    * # $ } } # # # # # # # # # # # # # # # # # # # # # # # # k k A k C $.$.+ + #                                           W.5 % % % # # % % % # # # # # # # # # # # # # # # # # & } } % #                                                 c % @ @ @ % # % $ } % % % # # # # % # # # # # # # # # # # # # # # # # # # # # # # # % % % % % % % % # + $ ] @ + @ ] } + % % @ +.g d.                                                                            *.. + + + @ & & % # ] % # } $ @ % # % % % % % # # # # # # # # # # # # # # # # # # # # # # # # # # # # # # # # # # # # # # # # # # # # # # # # # # # + # & & # # ] & , v                                                                           L.~ , 2 8 # & + # # # # # # # # # # # # # # # # # # # # # # # # # # # # # # # # # # # # ",
"                          # * # # 8 # # + # # # # # # # # # # # # # # # # ' , E { M , E                                             T., ~ # # # @ + # # @ # # # # # # # # # # # # # # # # % % % % % % + + $ 8 % % % # e.                                                                                                                                                                                                                        % ] @ @ # # # # # # # # # # # # # # # # # # # # # # # # k k A k C $.x + } #                                           J 9 % % % # # % % % # # # # # # # # # # # # # # # # # * $ # & 7                                                 # 8 + } # # # @ } # % % % % # # # # # # # # # # # # # # # # # # # # # # # # # # # # + + + + + + + + # @ * 8 } # % @ # ^ r.                                                                                                V % % } } # % ] 3 h $ ] 3 + + + + % % # # # # # # # # # # # # # # # # # # # # # # # # # # # # # # # # # # # # # # # # # # # # # # # # # # @ # # } % % # # , 9                                                                             s , ] $ # @ } # # # # # # # # # # # # # # # # # # # # # # # # # # # # # # # # # # # # ",
"                        V # ^ # } * # # $ # # # # # # # # # # # # # # # # , ' 5 T { 5                                               , p , # # } & % # # + # # # # # # # # # # # # # # # # # % % + } @ @ @ % ] & # 8                                                                                                                                                                                                                             V + ] % % # # # # # # # # # # # # # # # # # # # # # # # k k A C C $.x } } #                                           9 { % % % # # % % % # # # # # # # # # # # # # # # # + & ] # *                                                 % } & @ ] + # + } # # # # # % % # # # # # # # # # # # # # # # # # # # # # # # # # # # ~ ~ ~ ~ ~ ~ ~ ~ _ r f { 9 T _.S.                                                                                                            q ~ ..~ , ' 4 ' { m @ @ @ @ } % % # # # # # # # # # # # # # # # # # # # # # # # # # # # # # # # # # # # # # # # # # # # # # # # # # # # # # @ & % # , 9 9                                                                           v., # @ # # # # # # # # # # # # # # # # # # # # # # # # # # # # # # # # # # # # # # # ",
"                        # } & @ # # # # # # # # # # # # # # # # # # # # # , M , T , H                                             , p , , # # # # # } } # # # # # # # # # # # # # # # # # # % % + @ & $ $ % @ @ &                                                                                                                                                                                                                               1 # * # + # # # # # # # # # # # # # # # # # # # # # # # k k A C $.$.x } } #                                           , { % % % # # % % % # # # # # # # # # # # # # # # # @ # ] # }.                                              ] # 3 ] % ] } # % # # % # # # % % % # # # # # # # # # # # # # # # # # # # # # # # # # # 9 9 9 9 9 9 9 9 r 5 f |.++                                                                                                                        g.~ , 5 _ 5 { @ @ @ @ @ + % % # # # # # # # # # # # # # # # # # # # # # # # # # # # # # # # # # # # # # # # # # # # # # # # # # $ & # # # # # ' p , l                                                                           m # * @ # # @ # # # # # # # # # # # # # # # # # # # # # # # # # # # # # # # # # # # ",
"                      % + @ } + + % % # # # # # # # # # # # % } + # # # % m , 4 f ,                                             9.9 , , r # # # # # # # # # # # # # # # # % # # # # # # # % # # % % }.. # * ] #                                                                                                                                                                                                                                   @ % # ^ # # # % % # # # # # # # # # # # # # # # # # # k k A k k $.%++ % +                                           { f % # # # # # # % # # # # # # # # # # # # # # % + % } 3 #                                               3 @ ^ # +.% % % % % % # # # # # # # # # # # # # # # # # # % + + % # # # % # % # # % % # @ 9 _ r ! ! 5 ~ , , S.                                                                                                                                  R._ ' ~ M @ } # # + & } # # # # # # # % % # # # # # # # # # # # # # # # # # # # # # # # # # # # # # # # # # # # # # # # # # # # # # # # # f ' m f                                                                           P # + ] # % # # # # # # # # # # # # # # # # # # # # # # # # # # # # # # # # # # # # ",
"                      % & } } + % % % # # # # # # # # # # # % % % # # # % ' , S ,                                             g.r f { E , # # # # # # # # # # # # # # # # # # # # # # # # % * # # 3 } # V @ %                                                                                                             &.U R.g.W.q S.L                                                                                                         ;+# 8 # # # # % % % # # # # # # # # # # # # # # # # # k k A k k $.%++ % +                                         `., 5 % # # # # # # % # # # # # # # # # # # # # # % + @ ] % *                                               # # $ % + @ } } + % % # # # # # # # # # # # # # # # # # # % % % % # # # % # $ % # % + # # ! , , M ' , P                                                                                                                                             6 9.4 % ^ 3 ] # # # # # # # # # # % % # # # # # # # # # # # # # # # # # # # # # # # # # # # # # # # # # # # # # # # # # # # # # # # # { p , m q                                                                           % # % # % + # # # # # # # # # # # # # # # # # # # # # # # # # # # # # # # # # # # ",
"                    @ @ ^ + + + % % % # # # # # # # # # # # # # # # % # # , ~ { s                                             # V % @ ] # # # # # # # # # # # # # # # # # # # # # # # % % # % } # # $ ] # @                                                                                                   U.2 @ } } + & @ + # # % % } # # # # 8 c                                                                                               # +.# # % % % % % # # # # # # # # # # # # # # # # # k k A k k $.%++ % @                                         2., ~ % # # # # # # % # # # # # # # # # # # # # # % + % +.# f.                                            + # } } & # & @ @ } % % # # # # # # # # # # # # # # # # # # # % % % # # # # # + $ % } } # # 4 D.%.'.D                                                                                                                                                       & # # +.* # # * % % % % % % # # # # # # # # # # # # # # # # # # # # # # # # # # # # # # # # # # # # # # # # # # # # # # # # # # , T 4 _ 4                                                                           * # # # # % # # # # # # # # # # # # # # # # # # # # # # # # # # # # # # # # # # # ",
"                  w.# & & + % % % % # # # # # # # # # # # % # # # + } + # ! ..,                                             . +.4.% * # +.# # # # # # # # # # # # # # # # # # # # # % % + & # # ] # $ 3 #                                                                                             #+5 p & % # + @ } % # # # # # # # # % + + # # # @ 8 3 B.                                                                                      4.] # % % % + % % % # # # # # # # # # # # # # # # # k k A k k $.%++ % @                                         r , 4 % # # # # # # % # # # # # # # # # # # # # # % + # * %                                             g # h ] # + @ } } + % % # # # # # # # # # # # # # # # # # # # # % + + % # % % $ @ # # # % % ] < '.c+                                                                                                                                                              # # @ * # # + + + % % % # # # # # # # # # # # # # # # # # # # # # # # # # # # # # # # # # # # # # # # # # # # # # # # # # # ' 4 0 4 5 v                                                                         r.@ % % # # # # # # # # # # # # # # # # # # # # # # # # # # # # # # # # # # # # # ",
"                  % % @ # % % % % % # # # # # # # # # # # + # # % @ & @ + E ~ |.                                          ;+# +.# * 3 # } # # # # # # # # # # # # # # # # # # # # % + } @ V @ # 3 . # ^                                                                                         Q.> , , , , # } @ + # # # + + + + + + % % # # % } } % # # @ # # * F.                                                                                  % @ + + } + + % % # # # # # # # # # # # # # # # # k k A k k $.%++ % +                                         5 { ! % # # # # # # % # # # # # # # # # # # # # # % + # @ b                                           5.8 % ^ & # # } # # # # # # # % # # # # # # # # # # # # # # # # % } @ @ @ } } @ h @ # $ +.% # } b+                                                                                                                                                                    b # # * * } } } } + % # # # # # # # # # # # # # # # # # # # # # # # # # # # # # # # # # # # # # # # # # # # # # # # # # # { , :.! ..'                                                                           ] # } # # # # # # # # # # # # # # # # # # # # # # # # # # # # # # # # # # # # # ",
"                F.# # @ # % % % # # # # # # # # # # # # # % % % + @ $ $ & _ ,                                             # h } # 3 # @ # # # # # # # # # # # # # # # # # # # # % % } @ & @ } ] * + *                                                                                     b+].) , : ,.D._ ' % # # # # } ^ # # # # # # # # * @ # # # # % % # + * +.+ & ;+                                                                              +.# } } @ } } % % % # # # # # # # # # # # # # # # k k A k k $.%++ % #                                         f f 4 % # # # # # # % # # # # # # # # # # # # # # % + @ }                                             ! 8 & % + # # % # # # # # # % % # # # # # # # # # # # # # # # # % @ $ $ & @ @ @ # @ ] $ # # r.                                                                                                                                                                            @ # 4.@ @ @ @ } % # # # # # # # # # # # # # # # # # # # # # # # # # # # # # # # # # # # # # # # # # # # # # # # # # # 9 , 9 9 r M e                                                                         * # % # @ # # # # # # # # # # # # # # # # # # # # # # # # # # # # # # # # # # # ",
"                8 # # % % # # # # # # # # # # # # # # # # # # + } } @ $ ] ' L                                           b # b } @ $ # * } # # # # # # # # # # # # # # # # # # # % + @ & $ # # * } *                                                                                   c+, ,.a.b.a.> a.' , , # } $ & % # # # % % % % % % % # # # @ ] $ % # } # # % + # # + |                                                                             # @ @ @ @ } + % % # # # # # # # # # # # # # # # k k A k k $.%++ % #                                         9 9 5 % # # # # # # % # # # # # # # # # # # # # # % + @ 3                                           c.f $ $ } % % + # # # # # # # # # # # # # # # # # # # # # # # # # % } & ] & @ @ @ 8 h % # ]                                                                                                                                                                                   R # @ & & & @ % # # # # # # # # # # # # # # # # # # # # # # # # # # # # # # # # # # # # # # # # # # # # # # # # # # 4 { ! ! ! S !                                                                         ( # + # } # # # # # # # # # # # # # # # # # # # # # # # # # # # # # # # # # # # ",
"              a # @ 8 # @ # # # # # # # # # # # # # # # # # # + } + + & ] !                                           w.% h $ # ^ # 8 # # # # # # # # # # # # # # # # # # # # # % + @ $ ] +.V # #                                                                                 j.! ) ~ b.{ : { a.9 b.4 @ % # # # # % % # # # # # # # # @ @ + # # # + & + + # # } ^ * 8 , ..                                                                          ] @ @ @ @ } + % % # # # # # # # # # # # # # # # k k A k k $.%++ % #                                       6.' 4 r % # # # # # # % # # # # # # # # # # # # # # % + # r.                                          , 3 # & +.# # } # % % % % % # # # # # # # # # # # # # # # # # # # # + & $ & @ @ @ @ & } c                                                                                                                                                                                       F.& & $ & @ % # # # # # # # # # # # # # # # # # # # # # # # # # # # # # # # # # # # # # # # # # # # # # # # # # # , 5 E , 5 f ,                                                                         3.@ @ # # # # # # # # # # # # # # # # # # # # # # # # # # # # # # # # # # # # # ",
"              % + * # $ # # # # # # # # # # # # # # # # # @ # # ] 3 # }.# `.                                          # * $ @ } } } } % # # # # # # # # # % % # # # # # # # @ } # # 8 * ] ] ] ]                                                                             /.M # { % , + 9 & M ] f @ 4 % # # # # # # # # # # # # # # # # # # # # # # # # % % % + } } @ @ @ & ~ 7                                                                       c.! _ # $ ^ # ] # # # # # # # # # # # # # # # # k k A k C C $.% % #                                       a ] ^ % % % # # # # # # # # # # # # # # # # % @ # # 4 9 ,                                           p ] @ } + % % # # # # # # # # # # # # # # # # # # # % % % # # # % % # @ ] % # @ 8 * % @                                                                                                                                                                                               S # ] # # @ % % % % % % % % % # # # # # # # # # # # # # # # # # # # # # # # # # # # # # # # # # # # # # # # # # % } @ @ @ f r                                                                         % # # # # # # # # # # # # # # # # # # # # # # # # # # # # # # # # # # # # # # ",
"            F.% 8 % # } # # # # # # # # # # # # # # # # # & # % +.# % $ *                                           b % @ ] $ @ @ & & @ + # # # # # # # # % % # # # # # % 8 # # ^ 8 @ % # V #                                                                           '+..} # ] * $ $ h @ @ & $ & @ % % # # # # # # # # # # # # # # # # # # # # # # # # # % % % + } @ @ $ @ & ] V /.                                                                    , M } # ^ # % # # # # # # # # # # # # # # # # k k A k C C $.% % #                                       d.} ] + % % # # # # # # # # # # # # # # % # % } # # ! ! 9.                                          $ * @ } + % % # # # # # # # # # # # # # # # # # # # # # # # # # # # @ # # ^ V & # @ 2                                                                                                                                                                                                   ] # 3 } # $ # # # # # # # # # # # # # # # # # # # # # # # # # # # # # # # # # # # # # # # # # # # # # # # # # % } } } @ 9 f                                                                         ] # # # # # # # # # # # # # # # # # # # # # # # # # # # # # # # # # # # # # # ",
"            + # +.# # % # # # # # # # # # # # # # # # # # # % + & # ] #                                           f.# h + ] & @ @ @ @ } + # # # # # # # # % % # # # # % % @ # % $ # # * @ #                                                                         C#) D., % $ ] } # # + + } @ @ @ + % # # # # # # # # # # # # # # # # # # # # # # # # # # % % % + + } } # # ^ b ] # 3.                                                                  J 4 8 # * # # @ # # # # # # # # # # # # # # # k k A k C C $.% % #                                       b # @ @ % % # # # # # # # # # # # # # # % % % # # % ! , l                                         $ } 2 } } % % # # # % # # # # # # # # # # # # # # # # # # # # # # # # # ] $ + @ % 3 G                                                                                                                                                                                                       * @ * # # + + % % % % # # # # # # # # # # # # # # # # # # # # # # # # # # # # # # # # # # # # # # # # # # # % + + % % 4 ~ W.                                                                      . % # # % % % # # # # # # # # # # # # # # # # # # # # # # # # # # # # # # # # ",
"          a # # ^ # # % # # # # # # # # # # # # # # # # # # }.# # h % 3                                           % } 8 % } % # % % % # # # # # # # # # # % # # # # % % % # * h # # ] 3 & c                                                                       C.' > 5 ~ @ % # # @ @ @ % % + + % % # # # # # # # # # # # # # # # # # # # # # # # # # # # # % % % % + + $ % % ] ] + } ]                                                                   , & + 8 % @ @ # # # # # # # # # # # # # # # k k A k C C $.% % # F.                                    * # } } % % # # # # # # # # # # # # # # # % # # + @ ! '                                           + % 8 + + % % # # # % # # # # # # # # # # # # # # # # % % + + + + + + } @ % @ + }                                                                                                                                                                                                             @ # V % & @ @ @ } + % % # # # # # # # # # # # # # # # # # # # # # # # # # # # # # # # # # # # # # # # # # % + % # # ' ! r                                                                       1 % @ + % % % % % # # # # # # # # # # # # # # # # # # # # # # # # # # # # # # ",
"          + ] # + } # @ # # # # # # # # # # # # # # # # # # ^ # # ^ #                                           ( # V # # # # # # # # # # # # # # # # # # % # # # % % + + % V $ # 3 $ % r.                                                                    [ ' Y P.D., , # # # + $ } # # % % % % # # # # # # # # # # # # # # # # # # # # # # # # # # # # # # # % % % % # + + # % @ & + ^                                                                 f # ] } } * # # # # # # # # # # # # # # # # k k A k C C $.% % % u.                                    @ # % % % % # # # # # # # # # # # # # # # + # # @ % , f                                         ] $ # # % % % # # # # % # # # # # # # # # # # # # # # # % % + } @ @ } } # h % # t.                                                                                                                                                                                                                @ @ b @ @ } + % # # # # # # # # # # # # # # # # # # # # # # # # # # # # # # # # # # # # # # # # # # # # % % % # # , ' '                                                                         # & @ + % % % % # # # # # # # # # # # # # # # # # # # # # # # # # # # # # # ",
"        N.# 4.# # ] # @ # # # # # # # # # # # # # # # # # ^ # + * # 4.                                          # 8 @ # % % # # # # % # # # # # # # # # # % # # # % % } } * & # * 3 # g                                                                     O., %.j., , E # @ @ % # # # # # # # # # # # # # # # # # # # # # # # # # # # # # # # # # # # # # # # # # # # # # # @ * ] # # $ # #                                                               l # 8 # & ] # # # # # # # # # # # # # # # # k k A k C C $.% % % d.                                    # } % # % % # # # # # # # # # # # # # # # & % # @ # , 8.                                        # # % # % % # # # # % % # # # # # # # # # # # # # # # # # # % + } } + % % } # V                                                                                                                                                                                                                     } } ] $ & @ + % # # # # # # # # # # # # # # # # # # # # # # # # # # # # # # # # # # # # # # # # # # # % % % # # , ' ' h.                                                                      # @ % + + + % % % # # # # # # # # # # # # # # # # # # # # # # # # # # # # # ",
"        5 + $ } @ @ # % % # # # # # # # # # # # # # # # # ] # $ ] $                                           3 # h # & @ % # # # % % % # # # # # # # # # # # # % % + } @ M , 4 M , 8.                                                                  u , T 0 ' , E t { # # # # # # & +.# # # # # # # % # # # # # # # # # # # # # # # # # # # # # # # # # # # # # # # # 8 # # # # # % ^ ] # # f.                                                            ^ @ % * # # # # # # # # # # # # # # # # # k k A k C C $.% % + l.                                    # & + # % % # # # # # # # # # # # # # # % & # # } # ! &.                                      g @ # % % % # # # # # % % # # # # # # # # # # # # # # # # # # % } @ @ } + 8., x.                                                                                                                                                                                                                        + * ^ 8 ] & @ + % # # # # # # # # # # # # # # # # # # # # # # # # # # # # # # # # # # # # # # # # # % % % # # ' ! 4 m                                                                       % @ # } } + % % % # # # # # # # # # # # # # # # # # # # # # # # # # # # # # ",
"      R.4 2 # $ * # % # % # # # # # # # # # # # # # # # # # ] ] # r.                                        I % @ # ] @ + % # # # % % % # # # # # # # # # # # # % % + } @ { { S , ~                                                                   ~ , ~ , , ~ f ~ ! 4 & # # } ] + # # # # # # # # % % # # # # # # # # # # # # # # # # # # # # # # # # # # # # # # # # # # + % } $ & % % 8 ] % I                                                           g % $ V # ] # # # # # # # # # # # # # # # k k A k C C $.% % + t.                                    # $ } # % % # # # # # # # # # # # # # # # } # # } # m                                         } $ # # @ # # # # # # % % # # # # # # # # # # # # # # # # # % @ & $ $ @ @ , P                                                                                                                                                                                                                           f.8 ] $ @ } % # # # # # # # # # # # # # # # # # # # # # # # # # # # # # # # # # # # # # # # # # # # # % % % # ! 4 5 '                                                                       $ ] % @ } + + % % # # # # # # # # # # # # # # # # # # # # # # # # # # # # # ",
"      r m $ $ & @ + % % # # # # # # # # # # # # % % # # # # +.# %                                           3 # +.# @ 2 # # # # # # # # # # # # # # # # # # % # # # $ ] # , T _ ,                                                                 e , ! r 9 9 9 9 9 9 9 9 # # # # # # # # # # # # # # # # # # # # # # # # # # # # # # # # # # # # # # # # # # # # # # # # # % % + @ & $ $ # @ b $ # <.                                                          # 8 8 # # # # # # # # # # # # # # # # # k C B k C $.x } @ # .                                     } @ # $ + % % # # # # % # # # # # # # # # } # & # & ,                                       1.% % + & # # # # # # # # # # # # # # # # # # # # # # # # # # * # $ ] # 8 # 0                                                                                                                                                                                                                               @ . 3 # } ] # % # # # # # # # # # # # # # # # # # # # # # # # # # # # # # # # # # # # # # # # # # # # # # # , , 9 ' n.                                                                    ( # @ @ @ } % % # # # # # # # # # # # # # # # # # # # # # # # # # # # # # # ",
"    k.E , @ @ @ } + % % # # # # # # # # # # # # % % % % % # ] # /                                         U.# # +.@ } 8 # # # # # # # # # # # # # # # # # % # + @ # % & + M E ,                                                                 7.4 , ! { ~ ~ ~ ~ ~ ~ ~ ~ # # # # # # # # # # # # # # # # # # # # # # # # # # # # # # # # # # # # # # # # # # # # # # # # # % % + } @ @ @ h # # }.3 &                                                           b % ] # @ # # # # # # # # # # # # # # # k C B k C $.x } @ + 2                                     } @ # & + % % # # # # % # # # # # # # # % @ # $ # @ S                                       2 % % % + % # # # # # # # # # # # # # # # # # # # # # # # # % # ] # } & # d.                                                                                                                                                                                                                                  & 2 ] # ] # % # # # # # # # # # # # # # # # # # # # # # # # # # # # # # # # # # # # # # # # # # # # # # # , , ! , C#                                                                    1 + % @ @ + % # # # # # # # # # # # # # # # # # # # # # # # # # # # # # # # ",
"    ! .., + + % % % % % % # # # # # # # # # # % + } } } } & # ]                                           + # # ] @ % % # # # # # # # # # # # # # # # # # } # % $ # # ] $ f , b#                                                              @ # # @ % # + + + + + + + + # # # # # # # # # # # # # # # # # # # # # # # # # # # # # # # # # # # # # # # # # # # # # # # # % % % % % % + + @ } # & 3 # % f.                                                        # ] % % # # # # # # # # # # # # # # # k C B k C $.x } @ @ *                                     + @ # @ + % % # # # # % # # # # # # # # } + # ] # + W.                                      # & + # # % # # # # # # # # # # # # # # # # # # # # # # # # } # ] % @ % .                                                                                                                                                                                                                                     U.] * # % % + # # # # # # # # # # # # # # # # # # # # # # # # # # # # # # # # # # # # # # # # # # # # # # , , , , m.                                                                    = } # @ } + % # # # # # # # # # # # # # # # # # # # # # # # # # # # # # # # ",
"  h., 9 5 # # # # # # % % # # # # # # # # # # % } @ & & & ] # /                                         0 # % % # # # # % # # # # # # # # # # # # # # # # @ # # + # @ 3 @ , d                                                             y.& # # ] + # } % % % % % % % % # # # # # # # # # # # # # # # # # # # # # # # # # # # # # # # # # # # # # # # # # # # # # # # # % % # # # # # # # 8 $ # @ $ % +                                                         @ ^ @ # # # # # # # # # # # # # # # # k C B k C $.x } @ + $                                     % & # @ + % % # # # # % # # # # # # # # + % # ] # #                                       5.# * # # # # # # # # # # # # # # # # # # # # # # # # # # # # # & # h ] ]                                                                                                                                                                                                                                         +.% V # + % # # # # # # # # # # # # # # # # # # # # # # # # # # # # # # # # # # # # # # # # # # # # # # , , , ~ b.                                                                      % # } } % % # # # # # # # # # # # # # # # # # # # # # # # # # # # # # # # ",
"  ~ 9 , { # # # # # # # # # # # # # # # # # # % } @ $ $ ] & }                                           , # 8 + # # + # } # # # # # # # # # # # # # # # # @ # % % # * * # Q#                                                            _.4 % } @ % # # & # # # # # # # # # # # # # # # # # # # # # # # # # # # # # # # # # # # # # # # # # # # # # # # # # # # # # # # # # # # # # # # # # # + * } @ ^ } '                                                       d.& @ + # # # # # # # # # # # # # # # k C B k C $.x } @ # +                                     # $ % + + % % # # # # % # # # # # # # # # # % $ % #                                       p # * # # % # # # # # # # # # # # # # # # # # # # # # # # # # % @ # @ *                                                                                                                                                                                                                                             % 8 # + # # # # # # # # # # # # # # # # # # # # # # # # # # # # # # # # # # # # # # # # # # # # # # # , , , _ ,                                                                       + # + + % # # # # # # # # # # # # # # # # # # # # # # # # # # # # # # # # ",
"u 9 { , , # # # # # # # # # # # # # # # # # # % @ @ $ $ $ + d.                                        p 4 # @ % # % @ % # # # # # # # # # # # # # # # # # # % % # % } # ,                                                             Z., E ] % # # % % # # # # # # # # # # # # # # # # # # # # # # # # # # # # # # # # # # # # # # # # # # # # # # # # # # # # # # # # # # # # # # # # # @ # + * # # +.@ , 0                                                       # # & # # # # # # # # # # # # # # # k C B k C $.x } @ % #                                     # ] % % + % % # # # # % # # # # # # # # # # + @ } %                                       , } @ # # & # # # # # # # # # # # # # # # # # # # # # # # # # @ # 8 # u.                                                                                                                                                                                                                                            c # 8 + # # # # # # # # # # # # # # # # # # # # # # # # # # # # # # # # # # # # # # # # # # # # # # # , , ! s ,                                                                       @ + % % % # # # # # # # # # # # # # # # # # # # # # # # # # # # # # # # # ",
"5 _ , { , # # # # # # # # # # # # # # # # # % + } @ & & & h                                         y.{ 5 # # # # # + % # # # # # # # # # # # # # # # # # # + # # % # ] 6                                                           Y , S m % # # @ @ % # # # # # # # # # # # # # # # # # # # # # # # # # # # # # # # # # # # # # # # # # # # # # # # # # # # # # # # # # # # # # # # # # # } & # # } ] # s , u                                                     }.# @ # # # # # # # # # # # # # # # k C B k C $.x } @ 8 #                                     # ] + % + % % # # # # % # # # # # # # # # % @ # $ ]                                     W., % # } # @ # # # # # # # # # # # # # # # # # # # # # # # # # % # h 3.                                                                                                                                                                                                                                                # & # # # # # # # # # # # # # # # # # # # # # # # # # # # # # # # # # # # # # # # # # # # # # # # # , , ' r , *+                                                                    $ % % % # # # # # # # # # # # # # # # # # # # # # # # # # # # # # # # # # ",
"4 ! , 5 , % % % # # # # # # # # # # # # # # % + } @ @ @ @ c                                         , m ' @ # % % # # + # # # # # # # # # # # # # # # # # # $ # # 9 , 5.                                                          , , O.p } # # @ % # # & # # # # # # # # # # # # # # # # # # # # # # # # # # # # # # # # # # # # # # # # # # # # # # # # # # # # # # # # # # # # # % % % # $ # # ^ % # ] { ~ ! ++                                                  z.{ + # # # # # # # # # # # # # # # # C C k C $.x } @ 2 # M.                                  # 8 + % + % % # # # # % # # # # # # # # + } @ # ] 3                                     0 , % # * # % # # # # # # # # # # # # # # # # # # # # # # # # # # ] @                                                                                                                                                                                                                                                   y.# # + # # # # # # # # # # # # # # # # # # # # # # # # # # # # # # # # # # # # # # # # # # # # # # , , , 9 , D                                                                     $ # % % # # # # # # # # # # # # # # # # # # # # # # # # # # # # # # # # # ",
"+ +.# % & # # # # # # # # # # # # # # # # # ] # # 3 # E ~                                         ( 8 +.% # # # # # # # # # # # # # # # # # # % % # # , ' ! , , ! ' ,                                                           & , * S # # # # # # # # # # # # # # # # # # # # # # # # # # # # # # # # # # # # # # # # # # # # # # # # # # # # # # # # # # # # # # # # # # # # # # # # # } } } @ @ @ @ & ! _ 5 5                                                     , ' # + + # # # # # # # # # # # # # # # # # % } + % } @ .                                   4 ' ~ ! # # # # # # # # # # # # # # # # % # @ % # u.                                    ' 4 } + % # % + # # # # # # # # # # # # # # # # % $ # # % + { , ' ,                                                                                                                                                                                                                                                       ! , , , , # % % % # # # # # # # # # # # # # # # # # # # # # # # # # # # # # # # # # # k k k k k k # # @ + f m                                                                     } # + % % # # # # % # # # # # # # # # # # # # # # # # # # # # # # # # # # ",
"} # # # # # # # # # # # # # # # # # # # # # & # # * # , M.                                        ] h # ] # # # # # # # # # # # # # # # # # # % # # # ! { s , : ,.,                                                           # ^ b # # $ # # # # # # # # # # # # # # # # # # # # # # # # # # # # # # # # # # # # # # # # # # # # # # # # # # # # # # # # # # # # # # # # # # # # # # # # % % % + + } } } 9 , s 9 S                                                   =+, , % # } ] % # # # # # # # # # # # # # # % } + % ] @ 2                                   4 ' ~ 4 # # # # # # # # # # # # # # # # % % $ + # F.                                    ! 4 } + % # % % # # # # # # # # # # # # # # # # # % % @ @ % ! ' , 7.                                                                                                                z.G                                                                                                                                   c+, { , , # % % % # # # # # # # # # # # # # # # # # # # # # # # # # # # # # # # # # k k A k k k k # # } % 9 M                                                                     @ # + % % # # # # % # # # # # # # # # # # # # # # # # # # # # # # # # # # ",
"8 # @ + # # # # # # # # # # # # # # # # # + % # } & % {                                         V @ $ # ] # # # # # # # # # # # # # # # # # # # # # % { f ..{ b., Q.                                                      1.+ # @ * # # & # # # # # # # # # # # # # # # # # # # # # # # # # # # # # # # # # # # # # # # # # # # # # # # # # # # # # # # # # # # # # # # # # # # # # # # # # # # # % % % % 4 , r 9 , N.                                                  ' ~ & # + +.+ # % # # # # # # # # # # # # % } + % * } ]                                   ' ' ~ { # # # # # # # # # # # # # # # # % % ] } +                                     v.! 4 } + % # % % # # # # # # # # # # # # # # # # # # & * @ % 9 9 !                                                                                                     1 b ] # # # # # % @ $ ] $ b /                                                                                                                         , f , , % % % % # # # # # # # # # # # # # # # # # # # # # # # # # # # # # # # # # k k A k k k k # # % # 4 ~                                                                     ] # + % % # # # # % # # # # # # # # # # # # # # # # # # # # # # # # # # # ",
"8 # @ + # # # # # # # # # # # # # # # # # } # # ] # % 6                                         % * # ] # # # # # # # # # # # # # # # # # % % # # # % 9 r p _ '.D.                                                      c # ] ] # # # + # # # # # # # # # # # # # # # # # # # # # # # # # # # # # # # # # # # # # # # # # # # # # # # # # # # # # # # # # # # # # # # # # # # # # # # # # # # # # # # # # , 9 , f p , `                                                 E 9 h % # $ % # } # # # # # # # # # # # # % } + % 8 % %                                   ' ' { 9 # # # # # # # # # # # # # # # # % + ] } @                                     A.4 { } + % # # % # # # # # # # # # # # # # # # # % # ] & # ] r 9 e                                                                                           B.b @ # # # % ] +.3 @ @ } @ } % # # # # @ } & (                                                                                                                 M 9 ' ' % % % % # # # # # # # # # # # # # # # # # # # # # # # # # # # # # # # # # k k A k k k k # # % % ! 4                                                                     ^ # + % % # # # # % # # # # # # # # # # # # # # # # # # # # # # # # # # # ",
"% ] # # # # # # # # # # # # # # # # # # # + # } & # ]                                         }.] 8 % 8 # # # # # # # # # # # # # # # # # % % # # # % 9 r M ~ C.                                                      / % 3 $ % % } % # # # # # # # # # # # # # # # # # # # # # # # # # # # # # # # # # # # # # # # # # # # # # # # # # # # # # # # # # # # # # # # # # # # # # # # # # # # # # # # # # # , f , M |., 5                                                 k., ^ @ # # } # % # # # # # # # # # # # # % } + % & % #                                   ' ! 4 9 # # # # # # # # # # # # # # # # # % $ % @                                     9 4 { @ + % # # % # # # # # # # # # # # # # # # # + # 8 # # * { 4                                                                                       B.] # # 3 +.h 8 @ # # # # @ % # # % & 8 * 4.h } # % % # # y.`                                                                                                         y., ! ! % % % % # # # # # # # # # # # # # # # # # # # # # # # # # # # # # # # # # k k A k k k k # # % } ! !                                                                     * # + % % # # # # % # # # # # # # # # # # # # # # # # # # # # # # # # # # ",
"# 3 # # % # # # # # # # # # # # # # # # # % # $ % # ^.                                        } ^ # 3 # ] # # # # # # # # # # # # # # # # # # # # # % { f ' ' '+                                                    1 # * @ % % + % # # # # # # # # # # # # # # # # # # # # # # # # # # # # # # # # # # # # # # # # # # # # # # # # # # # # # # # # # # # # # # # # # # # # # # # # # # # % % % % # # # # 4 , 9 5 ' { p E                                                 , % @ % % & @ # # # # # # # # # # # # # % } + % } $ %                                   4 4 ' ~ # # # # # # # # # # # # # # # # # + $ # @                                     ' { ~ @ + % # # # # # # # # # # # # # # # # # # # # # 8 # @ 8 , H                                                                                   / # # * ^ + # % & * * ] @ @ $ # # % @ @ % # # # # # @ * +.^ & , ~ s W.                                                                                                      , 4 4 + + % % # # # # # # # # # # # # # # # # # # # # # # # # # # # # # # # # # k k A k k k k # # + @ ! !                                                                     ^ % + % % # # # # % # # # # # # # # # # # # # # # # # # # # # # # # # # # ",
"@ ^ + # } # # # # # # # # # # # # # # # # # # @ # b                                         T $ ] # +.# ] # # # # # # # # # # # # # # # # # # % # # # ! { , [.                                                    (.% V @ # & 8 # # # % # # # # # # # # # # # # # # # # # # # # # # # # # # # # # # # # # # # # # # # # # # # # # # # # # # # # # # # # # # # # # # # # # # # # # # # # # % % % # # # # # , , M ~ , m .., g.                                              n # # ] % % $ # # # # # # # # # # # # # % } + % # 8 # G                                 { { , { # # # # # # # # # # # # # # # # % } ] # &                                   6., { ~ @ + % # # # # # # # # # # # # # # # # # # # % # $ % ] } S                                                                                 L & % % ] ] + % @ } @ $ & + # # # } # # # # } & ] @ ] ^ $ % # @ 8 t ' , , { Q                                                                                                   r 4 4 + + % % # # # # # # # # # # # # # # # # # # # # # # # # # # # # # # # # # k k A k k k k # # % @ ' ,                                                                     ] % + % % # # # # % # # # # # # # # # # # # # # # # # # # # # # # # # # # ",
"@ # $ # # # # # # # # # # # # # # # # # # # % % # G                                         , $ ] @ # * # # # # # # # # # # # # # # # # # # # % % # # , ' ~                                                     ;+# ] * # b $ # # @ @ % # # # # # # # # # # # # # # # # # # # # # # # # # # # # # # # # # # # # # # # # # # # # # # # # # # # # # # # # # # # # # # # # # # # # # # # # # # # # # # # # # , M { { J _ ' 0 ,                                                 + # ^ # # @ # # # # # # # # # # # # # % } + % # 8 # l.                                ~ { , 4 # # # # # # # # # # # # # # # # % @ ] # $                                   [.' { ~ @ + % # # # # # # # # # # # # # # # # # # # & # + + ^ # e                                                                             N., , + } + # % @ @ % @ + % + @ @ @ % # # % @ & @ + # % # # # @ ] @ # , { s p , , 0 L.                                                                                              y.{ { } + % % # # # # # # # # # # # # # # # # # # # # # # # # # # # # # # # # # k k A k k k k # # % @ , , ++                                                                  ] % + % % # # # # % # # # # # # # # # # # # # # # # # # # # # # # # # # # ",
"@ } + + + # # # # # # # # # # # # # # % } % % % %                                         9 { % + } @ @ } # # # # # # # # # # # # # # % % ] # # V # # 8., 6.                                                  o % # ^ * } # # # # # # # # # # # # # # # # # # # # # # # # # # # # # # # # # # # # # # # # # # # # # # # # # # # # # # # # # # # # # # # # # # # # # # # # # # # # # # # # # # # # # # # # ' ! 4 ~ 9 f M M S ,                                               & # h # # % % # # # # # # # # % % % % % % % % # @ # 3                                 E , , { % % % # # % % % # # # # # # # # } + ] % 8                                   y., 5 9 + % # # # # # # # # # # # # # # # # # # # # + # + ^ @ %                                                                             _ , ! f % % % % % % % % # # # # # # # # # # # # # # # # # # # # # # # # 4 4 4 4 4 4 4 4 F                                                                                             e.! _ # 8 # % # % # # # # # # # # # # # # # # # # # # # # # # # # # # # # # # # k k A k k k k # # @ + 4 , `                                                                   @ % % % % % % # # # # # # # # # # # # # # # # # # # # # # # # # # # # # # ",
"% % % % % # # # # # # # # # # # # # % + @ # ] # w.                                        ! , # # # % % # # # # # # # # # # # # # # # % % } ] * & @ % ~ v                                                     # # }.} # # # # # # # # # # # # # # # # # # # # # # # # # # # # # # # # # # # # # # # # # # # # # # # # # # # # # # # # # # # # # # # # # # # # # # # # # # # # # # # # # # # # # # # # # # , , , , ! 4 4 { , t L                                             b # # & # $ # # # # # # # # # % % % % % % % % # + # 8                                 8.' ' ! % % % # # % % % # # # # # # # # } % & % *                                   |., 5 ~ + % # # # # # # # # # # # # # # # # # # # # } } # ] # b                                                                         6.T r { , ' % % % % % % % % # # # # # # # # # # # # # # # # # # # # # # # # ' ' ' ' ' ' ' ' 5 '                                                                                             ! f # ] # + # # # # # # # # # # # # # # # # # # # # # # # # # # # # # # # # # k k A k k k k # # } + { , M.                                                                  + + % % % % % # # # # # # # # # # # # # # # # # # # # # # # # # # # # # # ",
"# # # # # # # # # # # # # % % % % % } @ @ # ] %                                         9 , , # # # # # # # # # # # # # # # # # # # # % % # ] * # 3 & f                                                   ++}.# # $ # # % # # # # # # # # # # # # # # # # # # # # # # # # # # # # # # # # # # # # # # # # # # # # # # # # # # # # # # # # # # # # # # # # # # # # # # # # # # # # # # # # # # # # # # # # , , , , , , , , , s r                                               # # ] } @ # # # # # # # # # % % % % % % % % % # @ %                                 F ! 4 ' % % % # # % % % # # # # # # # # } # @ + 2                                   5 ! 9 ~ + % % # # # # # # # # # # # # # # # # # # # # 8 # 8 #                                                                         G # # 8 % # } % % % % % % % % # # # # # # # # # # # # # # # # # # # # # # # # , , , , , , , , , { s                                                                                           9 { % & # } % # # # # # # # # # # # # # # # # # # # # # # # # # # # # # # # # k k A k k k k # # % + ~ , l                                                                   % } % % % % % # # # # # # # # # # # # # # # # # # # # # # # # # # # # # # ",
"# # # # # # # # # # # # # % # # % + @ @ @ @ + a                                         , 4 ' # # # % # # # # # # # # # # # # # # # # % % @ # @ $ 8 @ L.                                                  , * 3 % # # @ % # # # # # # # # # # # # # # # # # # # # # # # # # # # # # # # # # # # # # # # # # # # # # # # # # # # # # # # # # # # # # # # # # # # # # # # # # # # # # # # # # # # # # # # # ' ' ' ' , , , , 5 , m T                                             @ * + & # @ # # # # # # # # # # # # # # # # + # $ #                                 &., ~ , % % % # # % % % # # # # # # # # } # } } .                                   , 9 ~ { + % % % # # # # # # # # # # # # # # # # # # # @ # ] }                                                                       7 } & +.} # @ % # # # # # # # # # # # # # # # # # # # # # # # # # # # # # # # # , , , , , , , , ..! 5 ! `                                                                                       t , + } # } % # # # # # # # # # # # # # # # # # # # # # # # # # # # # # # # # k k A k k k k # # # + ~ , U                                                                   + % % % % % % # # # # # # # # # # # # # # # # # # # # # # # # # # # # # # ",
"# # % % % # # # # # # # # # # # # } @ @ + & ]                                         m f ~ 4 % # % % % # # # # # # # # # # # # # # # % % 4.@ ] V # (                                                   _ M # # } @ # # # # # # # # # # # # # # # # # # # # # # # # # # # # # # # # # # # # # # # # # # # # # # # # # # # # # # # # # # # # # # # # # # # # # # # # # # # # # # # # # # # # # # # # # # # ! ! ! ! ' ' ' ' 4 , , ..L                                           r.] @ # # $ # # # # # # # # # # # # # # # # % # & # I                                 , 5 ' % % % # # % % % # # # # # # # # } # + } b                                   , M 4 4 + + % % # # # # # # # # # # # # # # # # # # # # $ % b                                                                     2 } $ 3 ] # @ ^ # # # # # # # # # # # # # # # # # # # # # # # # # # # # # # # # # , , , , , , , , S , 8.c.,                                                                                       W., } + # + % # # # # # # # # # # # # # # # # # # # # # # # # # # # # # # # # k k A k k k k # # # + 9 , l                                                                   @ # % % % % % # # # # # # # # # # # # # # # # # # # # # # # # # # # # # # ",
"% % % % % # # # # # # # # # # # # @ & @ % % U.                                      t#, 5 { ! # # # % # # # # # # # # # # # # # # # # % % ] ] ] 8 %                                                   a.f A.# # % $ # # # # # # # # # # # # # # # # # # # # # # # # # # # # # # # # # # # # # # # # # # # # # # # # # # # # # # # # # # # # # # # # # # # # # # # # # # # # # # # # # # # # # # # # # # # , , , , , , , , 4 m , S ,                                             # * # $ # # # # # # # # # # # # # # # # # # # + % b                                 , M ' % % % # # % % % # # # # # # # # } # } } 4.                                  , M ! 4 + + + % % # # # # # # # # # # # # # # # # # @ # 8 #                                                                     R % ] ] ] + # & & # # # # # # # # # # # # # # # # # # # # # # # # # # # # # # # # # , , , , , , , , , r m f t ~ 6                                                                                     , } % # # # % # # # # # # # # # # # # # # # # # # # # # # # # # # # # # # # k k A k k k k # # # % 9 ' M.                                                                  @ # % % % % % # # # # # # # # # # # # # # # # # # # # # # # # # # # # # # ",
"% % % % % # # # # # # # # # # # % & ] @ + h                                         D.~ ! ~ 4 # # # # # # # # # # # # # # # # # # # # % % # $ % % F.                                                Y Q#r { * ^ # # % @ + # # # # # # # # # # # # # # # # # # # # # # # # # # # # # # # # # # # # # # # # # # # # # # # # # # # # # # # # # # # # # # # # # # # # # # # # # # # # # # # # # # # # # # # # , , , , , , , , ~ ~ S , 4 Q                                           ( } % @ # # # # # # # # # # # # # # # # # # % # ] &                                 , _ , % % % # # % % % # # # # # # # # } # @ + V                                 6., f ! ! + } + % % # # # # # # # # # # # # # # # # # + % & #                                                                   1.# (.% @ @ & 8 } # @ # # # # # # # # # # # # # # # # # # # # # # # # # # # # # # # # , , , , , , , , ! s 9 , S 4 T                                                                                     ' + % } # # + # # # # # # # # # # # # # # # # # # # # # # # # # # # # # # # k k A k k k k # # # % ~ 4 L.                                                                w.} # % % % % % # # # # # # # # # # # # # # # # # # # # # # # # # # # # # # ",
"# # % % % # # # # # # # # % # # + ] 8 $ } 1                                         { { , 5 { % % % % % # # # # # # # # # # # # # # # % % } 3 } $                                                 D '.X G., @ & % # # % % # # # # # # # # # # # # # # # # # # # # # # # # # # # # # # # # # # # # # # # # # # # # # # # # # # # # # # # # # # # # # # # # # # # # # # # # # # # # # # # # # # # # # # # # , , ' ' ' ! ! ! , , s 4 , s                                             , 3 # } # # # # # # # # # # # # # # # # # @ # * #                                 , m , % % % # # % % % # # # # # # # # } # @ + 2                                 L , 9 ' % + } + % % # # # # # # # # # # # # # # # # # # ] + ^                                                                 /.# $ ] ^ 3 } # ^ $ # } # # # # # # # # # # # # # # # # # # # # # # # # # # # # # # # # , , , , , , , , , , r M m M ! 0                                                                                   4 % + @ # # @ # # # # # # # # # # # # # # # # # # # # # # # # # # # # # # # k k A k k k k # # % % ~ {                                                                   *.% % % % % % % # # # # # # # # # # # # # # # # # # # # # # # # # # # # # # ",
"# # # # # # # # # # # # # # ] % # ] @ # ]                                         9.% } # % % # # # # # # # # # # # # # # } @ # # + # % ^ , J ,                                                 @$J+A+, > , # # # # # # # # # # # # # # # # # # # # # # # # # # # # # # # # # # # # # # # # # # # # # # # # # # # # # # # # # # # # # # # # # # # # # # # # # # # # # # # # # # # # # # # # # # # # # # # # # # # # # # # * % ] % $ # b                                           %., 5 { 4 4 @ $ } # # + # # # # # # # # % @ + ] #                                 , s , % % % # # % % % # # # # # # # # @ @ % @ b                                 R., @ # # # k k k k k # # # # # # # # # # # # # # # # 4 ' , S.                                                                @ ] + % # # # # # # # # # # # # # # # # # # # # # # # # # # # # # # # # # # # # # # # # # # # # # # # # # # # % + } } @ 5.                                                                                , @ % $ # % # # # # # # # # # # # # # # # # # # # # # # # # # # # # # # # # k k A k k k k # # % @ 9 ,                                                                   P 4 ~ } + % % # # # # # # # # # # # # # # # # # # # # # # # # # # # # # # # ",
"# # # # # # # # # # # # # @ } % # % ^ # u.                                        % } + # % % # # # # # # # # # # # # # # # @ # % } # # & M 4 ).                                                - , X , , , # # # # # # # # # # # # # # # # # # # # # # # # # # # # # # # # # # # # # # # # # # # # # # # # # # # # # # # # # # # # # # # # # # # # # # # # # # # # # # # # # # # # # # # # # # # # # # # # # # # # # # # # # ] # @ % +                                           >+, M , 4 4 @ & } # # + # # # # # # # # # } % @ #                                 ! r , % % % # # % % % # # # # # # # # + } # } .                                 N.# @ # # k k k k A A # # # # # # # # # # # # # # # # ' ! ,                                                                 r.# ] } % # # # # # # # # # # # # # # # # # # # # # # # # # # # # # # # # # # # # # # # # # # # # # # # # # # # % % % % % f                                                                                 5 & # @ # % # # # # # # # # # # # # # # # # # # # # # # # # # # # # # # # # k k A k k k k # # % @ 9 '                                                                   J , { } + % % # # # # # # # # # # # # # # # # # # # # # # # # # # # # # # # ",
"# # # # # # # # # # # # # $ # % # # $ @                                         b # ] % # % % # # # # # # # # # # # # # # # % % # # # # @ m ,                                                 , , , ' , , , # # # # # # # # # # # # # # # # # # # # # # # # # # # # # # # # # # # # # # # # # # # # # # # # # # # # # # # # # # # # # # # # # # # # # # # # # # # # # # # # # # # # # # # # # # # # # # # # # # # # # # # # # * # @ * # +.                                          , M 4 ~ 4 @ & } # # % # # # # # # # # # } # % % R                               J 9 { % % % # # % % % # # # # # # # # # % # % 2                                 5.# } # # k k k k A A # # # # # # # # # # # # # # # # , 4 ,                                                               w.+ # +.$ + # # # # # # # # # # # # # # # # # # # # # # # # # # # # # # # # # # # # # # # # # # # # # # # # % % # # # # # # , A.                                                                              |.$ # % # % % # # # # # # # # # # # # # # # # # # # # # # # # # # # # # # # k k A k k k k # # } & ~ 9                                                                   s , { } + % % # # # # # # # # # # # # # # # # # # # # # # # # # # # # # # # ",
"# # # # # # # # # # # # # # # @ } @ # 1.                                        # $ * # % % % # # # # # # # # # # # # # # # + + # # @ % 8 , [.                                              b#) , Y : , 5 , # # # # # # # # # # # # # # # # # # # # # # # # # # # # # # # # # # # # # # # # # # # # # # # # # # # # # # # # # # # # # # # # # # # # # # # # # # # # # # # # # # # # # # # # # # # # # # # # # # # # # # # } % * # # 3 + #                                           ,.! s 5 { } @ } # # % # # # # # # # # # + % # $ @                               W.! f % % % # # % % % # # # # # # # # # + # % 3                                 H # } # # k k k k A A # # # # # # # # # # # # # # # # , 4 !                                                               ^ # } 3 @ # # # # # # # # # # # # # # # # # # # # # # # # # # # # # # # # # # # # # # # # # # # # # # # # # # # # # # # # # ' 9                                                                               [.& # # # % % # # # # # # # # # # # # # # # # # # # # # # # # # # # # # # # k k A k k k k # # } & 4 _                                                                   f , 4 } + % % # # # # # # # # # # # # # # # # # # # # # # # # # # # # # # # ",
"# # # # # # # # # # # # # # # $ % ^ #                                          .+ 2 & # $ % % # # # # # # # # # # # # # # @ % @ # # 8 # ] 4                                               >+, C., X , , ! , # # # # # # # # # # # # # # # # # # # # # # # # # # # # # # # # # # # # # # # # # # # # # # # # # # # # # # # # # # # # # # # # # # # # # # # # # # # # # # # # # # # # # # # # # # # # # # # # # # # # # # # } # ] + # & & # ..                                        Y., s M { + @ } # # % # # # # # # # # # % } # * #                                 , 5 % % % # # % % % # # # # # # # # # @ % % *                                 8.# } # # k k k k A A # # # # # # # # # # # # # # # # ! ' s                                                             l.% & ] @ # # # # # # # # # # # # # # # # # # # # # # # # # # # # # # # # # # # # # # # # # # # # # # # # # # # # # % % + } } 9 r r                                                                             L @ % % # # # # # # # # # # # # # # # # # # # # # # # # # # # # # # # # # # k k A k k k k # # % @ ' ..                                                                  9 , 4 } + % % # # # # # # # # # # # # # # # # # # # # # # # # # # # # # # # ",
"# # # # # # # # # # # # # # } # # @ b                                         # ^ ^ # # 8 % % # # # # # # # # # # # # # # % # @ # % $ # @ U                                               , %., Q#, , %., # # # # # # # # # # # # # # # # # # # # # # # # # # # # # # # # % % % % % % % % % % % % % % % % # # # # # # # # # # # # # # # # # # # # # # # # # # # # # # # # # # # # # # # # # # # # # # # # # # # # # # # # % # ] ^ % # } @ ' l                                         { ' r ~ % } } # # # # # # # # # # # # # & # h #                                 , { % % % # # % % % # # # # # # # # % @ + % 8                                 9.# + # # k k k k A A # # # # # # # # # # # # # # # # ~ , n                                                             # ] * $ % % @ # # # # # # # # # # # # # # # # # # # # # # # # # # # # # # # # # # # # # # # # # # # # # # # # # # # % + } @ @ ! f ,                                                                             6.% % % # # # # # # # # # # # # # # # # # # # # # # # # # # # # # # # # # # k k A k k k k # # % @ ' 2.                                                                  { { ! } + % % # # # # # # # # # # # # # # # # # # # # # # # # # # # # # # # ",
"# # # # # # # # # # # # # % % # # @                                         I # 8 # } @ @ % % # # # # # # # # # # # # # # % # @ # % & # R                                               s , E , .., , r , # # # # # # # # # # # # # # # # # # # # # # # # # # # # # # # # % % % % % % % % % % % % % % % % # # # # # # # # # # # # # # # # # # # # # # # # # # # # # # # # # # # # # # # # # # # # # # # # # # # # # # # # # @ @ 8 ] + } + ! m                                         y., m ~ % + + % # # # # # # # # # # + # & # 8 % 1.                              , ~ % % % # # % % % # # # # # # # # % & } # &                                 p # + # # k k k k A A # # # # # # # # # # # # # # # # 9 , v.                                                          ` + ] * & @ + & # # # # # # # # # # # # # # # # # # # # # # # # # # # # # # # # # # # # # # # # # # # # # # # # # # # % % % % + ' 4 , n                                                                             % % # # # # # # # # # # # # # # # # # # # # # # # # # # # # # # # # # # # k k A k k k k # # % $ 4 e                                                                 l , f 4 } + % % # # # # # # # # # # # # # # # # # # # # # # # # # # # # # # # ",
"# # # # # # # # # # # # # $ + # 2 3                                         # +.& # * ^ # % % # # # # # # # # # # # # # # 8 # ^ % } h 3                                               8.{ r , T , 9 , , 9 # # # # # # # # # # # # # # # # # # # # # # # # # # # # # # # # % % % % % % % % % % % % % % % % # # # # # # # # # # # # # # # # # # # # # # # # # # # # # # # # # # # # # # # # # # # # # # # # # # # # # # # # # @ # # & @ + # ~ , 6.                                        ! s 9 % % + % # # # # # # # # # # @ # & # & & V                               f f % % % # # % % % # # # # # # # # % & + # }                                 _ # + # # k k k k A A # # # # # # # # # # # # # # # # ~ , 6.                                                          ! V # $ @ ] # # # # # # # # # # # # # # # # # # # # # # # # # # # # # # # # # # # # # # # # # # # # # # # # # # % % # # # # # # ' , 4 5                                                                             % % # # # # # # # # # # # # # # # # # # # # # # # # # # # # # # # # # # # k k A k k k k # # + ] ~ u                                                                 H , r 4 } + % % # # # # # # # # # # # # # # # # # # # # # # # # # # # # # # # ",
"# # # # # % # # # + @ @ @ } & @ #                                         G 3 # # @ # # @ # # # # # # # # # # # # # # % % } ] # @ $ ] (                                             h.9 5 9 5 5 ~ ' , , , # # # # # # # # # # # # # # # # # # # # # # # # # # # # # # # # & @ } % # # } & ] $ @ @ @ & & & } % % # % } @ & + + % # # # } & % # % $ ] } % @ @ # # } } # % @ # # # # # % % % # # # # # # # # # # # # # # # # # # # # # # # # ! E ,                                         4 _ M % & & # % # # # # # # # # # # # # % % @ *                               :.{ + % % # # # # % # # # # # # # # # & @ } %                                 8.# # # # k k k k A A # # # # # # # # # # # # % % + } { ,                                                             ! % % % % # # # # # # # # # # # # # # # # # # # # # # # # # # # # # # # # # # # # # # # # # # # # # # # # # # # # # # # # # # # , f , ' M.                                                                          # & % % + # # # # # # # # # # # # # # # # # # # # # # # # # # # # # # # # k k A k k k k # # % @ , 6.                                                                8., ~ , # # # # # # # # # # # # # # # # # # # # # # # # # # # # # # # # # # # ",
"# # # # # % # # # + @ @ @ # $ ] }.                                        V } # + & # # % # # # # # # # # # # # # # # % % 8 % ] + ] *                                               m S { ! 4 { 4 ' , , ' # # # # # # # # # # # # # # # # % % % % % % % % # # # # # # # # # # # @ ] ] @ # } + } & 8 ^ $ @ # % @ @ # # # + # # % + % # # # h & % } @ + % % * ] + # # # # # # # # % % % % % # # # # # # # # # # # # # # # # # # # # # # # # ~ 5 9 `                                       F ! ' # @ + # + % # # # # # # # # % # % } # # %                               Q { + % % # # # # % # # # # # # # # # @ } + #                                 c.% + # # k k k k A A # # # # # # # # # # # # % % + } 4 ,                                                           k.' % % # # # # # # # # # # # # # # # # # # # # # # # # # # # # # # # # # # # # # # # # # # # # # # # # # # # # # # # # # # # # # , { , , 7.                                                                          # & # % + # # # # # # # # # # # # # # # # # # # # # # # # # # # # # # # # k k A k k k k # # % @ '                                                                   E , ~ , # # # # # # # # # # # # # # # # # # # # # # # # # # # # # # # # # # # ",
"# # # # # % # # # + @ @ @ # @ +                                           # # # } } # # # # # # # # # # # # # # # # # % % $ # @ @ # /                                             * # 2 @ # % % % # # % % # # # # # # # # # # # # # # # # % % % % % % % % % % % % % % % % } ] ] } # # @ h 8 & } + @ @ } % 7 3.                G R 3 $ % # # # @ ] + # # $ % @ $ @ @ @ } % # # % % % % % % # # # # # # # # # # # # # # # # # # # # # # # # { 4 S ,                                         ! , + @ # # + % # # # # # # # # % # @ & # % # =                             6 ! + % % # # # # % # # # # # # # # % } % % #                                 H # + # # k k k k A A # # # # # # # # # # # # % % + } ! '                                                           p ' % % # # # # # # # # # # # # # # # # # # # # # # # # # # # # # # # # # # # # # # # # # # # # # # # # # # # # # # # # # # # # # , ' 4 , M                                                                           % & # # % # # # # # # # # # # # # # # # # # # # # # # # # # # # # # # # # k k A k k k k # # % @ {                                                                   { , { , # # # # # # # # # # # # # # # # # # # # # # # # # # # # # # # # # # # ",
"# # # # # % # # # + @ @ @ 8 % *                                         E % } } # # # % # # # # # # # # # # # # # # # % % # } # @ #                                             ;+# ] ] @ % % + % # # # % # # # # # # # # # # # # # # # # # # # # # # # # # # # # # # # # ^ % # # & ^ & # # # } V a                                        .3 # # $ h 8 % # + & # # # # # # # # # # % % % # # # # # # # # # # # # # # # # # # # # # # # # ' 9 m , v.                                      .., ] 8 # % % # # # # # # # # # % # $ $ # @ } b                               , + % % # # # # % # # # # # # # # + @ % + #                                 Q # % # # k k k k A A # # # # # # # # # # # # % % + } ' 4                                                           ' 4 % % % % % % # # # # # # # # # # # # # # # # # # # # # # # # # # # # # # # # # # # # # # # # # # # # # # # # # # # # # # # # # 4 , 5 { ,                                                                           + & # # % # # # # # # # # # # # # # # # # # # # # # # # # # # # # # # # # k k A k k k k # # } @ _                                                                 `., , 4 , # # # # # # # # # # # # # # # # # # # # # # # # # # # # # # # # # # # ",
"# # # # # % # # # + @ @ @ 3 #                                           , @ @ % # # % + # # # # # # # # # # # # # # # % % # ] # # *.                                            # ] * % % @ @ @ } % # # % # # # # # # # # # # # # # # # # # # # # # # # # # # # # # # # # # $ * ] # # # & b                                                     d.@ # + 8 ] * * } # # # @ # # # # # # # # # # # # # # # # # # # # # # # # # # # # # # # # ~ 4 r 5 ~                                       v.4 $ ^ % @ # # # # # # # # # # } # & } # & ] @                               4 + % % # # # # % # # # # # # # # @ @ % @ #                                 q # + % # k k k k A A # # # # # # # # # # # # % % + } , ~                                                           ! { } + + + % % % # # # # # # # # # # # # # # # # # # # # # # # # # # # # # # # # # # # # # # # # # # # # # # # # # # # # # # # # ~ , 5 M , ++                                                                        + & # # % # # # # # # # # # # # # # # # # # # # # # # # # # # # # # # # # k k A k k k k # # @ % 2.                                                                x., { ! , # # # # # # # # # # # # # # # # # # # # # # # # # # # # # # # # # # # ",
"# # # # # % # # # + @ @ @ ] #                                         e , # # # # + @ % # # # # # # # # # # # # # # # % % % % @ #                                             3 @ 3 % @ @ @ & & @ % # # # # # # # # # # # # # # # # # # # # # # # # # # # # # # # # # # # # + } # # 7                                                                 R # # # % ] ^ & } @ % % # # # # # # # # # # # # # # # # # # # # # # # # # # # # # # m , r { , k.                                      p + $ % & # # # # # # # # # # } # @ # % % $ #                               S + % % # # # # % # # # # # # # # @ @ % & # <.                              k.# % % % C C k k A A # # # # # # # # # # # # % % + } ' 9                                                         a+! { } + + % % % % # # # # # # # # # # # # # # # # # # # # # # # # # # # # # # # # # # # # # # # # # # # # # # # # # # # # # # # # ! , 4 M , y.                                                                        % & # # % # # # # # # # # # # # # # # # # # # # # # # # # # # # # # # # # k k A k k k k # # & # v.                                                                s 4 ~ , , # # # # # # # # # # # # # # # # # # # # # # # # # # # # # # # # # # # ",
"# # # # # % # # # + @ @ @ % B.                                        9 { % # # % } + # # # # # # # # # # # # # # # # % % # % & G                                           1.% }.^ % % 8 } @ @ } % # # % # # # # # # # # # # # # # # # # % % % % % % % % + + + + + + + + & # # l.                                                                        1.3 # # & % # # + + + % % % % % # # # # # # # # # # # # # # # # # # # # # # # # _ { ~ 4 5 9                                       Q } @ % $ # % # # # # # # # # # # } # & # & # &.                            ).+ % % # # # # % # # # # # # # # } + % & # 1                               &.# % % % $.C C k A A # # # # # # # # # # # # % % + } ! 9                                                         P.! ! % % % % # # # # # # # # # # # # # # # # # # # # # # # # # # # # # # # # # # # # # # # # # # # # # # # # # # # # # # # # # # # , , ! 5 , T                                                                         # & # % + # # # # # # # # # # # # # # # # # # # # # # # # # # # # # # # # k k A k k k k # # @ #                                                                   ! 9 ! , ' # # # # # # # # # # # # # # # # # # # # # # # # # # # # # # # # # # # ",
"# # # # # % # # # + @ @ @ $                                         q , { 8 + # % % # # @ # # # # # # # # # # # # # # % % % * &                                             % * * + $ # ] # % + % # # # % # # # # # # # # # # # # # # # # } } } } } } } } @ @ @ @ ~ ~ ~ ~ ' 1.                                                                                [.$ 4 % ~ h @ @ @ @ } + + + # # # # # # # # # # # # # # # # # # # # # # # # { .., s r , S.                                    6 ] & % $ # + # # # # # # # # # % } # * # ] % 0                             N.+ % % # # # # % # # # # # # # # + % # & # R                               6.4 @ % % % C C k k k # # # # # # # # # # # # % % + } ! 9                                                         ) 4 , # # # # # # # # # # # # # # # # # # # # # # # # # # # # # # # # # # # # # # # # # # # # # # # # # # # # # # # # # # # # # # # , ~ { 5 , 4                                                                         # & % % + # # # # # # # # # # # # # # # # # # # # # # # # # # # # # # # # # k k k k k k # # } #                                                                   , 9 , , { # # # # # # # # # # # # # # # # # # # # # # # # # # # # # # # # # # # ",
"# # # # # & # & # # # t , S.                                        * ] # % % # # # # # # # # # # # # # # # @ # # % % ! , 9 , L.                                          ] 8 ] $ } # # # # # # # # # # # # # # # # # # # % % % % % % % % + + @ @ @ } 4 ! 9 ! ! p < , b.E.                                                                                        [ , ) _ ! r ' , 9 ' , _ 9 { ' , , , , ' # # # # # % % % # # # # # # # # # h } @ +.# *                                       * # % # $ # # # # # # # # # % % # % } } + % *                               , # # } + # % + # # # # # # # # % # + @ # 8                                 , ~ ! % % # # # % % # # # # # # # # # # # % % % + + { !                                                         '.9 , # # # # # # # # # # # # # # # # # # # # # # # # # # # # # # # # # # # # # # # # # # # # # # # # # # # # # # # # # # # # # # # # # % ] # %                                                                         @ + # % # # # # # # # # # # # # # # # # # # # # # # # # # # # # # # # # # # % % % % % % ' ' , 5                                                                 r.@ ] # # % # # # # # # # # # # # # # # # # # # # # # # # # # # # # # # # # # # # ",
"# # # # # } # @ # % @ 5 4                                           + @ # % % # # # # # # # # # # # # # # # # # } } # , , , m                                             @ & & @ + # # # # # # # # # # # # # # # # # # # % % % % % # # # # # } @ @ $ 5 ~ r 9 X X : G.                                                                                                T.a., f { , 4 9 4 4 9 ~ ! , , , ' ! # # # # # % % % # # # # # # # # @ ^ # # h @ @ I                                     (.& % @ # # # # # # # # # # % # # % } } + % #                               ' # # % # # } @ # # # # # # # # % # } & # &                                 4 9 { 4 % % # # % % # # # # # # # # # # # % % % + + { !                                                         ) 9 , # # # # # # # # # # # # # # # # # # # # # # # # # # # # # # # # # # # # # # # # # # # # # # # # # # # # # # # # # # # # # # # # # + ] # +                                                                         % % % % # # # # # # # # # # # # # # # # # # # # # # # # # # # # # # # # # # % % % % % % ' ' ' 8.                                                                2 % } # # # # # # # # # # # # # # # # # # # # # # # # # # # # # # # # # # # # # # ",
"# # # # # % % % # @ ] , e                                         3 % } } % % # # # # # # # # # # # # # # } # # $ % # , 4 , 6                                           # % + @ } % # # % # # # # # # # # # # # # # # # # # # # # # # # # # + @ % + & 5 ! , p ) , 8+                                                                                                    V.! , 4 s M 4 ' , 9 { 4 ' , , ' ! # # # # # # % % # # # # # # # # @ ] # # ] * % #                                       $ } % # % # # # # # # # # % # # % + } % % #                               m # # # # # } % # # # # # # # # @ # + ] # %                                 4 ' 9 ~ } % % % # % # # # # # # # # # # # % % % + + ! !                                                         , ~ , # # # # # # # # # # # # # # # # # # # # # # # # # # # # # # # # # # # # # # # # # # # # # # # # # # # # # # # # # # # # # # # % % + $ # +                                                                       ` # % + # # # # # # # # # # # # # # # # # # # # # # # # # # # # # # # # # # # # # # # # # , , 5 L                                                                 @ @ @ # + # # # # # # # # # # # # # # # # # # # # # # # # # # # # # # # # # # # # ",
"# # # # # # } # # + + ,                                           # + + + % % # # # # # # # # # # # # # # ] # % % # % { ~ m                                           1 # % + @ } % # # # # # # # # # # # # # # # # # # # # # # # # # # # % @ @ % } 8 r 4 , , c+                                                                                                            0 , M M { 9 ! { 4 ! , , , ' ' # # # # # # # # # # # # # # # # # @ 8 & + & @ # c                                     ^ & # + # # # # # # # # # % # # % + } % # + t.                            c.% % % # % # # # # # # # # # # $ # % $ # #                                 f , f 5 @ + % % # # # # # # # # # # # # # % % % % % , 4                                                         , { , # # # # # # # # # # # # # # # # # # # # # # # # # # # # # # # # # # # # # # # # # # # # # # # # # # # # # # # # # # # # # # # # % % @ # }                                                                       W.# + @ # # % # # # # # # # # # # # # # # # # # # # # # # # # # # # # # # # # # # # # # # , , 9                                                                   # ] @ # @ % # # # # # # # # # # # # # # # # # # # # # # # # # # # # # # # # # # # ",
"# # # # % # } # @ # # n                                         r.# % # % % % # # # # # # # # # # # # # # } # @ # # ] , , e.                                          # ^ } @ @ @ % # # # # # # # # # # # # # # # # # # # # # # # # % % % % + @ @ & $ ~ ' {                                                                                                                   y.{ , , S m ! ' ' , , , , , # # # # # # # # # # # # # # # # % % * * # # ] $ }                                     B.# # & % # # # # # # # # # # # % + + % # % &                             M.+ # + # @ # # # # # # # # # # ] # % @ # # ++                              |., f 5 @ + % % # # # # # # # # # # # # % % % % % % , !                                                         : 4 , # # # # # # # # # # # # # # # # # # # # # # # # # # # # # # # # # # # # # # # # # # # # # # # # # # # # # # # # # # # # # # # # % % } # @                                                                       n } } @ # # % # # # # # # # # # # # # # # # # # # # # # # # # # # # # # # # # # # # # # # , , 9                                                                 u # & % # % # # # # # # # # # # # # # # # # # # # # # # # # # # # # # # # # # # # # ",
"# % % % % # @ # & # @                                           @ @ + % @ % % # # # # # # # # # # # # # # # # 8 # % ] , M                                           * # ] @ @ @ @ % # # # # # # # # # # # # # # # # # # # # # # % % % + + % % } @ # # 4 ..                                                                                                                        { , ! 5 ' ' ' ' ' ' ' ' % % # # # # # # # # # # # # # # ] # + & # # @ ] } r.                                    # ] # # # # # # # # # # # # # # % + % # # #                               & # @ % ] # + # # # # # # # # $ # % % # } Q                               [., 9 ~ } % % % # % # # # # # # # # % % % % % % % % , ! k.                                                      D.4 , # # # # # # # # # # # # # # # # # # # # # # # # # # # # # # # # # # # # # # # # # # # # # # # # # # # # # # # # # # # # # # # # % % } # ]                                                                       S ] } } # % # # # # # # # # # # # # # # # # # # # # # # # # # # # # # # # # # % % % % % % ' ' t                                                                 S % $ % # % # # # # # # # # # # # # # # # # # # # # # # # # # # # # # # # # # # # # ",
"% % % % % # ] % } } R                                         r.% % & % & % % # # # # # # # # # # # # # # % % ^ # 8 & , `                                           # } % % % } + # # # # # # # # # # # # # # # # # # # # # # % % + } } @ & % + + # @ M.                                                                                                                            |., ' ! 4 4 { { 4 4 4 % % % # # # # # # # # # # # # # + % # # # % + } ] ]                                     t.+ # # # # # # # # # # # # # # % % % # + # G                             2 # & + ] # ] # # # # # # # # } # @ # % & s                               `., { 4 % % # # % % # # # # # # # # % % % % % % % % ! , _.                                                      m.! , # # # # # # # # # # # # # # # # # # # # # # # # # # # # # # # # # # # # # # # # # # # # # # # # # # # # # # # # # # # # # # # % } } @ % h                                                                       , * % # # @ # # # # # # # # # # # # # # # # # # # # # # # # # # # # # # # # # % % % % % % ! ! q                                                                 , 8 & % @ + % # # # # # # # # # # # # # # # # # # # # # # # # # # # # # # # # # # # ",
"% % % % % # * @ % ] B.                                        # + # & # # % % # # # # # # # # # # # # # # 8 } $ # * @ 9                                           3 # # % # # % # # # # # # # # # # # # # # # # # # # # # % % % + } @ @ @ $ # # @ & /                                                                                                                                 p { { ~ ~ 9 9 9 ~ ~ % % % # # # # # # # # # # # # # # } } # # + } @ % # G                                     # 8 & # # # # # # # # # # # # % % % # @ # b                             R % ] + $ # 8 # # # # # # # # # # & # % ] ,                                 ! ! ! % # # # % % # # # # # # # # % % % % % % % % ~ , 8.                                                      b+' , # # # # # # # # # # # # # # # # # # # # # # # # # # # # # # # # # # # # # # # # # # # # # # # # # # # # # # # # # # # # # # # % @ & $ @ 2                                                                       , h # # # $ # # # # # # # # # # # # # # # # # # # # # # # # # # # # # # # # # + + + + + + 4 4                                                                 L., * # # } # # # # # # # # # # # # # # # # # # # # # # # # # # # # # # # # # # # # # ",
"# # # + @ ] # 3 # }.                                        W.# $ # @ # # # # # # # # # # # # # # # # # # % $ # % ] # U                                         G # % +.# # # # # # # # # # # # # # # # # # # # # # % % % # % # * . # # 3 $ ^ # #                                                                                                                                       v , t r , 9 , , r @ + % # # # # % # # # # # # # # # # # # # # # # +.} %                                     ^ & ] @ @ @ } % # # % # # # % % % % % # ^ #                             G @ % # * # & # # # # # # # # @ # @ # % # 9                                 , ~ { % % % % % % # # # # # # # # # # # # # # # # ~ , 5                                                       !#' ' % % % % % % % # # # # # # # # # # # # # # # # # # # # # # # # # # # # # # # # # # # # # # # # # # # # # # # # # # # # # # # # % & @ @ # c                                                                       { $ % } # # % # # # # # # # # # # # # # # # # # # # # # # # # # # # # # # # # # ^ # # $ $ 5 ,                                                                 { { + % % % # # # # # # # # # # # # # # # # # # # # # # # # # # # # # # # # # # # # # ",
"# # # + @ # & % } ^.                                        t # @ # @ # % # # # # # # # # # # # # # # # # @ * # % $ &                                           ] } @ # } # # # # # # # # # # # # # # # # # # # # # # # # + } } # # 8 * % } & ]                                                                                                                                           F { , _ 5 s S , @ } % # # # # % # # # # # # # # # # # # # # # # $ # # a                                   z.# 3 @ @ @ } % # # % # # # % % % % % % $ #                               $ } @ * # ] # # # # # # # # + # & # % # ,                                 M ~ 9 @ } % # # % # # # # # # # # # # # # # # # # ' , !                                                         , ~ % # # # % # # # # # # # # # # # # # # # # # # # # # # # # # # # # # # # # # # # # # # # # # # # # # # # # # # # # # # # # # # % @ @ * % z.                                                                      , @ # % # % % # # # # # # # # # # # # # # # # # # # # # # # # # # # # # # # # # ] # % @ @ , t                                                                 { { + % % % # # # # # # # # # # # # # # # # # # # # # # # # # # # # # # # # # # # # # ",
"# # # + @ # +.# 3                                         ++, # % # } # + # # # # # # # # # # # # # # # # % ^ % % % c                                         ( # ^ 8 # } # # # # # # # # # # # # # # # # # # # # # # # # + # ] ^ # % }.@ # V                                                                                                                                               k., 9 f 9 r 4 @ } % # # # # % # # # # # # # # # # # # # # # # @ @ % #                                     # 3 @ @ @ } % # # % # # # % % % % % } + # r.                            & % } @ % @ # # # # # # # # # # & # + + , u                               P { 9 $ @ % # # # # # # # # # # # # # # # # # # # ' , ,                                                         , 9 % # # # # # # # # # # # # # # # # # # # # # # # # # # # # # # # # # # # # # # # # # # # # # # # # # # # # # # # # # # # # # # % } @ 2 @                                                                       y., + # # # @ % # # # # # # # # # # # # # # # # # # # # # # # # # # # # # # # # # & % & @ @ , ++                                                              `.{ { + % % % # # # # # # # # # # # # # # # # # # # # # # # # # # # # # # # # # # # # # ",
"# # # + @ % ] # u.                                        E , $ % # } # % # # # # # # # # # # # # # # # # % ] @ + #                                           # @ % @ ] # # # # # # # # # # # # # # # # # # # # # # # # # # # $ * % + ] # b                                                                                                                                                   M., ~ { , m @ } % % # # % % # # # # # # # # # # # # # # # # @ ] 8 # U.                                  2 & @ @ @ } % # # % # # # % % % % % % % # @                             2 # + # @ % # # # # # # # # # # @ # + & , E                               q , { & @ # # # % # # # # # # # # # # # # # # # # { , 4 &.                                                      p , # # # # # # # # # # # # # # # # # # # # # # # # # # # # # # # # # # # # # # # # # # # # # # # # # # # # # # # # # # # # # # # # @ @ ] @                                                                       E , + % # % @ # # # # # # # # # # # # # # # # # # # # # # # # # # # # # # # # # # + @ 8 & @ ,                                                                 S { { + % % % # # # # # # # # # # # # # # # # # # # # # # # # # # # # # # # # # # # # # ",
"# # # + @ @ # @                                           4 ~ ] # # } # # # # # # # # # # # # # # # # # # ] $ $ } V                                         ..% ^ # # ] # # # # # # # # # # # # # # # # # % % # # # # # # # & # # & ] } 8                                                                                                                                                       `.5 f { , @ @ + % # # % % # # # # # # # # # # # # # # # # % } @ % @                                     # @ @ @ } % # # % # # # % % % % % # @ # +                             ^.% @ # $ @ # # # # # # # # % % % # # $ , 4                                 , ' + % # # # % # # # # # # # # # # # # # # # # 4 , f 7.                                                      F , # @ @ # # # + # # # # # # # # # # # # # # # # # # # # # # # # # # # # # # # # # # # # # # # # # # # # # # # # # # # # # # # # # ] & # 2                                                                       4 ~ + @ # % } # # # # # # # # # # # # # # # # # # # # # # # # # # # # # # # # # % % $ $ @ + E                                                                 , { { + % % % # # # # # # # # # # # # # # # # # # # # # # # # # # # # # # # # # # # # # ",
"# # # + @ % # r.                                        x.~ ~ + # # % % # # # # # # # # # # # # # # # # # ] } % &                                           , $ % 8 # # @ # # # # # # # # # # # # # # # # % % % % % % + + } + # & ] # }.                                                                                                                                                          R., 5 5 @ @ + % % % % % # # # # # # # # # # # # # # # # % % # ] # 1                                   & @ @ @ } % # # % # # # % % % % % % & % ] 1                             & + # % @ # # # # # # # # % % # # # @ ~ ,                                 4 ! # # # # # # # # # # # # # # # # # # # # # # , , f ..                                                        , @ ] $ % # # % # # # # # # # # # # # # # # # # # # # # # # # # # # # # # # # # # # # # # # # # # # # # # # # # # # # # # # # # # $ ] # ^.                                                                      , m # ] % % % # # # # # # # # # # # # # # # # # # # # # # # # # # # # # # # # # } % ] % + # v.                                                              k.! { { + % % % # # # # # # # # # # # # # # # # # # # # # # # # # # # # # # # # # # % % % ",
"# # # + @ % }                                           9 _ ' # + # # @ # # # # # # # # # # # # # # # # # % + # (                                         ..M @ % * + # $ # # # # # # # # # # # # # # # # # % % + } @ @ @ @ # + 2 $ ]                                                                                                                                                               u m ..& @ + % % % % % # # # # # # # # # # # # # # # # + & % @ + 8                                   u.@ @ @ } % # # % # # # % % % % % % # & $ 8                             h + % # @ # # # # # # # # % % # # # # 9 , l                               m 5 # # # % # # # # # # # # # # # # # # # # # # , , 5 ~                                                         S ^ ] @ + % # # # # # # # # # # # # # # # # # # # # # # # # # # # # # # # # # # # # # # # # # # # # # # # # # # # # # # # # # # # # ^ +                                                                       6 , S # ^ + # # # # # # # # # # # # # # # # # # # # # # # # # # # # # # # # # # # % # ^ # @ %                                                                 ..5 { { + % % % # # # # # # # # # # # # # # # # # # # # # # # # # # # # # # # # # # + + + ",
"# # # + @ @ ]                                         _.' T , # 8 # # @ # # # # # # # # # # # # # # # # # # ] ] =                                       6.' ..# 8 # % @ # # # # # # # # # # # # # # # # # # % % + @ & $ $ # @ 8 # '                                                                                                                                                                   ).! 5 ~ { % ' % % + # # # # # # # # # # # # # # # # # ^ @ # h # V                                   @ @ @ } % # # % # # # % % % % % % # ] % #                             7 ] ] # ] # # # # # # # # # # # } # # { , A.                              J m % # % + # # # # # # # # # # # # # # # # # # ! , 9 ,                                                         x.2 & % } } # # # # # # # # # # # # # # # # # # # # # # # # # # # # # # # # # # # # # # # # # # # # # # # # # # # # # # # # # # + # * 3                                                                       P , h # ^ } # # % # # # # # # # # # # # # # # # # # # # # # # # # # # # # # # # # # # ^ # ^ ]                                                                 , 4 { { + % % % # # # # # # # # # # # # # # # # # # # # # # # # # # # # # # # # # # } } } ",
"# # + @ % ,                                           & @ $ @ % # % % # # # # # # # # # # # # # # # # # # 9 ~ _                                         3 } } + % % % # # # # # # # # # # # # # # # # # # # @ % # @ 8 { , _ .., 9                                                                                                                                                                       : %.' > , ,.f , _ , , # # # # # # # # # # # # # # 8 } # @ ^ # 3                                   E 8 @ & % # # + # # # # # # # # $.k C #.k #$                            # # & } % % # # # # # # % % # # # # # # }                               L., % # @ # } # # # # # # # # # # # # # # # # # # # 3 # (                                                         % } 8 ] # $ } + % % # # # # # # # # # # # # # # # # # # # # # # # # # # # # # # # # # # # # # # # # # # # # # # # # # # % % % ! f ! Z                                                                       # } } + $.$.C k k # # # # # # # # # # # # # # # # # # # # # # # # # # # # # # # # M , S ~ , 7.                                                              c % # @ } + + % % # # # # # # # # # # # # # # # # # # # # # # # # # # # # # # # # # # ] # ] ",
"# # } % # O.                                        f.} % $ @ % # % % # # # # # # # # # # # # # # # # # # f ,                                           $ @ @ @ } + % % % # # # # # # # # # # # # # # # # # # % $ ] $ M s 9 5 ,.                                                                                                                                                                          , X#, > , , 2., , , # # # # # # # # # # # # # # @ @ } & $ % ] t.                                  + # % % ] # # # # # # # # # k x A C x k j                             @ % + # % % # # # # # # % # # # # # # % #                                 , & # % + # % # # # # # # # # # # # # # # # # % # $ # +.                                                        3 @ $ # +.# @ # # # # # # % % # # # # # # # # # # # # # # # # # # # # # # # # # # # # # # # # # # # # # # # # @ } + % + + % % , E ,                                                                         } } } x $.$.C A A # # # # # # # # # # # # # # # # # # # # # # # # # # # # # # # # ' , f M !                                                                 * # ^ } } + % % % # # # # # # # # # # # # # # # # # # # # # # # # # # # # # # # # # # ] # ] ",
"# } @ # # 6.                                        8 @ % $ @ % # % % # # # # # # # # # # % # # # # # # % f !                                         % # $ $ & @ } + % % # # # # # # # # # # # # # # # # + # + ^ } # 5 p 5 ,                                                                                                                                                                               A+, ,., ) r , , , # # # # # # # # # # # # # # @ & ] @ # & $ #                                   ^ # % # ] # # # # # # # # # k C A C k x %+                            t.& % # % % # # # # # # % # # # # # % % # 1.                              p $ # # @ # @ # # # # # # # # # # # # # # # # % % % # $                                                           + $ # V # # # # # # # % % % # # # # # # # # # # # # # # # # # # # # # # # # # # # # # # # # # # # # # # # # % % # # # # # # , 9 v                                                                       ^.$ } } x $.$.C A A # # # # # # # # # # # # # # # # # # # # # # # # # # # # # # # # , { { 5 _                                                                 # # +.+ + + % % % # # # # # # # # # # # # # # # # # # # # # # # # # # # # # # # # # # @ } $ ",
"# & } # ^                                           $ % % $ @ % # % % # # # # # # # # # # # # # % % % % % 4 S.                                      B.% # $ $ @ @ + % % # # # # # # # # # # # # # # # # # $ # % ] + % r M , U                                                                                                                                                                               $$) b.> ,., { , , # # # # # # # # # # # # # # ] + $ + # & h # g                                 U.# ] # # # + # # # # # # # k k A $.$.!.k ;+                            @ & } % % # # # # # # # # # # # # % % % ^                               L # + } + # @ # # # # # # # # # # # # # # # # # @ # @ $ 1.                                                        }.% @ @ }.# # # % % % % % % # # # # # # # # # # # # # # # # # # # # # # # # # # # # # # # # # # # # # # # # # # # # # # % % , ,                                                                         }.@ } } x $.$.C A A # # # # # # # # # # # # # # # # # # # # # # # # # # # # # # # # , m ~ , _.                                                              g % # @ + % % % % # # # # # # # # # # # # # # # # # # # # # # # # # # # # # # # # # # # # % + ",
"% $ # @ 1.                                        }.] # % $ @ % # % % # # # # # # # # # # # % } @ & @ + % {                                         # ^ # @ @ } + % # # # # # # # # # # # # # # # # # # # # # % ] 8 * _ { T                                                                                                                                                                                   T.X Y , E 9 , , # # # # # # # # # # # # # # $ # } & # # ^ & #                                   # & } # ] # # # # # # # # k k A $.-.@.k V                             ] ] ] % % # # # # # # # # # # # # % % ] %                                 # % & # $ # # # # # # # # # # # # # # # # # # } # ] @ 3                                                           # @ # V # @ @ @ @ } % # # # # # # # # # # # # # # # # # # # # # # # # # # # # # # # # # # # # # # # # # # % } @ @ } + } @ , Q                                                                         * # } } x $.$.C A A # # # # # # # # # # # # # # # # # # # # # # # # # # # # # # # # ! _ ~ ,                                                                 # ] # # % % % % % # # # # # # # # # # # # # # # # # # # # # # # # # # # # # # # # # # # % # % ",
"@ $ # b                                           % # @ @ $ @ % # % % # # # # # # # # # # # % @ $ ] & @ } 7.                                        % # + % % % # # # # # # # # # # # # # # # # # # # # # # + % @ * } ' T                                                                                                                                                                                       P., Y T ' , , # # # # # # # # # # # # # # # # % ] % # # @ # c                                 +.# 8 # h # # # # # # # # k x A k {.z k %                             R } ] % % # # # # # # # # # # # % % + * }                                 @ # } # 8 # # # # # # # # # # # # # # # # # % # # + % @                                                           . + # % ^ & & & & @ + # # # # # # # # # # # # # # # # # # # # # # # # # # # # # # # # # # # # # # # # # # } & ] ] } % % % {                                                                         6.+.# } } x $.$.C A A # # # # # # # # # # # # # # # # # # # # # # # # # # # # # # # # , 9 ! S                                                               = # } # % % % % # # # # # # # # # # # # # # # # # # # # # # # # # # # # # # # # # # # # # @ % & ",
"$ ] # <.                                        U.# % ^ @ $ @ % # % % # # # # # # # # # # + + } } @ @ & &                                         * ] # # # # # # # # # # # # # # # # # # # # # # # # # # # $ # % 8 # t                                                                                                                                                                                           j.j., { , , # # # # # # # # # # # # # # # % % } @ # # @ % ]                                   # ] & + % # # # # # # # k %+B k ~.$.-.# r.                            # ^ % % # # # # # # # # # # # % % + & @ b                               1.% # # } # # # # # # # # # # # # # # # # # } # # + # % U                                                           4.# # * @ @ @ & @ + % # # # # # # # # # # # # # # # # # # # # # # # # # # # # # # # # # # # # # # # # # # + $ $ } % + @                                                                           8.$ # } } x $.$.C A A # # # # # # # # # # # # # # # # # # # # # # # # # # # # # # # # , f , U                                                               3 # # # + # # # # # # # # # # # # # # # # # # # # # # # # # # # # # # # # # # # # # # # # } } ^ ",
"$ 8 %                                           * # * ] # $ @ % # % % # # # # # # # # # # @ } % # % } $ ]                                         # # ] # # # # # # # % % # # # # # # # # # # # # # # # # # & # # +.}                                                                                                                                                                                               , 9 m , , # # # # # # # # # # # # # # # ] # # } @ # ] & # 3                                 } % @ # +.# # # # # # # k x A k z k !.} #                             # +.% % # # # # # # # # # # # % % + # % %                                 @ # $ # @ # # # # # # # # # # # # # # # # % # ] ] % % !                                                           <.# +.@ % + } @ @ } % # # # # # # # # # # # # # # # # # # # # # # # # # # # # # # # # # # # # # # # # # # % ] 8 ] ] * 3                                                                           9 # } } } x $.$.C A A # # # # # # # # # # # # # # # # # # # # # # # # # # # # # # # # ' p ,                                                                 # @ + # # # # # # # # # # # # # # # # # # # # # # # # # # # # # # # # # # # # # # # # # # # } * ",
"] # }.                                        I # 8 % # ] @ } + + % % # # # # # # # # # # # $ # * # 8 #                                         # ^ @ # % # # # # # # # # # # # # # # # # % % # # # # # # # } & # # R                                                                                                                                                                                               D p , f , * + # + # } # # # # # # # # % # # # # % % + # + #                                 (.% # # $ % % # # # # # k k A C $.x %+} }                             ( $ ] & # @ % # & # # # # # # # % + +.@ # w.                              $ & % # @ % % # # # # # # # # # # # # # # # # ] @ $ & M                                                             3.# & * @ } @ + } } # + % % # # # # # # # # # # # # # # # # # # # # # # # # # # # # # % % # # # # # # # # 8 $ @ # 3                                                                           U 9 % @ @ } x x $.C A A # # # # # # # # # # # # # # # # # # # # # # # # # # # % % # # # M 5 |.                                                              7 # ] % # @ # # # # # # # # # # # # # # # # # # # # # # # # # # # # # # # # # # # # # # # # # ^ @ ",
"8 @                                           b # & % $ & } } + % % % # # # # # # # # # # # ] # ] @ # 4.                                        % ] % # % # # # # # # # # # # # # # # # # % % # # # # # % @ # # } V                                                                                                                                                                                                   c.9 4 9 # # @ # # + # # # # # # # # % # # # # % % + @ % # /                                 # & # % + + % # # # # k k A C $.x x + + (                             } % @ # # % # @ # # # # # # # % + ] } # d.                              U.# $ # % % % % # # # # # # # # # # # # # % # @ @ } # ! c.                                                            * @ 8 $ 8 8 & $ @ # # # # # # # # # # # # # # # # # # # # # # # # # # # # # # # # # % % # # # # # % ] @ 8 8 $ # w.                                                                          8., # + } } x $.C C A A # # # # # # # # # # # # # # # # # # # # # # # # # # # # # # # # , ' v.                                                              $ @ & # # } # # # # # # # # # # # # # # # # # # # # # # # # # # # # # # # # # # # # # # # # % @ + ",
"} 3                                           % @ @ % 3 % + + + % % % # # # # # # # # # # # $ # $ ] #                                         + ] $ # + # # # # # # # # # # # # # # # # # % % # # # % % % % # @ +                                                                                           = l.h @ } % # # # ] b 1.                                                                                    c., T # # ] # } # # # # # # # # # % # # # # % % + & % # &                                 * 8 % # @ } + % % # # k k A C $.x x + + #                             +.# & # # % # % # # # # # # # % + @ @ # *                                 # & # # % % % % # # # # # # # # # # # # % # # $ + # ~ ,                                                               V @ $ # } 4.# # h # # # # # # % % # # # # # # # # # # # # # # # # # # # # # # # # % % % % % % % % % # V @ #                                                                               5 , # } + + x $.C C A A # # # # # # # # # # # # # # # # # # # # # # # # # # # % % % # # , 9                                                               c # 8 $ # @ + # # # # # # # # # # # # # # # # # # # # # # # # # # # # # # # # # # # # # # # # $ # & ",
"# <.                                        b # ] $ # 8 # + % % % % # # # # # # # # # # # # & # 8 % ]                                         # 8 @ # @ # # # # # # # # # # # # # # # # # % % # # % % + } # +.# ;+                                                                                  #+].9 _ % # # # % + % ] $ } # # # # } 4.=                                                                             , s } @ } + ^ # # # # # # # # # % # # # # % % + % @ ] # b                                 % $ @ & @ } + % % % C k A C $.$.$.% % # ^.                          G # ] @ # @ # # % # # # # # # % + } ] ] # ;+                              * # @ @ + % % % # # # # # # # # # # # # # % # * } # 9., 5.                                                              ] ^ } # @ +.] # & & @ @ } % % # # # # # # # # # # # # # # # # # # # # # # # # # # % % + + + + + + # 3 + t.                                                                            8.{ 4 + % + % $.C C k A A # # # # # # # # # # # # # # # # # # # # # # # # # % % + + + % % ' x.                                                              @ # ] ^ # % + # # # # # # # # # # # # # # # # # # # # # # # # # # # # # # # # # # # # # # # # } # * ",
"+                                           ] ] + @ # # # % % % % % # # # # # # # # # # # % $ * $ # o                                       R } @ + # @ # # # # # # # # # # # # # # # # # % % % % % } @ @ @ * 3                                                                               C#) , , , , 4 } @ & $ $ @ @ # # # # + @ @ } ] # # V                                                                           4 % ] # $ $ # # # # # # # # # % # # # # % % + # ] * # ]                                 % 8 ] $ & @ + % % % C k A C C $.$.% % & +                             + @ $ @ } % # @ # # # # # # % + % ] * # V                               /.# ^ ] } + + % % # # # # # # # # # # # # % # * } % :., M                                                                 * # b $ $ 2 # $ $ $ & @ + % # # # # # # # # # # # # # # # # # # # # # # # # # # % + } @ @ @ @ * 3 @ z.                                                                              M ! , + # % % C C C k A A # # # # # # # # # # # # # # # # # # # # # # # # % + } @ @ @ @ @ ' L.                                                              % + # * # # @ # # # # # # # # # # # # # # # # # # # # # # # # # # # # # # # # # # # # # # # # # + ^ ",
" .                                        Q @ * # # % # % % % % # # # # # # # # # # # # # % + & # #                                         # 2 # # @ + % # # # # # # # # # # # # # # # # # # % % + @ & $ # %                                                                             &+,., , > O.d f ' + } % # # # # ] + # % & ] & + % + 8 h @ 8 ^.                                                                    _.# @ % & # $ # # # # # # # # % # # # # % % + # ] @ # @ b                               U.] & $ & @ + % # # k k A C C C C # # & #                             7 # % @ % } % @ # # # # # # % + # @ $ % $                                 ] } % } } + % % # # # # # # # # # # # # % } ] + % s ~ , q                                                                 h # 3 # # V % + } } } + % # # # # # # # # # # # # # # # # # # # # # # # # # # % + @ & $ & & # ^ ;+                                                                              u ~ ! , @ # % % C k k k A A # # # # # # # # # # # # # # # # # # # # # # # # % + } @ @ @ @ @ M                                                               9.$ @ # $ % # @ # # # # # # # # # # # # # # # # # # # # # # # # # # # # # # # # # # # # # # # # # & + ",
"                                          ~ @ ] } # @ # # # # # # # # # # # # # # # # # # # + # % R                                       g # 8 % # $ # # # # # # # # # # # # # # # # # # # # % % } @ $ ] } w.                                                                      n.D.) , ,.O.C.'., , , , % % # # # + @ + # # # # # # # * @ + & $ } + & ^.                                                                  l.% @ @ # $ # # # # # # # # % # # # # % % + + } # @ @ #                                 ] } $ @ @ % % # # k k A C C C k # # + # P                             # # @ # ] & % # # # # # # % + % % # & + 3.                              ;+# # @ @ } + % # # # # # # # # # # # # # @ + $ $ , 5 4 M                                                                   * $ 3 # ] % % } @ } % # # # # # # # # # # # # # # # # # # # # # # # # # # # % } & ] ] ] $ $                                                                                   f 4 9 ' @ } # # k k k k A A # # # # # # # # # # # # # # # # # # # # # # # # # % + } @ @ @ @ q                                                               , ^ % } # # % # # # # # # # # # # # # # # # # # # # # # # # # # # # # # # # # # # # # # # # # # % & # ",
"                                        Z % $ & * # ] ] # # # # # # # # # # # # # # # # # % ^ % V                                         % @ # 8 # ] # # # # # # # # # # # # # # # # # # # # % % } & ] ] (                                                                       D., > p %.9 ' , , ' : { + % % % % # # # # # % % % % % % # @ ] & @ ] 8 $ # $ G                                                                 % 9 & f % # # # # # # # # % # # # # % % + } # # +.& # E                               * @ & @ } % # # # # k k C C C k # # # @ !                             ] # $ # * 8 # # # # # # # % + $ % # ] % #                                 { _ @ @ } + % # # # # # # # # # # # % # @ # h +., r f , h.                                                                  [.# p + & $ $ $ @ % # # # # # # # # # # # # # # # # # # # # # # # # # # # % { $ r ] M ]                                                                                     , , f ~ # # # # k k k k k k # # # # # # # # # # # # # # # # # # # # # # # # # # % % 4 { { {                                                               v # h % }.# # ] # # # # # # # # # # # # # # # # # # # # # # # # # # # # # # # # # # # # # # # # # @ & , ",
"                                        @ & @ } + % % % % # # # # # # # # # # % % # # , ' , 9., :.                                       .@ } + + % % # # # # # # # # # # # # # # # # % % @ # # * + # 3 %                                                                     7.+ ~ @ ! } f & 5 & 9 @ ~ @ # # # # # # # # % % # # # % @ & % % % % % % % % # ^ } # *.                                                              , m a., % % & } # % & # # # # # # # # # ] # # ] } # 3 F.                              , 9 r , r , 5 , % # # # # # # # # # * # 1.                          ..m ! , 5 ! , # # # # # # # # ] # 8 & + } B.                              &+) S # 8 ^ # % # # # # # # # # # # # # % % + + } @ } 8 #                                                                       %.{ } # # & ] @ % % # % % % # # # % # # # # % % # # % # # % @ @ % # { , , :.C., 6+                                                                                    8 # 3 # # & # # # # # # # # # # # # # # # # # # # # # # # # # # # # # # # , , , { { ~ a.a.d P.                                                              & ] ] & @ + % # # # # # # # # # # # # # # # # # # # # # # # # # # # # # # # # # # # # # # % % # # _ , Q#",
"                                        % & @ } + % % % % # # # # # # # # # # % % % # ' ! , s ' q#                                      ] } } + % % % # # # # # # # # # # # # # # # % % % # @ % # 8 } *                                                                   I 3 # # * * @ + @ @ @ @ @ } } } # # # # # # # # % % # # # % @ @ @ @ @ @ @ @ @ @ * } @ ] # &                                                             0., < 9 , # # # # % & # # # # # # # # # @ # # } # # @ 4.                              _., .., ' { , , ! # # # # # # # # # @ # 4.                            4 5 ' ' 5 M # # # # # # # # & # 8 @ % # (.                                ' _ # ^ @ # } # # # # # # # # # # # # % % % + } } % @ @ (                                                                       y.! * 8 # # } @ # # # # % % % % % % % % % % % % % # + } # # # # ] , Q#d , b.                                                                                      u.# # 3 @ + ] # # # # # # # # # # # # # # # # # # # # # # # # # # # # # # # , , ' , b.'.X ,.J+W#                                                            1.% & & @ } % % # # # # # # # # # # # # # # # # # # # # # # # # # # # # # # # # # # # # # % % % % % X , n.",
"                                      * & & @ } % % # # # # # # # # # # # # % + } + % 4 { , _ %.                                      I # + + + % % % # # # # # # # # # # # # # # % % % % # + } # * + V                                                                 T @ + @ 8 ] } # # } } } + + + + % # # # # # # # # % % # # # % } @ } } } } } } } } $ # # * ^ # & (.                                                          D.b.9 ! # # # # } & # # # # # # # # # % & & % % @ } #                                 , t 9 , M , ' , # # # # # # # # + % # ^                             f 9 9 , 9 S # # # # # # # # } # ] + % # 8                                 %.~ & +.% # & # # # # # # # # # # # # % % % + + + + % * #                                                                           c % ] * # # ] } % # # # # # # # # # # # # # # # # # } ] ] @ % , , , D                                                                                         + # } ] @ & $ # # # # # # # # # # # # # # # # # # # # # # # # # # # # # # # , , { , ,.'.: a.%$                                                              ] } } + + % % % # # # # # # # # # # # # # # # # # # # # # # # # # # # # # # # # # # # % % + + + + + , )   ",
"                                      # h @ @ } % % # # # # # # # # # # # % + @ @ } + { ~ ! f [                                       8 # + % % % % # # # # # # # # # # # # # # # % % % + 8 # % + % @                                                                 , ' # @ @ # # # % @ % % % % % % % % # # # # # # # # % % # # # % + } # # # # # # # # # + @ % % & & # h                                                           > , 5 + ] 8 } @ & # # # # # # # # # # } @ # % ] & # b                               |.4 s , 9 , ! , # # # # # # # # + # @ * V                           `.! M { 5 5 # # # # # # # # % # @ # % # # (.                              !#, & 3 % # & # # # # # # # # # # # # # % % % % + + # & ] V                                                                             7 @ } % # @ @ & $ ] $ @ % + } @ @ @ & & & * @ # # # # # # d -+                                                                                          . # } @ # % % % % # # # # # # # # # # # # # # # # # # # # # # # # # # # # # # , , 4 4 %.: Y , &$                                                            I # & # # # # # # # # # # # # # # # # # # # # # # # # # # # # # # # # # # # # # # # # % % + } @ @ } } X q.  ",
"                                    ( ^ $ @ @ + % # # # # # # # # # # # # % } @ @ @ } ~ 9 f ,                                       <.# % % % % % % # # # # # # # # # # # # # # % % + + } +.% @ * # /                                                             5., 8.~ # # # # # % % # # # # # # # % % # # # # # # # # % # # # # % % % # # # # # # # # # # # } # # & 7 # ] d.                                                      i., { + ^ +.@ + @ % # # # # # # # # # # # # # # + $ +                                 , m { , ! ! , # # # # # # # # # # % ] +                             r ~ m _ , # # # # # # # # % # % # % } # ]                                 9 # ] } # @ # % # # # # # # # # # # # % % % % % # # # ( # c                                                                               1 4.h } @ $ 8 8 & # # % + } @ @ } + % # # * 8 % + V 1                                                                                               # @ ] % # } # # @ # # # # # # # # # # # # # # # # # # # # # # # # # # # # # # , , , 5 '., C.,                                                               ] # @ # # # # # # # % # # # # # # # # # # # # # # # # # # # # # # # # # # # # # # # # + + } @ @ @ @ @ , A#  ",
"                                    # V # @ } + % # # # # # # # # # # # # % } @ @ @ } ~ 9 4 E                                       ] # # % % % # # # # # # # # # # # # # # # # % % + } } # $ & + @                                                             _., _ ..f & & @ } & & # # # # # # # # # % # # # # # # # # # # # # % % % % # # # # # # # # % # # ] }.8 # # * * # 7                                                       n { # & * } % } % # # # # # # # # + # # % # # % +.# 3                               r { ~ , { ! ' # # # # # # # # % # # @ % /                           g., ~ r , # # # # # # # # % % # # # @ @ % G                               k.% # @ # % % + # # # # # # # # # # # # # % % % # % + * @ %                                                                                     R V @ # # } ] * % % # # # % + } $ ^ h V 1.                                                                                                  ] } ] @ % @ 8 # # % # # # # # # # # # # # # # # # # # # # # # # # # # # # # # # , , , 9 X , %.Q#                                                            ^.@ # } # # # # # # # % # # # # # # # # # # # # # # # # # # # # # # # # # # # # # # # # + + } @ @ @ @ @ ,     ",
"                                  = # h # @ } + % # # # # # # # # # # # # % + @ @ @ } ~ 9 ,                                         # $ # # # # # # # # # # # # # # # # # # # # % + } @ @ # h % #                                                             f ' 0 f , 5 % # # # # % % + # # # # # % % % # # # # # # # # # # # % % # # # % % % % % % % % # ] 8 # # % & @ # @ 3 % ]                                                       :.$ @ ] @ } @ # # # # # # # # # } % % } % # } * % %                                 ' ~ , , ! , # # # # # # # # + # @ @ @ *                             5 , f , # # # # # # # # % % # # # % ] % ^                                 b # ] # # + # # # # # # # # # # # # # # # # # % $ @ # +.% 3                                                                                           M._.0 E S m r r S :.).y.Z                                                                                                         G # * @ % + $ $ + # # # # # # # # # # # # # # # # # # # # # # # # # # # # # # # # , , , , X ,.X                                                               * } # + # # # # # # # # # # # # # # # # # # # # # # # # # # # # # # # # # # # # # # # # % + } @ @ @ @ @ =+    ",
"                                  } ^ @ $ @ } % % # # # # # # # # # # # # % + @ @ } + { ~ {                                       * # 8 # # # # # # # # # # # # # # # # # # # # % + } @ @ } . # ]                                                           [.M E f ! M r # # # @ + # # } # # # # # % % % # # # # # # # # # # % % % # # # # # # # # # # # + # # % $ $ @ @ ] @ # 8 * # M.                                                  S.. ] ] ] ] & # # # # # # # # # # # # # # + + % % @ }                               { ~ f , ! , # # # # # # # # # # ^ @ + + f.                          x., s f # # # # # # # # % + % % # # 8 # # G                               ^.% h # # } # # # # # # # # # # # # # # # # # # } # } h % @ r.                                                                                                                                                                                                                          # # # + + & + # % @ # # # # # # # # # # # # # # # # # # # # # # # # # # # # # # # , , ~ , a.m.,                                                               } # @ # # # # # # # # # # # # # # # # # # # # # # # # # # # # # # # # # # # # # # # # # % + } @ @ @ } }       ",
"                                  # b # @ & & @ } % % # # # # # # # # # # # $ # $ * # 9 ! M.                                      # +.# # # # # # # # # # # # # # # # # # # # % + + } + + ^ # #                                                           E _ f _ m M f r # # # # # # # # # # # # # # # # # # # # # # # # # # # # # # # # # # # # # # # # % % % + } @ @ @ & + & * * $ p P                                                   V ] # 8 # $ # # # # # # # # # # # # # % % } } @ ^ #                               k.~ , , M , # # % % % # # # # # @ # ^ } 3                             ! f , # # # # # # # # # # # # % % + } $ &                                 ( # % # # # # # # # # # % } # # # # # # # # # % % + @ & $ $                                                                                                                                                                                                                         h 8 @ @ $ $ & @ + % % # # # # # # # # # # # # # # # # # # # # # # # # # # # # % % % , , ' , b.: .$                                                            2 # % } # # # # # # # # # # # # # # # # # # # # # # # # # # # # # # # # # # # # # # # # # # # # 3 # # # *       ",
"                                ( & @ @ } @ @ } + % % # # # # # # # # # # # % # ] @ @ 9 ~                                       = % # @ % # # # # # # # # # # # # # # # # # % % % % % # # } } V                                                         0 s f ~ f f 9 ~ 9 # # # # # # # # # # # # # # # # # # # # # # # # # # # # # # # # # # # # # # # # # # % % + } } @ @ % @ ^ ] + 5 ..8.                                                  @ & ] # + @ # # # # # # # # # # # # % % + } ] # } 4.                              r 4 ~ 9 , # % % % # # # # + # @ # $ % #                             M E , % % # # % + % # # # # # % % + } @ #                                   * # $ } # % % % % # # # % # # # # # # # # # % % + } @ @ @ M                                                                                                                                                                                                                     ( @ +.# # @ @ @ } + % % # # # # # # # # # # # # # # # # # # # # # # # # # # # # % % % ' , 4 { '.O.                                                              & % % % % # # # # # # # # # # # # # # # # # # # # # # # # # # # # # # # # # # # # # # # # % @ % ^ + ] + r.      ",
"                                # ] # % @ % % % % % # # # # # # # # # # # % # # ] # 8 4 c.                                      ] ] # @ @ # # # # # # # # # # # # # # # # # # # % % % % % % +                                                         E , M { ' 4 { ! ' ! # # # # # # # # # # # # # # # # # # # # # # # # # # # # # # # # # # # # # # # # # # # % % % + + + # + $ @ # , 5 , _                                                 = $ # ] # + # # # # # # # # % % # # # % % % $ # } # B.                            7.4 r ' ! % % % % # # # # + # & # } @ # 4.                          ` , ' + + + } @ @ + % # # # # % % + } 8 # 2                                 }.% } 8 # $ ] & } # # # # # # # # # # # # % % % % % % + + , S                                                                                                                                                                                                                 ^.# 2 + # * + + % % % % % % # # # # # # # # # # # # # # # # # # # # # # # # # # # % % % ! ' 4 ' '.0.                                                            b # & % # @ # # # # # # # # # # # # # # # # # # # # # # # # # # # # # # # # # # # # # # # # # @ + % & & %         ",
"                              r.# # ] # @ # # # # # # # # # # # # # # # # % @ # $ } @ ,                                       o + & } % # # # # # # # # # # # # # # # # # # # # % + @ @ & # b                                                       m , 9.9 ' , ' ! , , , # # # # # # # # # # # # # # # # # # # # # # # # # # # # # # # # # # # # # # # # # # # # # % % % # # % @ % # , , 5 , m.                                                 .# +.} # # # # # # # # # % % % # # # % % # V # # V                               s ' { 5 + % % % # # # # # # ] % % * # #                             , 4 } } } @ $ @ + # # # # # # % % + ^ & #                                   & @ + h 8 ] ] @ % # # # # # # # # # # # % % # # # # # # M , M                                                                                                                                                                                                               % ] }.# # ] # # # # # # % % # # # # # # # # # # # # # # # # # # # # # # # # # # % % + + 4 4 f , O.                                                              # # $ # # % # # # # # # # # # # # # # # # # # # # # # # # # # # # # # # # # # # # # # # # # # % @ # & # 8         ",
"                              @ @ # +.# + # # # # # # # # # # # # # # # # # * % # 8 # _                                       * @ ] + $ # # # # # # # # # # # # # # # # # # # # # % + } @ %                                                       0 , M , 9 ' , ' ! , , , # # # # # # # # # # # # # # # # # # # # # # # # # # # # # # # # # # # # # # # # # # # # # # # # # # # + % # , , , ~ , c+                                                } # * % # # # # # # # # % % % # # # % % # +.# % } c                             R., _ m @ } % % # # # # # # ] % # h 8 # n                           6 ! } } } @ & @ % # % % # # # % % + % ^ @ h                                 b * # 4.$ $ & } # # # # # # # # # # # # # # # # # # # # ~ , m 5.                                                                                                                                                                                                          m ] ] # * @ # # # # # # # # # # # # # # # # # # # # # # # # # # # # # # # # # # # % + } } { { m , C#                                                            W.% % + # % # # # # # # # # # # # # # # # # # # # # # # # # # # # # # # # # # # # # # # # # # + % ] & $ # 1.        ",
"                            k.] # + & # # # # # # # # # # # # # # # # # # # ] % # ^ # `.                                      % # +.# 3 # # # # # # # # # # # # # # # # # % # # # # # % % r.                                                    |., S m , 9 ' , ' ! , , , # # # # # # # # # # # # # # # # # # # # # # # # # # # # # # # # # # # # # # # # # # # # # # # # # # # % % % ' ' ! , C.D.'.                                              F.# @ } # # # # # # # # % % # # # % % % @ # @ # # @                               M f ~ @ @ + # # # # # # # @ % # & 8 # ,                             { @ } } @ @ } % # % % % # # % % % # ^ 3 # w.                                @ $ @ @ @ @ % # # # % # # # # # # # # # # # # # # # # , { E , c.                                                                                                                                                                                                      :., 2 # # . # # # # # # # # # # # # # # # # # # # # # # # # # # # # # # # # # # # # % + @ @ ~ ~ { r                                                               , ] + # % } # # # # # # # # # # # # # # # # # # # # # # # # # # # # # # # # # # # # # # # # # % # & ] } #           ",
"                            s ] # @ % & # % % % % # # # # # # # # # # # # # # @ # $ *                                       5.# # * } & % # # # # # # # # # # # # # # # # # # # # % + @ $                                                     R., f m { T 9 ' , ' ! , , , # # # # # # # # # # # # # # # # # # # # # # # # # # # # # # # # # # # # # # # # % % % % % # # # % % % # # % ! ' , s > , , ^+                                              c # + # # # # # # # # # # # # % % + } $ # 8 # % @ G                             L 9 , & @ + # # # # % # % # % % # } } ' _.                          ` & @ } } @ } % % % % % # # % % % @ @ * % .                                 U.h % } @ @ + # # # % # # # # # # # # # # # # # # # # ! E , 5 ' N.                                                                                                                                                                                                  P m , & @ ] ] # ] # # # # # # # # # # # # # # # # # # # # # # # # # # # # # # # # # % % } @ @ 9 9 , v.                                                            k., @ @ # & % # # # # # # # # # # # # # # # # # # # # # # # # # # # # # # # # # # # # # # # # # # # % @ % 7           ",
"                            & # @ # @ @ # % % % % % # # # # # # # # # # # ] # ^ % @ R                                       p # * % b # @ # # # # # # # # # # # # # # # # # # # % @ ^ 3 }.                                                  6 , s m , ' 5 9 , , , ' , , , # # # # # # # # # # # # # # # # # # # # # # # # # # # # # # # # # # # # # # # # % % % % % % % % @ } % # # % ' , 4 ! , s D., 7+                                              # @ # # # # # # # # # # # # % % } } # @ # } & } }                               _ { $ @ + # # # # % # % # @ ] # # @ 9 ,                             ] & @ } } @ } % % % % # # # % % * # # }.} z.                                % 4.@ @ @ } % # # % # # # # # # # # # # # # # % % % , ~ _ 4 _ 9 N.                                                                                                                                                                                              n , ..4 # 8 % # ^ # % % % # # # # # # # # # # # # # # # # # # # # # # # # # # # # # # % % } @ @ 5 5 4                                                               f S # ] % ^ # # # # # # # # # # # # # # # # # # # # # # # # # # # # # # # # # # # # # # # # # # % } + @ 5 M.          ",
"                          * ] ] z -.k k C # # # # # # # # # # # # # # # # M , , T ,                                       u.* # 8 ^ @ } + # # # # # # # # # # # % % % # # % % @ # } } ,                                                     t.# % * ] } & # # # # # # # # # # # # # # # # # # # # # # # # # # # # # # # # # # # # # # # # # # # # # # # # # # # # # # # # # # # # # # # # # # @ 3 s ' f 2.                                              , , , ! 4 , , ! , # # # # # % % % % % % # % $ 2 (                              +: 9 # % % @ % # ] % % + } @ @ @ & # 3 *                             % # 3 # # @ + % # # # # % } @ , f 5 M ~ {                                   , { ! ~ ' , , ~ , # # % % % # # # # # # # # # # # # } ^ ] + @ }.r.                                                                                                                                                                                          R # h # + @ $ $ @ + # # # # # # # # # # # # # # # # # # # # # # # # # # # # # # # # # , ! 4 { f ~ , _ h.                                                            G + } @ & @ @ % % # # # # # # # # # # # # # # # # # # # # # # # # # # # # # # # # # # # # # # , , ' , f , %.            ",
"                          $ @ -.{.x k A @+# # # # # # # # # # # # # # # # ' , m { 8.                                      t.@ % ] $ + } } # # # # # # # # # # # # % % % # # @ # # 2 # L                                                   ( @ # # ] & + @ # # # # # # # # # # # # # # # # # # # # # # # # # # # # # # # # # # # # # # # # # # # # # # # # # # # # # # # # # # # # # # # # # # + ] @ # + h l                                             P ' { f , 4 r ! ! # # # # # % % % + % # # % @ $ ]                               ,., % ] # # + # % # # % % + + } } # # 3                             ] ^ # # ] # + % # # # # % } @ , ~ , 4 { , &.                                |., t r , M f , , # % % % # # # # # # # # # # # # # + @ + # % & * 3.                                                                                                                                                                                      ( @ * + # % + @ @ + % # # # # # # # # # # # # # # # # # # # # # # # # # # # # # # # # # , ' 5 { ' , 2.,                                                               3 % + @ @ @ } % # # # # # # # # # # # # # # # # # # # # # # # # # # # # # # # # # # # # # # # , , , 9 > b.b#            ",
"                        c % % $.x C k A @+# # # # # # # # # # # # # # # # , ' 2.,                                         @ # } ] % % @ % # # # # # # # # # # # # % % % % } * # # }.#                                                   l.@ % % } } % # % # # # # # # # # # # # # # # # # # # # # # # # # # # # # # # # # # # # # # # # # # # # # # # # # # # # # # # # # # # # # # # # # # % + + % % % + {                                               s , r ' ~ m , ' # # # # # # % % + # # # } @ % #  .                            -+, } h # # @ # # # # # # # % % % } # 3 R                           o + @ @ * # + # # # # # % + } ' 4 , , { , ..                                  9 5 9 ~ 9 f 5 ~ % % % % # # # # # # # # # # # # } % # # # # # # # (.                                                                                                                                                                                   .# # 8 # # # # % % # # # # # # # # # # # # # # # # # # # # # # # # # # # # # # # # # # # ' ! { ~ ' 9 S 8.                                                              # % % + } } % % # # # # # # # # # # # # # # # # # # # # # # # # # # # # # # # # # # # # # # # , , , 9 '.,               ",
"                        & # % $.$.k k A B # # # # # # # # # # # # # # # # , f 9.'                                        .# # @ @ # % @ # # # # # # # # # # # # # % % % + @ ^ % & + r.                                                r.] $ ] $ % # # % + # # # # # # # # # # # # # # # # # # # # # # # # # # # # # # # # # # # # # # # # # # # # # # # # # # # # # # # # # # # # # # # # # @ @ # % & @ # m ,                                             L., { p ~ { , ' # # # # # # # # # # # % @ & @ + +                               { # ] % # $ # # # # # # # # % % # 8 @ ]                             + V h } # % # # # # # % % + ! { , , ~ , ' J                                   , , |., , 2.~ + % % % # # # # # # # # # # # # % # # # % + % # @ # V                                                                                                                                                                               * + 8 @ # % # # # # # # # # # # # # # # # # # # # # # # # # # # # # # # # # # # # # # # # # , 5 , { M S ,                                                               }.% % % % % % % # # # # # # # # # # # # # # # # # # # # # # # # # # # # # # # # # # # # # # # # , , , , : ,               ",
"                      <.# % } -.$.k k A A # # # # # # # # # # # # # # # # ' f , e                                       # $ } & } # @ & # # # # # # # # # # # # # % % } @ } # 8 ] #                                                   @ ] # + # # # % @ } # # # # # # # # # # # # # # # # # # # # # # # # # # # # # # # # # # # # # # # # # # # # # # # # # # # # # # # # # # # # # # # # # @ @ # % ] $ # , 5 5                                             0 , ..5 4 ' 4 # # # # # # # # # # % + % } $ ^ # (                             Q # # @ + + # } # # # # # % % % # V # % c                             @ ] } @ # # # # # # # % % ' 4 , , 4 9 { 5 L.                                F , 9.! , p , @ } % % # # # # # # # # # # # # # # % + + + % % 8 @ # *                                                                                                                                                                           7 # # @ & } # % % # # # # % % # # # # # # # # # # # # # # # # # # # # # # # # # # # # # # # # , r , ! _ , l                                                               # @ % % % % % # # # # # # # # # # # # # # # # # # # # # # # # # # # # # # # # # # # # # # # # # , , , { , #+              ",
"                      @ @ } & {.$.k k A A # # # # # # # # # # # # # # # # , ! ,                                         # * @ @ } % @ & # # # # # # # # # # # # # # + @ @ @ # ] & V                                                 + +.# # # # # % @ + # # # # # # # # # # # # # # # # # # # # # # # # # # # # # # # # # # # # # # # # # # # # # # # # # # # # # # # # # # # # # # # # # # % % # % & @ # { M , 7.                                            ~ 9 ~ { _ , % % # # # # # # # % + % # # @ 8 $ #                               +.# % + # # } % % % % % % % % # 3 % # &                             # # * $ # # # # # # # # # , , , , , 9 _ f '                                   M , :._ , ' @ @ + # # # # # # # # # # # # # # % } + # # # % $ # ^ @ # F.                                                                                                                                                                  ` # @ h ] # } ] # % % % # # % % % # # # # # # # # # # # # # # # # # # # # # # # # # # # # # # # # , 5 M 4 M ~                                                               ( # } % % % % % # # # # # # # # # # # # # # # # # # # # # # # # # # # # # # # # # # # # # # # # # , , , 9 ,                 ",
"                      # * % & {.C k C B A # # # # # # # # # # # # # # # # ! , 8.                                      V } ] # % & } } @ # # # # # # # # # % # # # # + @ & } @ % ^                                                 u.# ^ # ] @ % } @ % # # # # # # # # # # # # # # # # # # # # # # # # # # # # # # # # # # # # # # # # # # # # # # # # # # # # # # # # # # # # # # # # # # # % % % % % % % 9., J , H                                             f f , 5 , % % % # # # # # # % % # # % } @ ] + g                             <.# # # # # % % % % % % % % % % ] ] @ @ R                             $ h @ % # # # # # # # # ' , ' , , { r ~ , y.                                  ' T s , f & @ + # # # # % # # # # # # # # # # % # # # # # # 2 8 # + # 1.                                                                                                                                                              c., & + ] +.$ } @ # % % % % % % % % # # # # # # # # # # # # # # # # # # # # # # # # # # # # # # # # ' , m 5 T                                                                 & + + + + % % % % % % # # # # # # # # # # # # # # # # # # # # # # # # # # # # # # # # # # # # # # , , ' , D                 ",
"                    J # +.# @ >.k k C @+A # # # # # # # # # # # # # # # # 9 , `                                       # $ % # # ] @ % @ + # # # # # # # # % # # # # + @ $ # * # b                                                 } 3 @ 3 ] % # # # # # + # # # # # # # # # # # # # # # # # # # # # # # # # # # # # # # # # # # # # # # # # # # # # # # # # # # # # # # # # # # # # # # # % % } @ + # # + , m m 5 9                                             8.T , ! ~ % % % # # # # # % # # % @ ] & @ # h #                               ^ # # } % # # # # # # # # # # + } V @ #                             ( $ # % # # # # # # # # ~ ' { 4 , 4 5 , |.,                                   g., 4 f M $ @ + # # # # % # # # # # # # # # # # # % + + % 3 % @ h ] 8 ^ #                                                                                                                                                           5 , A.V @ } ] @ + % # # # # % % # # # # # # # # # # # # # # # # # # # # # # # # # # # # # # # # # # # f , f _ n                                                               ( # } + } + % % % % % % # # # # # # # # # # # # # # # # # # # # # # # # # # # # # # # # # # # # # # , , r ,                   ",
"                    , +.# % % C C C C B B # # # # # # # # # @ @ # # @ & # M '                                       R # 8 % % % % % % % % # # # # # # # # % % % # # } + # % * #                                                 ] . ^ # +.} % # # % % % # # # # # # # # # # # # # # # # # # # # # # # # # # # # # # # # # # # # # # # # # # # # # # # # # # # # # # # # # # # # # # # # # # # # # # # # # , p ! ! s 5                                             , A., , 8 # # % & % # # # # # # # % % % + 3 & #                             u.# } @ # ] % # # # % % # # + h } % # $ t.                            # $ % & # + ] # # +.# , , , , ' 4 9 5 , 9.{                                   7., f p # & @ # # # # % # # # # # # # # # # # # # # # # + } @ @ } @ $ ] ! F                                                                                                                                                   8., f m , @ ] $ + + & @ % # # # # # # # # # # # # # # # # # # # # # # # # # # # # # # # # # $ # # + # # ^ 9 , :.,                                                                 * # } # # # # # # # # # # # # # # # # # # # # # # # # # # # # # # # # # # # # # # # # # # # % # @ & , f { {                   ",
"                  N.4 % } % % C C C C B B # # # # # # # # % # % + # # } % , 7.                                      * @ + % % % % % % % % # # # # # # # # # % % # % @ @ + @ # (                                               <.h # # @ & } % # # % % % # # # # # # # # # # # # # # # # # # # # # # # # # # # # # # # # # # # # # # # # # # # # # # # # # # # # # # # # # # # # # # # # # # # # # # # # # , r ' ! f , P                                           M., T ~ # $ ] # # & & # # # # # # % % % } # % @ f.                            8 + @ ] } % % # # # % # # # $ % ] @ % $                             1.# * # # @ * # # } % , , , , ' 4 ~ 5 ' 5 , F                                   E , ..% $ } # + } # # # # # # # # # # # # # # # # # # # # % % # % + @ , , M                                                                                                                                               , , s ~ , 4 # } } # # % % # # # # # # # # # # # # # # # # # # # # # # # # # # # # # # # # # # + # # $ }.* @ r ..~                                                                 <.# % % % # # # # # # # # # # # # # # # # # # # # # # # # # # # # # # # # # # # # # # # # @ # @ # # @ , r , k.                  ",
"                  , M # } % % C C C C B B # # # # # # # # } # # ] # # @ % ,                                         # * # % % % % % % % % # # # # # # # # # % % # + $ ] @ @ #                                                 # ] # # ] # } % # # % % % # # # # # # # # # # # # # # # # # # # # # # # # # # # # # # # # # # # # # # # # # # # # # # # # # # # # # # # # # # # # # # # # # # # # # # # # # , ! , 4 f , 4 2.                                          r M _ # $ ] % # @ + # # # # # # # % % & # # ^ +                             /.# @ ] # } % # # # % # # # @ # * ] # # .                             # $ % # + ] + # # @ ' , , , ' 4 ~ 5 5 4 ~ ,                                     4 ' ] $ % # # @ % # # # # # # # # # # # # # # # # # # # # # # # # + & * & # .                                                                                                                                       9 , f A.p , , 5 # % % # # # # # # # # # # # # # # # # # # # # # # # # # # # # # # # # # # # # # % # # % } * * % p 9.c.                                                                * # * % } # # # # # # # # # # # # # # # # # # # # # # # # # # # # # # # # # # # # # # # # @ # ] + # $ 5 M ,                     ",
"                ++, ' } # # # k k k k A A # # # # # # # # + # % ] # @ * # 8.                                      . % 8 @ # # # # # # # # # # # # # # # # # % % # % & $ } % *                                               9.$ # @ * # # } % # # % % % # # # # # # # # # # # # # # # # # # # # # # # # # # # # # # # # # # # # # # # # # # # # # # # # # # # # # # # # # # # # # # # # # # # # # # # # # , , ' ! 9 s m , R.                                          , M 3 % # ] * % # # # # # # # # # # % $ # @ + (.                            3 @ % $ @ + # # # % # # % $ # 8 & # ^ % /.                          <.# * @ % # @ ] # # ' ' , , ' 4 ~ 9 9 4 _ r S                                     , ] @ + # # # % # # # # # # # # # # # # # # # # # # # % # # # % } } ] +.^ # & *.                                                                                                                              2., , T T , , _ s ' # % % # # % % # # # # # # # # # # # # # # # # # # # # # # # # # # # # # # # # # & # # ^ # # $ 8 r m                                                                 F.+ # 2 % # # # # # # # # # # # # # # # # # # # # # # # # # # # # # # # # # # # # # # # # # % # ] @ # ^ f 4 :.                    ",
"                M T , & # # # k k k k A A # # # # # # # # % # } @ % 8 ^ #                                         } * # ] # # # # # # # # # # # # # # # # % % % # # } } # #                                                 , 3 # $ h # # } % # # % % % # # # # # # # # # # # # # # # # # # # # # # # # # # # # # # # # # # # # # # # # # # # # # # # # # # # # # # # # # # # # # # # # # # # # # # # # # ' 4 M 4 , r s , ,                                           5.! 3 } + * * # # @ # # # # # # # # # ] # # * #                               % % }.& } # # # # # # @ & # @ + # . % #                             ] } @ ] # @ 2 # # ! ' , , ' ! { ~ 4 , 9 2., x.                                  [.% # % $ # # @ # # # # # # # # # # # # # # # # # # % % % # # % } ] # # * 2 % # # 3.                                                                                                                      2., , _ T 5 , , 4 r f ' % % % % % % % % # # # # # # # # # # # # # # # # # # # # # # # # # # # # # # # # # # + ^ % @ h $ M                                                                   ] $ % $ # # # # # # # # # # # # # # # # # # # # # # # # # # # # # # # # # # # # # # # # # # % # @ & & ^ , ,                       ",
"                , _ ! # } # # k k k k A A # # # # # # # # # @ + # % @ @ +                                       1 + }.# $ # # # # # # # # # # # # # # # # % % % # # + + # &                                               5 J # ] # # % # } % # # % % % # # # # # # # # # # # # # # # # # # # # # # # # # # # # # # # # # # # # # # # # # # # # # # # # # # # # # # # # # # # # # # # # # # # # # # # # # , 4 m f , 5 _ , 5 S                                           ..# $ * & # # % & % % # # # # # # # % # # ] ^ s                             V @ @ $ @ % # # # # # # % @ # + # h # # d.                            # # V @ % h # # ! ! ' , ' ! { ~ f ' { ~ { r                                     b # # $ # # + # # # # # # # # # # # # # # # # # # # % # # # # % ] 8 ] % # # & 2 # + t.                                                                                                              m , , _ s f , , S T ~ , , 9 # # # % % # # % # # # # # # # # # # # # # # # # # # # # # # # # # # # # # # # # # % @ # % +.h # k.                                                                = # ^ % % @ % # # # # # # # # # # # # # # # # # # # # # # # # # # # # # # # # # # # # # # # # + # @ @ ^ @ , 9.                      ",
"              n , ' 9 # & # # k k k k A A # # # # # # # # # @ # # ] # + /                                       $ + * # @ # # # # # # # # # # # # # # # # % % % # % @ @ % B.                                              , 0 # 8 # # $ % } % # # % % % # # # # # # # # # # # # # # # # # # # # # # # # # # # # # # # # # # # # # # # # # # # # # # # # # # # # # # # # # # # # # # # # # # # # # # # # # , ' 9 M f 5 5 f T 5 ..                                          @ $ $ % # # # % % % % # # # # # # % @ % @ +.,                               +.# ] @ % # # # % # # # * # & % % # ] #                             c # +.] # 8 # + 4 ! ' , ' ! 4 ~ M ~ M , S T r                                     r.# % # # % # # # # # # # # # # # # # # # # # # # % # # # # % # @ $ % % @ % # @ % # % 2 =                                                                                                   x., , , 4 f ~ ' ! m m { , , f m 9 # # # % % # # + # # # # # # # # # # # # # # # # # # # # # # # # # # # # # # # # # } % # + @ +.r.                                                                  3 % $ } @ @ } # # # # # # # # # # # # # # # # # # # # # # # # # # # # # # # # # # # # # # # # # @ } # * % ' L.                      ",
"              5 { ! { # } # # k k k k k k k # # # # # # # # + # } 3 # $                                         # % } ] @ # # # # # # # # # # # # # # # # # % % # % $ $ @                                               ! 9., $ % * # $ + } % # # % % % # # # # # # # # # # # # # # # # # # # # # # # # # # # # # # # # # # # # # # # # # # # # # # # # # # # # # # # # # # # # # # # # # # # # # # # # # 9 4 , ! f ' , 9 , s s ..                                        F r , ] 9.@ # # % % % # # # # # # @ # # ] # A.{                             r.% ] @ % # # # % % @ # 3 # 8 $ # $ @ $ b                             @ % + % * # + 4 ! ' , , ! 4 { , ~ _ , 5 r , 8.                                    $ # # # & # # # # # # # # # # # # # # # # # % % % % # # % + @ % # % @ ] @ % % # % % # # $ (                                                                                         J ~ ' , r 9 9 f 9 , , ~ { , , M m { , ! % # # + } # # @ # # # # # # # # # # # # # # # # # # # # # # # # # # # # # # # # } # # * ^ # g                                                                   G # h # @ ] # # # # # # # # # # # # # # # # # # # # # # # # # # # # # # # # # # # # # # # # # # # @ % # * # m                         ",
"            d.% @ # ] % # # # # # # # # k k k k k k k # # @ # s , ! ! ..                                      * # } ] # % # # # # # # # # # # # # # # # # } # } # % % #  .                                            R # } + % % # # # # # # # # # # # # # # # # # # # # # # # # # # # # # # # # # # # # # # # # # # # # # # # # # # # # # # # # # # # # # # # # # # # # # # # # # # # # # # # # # # # # # # # # # # # # # ^ 3 # b                                         C., , G.5 , ~ , , # # # # # # % # # # % @ & ] G                             , f ~ , S 9 , p , + % % # # # # % % V #                             k.f , s 9 , ' # # # # # % % % # # # % + @ $ ] h.                                    @ @ }.# * + @ } # # # % # # # # # # # # # # # # # # # # # # # # # # # # # % # # # # % % + % % 0                                                                           r.V @ # # } + # # # # # # # # # # # # # # # # # # # # # # # # # # # # # # # # # # # # # # # # # # # # # # # # # 9 ' , 4 ~ ~ 9 M 9 9 s 5 t f                                                                     & & & @ @ } + % # # # # # # # # # # # # # # # # # # # # # # # # # # # # # # # # # # # # # # # # , M { 5 { , J                         ",
"            3 # + # @ # % # # # # # # # k k A k k k k # # # } ~ r , ' a+                                      @ ] # @ ] # # # # # # # # # # # # # # # # # % # % # } } #                                               b % } + % % # # # # # # # # # # # # # # # # # # # # # # # # # # # # # # # # # # # # # # # # # # # # # # # # # # # # # # # # # # # # # # # # # # # # # # # # # # # # # # # # # # # # # # # # # # # # } # & @ @                                           , ].) : , , , , % % % % % % # # # % + @ $ ] ^                             [.{ 5 , , , ~ m , + % % # # # # % + % h 8                             ..m { 9 , ~ # # # % % % % % # # # # % + } @ p                                       # # ] 8 +.& % + @ + # # # # # # # # # # # # # # # # # # # # # # # # # # % # # # # % % + ] # # # } ] ( U.                                                        a b % # h @ # # # % # # # # # # # # # # # # # # # # # # # # # # # # # # # # # # # # # # # # # # # # # # # # # # # # # # ! , , ' { 4 4 9 t , 9 n ,                                                                      .@ @ @ @ } + % % # # # # # # # # # # # # # # # # # # # # # # # # # # # # # # # # # # # # # # # # , M , 9 f ,                           ",
"            # # + # % # @ # # # # # # # k k A k k k k # # # $ , 9 ~ '                                         # 3 # # 3 # # # # # # # # # # # # # # # # # # # # + @ % b                                             ( ] & } + % % # # # # # # # # # # # # # # # # # # # # # # # # # # # # # # # # # # # # # # # # # # # # # # # # # # # # # # # # # # # # # # # # # # # # # # # # # # # # # # # # # # # # # # # # # # # # ] # @ h # %                                         P.a.b.b.{ ' , , # % % % % + # # # % } & ] 8 # I                             r ' ~ , , 5 ~ ! + % % # # # # % @ } h # /                             , 9 , 4 , # # % % % % % % % # # # # % % + 5 '                                       ] # 2 h # # # + # # % # # # # # # # # # # # # # # # # # # # # # # # # % # # # # % % + @ @ ] 8 } # # ] $ & $ * ( G                               e.F n } % # # # % 8 }.+ # # # % % % % # # # # # # # # # # # # # # # # # # # # # # # # # # # # # # # # # # # # # # # # # # # # # # # # , , , ! ~ 4 4 { ! 4 M ' &.                                                                    # + } } } + % # # # # # # # # # # # # # # # # # # # # # # # # # # # # # # # # # # # # # # # # # # , M , _ r ,                           ",
"          ..# & @ % % # @ # # # # # # # k k A k k k k # # # # , , E J                                       3 # * % % +.# # # # # # # # # # # # # # # # # # # # + % #                                               # # 8 } + % % # # # # # # # # # # # # # # # # # # # # # # # # # # # # # # # # # # # # # # # # # # # # # # # # # # # # # # # # # # # # # # # # # # # # # # # # # # # # # # # # # # # # # # # # # # # # $ ] ] ] % # r.                                        , j.'.{ ! , , # # % % % % # # # % } & ] ^ ^ }                             &., 9 _ , ! , 4 + % % # # # # % @ $ } V #                             _., r M , # # # # # % % % # # # # % % + } m 9 n                                       % @ ] + # # # # # % # # # # # # # # # # # # # # # # # # # # # # # # % # # # # % % + # # @ ^ ] # # # # % ] * ] + # # , , , ' ' ! 4 ~ , , , , ' 4 ~ 9 @ $ ] $ } % + @ } @ @ } + % % + # # # # # # # # # # # # # # # # # # # # # # # # # # # # # # # # # # # # # # # # # # # # # # # # ' , , ~ f 9 ~ 9 { 5 ' 7.                                                                    }.# + + } } + % % # # # # # # # # # # # # # # # # # # # # # # # # # # # # # # # # # # # # # # # # # , 9 ' s 9 5.                          ",
"          ' % ] @ @ + # } # # # # # # # k k A k k k k # # } } , m 9                                         % @ % ] } @ # # # # # # # # # # # # # # # # # # # % % # %                                             V % } @ } + % % # # # # # # # # # # # # # # # # # # # # # # # # # # # # # # # # # # # # # # # # # # # # # # # # # # # # # # # # # # # # # # # # # # # # # # # # # # # # # # # # # # # # # # # # # # # # # * & % ^ @ + 4.                                      t#D.' , , , , # # # # # % # # # % + @ ] 8 3 # 4.                            p , T , 4 { , + % % # # # # % + # ^ @ $ 2                             ~ s 9 , # # # # # # # # # # # % + @ & $ ' J , L.                                      @ % ] ^ @ % % % # # # # # # # # # # # # # # # # # # # # # # # # # % # # # # % % + * $ + % + + @ ] @ @ @ @ + % % + ' 4 ~ ~ { { { ~ p _ 9 ! , , ! { ] $ @ } } @ $ ] + } + % # # # % # # # # # # # # # # # # # # # # # # # # # # # # # # # # # # # # # # # # # # # # # # # # # # # # ' , , 9 M f 9 5 J , v                                                                     F.# & + } } } } + + % # # # # # # # # # # # # # # # # # # # # # # # # # # # # # # # # # # # # # # # # , , { 4 !                             ",
"        5., % @ } + + % % # # # # # # # k k A k k k k # # # ] , t ,                                       N.% ] # 8 @ # % # # # # # # # # # # # # # # # # # % } # + *.                                            @ @ ^ # } + % % # # # # # # # # # # # # # # # # # # # # # # # # # # # # # # # # # # # # # # # # # # # # # # # # # # # # # # # # # # # # # # # # # # # # # # # # # # # # # # # # # # # # # # # # # # # # # 8 @ @ +.$ # } k.                                      G.' , ' , , # # # # # # % # # # % } & $ @ # #                               ~ 9 4 r r , + % % # # # # % # ] ] # . #                               , r , % % # # # # # # # # # % + @ $ ] ~ s t ,                                         % % # # % + % # # # # # # # # # # # # # # # # # # # # # # # # # % # # # # % % + # # # # # # % % # # @ ] ^ 8 $ @ 4 ~ 9 9 { ! ! 4 ' ! { ~ 5 f M M + % # # + @ + # % % # # # # # + # # # # # # # # # # # # # # # # # # # # # # # # # # # # # # # # # # # # # # # # # # # # # # # # ' , , { f 5 9 f , v.                                                                      8 & # + + } } } } + + # # # # # # # # # # # # # # # # # # # # # # # # # # # # # # # # # # # # # # # # ~ , ' , :.                            "};
